/* XPM */
static char * 1_xpm[] = {
"50 50 30 1",
" 	c #000000",
".	c #FFFFFF",
"+	c #E5E5E5",
"@	c #7A7A7A",
"#	c #F8F8F8",
"$	c #F6F6F6",
"%	c #A7A7A7",
"&	c #0D0D0D",
"*	c #FEFEFE",
"=	c #C8C8C8",
"-	c #474747",
";	c #E3E3E3",
">	c #777777",
",	c #F5F5F5",
"'	c #A3A3A3",
")	c #DBDBDB",
"!	c #454545",
"~	c #BBBBBB",
"{	c #5F5F5F",
"]	c #D5D5D5",
"^	c #2A2A2A",
"/	c #B6B6B6",
"(	c #FAFAFA",
"_	c #909090",
":	c #EEEEEE",
"<	c #626262",
"[	c #D7D7D7",
"}	c #C0C0C0",
"|	c #B9B9B9",
"1	c #FBFBFB",
"                                                  ",
"                                                  ",
"                                                  ",
"                                                  ",
"                                                  ",
"        .....................................     ",
"       ......................................     ",
"      ..............+@         #.............     ",
"     .............$%&          #.............     ",
"     ...........*=-            #.............     ",
"     ..........;>              #.............     ",
"     ........,'&               #.............     ",
"     .......)!                 #.............     ",
"     .......~                  #.............     ",
"     .......~                  #.............     ",
"     .......~                  #.............     ",
"     .......~      {]          #.............     ",
"     .......~    ^/(.          #.............     ",
"     .......~   _:...          #.............     ",
"     .......~ <[.....          #.............     ",
"     .......}|1......          #.............     ",
"     .......*........          #.............     ",
"     ................          #.............     ",
"     ................          #.............     ",
"     ................          #.............     ",
"     ................          #.............     ",
"     ................          #.............     ",
"     ................          #.............     ",
"     ................          #.............     ",
"     ................          #.............     ",
"     ................          #.............     ",
"     ................          #.............     ",
"     ................          #.............     ",
"     ................          #.............     ",
"     ................          #.............     ",
"     ................          #.............     ",
"     ................          #.............     ",
"     ................          #.............     ",
"     ................          #.............     ",
"     ................          #.............     ",
"     ................          #.............     ",
"     ................          #.............     ",
"     ................          #.............     ",
"     ................          #............      ",
"     ......................................       ",
"                                                  ",
"                                                  ",
"                                                  ",
"                                                  ",
"                                                  "};
