/* XPM */
static char * 2_xpm[] = {
"50 50 89 1",
" 	c #000000",
".	c #FFFFFF",
"+	c #EEEEEE",
"@	c #DADADA",
"#	c #C9C9C9",
"$	c #C2C2C2",
"%	c #BEBEBE",
"&	c #C5C5C5",
"*	c #D2D2D2",
"=	c #E6E6E6",
"-	c #FBFBFB",
";	c #E7E7E7",
">	c #A8A8A8",
",	c #585858",
"'	c #323232",
")	c #8C8C8C",
"!	c #CFCFCF",
"~	c #909090",
"{	c #535353",
"]	c #C7C7C7",
"^	c #FEFEFE",
"/	c #878787",
"(	c #F4F4F4",
"_	c #C8C8C8",
":	c #696969",
"<	c #F2F2F2",
"[	c #DBDBDB",
"}	c #161616",
"|	c #7E7E7E",
"1	c #FCFCFC",
"2	c #F8F8F8",
"3	c #BDBDBD",
"4	c #B8B8B8",
"5	c #3D3D3D",
"6	c #474747",
"7	c #8E8E8E",
"8	c #CBCBCB",
"9	c #D4D4D4",
"0	c #B5B5B5",
"a	c #C4C4C4",
"b	c #EFEFEF",
"c	c #565656",
"d	c #9B9B9B",
"e	c #ADADAD",
"f	c #D0D0D0",
"g	c #868686",
"h	c #222222",
"i	c #424242",
"j	c #FAFAFA",
"k	c #5C5C5C",
"l	c #1C1C1C",
"m	c #3B3B3B",
"n	c #4D4D4D",
"o	c #454545",
"p	c #CDCDCD",
"q	c #777777",
"r	c #AEAEAE",
"s	c #A9A9A9",
"t	c #E2E2E2",
"u	c #EAEAEA",
"v	c #4B4B4B",
"w	c #707070",
"x	c #DFDFDF",
"y	c #DDDDDD",
"z	c #262626",
"A	c #9F9F9F",
"B	c #B7B7B7",
"C	c #9A9A9A",
"D	c #606060",
"E	c #F1F1F1",
"F	c #F3F3F3",
"G	c #7A7A7A",
"H	c #636363",
"I	c #F0F0F0",
"J	c #5A5A5A",
"K	c #717171",
"L	c #D7D7D7",
"M	c #383838",
"N	c #898989",
"O	c #C0C0C0",
"P	c #0D0D0D",
"Q	c #A3A3A3",
"R	c #F6F6F6",
"S	c #858585",
"T	c #D6D6D6",
"U	c #ECECEC",
"V	c #666666",
"W	c #797979",
"X	c #7C7C7C",
"                                                  ",
"                                                  ",
"                                                  ",
"                                                  ",
"                                                  ",
"        .....................................     ",
"       .............+@#$%&*=-................     ",
"      ...........;>,        ')!-.............     ",
"     ..........+~              {]^...........     ",
"     .........*'                 /(..........     ",
"     ........_                    :<.........     ",
"     .......[}                     |1........     ",
"     ......2,                       3........     ",
"     ......4                        52.......     ",
"     .....-6          78906          8.......     ",
"     .....@          a....bc         d.......     ",
"     .....e         ~......f         :.......     ",
"     .....g         [......-h        i.......     ",
"     .....,        }j.......k        l.......     ",
"     .....m        n........5        o.......     ",
"     .....ppppppppp9.......+         q.......     ",
"     ......................r         s.......     ",
"     .....................t}         [.......     ",
"     ....................uv         w^.......     ",
"     ...................x6          y........     ",
"     ..................fz          A.........     ",
"     .................B           qj.........     ",
"     ...............-C           DE..........     ",
"     ..............FG           HI...........     ",
"     .............;J           K<............     ",
"     ............LM           N2.............     ",
"     ...........OP           Q1..............     ",
"     .........1Q           P%................     ",
"     ........RS           MT.................     ",
"     .......UV           J;..................     ",
"     ......yo           WF...................     ",
"     ....._l            wXXXXXXXXXXXXX.......     ",
"     .....                            .......     ",
"     .....                            .......     ",
"     .....                            .......     ",
"     .....                            .......     ",
"     .....                            .......     ",
"     .....                            .......     ",
"     .....                            ......      ",
"     ......................................       ",
"                                                  ",
"                                                  ",
"                                                  ",
"                                                  ",
"                                                  "};
