/* XPM */
static char * 3_xpm[] = {
"50 50 108 2",
"  	c #000000",
". 	c #FFFFFF",
"+ 	c #F5F5F5",
"@ 	c #E1E1E1",
"# 	c #CECECE",
"$ 	c #C5C5C5",
"% 	c #BEBEBE",
"& 	c #C1C1C1",
"* 	c #C8C8C8",
"= 	c #D8D8D8",
"- 	c #EAEAEA",
"; 	c #FEFEFE",
"> 	c #EEEEEE",
", 	c #B4B4B4",
"' 	c #717171",
") 	c #404040",
"! 	c #949494",
"~ 	c #D1D1D1",
"{ 	c #FBFBFB",
"] 	c #F0F0F0",
"^ 	c #9C9C9C",
"/ 	c #0D0D0D",
"( 	c #4F4F4F",
"_ 	c #FCFCFC",
": 	c #3B3B3B",
"< 	c #727272",
"[ 	c #ECECEC",
"} 	c #454545",
"| 	c #E5E5E5",
"1 	c #CDCDCD",
"2 	c #F1F1F1",
"3 	c #353535",
"4 	c #939393",
"5 	c #9B9B9B",
"6 	c #E8E8E8",
"7 	c #F3F3F3",
"8 	c #161616",
"9 	c #828282",
"0 	c #D6D6D6",
"a 	c #CCCCCC",
"b 	c #B6B6B6",
"c 	c #C7C7C7",
"d 	c #E0E0E0",
"e 	c #8B8B8B",
"f 	c #9F9F9F",
"g 	c #AAAAAA",
"h 	c #C4C4C4",
"i 	c #737373",
"j 	c #808080",
"k 	c #797979",
"l 	c #ACACAC",
"m 	c #FAFAFA",
"n 	c #DFDFDF",
"o 	c #C2C2C2",
"p 	c #F8F8F8",
"q 	c #787878",
"r 	c #323232",
"s 	c #F4F4F4",
"t 	c #EDEDED",
"u 	c #606060",
"v 	c #C0C0C0",
"w 	c #A7A7A7",
"x 	c #A8A8A8",
"y 	c #474747",
"z 	c #CACACA",
"A 	c #424242",
"B 	c #CBCBCB",
"C 	c #5A5A5A",
"D 	c #979797",
"E 	c #6C6C6C",
"F 	c #2A2A2A",
"G 	c #D3D3D3",
"H 	c #222222",
"I 	c #DADADA",
"J 	c #262626",
"K 	c #767676",
"L 	c #E9E9E9",
"M 	c #555555",
"N 	c #E2E2E2",
"O 	c #AFAFAF",
"P 	c #ADADAD",
"Q 	c #B9B9B9",
"R 	c #D4D4D4",
"S 	c #AEAEAE",
"T 	c #8E8E8E",
"U 	c #E7E7E7",
"V 	c #9D9D9D",
"W 	c #7E7E7E",
"X 	c #2E2E2E",
"Y 	c #F6F6F6",
"Z 	c #707070",
"` 	c #BCBCBC",
" .	c #D2D2D2",
"..	c #D5D5D5",
"+.	c #C3C3C3",
"@.	c #878787",
"#.	c #A9A9A9",
"$.	c #F9F9F9",
"%.	c #C6C6C6",
"&.	c #8D8D8D",
"*.	c #1C1C1C",
"=.	c #FDFDFD",
"-.	c #8F8F8F",
";.	c #929292",
">.	c #656565",
",.	c #777777",
"'.	c #B8B8B8",
").	c #BFBFBF",
"                                                                                                    ",
"                                                                                                    ",
"                                                                                                    ",
"                                                                                                    ",
"                                                                                                    ",
"                . . . . . . . . . . . . + @ # $ % & * = - ; . . . . . . . . . . . . . . .           ",
"              . . . . . . . . . . > , '                   ) ! ~ { . . . . . . . . . . . .           ",
"            . . . . . . . . . ] ^ /                             ( & _ . . . . . . . . . .           ",
"          . . . . . . . . . ~ :                                     < [ . . . . . . . . .           ",
"          . . . . . . . . %                                           } | . . . . . . . .           ",
"          . . . . . . . 1                                               ( 2 . . . . . . .           ",
"          . . . . . . > 3                                                 4 . . . . . . .           ",
"          . . . . . . 5                                                     6 . . . . . .           ",
"          . . . . . 7 8                     9 $ 0 a 5 8                     b . . . . . .           ",
"          . . . . . c                     * . . . . . d 3                   e . . . . . .           ",
"          . . . . . f                   g . . . . . . . h                   i . . . . . .           ",
"          . . . . . j                   - . . . . . . . 7                   k . . . . . .           ",
"          . . . . . l ! ! ! ! ! ! ! ! ! _ . . . . . . . m                   ! . . . . . .           ",
"          . . . . . . . . . . . . . . . . . . . . . . . n                   o . . . . . .           ",
"          . . . . . . . . . . . . . . . . . . . . . . p q                 r s . . . . . .           ",
"          . . . . . . . . . . . . . . . . . . . m t * u                   v . . . . . . .           ",
"          . . . . . . . . . . . . . . . w                               x . . . . . . . .           ",
"          . . . . . . . . . . . . . . . w                           y z . . . . . . . . .           ",
"          . . . . . . . . . . . . . . . w                     A 5 B p . . . . . . . . . .           ",
"          . . . . . . . . . . . . . . . w                       C D ~ ; . . . . . . . . .           ",
"          . . . . . . . . . . . . . . . w                             E d . . . . . . . .           ",
"          . . . . . . . . . . . . . . . w                               F G . . . . . . .           ",
"          . . . . . . . . . . . . . . . w                                 H 6 . . . . . .           ",
"          . . . . . . . . . . . . . . . . . . . _ 7 I w J                   K . . . . . .           ",
"          . . . . . . . . . . . . . . . . . . . . . . . L M                   N . . . . .           ",
"          . . . . . O P P P P P P P P Q . . . . . . . . . R                   S . . . . .           ",
"          . . . . . A                 3 . . . . . . . . . p                   T . . . . .           ",
"          . . . . . '                   U . . . . . . . . s                   < . . . . .           ",
"          . . . . . f                   V . . . . . . . . o                   W . . . . .           ",
"          . . . . . #                     Q ; . . . . . 0 X                   f . . . . .           ",
"          . . . . . Y r                     Z `  ...+.@.                      a . . . . .           ",
"          . . . . . . #.                                                    } $.. . . . .           ",
"          . . . . . . 7 )                                                   %.. . . . . .           ",
"          . . . . . . . ~                                                 ! ; . . . . . .           ",
"          . . . . . . . . %                                             &.{ . . . . . . .           ",
"          . . . . . . . . . 1 r                                     *., =.. . . . . . . .           ",
"          . . . . . . . . . . > -.                                ;.6 . . . . . . . . . .           ",
"          . . . . . . . . . . . . 6 P >.                  8 ,.'.[ . . . . . . . . . . . .           ",
"          . . . . . . . . . . . . . . . 7 n 1 $ % ).$ G | $.. . . . . . . . . . . . . .             ",
"          . . . . . . . . . . . . . . . . . . . . . . . . . . . . . . . . . . . . . .               ",
"                                                                                                    ",
"                                                                                                    ",
"                                                                                                    ",
"                                                                                                    ",
"                                                                                                    "};
