/* XPM */
static char * 4_xpm[] = {
"50 50 46 1",
" 	c #000000",
".	c #FFFFFF",
"+	c #D6D6D6",
"@	c #F8F8F8",
"#	c #F4F4F4",
"$	c #4D4D4D",
"%	c #949494",
"&	c #CCCCCC",
"*	c #F0F0F0",
"=	c #3D3D3D",
"-	c #FEFEFE",
";	c #868686",
">	c #C2C2C2",
",	c #EBEBEB",
"'	c #2E2E2E",
")	c #FDFDFD",
"!	c #787878",
"~	c #B8B8B8",
"{	c #A3A3A3",
"]	c #E5E5E5",
"^	c #1C1C1C",
"/	c #5A5A5A",
"(	c #F7F7F7",
"_	c #FBFBFB",
":	c #6A6A6A",
"<	c #DBDBDB",
"[	c #ACACAC",
"}	c #A5A5A5",
"|	c #DDDDDD",
"1	c #5C5C5C",
"2	c #DCDCDC",
"3	c #9F9F9F",
"4	c #A7A7A7",
"5	c #D5D5D5",
"6	c #5D5D5D",
"7	c #939393",
"8	c #A8A8A8",
"9	c #CBCBCB",
"0	c #606060",
"a	c #F9F9F9",
"b	c #EFEFEF",
"c	c #DEDEDE",
"d	c #858585",
"e	c #AAAAAA",
"f	c #7C7C7C",
"g	c #686868",
"                                                  ",
"                                                  ",
"                                                  ",
"                                                  ",
"                                                  ",
"        .....................................     ",
"       ......................................     ",
"      .................+             @.......     ",
"     .................#$             @.......     ",
"     .................%              @.......     ",
"     ................&               @.......     ",
"     ...............*=               @.......     ",
"     ..............-;                @.......     ",
"     ..............>                 @.......     ",
"     .............,'                 @.......     ",
"     ............)!                  @.......     ",
"     ............~        {          @.......     ",
"     ...........]^       /(          @.......     ",
"     .........._:        <.          @.......     ",
"     ..........[        }..          @.......     ",
"     .........|        1@..          @.......     ",
"     ........(1        2...          @.......     ",
"     ........3        4....          @.......     ",
"     .......5        6@....          @.......     ",
"     ......#$        |.....          @.......     ",
"     ......7        8......          @.......     ",
"     .....9        0a......          @.......     ",
"     ....b=        c.......          @.......     ",
"     ....d        e........          @.......     ",
"     ....                                ....     ",
"     ....                                ....     ",
"     ....                                ....     ",
"     ....                                ....     ",
"     ....                                ....     ",
"     ....                                ....     ",
"     ....                                ....     ",
"     ....ffffffffffffffffff          gfff....     ",
"     ......................          @.......     ",
"     ......................          @.......     ",
"     ......................          @.......     ",
"     ......................          @.......     ",
"     ......................          @.......     ",
"     ......................          @.......     ",
"     ......................          @......      ",
"     ......................................       ",
"                                                  ",
"                                                  ",
"                                                  ",
"                                                  ",
"                                                  "};
