/* XPM */
static char * 5_xpm[] = {
"50 50 99 2",
"  	c #000000",
". 	c #FFFFFF",
"+ 	c #BCBCBC",
"@ 	c #9B9B9B",
"# 	c #B4B4B4",
"$ 	c #AAAAAA",
"% 	c #A0A0A0",
"& 	c #969696",
"* 	c #8A8A8A",
"= 	c #7D7D7D",
"- 	c #6D6D6D",
"; 	c #353535",
"> 	c #7C7C7C",
", 	c #B5B5B5",
"' 	c #5C5C5C",
") 	c #828282",
"! 	c #424242",
"~ 	c #949494",
"{ 	c #161616",
"] 	c #A5A5A5",
"^ 	c #FAFAFA",
"/ 	c #B3B3B3",
"( 	c #FEFEFE",
"_ 	c #DEDEDE",
": 	c #838383",
"< 	c #929292",
"[ 	c #A7A7A7",
"} 	c #CBCBCB",
"| 	c #F5F5F5",
"1 	c #C0C0C0",
"2 	c #DFDFDF",
"3 	c #727272",
"4 	c #959595",
"5 	c #ECECEC",
"6 	c #EEEEEE",
"7 	c #888888",
"8 	c #222222",
"9 	c #1C1C1C",
"0 	c #E8E8E8",
"a 	c #939393",
"b 	c #F9F9F9",
"c 	c #E2E2E2",
"d 	c #909090",
"e 	c #DBDBDB",
"f 	c #D4D4D4",
"g 	c #E9E9E9",
"h 	c #CDCDCD",
"i 	c #8E8E8E",
"j 	c #C5C5C5",
"k 	c #C7C7C7",
"l 	c #EFEFEF",
"m 	c #FBFBFB",
"n 	c #BDBDBD",
"o 	c #323232",
"p 	c #EAEAEA",
"q 	c #696969",
"r 	c #F3F3F3",
"s 	c #E1E1E1",
"t 	c #B9B9B9",
"u 	c #D9D9D9",
"v 	c #878787",
"w 	c #EDEDED",
"x 	c #565656",
"y 	c #3D3D3D",
"z 	c #2A2A2A",
"A 	c #F4F4F4",
"B 	c #F6F6F6",
"C 	c #5F5F5F",
"D 	c #4B4B4B",
"E 	c #F0F0F0",
"F 	c #E5E5E5",
"G 	c #848484",
"H 	c #898989",
"I 	c #ACACAC",
"J 	c #9D9D9D",
"K 	c #AFAFAF",
"L 	c #B6B6B6",
"M 	c #C6C6C6",
"N 	c #C4C4C4",
"O 	c #E7E7E7",
"P 	c #D6D6D6",
"Q 	c #C8C8C8",
"R 	c #868686",
"S 	c #E4E4E4",
"T 	c #7F7F7F",
"U 	c #FDFDFD",
"V 	c #BBBBBB",
"W 	c #A8A8A8",
"X 	c #454545",
"Y 	c #707070",
"Z 	c #818181",
"` 	c #404040",
" .	c #FCFCFC",
"..	c #F8F8F8",
"+.	c #DADADA",
"@.	c #C9C9C9",
"#.	c #C1C1C1",
"$.	c #BEBEBE",
"%.	c #CFCFCF",
"                                                                                                    ",
"                                                                                                    ",
"                                                                                                    ",
"                                                                                                    ",
"                                                                                                    ",
"                . . . . . . . . . . . . . . . . . . . . . . . . . . . . . . . . . . . . .           ",
"              . . . . +                                                 @ . . . . . . . .           ",
"            . . . . . #                                                 @ . . . . . . . .           ",
"          . . . . . . $                                                 @ . . . . . . . .           ",
"          . . . . . . %                                                 @ . . . . . . . .           ",
"          . . . . . . &                                                 @ . . . . . . . .           ",
"          . . . . . . *                                                 @ . . . . . . . .           ",
"          . . . . . . =                                                 @ . . . . . . . .           ",
"          . . . . . . -                 ; > > > > > > > > > > > > > > > , . . . . . . . .           ",
"          . . . . . . '                 ) . . . . . . . . . . . . . . . . . . . . . . . .           ",
"          . . . . . . !                 ~ . . . . . . . . . . . . . . . . . . . . . . . .           ",
"          . . . . . . {                 ] . . . . . . . . . . . . . . . . . . . . . . . .           ",
"          . . . . . ^                   / . ( _ # & : < [ } | . . . . . . . . . . . . . .           ",
"          . . . . . |                   1 2 3               { 4 5 . . . . . . . . . . . .           ",
"          . . . . . 6                   7 8                     9 # ( . . . . . . . . . .           ",
"          . . . . . 0                                               a b . . . . . . . . .           ",
"          . . . . . c                                                 d ( . . . . . . . .           ",
"          . . . . . e                                                   / . . . . . . . .           ",
"          . . . . . f                                                   { g . . . . . . .           ",
"          . . . . . h                                                     i . . . . . . .           ",
"          . . . . . j                     ' k l m l n o                     p . . . . . .           ",
"          . . . . . n                   q r . . . . . s 8                   t . . . . . .           ",
"          . . . . . #                   u . . . . . . . /                   v . . . . . .           ",
"          . . . . . . . . . . . . . . . . . . . . . . . w                   x . . . . . .           ",
"          . . . . . . . . . . . . . . . . . . . . . . . . y                 z . . . . . .           ",
"          . . . . . | A A A A A A A A B . . . . . . . . . C                 o . . . . . .           ",
"          . . . . . o                 D . . . . . . . . . o                 x . . . . . .           ",
"          . . . . . x                   E . . . . . . . F                   G . . . . . .           ",
"          . . . . . H                   I . . . . . . . J                   K . . . . . .           ",
"          . . . . . L                     M . . . . . N                     _ . . . . . .           ",
"          . . . . . O                       ) M P Q R                     C ( . . . . . .           ",
"          . . . . . . )                                                   } . . . . . . .           ",
"          . . . . . . S {                                               T U . . . . . . .           ",
"          . . . . . . . V                                             D 6 . . . . . . . .           ",
"          . . . . . . . . W                                         X F . . . . . . . . .           ",
"          . . . . . . . . . n {                                   Y w . . . . . . . . . .           ",
"          . . . . . . . . . . F Z                             ` n  .. . . . . . . . . . .           ",
"          . . . . . . . . . . . . c ] x                 9 : j ... . . . . . . . . . . . .           ",
"          . . . . . . . . . . . . . . . 6 +.@.#.$.j %.S b . . . . . . . . . . . . . . .             ",
"          . . . . . . . . . . . . . . . . . . . . . . . . . . . . . . . . . . . . . .               ",
"                                                                                                    ",
"                                                                                                    ",
"                                                                                                    ",
"                                                                                                    ",
"                                                                                                    "};
