/* XPM */
static char * 6_xpm[] = {
"50 50 115 2",
"  	c #000000",
". 	c #FFFFFF",
"+ 	c #F0F0F0",
"@ 	c #DBDBDB",
"# 	c #C9C9C9",
"$ 	c #C1C1C1",
"% 	c #BEBEBE",
"& 	c #C6C6C6",
"* 	c #D2D2D2",
"= 	c #E7E7E7",
"- 	c #FBFBFB",
"; 	c #EBEBEB",
"> 	c #B0B0B0",
", 	c #626262",
"' 	c #323232",
") 	c #8F8F8F",
"! 	c #D1D1D1",
"~ 	c #FCFCFC",
"{ 	c #9B9B9B",
"] 	c #5A5A5A",
"^ 	c #CDCDCD",
"/ 	c #CFCFCF",
"( 	c #3D3D3D",
"_ 	c #8D8D8D",
": 	c #F4F4F4",
"< 	c #BBBBBB",
"[ 	c #666666",
"} 	c #EFEFEF",
"| 	c #6A6A6A",
"1 	c #F7F7F7",
"2 	c #DEDEDE",
"3 	c #161616",
"4 	c #FAFAFA",
"5 	c #5C5C5C",
"6 	c #BABABA",
"7 	c #4B4B4B",
"8 	c #ADADAD",
"9 	c #D7D7D7",
"0 	c #C8C8C8",
"a 	c #ACACAC",
"b 	c #424242",
"c 	c #8B8B8B",
"d 	c #F9F9F9",
"e 	c #454545",
"f 	c #929292",
"g 	c #F8F8F8",
"h 	c #A5A5A5",
"i 	c #0D0D0D",
"j 	c #838383",
"k 	c #FEFEFE",
"l 	c #878787",
"m 	c #D4D4D4",
"n 	c #828282",
"o 	c #E8E8E8",
"p 	c #8C8C8C",
"q 	c #F6F6F6",
"r 	c #D6D6D6",
"s 	c #C2C2C2",
"t 	c #DDDDDD",
"u 	c #A9A9A9",
"v 	c #787878",
"w 	c #222222",
"x 	c #3B3B3B",
"y 	c #5D5D5D",
"z 	c #B4B4B4",
"A 	c #E2E2E2",
"B 	c #B7B7B7",
"C 	c #E3E3E3",
"D 	c #737373",
"E 	c #696969",
"F 	c #CBCBCB",
"G 	c #969696",
"H 	c #F1F1F1",
"I 	c #7A7A7A",
"J 	c #ECECEC",
"K 	c #404040",
"L 	c #555555",
"M 	c #353535",
"N 	c #E4E4E4",
"O 	c #383838",
"P 	c #1C1C1C",
"Q 	c #AEAEAE",
"R 	c #494949",
"S 	c #757575",
"T 	c #5F5F5F",
"U 	c #2E2E2E",
"V 	c #B9B9B9",
"W 	c #979797",
"X 	c #FDFDFD",
"Y 	c #7D7D7D",
"Z 	c #B1B1B1",
"` 	c #585858",
" .	c #9E9E9E",
"..	c #9F9F9F",
"+.	c #EAEAEA",
"@.	c #DFDFDF",
"#.	c #767676",
"$.	c #9D9D9D",
"%.	c #C4C4C4",
"&.	c #7C7C7C",
"*.	c #8A8A8A",
"=.	c #C5C5C5",
"-.	c #CECECE",
";.	c #E0E0E0",
">.	c #AAAAAA",
",.	c #F5F5F5",
"'.	c #7F7F7F",
").	c #262626",
"!.	c #D8D8D8",
"~.	c #6C6C6C",
"{.	c #B6B6B6",
"].	c #868686",
"^.	c #C7C7C7",
"/.	c #BFBFBF",
"(.	c #E6E6E6",
"                                                                                                    ",
"                                                                                                    ",
"                                                                                                    ",
"                                                                                                    ",
"                                                                                                    ",
"                . . . . . . . . . . . . . . . . . . . . . . . . . . . . . . . . . . . . .           ",
"              . . . . . . . . . . . . . . . + @ # $ % & * = - . . . . . . . . . . . . . .           ",
"            . . . . . . . . . . . . . ; > ,                 ' ) ! ~ . . . . . . . . . . .           ",
"          . . . . . . . . . . . . + {                             ] ^ . . . . . . . . . .           ",
"          . . . . . . . . . . . / (                                   _ : . . . . . . . .           ",
"          . . . . . . . . . . <                                         [ } . . . . . . .           ",
"          . . . . . . . . . $                                             | 1 . . . . . .           ",
"          . . . . . . . . 2 3                                               { . . . . . .           ",
"          . . . . . . . 4 5                                                   2 . . . . .           ",
"          . . . . . . . 6                   7 8 / 9 0 a b                     c . . . . .           ",
"          . . . . . . d e                 f g . . . . . d h                   i : . . . .           ",
"          . . . . . . 0                 j - . . . . . . . k l                   m . . . .           ",
"          . . . . . . n                 o . . . . . . . . . 2 p p p p p p p p p * . . . .           ",
"          . . . . . q i               p . . . . . . . . . . . . . . . . . . . . . . . . .           ",
"          . . . . . r                 s . . k t u v 7 w x y c z A k . . . . . . . . . . .           ",
"          . . . . . B                 C . C D                     E F k . . . . . . . . .           ",
"          . . . . . G                 H / w                           I J . . . . . . . .           ",
"          . . . . . v                 * i                               K t . . . . . . .           ",
"          . . . . . L                 K                                   M N . . . . . .           ",
"          . . . . . O                                                       y 1 . . . . .           ",
"          . . . . . P                                                         Q . . . . .           ",
"          . . . . . P                           R S T 3                       U : . . . .           ",
"          . . . . . x                       j A . . . : V w                     & . . . .           ",
"          . . . . . 5                     W X . . . . . . 2 P                   f . . . .           ",
"          . . . . . Y                   b q . . . . . . . . Z                   ` . . . .           ",
"          . . . . .  .                  ... . . . . . . . . +.                  i k . . .           ",
"          . . . . . %                   V . . . . . . . . . -                     4 . . .           ",
"          . . . . . @.                  Q . . . . . . . . . :                   3 . . . .           ",
"          . . . . . - M                 #.. . . . . . . . . m                   L . . . .           ",
"          . . . . . . $.                  9 . . . . . . . - S                   f . . . .           ",
"          . . . . . . 2                   K @ . . . . . 1 f                     %.. . . .           ",
"          . . . . . . . &.                    *.=.r -.Q 7                     w : . . . .           ",
"          . . . . . . . ;.                                                    >.. . . . .           ",
"          . . . . . . . . >.                                                L ,.. . . . .           ",
"          . . . . . . . . - '.                                            w @.. . . . . .           ",
"          . . . . . . . . . 1 I                                         ).9 . . . . . . .           ",
"          . . . . . . . . . . - ..                                    T N . . . . . . . .           ",
"          . . . . . . . . . . . . !.~.                            M {.d . . . . . . . . .           ",
"          . . . . . . . . . . . . . k !.{ b                 ).].& g . . . . . . . . . .             ",
"          . . . . . . . . . . . . . . . . k ; 9 ^./.% =.! (.4 . . . . . . . . . . . .               ",
"                                                                                                    ",
"                                                                                                    ",
"                                                                                                    ",
"                                                                                                    ",
"                                                                                                    "};
