/* XPM */
static char * 7_xpm[] = {
"50 50 72 1",
" 	c #000000",
".	c #FFFFFF",
"+	c #2E2E2E",
"@	c #EFEFEF",
"#	c #1C1C1C",
"$	c #ADADAD",
"%	c #A7A7A7",
"&	c #262626",
"*	c #F2F2F2",
"=	c #F1F1F1",
"-	c #A9A9A9",
";	c #AAAAAA",
">	c #222222",
",	c #F3F3F3",
"'	c #2A2A2A",
")	c #A3A3A3",
"!	c #AEAEAE",
"~	c #161616",
"{	c #EDEDED",
"]	c #F4F4F4",
"^	c #323232",
"/	c #9F9F9F",
"(	c #B2B2B2",
"_	c #0D0D0D",
":	c #EBEBEB",
"<	c #F5F5F5",
"[	c #383838",
"}	c #9A9A9A",
"|	c #B5B5B5",
"1	c #E8E8E8",
"2	c #F6F6F6",
"3	c #3D3D3D",
"4	c #949494",
"5	c #B9B9B9",
"6	c #E5E5E5",
"7	c #F8F8F8",
"8	c #424242",
"9	c #8E8E8E",
"0	c #BBBBBB",
"a	c #E2E2E2",
"b	c #F9F9F9",
"c	c #494949",
"d	c #888888",
"e	c #BEBEBE",
"f	c #DFDFDF",
"g	c #FAFAFA",
"h	c #4D4D4D",
"i	c #818181",
"j	c #C2C2C2",
"k	c #DBDBDB",
"l	c #FBFBFB",
"m	c #535353",
"n	c #7A7A7A",
"o	c #C5C5C5",
"p	c #D8D8D8",
"q	c #585858",
"r	c #757575",
"s	c #C8C8C8",
"t	c #D5D5D5",
"u	c #FCFCFC",
"v	c #5F5F5F",
"w	c #6D6D6D",
"x	c #FEFEFE",
"y	c #CBCBCB",
"z	c #D1D1D1",
"A	c #FDFDFD",
"B	c #636363",
"C	c #686868",
"D	c #CECECE",
"E	c #CDCDCD",
"F	c #606060",
"G	c #C9C9C9",
"                                                  ",
"                                                  ",
"                                                  ",
"                                                  ",
"                                                  ",
"        .....................................     ",
"       ......................................     ",
"      ......                          .......     ",
"     .......                          .......     ",
"     .......                          .......     ",
"     .......                          .......     ",
"     .......                          .......     ",
"     .......                          .......     ",
"     .......                          .......     ",
"     .......                         +.......     ",
"     ......................@#        $.......     ",
"     ......................%        &*.......     ",
"     .....................=&        -........     ",
"     .....................;        >@........     ",
"     ....................,'        ).........     ",
"     ....................!        ~{.........     ",
"     ...................]^        /..........     ",
"     ...................(        _:..........     ",
"     ..................<[        }...........     ",
"     ..................|         1...........     ",
"     .................23        4............     ",
"     .................5         6............     ",
"     ................78        9.............     ",
"     ................0         a.............     ",
"     ...............bc        d..............     ",
"     ...............e         f..............     ",
"     ..............gh        i...............     ",
"     ..............j         k...............     ",
"     .............lm        n................     ",
"     .............o         p................     ",
"     ............lq        r.................     ",
"     ............s         t.................     ",
"     ...........uv        wx.................     ",
"     ...........y         z..................     ",
"     ..........AB        Cx..................     ",
"     ..........D         E...................     ",
"     .........xC        FA...................     ",
"     .........z         G....................     ",
"     .......................................      ",
"     ......................................       ",
"                                                  ",
"                                                  ",
"                                                  ",
"                                                  ",
"                                                  "};
