/* XPM */
static char * 8_xpm[] = {
"50 50 118 2",
"  	c #000000",
". 	c #FFFFFF",
"+ 	c #F4F4F4",
"@ 	c #CECECE",
"# 	c #A9A9A9",
"$ 	c #858585",
"% 	c #606060",
"& 	c #404040",
"* 	c #1C1C1C",
"= 	c #2A2A2A",
"- 	c #474747",
"; 	c #6C6C6C",
"> 	c #8E8E8E",
", 	c #B3B3B3",
"' 	c #D7D7D7",
") 	c #FAFAFA",
"! 	c #D9D9D9",
"~ 	c #898989",
"{ 	c #0D0D0D",
"] 	c #323232",
"^ 	c #9F9F9F",
"/ 	c #E7E7E7",
"( 	c #EDEDED",
"_ 	c #868686",
": 	c #A3A3A3",
"< 	c #F8F8F8",
"[ 	c #DEDEDE",
"} 	c #424242",
"| 	c #F1F1F1",
"1 	c #E6E6E6",
"2 	c #383838",
"3 	c #F9F9F9",
"4 	c #FCFCFC",
"5 	c #6A6A6A",
"6 	c #ABABAB",
"7 	c #262626",
"8 	c #919191",
"9 	c #9B9B9B",
"0 	c #AEAEAE",
"a 	c #161616",
"b 	c #CCCCCC",
"c 	c #535353",
"d 	c #969696",
"e 	c #F7F7F7",
"f 	c #5A5A5A",
"g 	c #ADADAD",
"h 	c #222222",
"i 	c #4F4F4F",
"j 	c #FBFBFB",
"k 	c #DBDBDB",
"l 	c #4B4B4B",
"m 	c #929292",
"n 	c #AAAAAA",
"o 	c #828282",
"p 	c #7D7D7D",
"q 	c #C4C4C4",
"r 	c #C0C0C0",
"s 	c #ECECEC",
"t 	c #BEBEBE",
"u 	c #EEEEEE",
"v 	c #E3E3E3",
"w 	c #979797",
"x 	c #DFDFDF",
"y 	c #F5F5F5",
"z 	c #E2E2E2",
"A 	c #585858",
"B 	c #7C7C7C",
"C 	c #F2F2F2",
"D 	c #636363",
"E 	c #727272",
"F 	c #CBCBCB",
"G 	c #FEFEFE",
"H 	c #D2D2D2",
"I 	c #818181",
"J 	c #878787",
"K 	c #D8D8D8",
"L 	c #B5B5B5",
"M 	c #4D4D4D",
"N 	c #565656",
"O 	c #BBBBBB",
"P 	c #C2C2C2",
"Q 	c #C8C8C8",
"R 	c #9A9A9A",
"S 	c #A0A0A0",
"T 	c #B9B9B9",
"U 	c #B1B1B1",
"V 	c #B0B0B0",
"W 	c #999999",
"X 	c #454545",
"Y 	c #BDBDBD",
"Z 	c #EBEBEB",
"` 	c #AFAFAF",
" .	c #D1D1D1",
"..	c #737373",
"+.	c #767676",
"@.	c #3B3B3B",
"#.	c #939393",
"$.	c #3D3D3D",
"%.	c #696969",
"&.	c #686868",
"*.	c #D0D0D0",
"=.	c #949494",
"-.	c #FDFDFD",
";.	c #959595",
">.	c #9E9E9E",
",.	c #B4B4B4",
"'.	c #9C9C9C",
").	c #CFCFCF",
"!.	c #E0E0E0",
"~.	c #D4D4D4",
"{.	c #E1E1E1",
"].	c #5C5C5C",
"^.	c #5D5D5D",
"/.	c #494949",
"(.	c #BABABA",
"_.	c #F0F0F0",
":.	c #DDDDDD",
"<.	c #CDCDCD",
"                                                                                                    ",
"                                                                                                    ",
"                                                                                                    ",
"                                                                                                    ",
"                                                                                                    ",
"                . . . . . . . . . . . . . . . . . . . . . . . . . . . . . . . . . . . . .           ",
"              . . . . . . . . . . . . . . . . . . . . . . . . . . . . . . . . . . . . . .           ",
"            . . . . . . . . . . . . . + @ # $ % & * = - ; > , ' ) . . . . . . . . . . . .           ",
"          . . . . . . . . . . . . ! ~ {                         ] ^ / . . . . . . . . . .           ",
"          . . . . . . . . . . ( _                                   { : < . . . . . . . .           ",
"          . . . . . . . . . [ }                                         ; | . . . . . . .           ",
"          . . . . . . . . 1 2                                             ; 3 . . . . . .           ",
"          . . . . . . . 4 5                                                 6 . . . . . .           ",
"          . . . . . . . @                                                   7 + . . . . .           ",
"          . . . . . . . 8                     } 9 , 0 $ a                     b . . . . .           ",
"          . . . . . . . c                   d e . . . . / f                   g . . . . .           ",
"          . . . . . . . h                 i j . . . . . . k                   ^ . . . . .           ",
"          . . . . . . . l                 m . . . . . . . )                   n . . . . .           ",
"          . . . . . . . o                 p . . . . . . . |                   q . . . . .           ",
"          . . . . . . . r                   [ . . . . . . n                   s . . . . .           ",
"          . . . . . . . 3 i                 2 t u 4 3 v 9                   w . . . . . .           ",
"          . . . . . . . . x 7                                             % y . . . . . .           ",
"          . . . . . . . . . z A                                         B C . . . . . . .           ",
"          . . . . . . . . . . ) t D                                 E F G . . . . . . . .           ",
"          . . . . . . . . . . . . G H I                         J K . . . . . . . . . . .           ",
"          . . . . . . . . . . | L M                                 N O + . . . . . . . .           ",
"          . . . . . . . . . P 7                                         ] Q . . . . . . .           ",
"          . . . . . . . G R                                                 S . . . . . .           ",
"          . . . . . . . T                     - R U V W X                     Y . . . . .           ",
"          . . . . . . Z {                 7 q 4 . . . . 4 P 7                 * ( . . . .           ",
"          . . . . . . `                    .. . . . . . . .  .                  U . . . .           ",
"          . . . . . . ..                ; . . . . . . . . . . 5                 +.. . . .           ",
"          . . . . . . @.                #.. . . . . . . . . . m                 $.. . . .           ",
"          . . . . . . 7                 %.. . . . . . . . . . &.                = . . . .           ",
"          . . . . . . A                   *.. . . . . . . . @                   A . . . .           ",
"          . . . . . . =.                  h q -.. . . . 4 P h                   ;.. . . .           ",
"          . . . . . . @                       M >.,.,.'.l                       ).. . . .           ",
"          . . . . . . 4 D                                                     D 4 . . . .           ",
"          . . . . . . . !.h                                                 h z . . . . .           ",
"          . . . . . . . . H h                                             h ~.. . . . . .           ",
"          . . . . . . . . . {.].                                        ^.z . . . . . . .           ",
"          . . . . . . . . . . ) T /.                                l (.) . . . . . . . .           ",
"          . . . . . . . . . . . . )  .W M                     i 9 H j . . . . . . . . . .           ",
"          . . . . . . . . . . . . . . . . _.:.<.q t t q @ [ _.. . . . . . . . . . . . .             ",
"          . . . . . . . . . . . . . . . . . . . . . . . . . . . . . . . . . . . . . .               ",
"                                                                                                    ",
"                                                                                                    ",
"                                                                                                    ",
"                                                                                                    ",
"                                                                                                    "};
