/* XPM */
static char * 9_xpm[] = {
"50 50 114 2",
"  	c #000000",
". 	c #FFFFFF",
"+ 	c #F6F6F6",
"@ 	c #D2D2D2",
"# 	c #A8A8A8",
"$ 	c #838383",
"% 	c #585858",
"& 	c #3B3B3B",
"* 	c #1C1C1C",
"= 	c #3D3D3D",
"- 	c #606060",
"; 	c #898989",
"> 	c #B2B2B2",
", 	c #DADADA",
"' 	c #FCFCFC",
") 	c #E8E8E8",
"! 	c #9C9C9C",
"~ 	c #262626",
"{ 	c #474747",
"] 	c #B4B4B4",
"^ 	c #F5F5F5",
"/ 	c #FAFAFA",
"( 	c #A7A7A7",
"_ 	c #0D0D0D",
": 	c #454545",
"< 	c #CBCBCB",
"[ 	c #EFEFEF",
"} 	c #6C6C6C",
"| 	c #A3A3A3",
"1 	c #FDFDFD",
"2 	c #F1F1F1",
"3 	c #5D5D5D",
"4 	c #9E9E9E",
"5 	c #7D7D7D",
"6 	c #BCBCBC",
"7 	c #C0C0C0",
"8 	c #E7E7E7",
"9 	c #B3B3B3",
"0 	c #6D6D6D",
"a 	c #D1D1D1",
"b 	c #FBFBFB",
"c 	c #D5D5D5",
"d 	c #424242",
"e 	c #E0E0E0",
"f 	c #A0A0A0",
"g 	c #B0B0B0",
"h 	c #DCDCDC",
"i 	c #9F9F9F",
"j 	c #6E6E6E",
"k 	c #383838",
"l 	c #F8F8F8",
"m 	c #8A8A8A",
"n 	c #353535",
"o 	c #858585",
"p 	c #BEBEBE",
"q 	c #DEDEDE",
"r 	c #939393",
"s 	c #C8C8C8",
"t 	c #BDBDBD",
"u 	c #9B9B9B",
"v 	c #707070",
"w 	c #E3E3E3",
"x 	c #565656",
"y 	c #7A7A7A",
"z 	c #A1A1A1",
"A 	c #666666",
"B 	c #F3F3F3",
"C 	c #D4D4D4",
"D 	c #4D4D4D",
"E 	c #C4C4C4",
"F 	c #EEEEEE",
"G 	c #D7D7D7",
"H 	c #7E7E7E",
"I 	c #4F4F4F",
"J 	c #FEFEFE",
"K 	c #808080",
"L 	c #404040",
"M 	c #626262",
"N 	c #767676",
"O 	c #737373",
"P 	c #555555",
"Q 	c #828282",
"R 	c #6A6A6A",
"S 	c #AFAFAF",
"T 	c #5A5A5A",
"U 	c #C3C3C3",
"V 	c #EBEBEB",
"W 	c #BBBBBB",
"X 	c #CECECE",
"Y 	c #E5E5E5",
"Z 	c #5C5C5C",
"` 	c #494949",
" .	c #D0D0D0",
"..	c #E2E2E2",
"+.	c #C7C7C7",
"@.	c #DDDDDD",
"#.	c #2A2A2A",
"$.	c #EDEDED",
"%.	c #727272",
"&.	c #EAEAEA",
"*.	c #F9F9F9",
"=.	c #E6E6E6",
"-.	c #222222",
";.	c #8B8B8B",
">.	c #CCCCCC",
",.	c #848484",
"'.	c #7C7C7C",
").	c #F2F2F2",
"!.	c #717171",
"~.	c #2E2E2E",
"{.	c #8D8D8D",
"].	c #F4F4F4",
"^.	c #C2C2C2",
"/.	c #E4E4E4",
"                                                                                                    ",
"                                                                                                    ",
"                                                                                                    ",
"                                                                                                    ",
"                                                                                                    ",
"                . . . . . . . . . . . . . . . . . . . . . . . . . . . . . . . . . . . . .           ",
"              . . . . . . . . . . . . . . . . . . . . . . . . . . . . . . . . . . . . . .           ",
"            . . . . . . . . . . . . . + @ # $ % & * = - ; > , ' . . . . . . . . . . . . .           ",
"          . . . . . . . . . . . . ) ! ~                       { ] ^ . . . . . . . . . . .           ",
"          . . . . . . . . . . / ( _                               : < . . . . . . . . . .           ",
"          . . . . . . . . . [ }                                       | 1 . . . . . . . .           ",
"          . . . . . . . . 2 3                                           4 . . . . . . . .           ",
"          . . . . . . . ' 5                                               6 . . . . . . .           ",
"          . . . . . . . 7                                                 * 8 . . . . . .           ",
"          . . . . . . / :                     { 4 9 ( 0                     $ . . . . . .           ",
"          . . . . . . a                     ] b . . . . c d                   e . . . . .           ",
"          . . . . . . f                   g . . . . . . . h                   i . . . . .           ",
"          . . . . . . j                 k l . . . . . . . . m                 n b . . . .           ",
"          . . . . . . d                 o . . . . . . . . . p                   q . . . .           ",
"          . . . . . . *                 r . . . . . . . . . s                   t . . . .           ",
"          . . . . . . d                 } . . . . . . . . . g                   u . . . .           ",
"          . . . . . . v                   w . . . . . . . b x                   y . . . .           ",
"          . . . . . . z                   A B . . . . . 1 i                     % . . . .           ",
"          . . . . . . C                     D E F ' + G H                       & . . . .           ",
"          . . . . . . b I                                                       * . . . .           ",
"          . . . . . . . E                                                       ~ . . . .           ",
"          . . . . . . . J K                                                     L . . . .           ",
"          . . . . . . . . B M                                 N                 M . . . .           ",
"          . . . . . . . . . 2 O                             P 8                 Q . . . .           ",
"          . . . . . . . . . . / g *                       R F F                 | . . . .           ",
"          . . . . . . . . . . . . [ S %               T t b . G                 U . . . .           ",
"          . . . . . . . . . . . . . . . V C U W 7 X ) J . . . >                 Y . . . .           ",
"          . . . . . . F , , , , , , , , h . . . . . . . . . ' Z               ` 1 . . . .           ",
"          . . . . . .  .                  ... . . . . . . . +.                g . . . . .           ",
"          . . . . . . F                   v ^ . . . . . . @.#.                $.. . . . .           ",
"          . . . . . . . %.                  % 7 &.l *.=.S -.                ;.. . . . . .           ",
"          . . . . . . . >.                                                #.&.. . . . . .           ",
"          . . . . . . . 1 N                                               p . . . . . . .           ",
"          . . . . . . . . &.&                                           ,.1 . . . . . . .           ",
"          . . . . . . . . . h n                                       '.l . . . . . . . .           ",
"          . . . . . . . . . . Y -                                   u / . . . . . . . . .           ",
"          . . . . . . . . . . . l S ~                           - @ . . . . . . . . . . .           ",
"          . . . . . . . . . . . . . ).W !.                ~.{.a ' . . . . . . . . . . . .           ",
"          . . . . . . . . . . . . . . . . ].q < ^.t E  ./.b . . . . . . . . . . . . . .             ",
"          . . . . . . . . . . . . . . . . . . . . . . . . . . . . . . . . . . . . . .               ",
"                                                                                                    ",
"                                                                                                    ",
"                                                                                                    ",
"                                                                                                    ",
"                                                                                                    "};
