/* XPM */
static char * blackstone_xpm[] = {
"512 512 45 1",
" 	c #2E2E2E",
".	c #2C2C2C",
"+	c #2D2D2D",
"@	c #2B2B2B",
"#	c #292929",
"$	c #2A2A2A",
"%	c #282828",
"&	c #272727",
"*	c #2F2F2F",
"=	c #303030",
"-	c #232323",
";	c #262626",
">	c #252525",
",	c #323232",
"'	c #313131",
")	c #333333",
"!	c #343434",
"~	c #353535",
"{	c #222222",
"]	c #212121",
"^	c #202020",
"/	c #363636",
"(	c #373737",
"_	c #242424",
":	c #393939",
"<	c #1F1F1F",
"[	c #1E1E1E",
"}	c #1B1B1B",
"|	c #1D1D1D",
"1	c #1C1C1C",
"2	c #3A3A3A",
"3	c #383838",
"4	c #171717",
"5	c #191919",
"6	c #141414",
"7	c #161616",
"8	c #1A1A1A",
"9	c #181818",
"0	c #3C3C3C",
"a	c #3B3B3B",
"b	c #3F3F3F",
"c	c #3E3E3E",
"d	c #3D3D3D",
"e	c #151515",
"f	c #131313",
" .+@@++####@$.+.$@@#.$%@@@#@@#&#@@..$@@@#@.$&#.+* ++++...  * .$&&$@$@@@##%&$+.@@@$##$@@@#@%&#####.+++*=**.%#$##$..$$$$@@@$@@$@#$...@@.@@....@&$.@++.@@@....##$$....@@@$...+.@@$#%%@$$@@@$$#$@$@@$#@@....@##$@@@%&%&$..$@@$###$.@$####$$@..#&&%#@...@*    .&-&%#@@@@####&;@.@@@.@$@$@$#%$$##@@$.@#$###.+  = @#$##$#$$#$#$$@$#&>$$##&#@##$$.@@..$@.@@$#$$$@@#$@@.@$..@....@#.@#@.@$&&@#$@@$..+$# .@$%$@@$$@@.@##@$$@@$@##. .+*.$&&$%%%&%%#@@@;>#$@##+.@@@#%%#%&##@@@$$@@$$@@$$@@$$#@...+..@%;&#&&.@@.#;#@%#$#$..$#$.+.@#%%#.$##$@$",
"   .+*.....  =** .. *.   * *=+@. === +++++* .@. =,,=',''===,,' .++.+ ++ .@$=)= ..*'    *@+..++   ='),,=='+.  +@*=   ****  *  **='*'= * =* '=  @+===== *==*=*+@+=**=* +. *=,,= + *= . *==*+*=***+  . ,=''* * *==...#@,)'*++ +..*= *+@  ++*, .++ @ )*+)))!''*$@@$@@@.+@. .@ **==='=*  === =' *=='++ +*=* ',!' *   =*** +++ **  +  . ==*.@**=*==***'=+++===*=* +  '=  =*==+=*** *===++*+***===='* *==* ===**=*='*.+  *   ='''*=++* +  +@@+*** #. ..+ ''* + ==  +...  **       *==  +. **')),*@@.+.   ** + #+.. ==  +.===.@..... .@.",
" ++'),,===,,,!~~))~~!)))!!!,= .@@.+.*=,,)),)!=*=,,,',,~~'',~!,==''= ***== +$;-{]^>&@. =))**=*+=+..+,/ $* .+ ++@ @+!= ,,  ='+@@+ =),,',!~~~)==),)!((!)'=,) +=.$.+..+ '''==',),==,!!,=,,),='' +..$ ,'****  *. .#>-{{]{&@ .$@...@  .@.*)!=+.* ++&;>&+===,=,= ,('.@@..+,~/),'==,)!!!~~, *+&>;&.*+. + .''+=='~))=+. + *+ + ,,*.++#%&&&&&&&&>% =,),= .=,'''** . *+..$  *')~~/  )',),, ++=,==,)''~,,' *+  ..=)'' .+* @+*==*@ ')),== =)'.@@@$+..='*=.+= = .@&--_&&>-%$+=*='==*   ,~!!~~)//~!~=    ==*','!/!~/,~)'* *'!) +'~)))=*=*~~,*..",
"==$':*>_>_&>;%$$$$$%&&&&&&>{]]^<<^^^]{;&&&>;&&_->-{-{^;;-{->_---{;&-{-{{-{{[}|[<<|1<^]{;&{-_{{-{]{--__^{{{{{{{{{^{_-{_>_---]{{-{->_>_;&&#%{]]{%%>#.&_>_>>_{-{{{{--{-__>_>_->>_->&>>_____->_{{{-{{_-{{---{-]{{^^{]<<<|<]]]^^{{{{{]]{-&%-{{{---]^[<{------{]{ ~..  *,(($>%;-__>&&>&#_--{[<<[{{{{--{->-{_>>>>>_{--{{--{{{__-{-{]^]^^<<^]^^]---_>_-{__-__---{-------->;>%#%>->_>>__-{{-{{->;>>>__>_-----{-_--{]{{{{{--{_--_>>_---_>>-]]{{-{{--{>{{--{{]^[|11|[11[^{--_-{_----&#%%#%%@**%>[111[]^^]>&%%&%.$##;-{-->_{{>#&;&>_;> :/'+.",
"*+=/'^[[[[<^^<<<<<[<<<<<^<^{]]]{]]{{{{^<^<<^^^]^^^{{]]^^^]^]]]{]{^<{{{]]]{{{{-------{]{{^]]^]^]{{-_-{]{{{{{{{-----{-_>__{{->;&&&%%&&;>_>--&&>{{_>>_;##%&&;>--____-----{{{----_-{{____--_>_>_-_>_-{]{--_-{-__-->&&;>;>>_-{{{{{---{{{{]]^{{--_>_-------_-]]{]<=,++ *)2.<-{{----_>>-{->>;&&;&;>>;&&>>_>>_____-_>>>>_>__---{-___>;;;;;&&;>>;>--{__>;&&>;;;;>;>__>>;&###%;_;#@$#%%%%#$#%&&%#%%%%###%%%%&;>_>_{-___-_--{{-__--{{{{------{->_>>--_>_{{{]{{--{-{{-__{--{-{{----_-]^{{-__{]{[[{_--____-->>_-{^^]{{{^{-{{{{{{{---->_<=3* .",
".$=(@<{]]]^^]]]]]]^]]{{]]{{{{{{{{{{--{{]{{{{]{{{]]]]{{]]{{{{{{{-{]{]{--]]{--{{{-{{-{{{----{^{{{{{--{{--{{{{{{------_>>>-{-->&&;%##%&;&&#;&#$%;&$@@#####%%&>>>>>_->-{_-{--___>_--__>>>>>>;;&>___>_-{--_>--_>_--_>;;;>>>_-__--___{{-{]]--{{--_>__--_---_]^{{-{.'+..+'!&_>>;_-_>_>;>>>>;;>>;;>>&;;;>>;;>>>>;>>>>>>_->>>__-_>>>>;&;;;&&&;>>;_{>>>;>&&&%%&;;&&;>>;;&&#$##$@@@$@@$$#%#$$$$$@@$$#$@@$$@###&&&&>_>>>____--_>--------__--_--_>>___>>;>-{{{{{{{{--{{--{----{---___-{-->;&>>>->;&%%%###%%#%%&;>>>>_-----{{{--{--_>;&#-%~ @.",
"@+*~@<]]]]]]]{^^]^^]]{{{]]]]{]]{{{{{{{]{]{{{{{{]^{]]^]^]]{]]{{{{{{]]{]{{-{{-{]{]]{{]{{{{{{{{{{{{{{{{]{]]{{{]{{{{{{--->_{---_>&%%#%&;&;&#%%#%;;&&&#@$$%%&;&>_>>_------_{-----_-->>__>_>>>_>;>-__>_--{{---{------__>>>>_-__------{{]]]]{{{-------{{--{{{{{{]-{#=.. +*,>->>---__>>>-_->>>>>>>>;>;>_>;&>>>>>;>;>>>_>>>>__>__>>>>>>>;;>>;>>>>_>_>>>>;&;&&&&&;>>>>>>;&%#;&$#&$$$#%#%&%%#$##@@###$$$$%#$$#&>&;>>>___-____-_-----------{---->_{-_>>>>-{-{{]{---{{-{{---{{{{{--_-]{___>---->>>_>;&##&>#%&;&;_->__-----{]]{]^]{]{>&%-%) @@",
".+.!#[]^^]{]^]^^]^^]^]]]]]]{{{{{{]{]{-{{-{-{{{{{]^]]]]]{]{{{{-{{{{]{{{{{{{]{{]{{]{-{{{{{{{{{{{{{{{{{{{{{{{{{{]{{{{---_-{--_>-^_%#&&;;;&%#$#&;;>&&#####%&&_>>>__>_----_------__-_>>>>_>>->>>>__>>_---{{{----{-----_>>>--__-----{]{^^]{{---{----{{-----{{-{{-].*..  =,_-__-{__>>>____>>>;;;>;>_>>>>>>>;;>>;&&>___>>>;>>>>>>;>>>>;>>>_>_<-;>>>;>;;>>;&;&%&>_>>_>;;&&%#%##%$$#$#%%###%$#$#$$#$##$$&&$###&&&>>__>_--__________^{>------{]{{{-->>{-----{{{--{]{{{----<{--{{-{{{--->_{---_>___>;&&&%&&%&;;>_-_-------{]]^^]{{{-&%_@!*.@",
" ++~$|]^^]]^]^]^^<^]]{]]]]{]]{{{{]{{{]{{{{{{]]{-^^{^]{{{{]]{{{-{{^]{]{{{{]]]]{------{----{{{{{{-{--{{{{{{-{{{{{{{{{---{{{--_>_-&#&;&>>%##$@%_>&#$$%###%%&]{;>>>>>----_-----__>-->>>>>>_->;>>>__>_--{{{{-------_--_>>-^-_-------{]^]^]-_---__--{{----_-]--^^-, #@+.,*]__>___>>-_>__>>>>;;;>;_->>>>>>>>>>>;;&>_>>>>>;;>>>>>>>>>;;>>>>>_{->>>>>>;;>>&&&&&;;&>>>>;;;&%##%#$####&##%###$@%#$$$####$##$###%%&>__-_>_---____-_----_---{--{]{{{--__---{--{{--]]{{{-----]{_-{]]{----___--__-->__>;;&&#&;&;;&>>>-{--{--{{{{]^]{{{-;&>,).+ ",
".  )$[{]]]]]]^]]]^^]{{{]{{^]{]]]]{{{{]]]]{{]]]]{]^]^^]]]]]]{{{{{]]{{{{{{{{{{{{----{{{]{{{-{]-{---{{{{{{{-{{{{--{--{{{{{{{{-__>;&%%&;>>&#%&@;_>_&@$;$$##%&;>>>>_>_---------__>--_-_>>__-_>>>_>>___--{{-------{{--_>>_{]--------{{{{]]]-_-->>__-{{--__--{{-{{]*=@@@.=.{__>>>__-_>>__>;>>>>;>>-->>>>>>>;>>>>&;>>>>>>>>;>_>;>>>>>>>>;_>>_>_>>>>>>>>&&&&&;;;;&;>>>;&&&##%##&#$$%&###%#$$##$@$$#$$#@$@@##%&&&>>>_->_--______---_-_---{--{{{{----->_{-_---{]{{{{-------{{--{]{-_>>>-__--_-__>>>>;&&&%;>;&&;>_--{{{--{{{-{{{{{{{_&- (+.@",
".++=#<{{^<^]^^^^]^^{]{{]{{]]{]{{{{{{{{{{{{{{{]]]{]^]]]]]{]]-{{{{{{{{{{{-{]{{{-{---{{{]{]{{]{{-----{{{{{{{]{-{{---{]--{{{---__>>;%&&&&;&####>%--#$&##%###%;>>>>___-----{--____----_>>_>_--_;>__-_>_--{{-{---{]---_>>_--__---------]{{{{---__>_-{]-____-{-{{-{+,.@$+=+{_>;>>-__>>;>>>>>_>;>>>__;>;>>>>;&;;;&&;>;>>;>>>>>;;;>__>>>>>_>>>>>>>>>>>>>&&&&&&;;&&>;>>;;&&%##%#%%###%#$$%#$$$$$@$####$@$@@$%&;>;;;>____>>____>___--___-----{-{{_-{---------{]{-----------{{{{{{{-__>_>>_---->>>>>_&%%%&;;&&;;__--{{--{{{{---]{--]-%_@3=@$",
"+@+)%[{{]^]]^^^^]^^]]^]{]]{{{]{{]]]{{{]{{{{{{]{{{{]]]]^{]]{{{{{{-{{{{{{{]{{{{{{{{{{{{--{{{{-]{-{---{-{{-{{{-----{{{{{-{{-{-_>>>;&;;&&&%##&&$%{;+>>.&#$#%&;>>>>___----------___--_>___>_-{_>>>______-{--{{{{-{-{-_>>--->_--_------]{{{{-_-__>;>---->>_--{]^->',...$*={_>>>_-__>;;>>>_-_>>>>;>>;;;;;;;>;&;;;;;&>;>>>_>>_>;>_>_>>>__>>>>>>>>>>>>>;;;&&&&&&&;;;;;;&&%#$#%###%&##%#&###$@$@@$####$#$#%$&>>>;;_->__>>>>>__>___--_>>------{{-_-{{-------{{{{--__--{{-{-{{{{{{---_>_>>>-__-->>>>;&&&#&>&%&&&_>_------{{-{--{{-{]-&_+~.+@",
" %#~$^-{]]]]^]{]]]^{{]]{]]{{]{]]{]]]{]]]]]]]{]^]^{]^]]{]^]{---{{{]{--{-{{{{---{{{-{{{-{--{{{{{]-{{{{{{--{------{{--{{-{{-{->>>;&&&&&;;%#%;#@&>$#>$##$$#%%&>_>>>__-------______-->_-->_-__>>__>>_-__-----{{]{-{--->>--_----_--]]]{{{{{-^{>>>_>;_--{-___-{{]--*,+.@@''{>>>_-->>;;;;>>>___>>>>;;&;;;>>;;;&;;;;>;>>>>_->>_>>>_>__-___>>;>>>;;;>;>>;&;&&&%&&&&;;;&&&&&#%%%###$#%#%%####$$$$@@$###$#$$%&;>_>;>-->_>>>_>_>>>>>_-_->>___----___--{{-{{{-{----{-----{--{{]-{-{{_-_>__>>>___--_>>>>&;;%%&&&#{[>>__-------{--{{--{{-;_*/@+.",
".#$!@]_]^]]^]{{]]]^{{]]]{{{]{{{{]{{{]]{{{{]]{{^]{{{]{]{{{]^{-{{{]^]{{{-{-{{--{]{-{-{{{-------{]---{-{{{--------{{-{{----{{->>>>;&&&&&&&%%%#$$$@##.#$#$##%&>>;>>___---_---__>>--_>__>>>>{{;>-_>;>__------{{{{-----_>---{_----{^^]{--{-]}{_>_____-{{-_-{--{{_-*,....)={-_>_-_;;;>>;;;>__>;>>;;;;;;>>;;;;;;;;;>;;>_->>>>>>;>_____>__>>>>_>;>;&;_>>&&&&&%%&&&;&&&&&&&%%##$##$$#&%$$&#$@@#@@@#%###@@$#;>>___>>>-__>>>>>>>>>>__-_>___-->>_>>_-{-{{{{--{----{{------{]]{{{-----__>>>___--_____>_>&;&%%&&%>^>>_>--__{-_--{]----{->_ (.@ ",
"+..~#^_]^]^]{]]]]^^]]]{]{{{{{{{{{{{{{]]{{{]]{{{]]{]]^]]{-{]--{-{]]]]{--{--{--]{---{^{-----{-{{----{---{-----------{{--{-{{->>_>>;&&&&&&##%%##%#@.@@$####%&>>;;>>___-__---_>>>--_-_>>>>>{]&_>>_>___----_-{--{-----_>-->_-{{{{]]]]{{{{]<{_-___-_-{{----{{{{{->+'+++.,)-->---_>;>>;>>>->__>;;&;;;;;;>;;;;&&;;;>;;>__>;>;>>;>___-->>>>_>>>>>>;&;>>;&&&&&&&%&&&;&&&&%%######$&&#&%###@##$@@##$####$###&;>-->;>_>-_>>>>>>>>>-->__>_____>>___---{{-{{---{--{-{----{{{]]{]]{----->_-_--_-_--_->>>_;;;&&&;;%#>__>___-{->-{{{------;-+( ..",
".. /#[-^^^{{{]{]]]]]^^]]]]{{{{{{{{{{{{]{{{{{]]]^^^]^^^]]{{{{---{]]]^]{]{----{{-{{-]]--{--{--{{---{---__-{---------{--{-{-{-__>>;&;;&;;&%%$###%%&%#$@$$#%%&>_>;>___--_----->>-_--__>>>;>>>>>;;>>>_--{----_-{{{-{-->>-_-^^^{--_{^{{{{]^^{---___14^--{{{---{{{-*,++* =(%{_---_>;>>>>>____>>>;;;>>;;&;_>;;;>>&;;&;>>;;;>;>>>_-->_-_>>>___>>>>&&>>;;;&&&&&&&&&&&&&&&%%#######%&##;%@$$#$@#%#&%###$#&##&>>-_>>>_>>_>>>>____>>____>>__>>>>__>--_-^--{-_-{-{{{{]^--{{{{^]]]{{-{-__-__--_--_---_>>>;;;;&;>&;;>___-_---_-------___>&-@/ .+",
".+=:$|{^^^^]^^]]]]{]^^^{]{{{{-{{{{{{{{{{{]{{-]^]]]^^]]]]]{{{--{-{]]]]]]]{---{{{]{{^{--]{-{--{-{---{-_-----{{-------_------_--_>;;&&;>;>>%$###$@#%%##$$#%#&;>>;>---{-__----__----->>>>>>>>;&;;;>;>----{{-__--_----->>[5|^{-___]^{{{{{{]^-_-{>^65{{{--{{--{{-{ =+.+* /.]----_>____>_>_-_;>>>>;;;;;;>_>>;;;;;;;&;>>&;;>>>;>_-->;>>>>_>___>>;&&>>>;>&&&&%%%&&&&&&;&%&%####$#@$%%&##$#$$;#$$@%###$$$#$%>>>>-_;__>__>>>>_>>______;>>>_>>>_-_-_---{{---{{{{{]^]]]{-{]^]^^{{{{-{{_>_-]{_----_-{_>>>;;&&_>&;___-----_>{]{--__-_>-_%_+/.@+",
".+ ($1{^^^^^^^^^]{{{]^]]]{^{{{{]{{{{{{{{-{{{{]]]^]]]^^{{]---]{{{{]]]]{]^{{{]{{^]-{]----{]--{{{-------_---{{{{{{{{{-----{-___>--;;>>;;;>&&%$###$@@$$###%%%&>_>&>------__-_-->_--_->;>>__>;;;;;;;>>>_----_>>_------->{75^-__----{{{{{-{{]-----^^--{]---{{--{{{ *$.  ':@^----___>________>>>>;;;;&&>>;;>;;>>>;;;;>;>>>>_>&&>--->;>>__-_>>>;;&&;>>>>&&&&&&%&&&&&&;&%&&%##%#%#$#;&#%$$$#;$$#@##$##$@%##&>>>>>>;>_>__>>>___-_--_____-___>_{{{--{-{{---{]{{{]^{{{{-{]]{]^]_-{]{{_----{{{---__--_-_;;;;->>;>->-{-_--_-]---_--__->&-.(+@@",
".+*/>1]^^^^^^^^]]]]^^]]]{]{{{]]{{{-{{-{{{{{{^{]^]]]]]^]^]{{]^^^{{]]{]]^]{{{{]^]{-{{{{--]{-11^{{{{--------{{-{{{{{-{{{--{---__-_>>_>>>>>&&#%>%&@@$$#$$$&&%&>__&_--_--------___{-_->>>>_->>>>;;>>>;>>__--___>>_{{--{-18^-_>-----{{{{-{{{{{{^{----{]^^{{{{{-{{<$'&#@+,:#^---__>>__-->-_>;>>>>;>>;;&>>_]>&>;>;;;>>>;>>;;>;&&>_--_>>>>_--_>;;&&&;;;>;;&;&&>&>;&&&&;&%%%####%%#$#&%######$$$######$$###&;>_>>_>&__>>>>>___--_--__-_______-{--{{{]-{{{{{]{{]{{]]{--{{{]{]]-{{]{-{{-_>-]-{-{-_----->;&_{>;;>_>{-_-----{{_--_>__>>&-+(@#$",
"@@ ~&|]]^^]]^^]^]^^^^{{{{{-{{---{{---{{{{{{{{{]]]]]]{]<]]^^]{^^{{]]-{^<{{---]{]]----{-]{{}5[^]{{{--{{{{-{{{{{{---{{{{------_--__>>___-_>;#>>#%###$@$###&&%&;>>___--__{{-----_---_>>>>>__>>>>>>>>_>>___->-->;>-----^1]----_-----{{{{{{{{]]^]-{-{^]<^]{{{{{{{<&'##$@*/#]_---_>>-->>>__>;>;>>;>;;;>>>-{;>;&;;>;>>;;>>>>;;;;>____>>_-__-_>;&&&&;;;;;;&&;&;;>_&&&&&&&%######%#%###%##%##$$$#%%$###%#$%;;>-_>;;>>>>>>>>__>_-_>__>__-_---------{-]|]{^]]]{{]{{]^{__--{{{{-{]---{{>>>_-{{{{----->>->>;<[>&;>>>---{--------{-__-_>&>$)$%@",
"@$+~&<{]^^]]^]^^^]^^^]]{{{{{{-{{{{{{]]{]{{{{{{]]^^]^[]]{^<^]]^{{]^{{{^]{{---{{^]{----{--85<]]]{---{{{{{]]{{{{--{--{{---{{-__---_>>-----_>>%##$#$$$$@@##&&&&&;>;>_-_-_----_--_---__;_---_>>>&;>;>-__->>--__>;_--{--]{_-{{--{-_---{{{{{{{{{{{----{{]]{{{{{]]-^&'.@@@@)@{_{___>_-{-__>>>>;_>>>>;>>>>_>;>>;&;>>>;;>>;>_>;>>;____________>;;&&%&;;>>&;&&;;&&&>;&&&&&&&#%#$##%%#$%%#####$$$#%##$###$$##&;>--__>>>>__>>>>__>>_>>>>>_______-_-----{[]-{]]{]]{]]{{->>--{-{{-{{-{{->_>;--{]{]-_--->>&>;-11^;%>>>_-{]-_{{-----_--{-_>_%!.$@",
"@.=']]{]^]]{{]^]]{^^]]]{]]{{-]]{{{{]{]{{--{{{]]^^^]{^^]^^]^^^^]{]]{{{{{{{{---]^{{{{{{--}5<{{{{{--{{--{-]{-{-{{-{{{{---{-----{--_>>_----_->###$@$$@$$@##&&;;&&;;>-->_-__-_>>>-{--->>>---->>>_-_>_--_-_>___>_>>___-{___{{--{{{----{]{{{{]{-{{-_]]{]{{{{{{{{{{^%'#@.$ !>_>----{{--_______>>_>;>>__>>>>_>>>_>;>;>>>;_>;>>>>;>--{->>_>_-->;&&;;&&>>;;&;;&;;&&&;&&;&&&&##%%#%%###%&%#%&##$####%$##$@%%$&>__--_>;>>>_>>>>>____>>>>___________---{{-{]-{{{]]]^]]-___-{{{]{--{{{-_;;;;_{-{--{{-{]{_;;;^1^-;&;>>>>-{{{---__-_>-{--->_;) #$",
"+ ==^]{]^^]{{]^{]]]^^{{{{{{{{]{{{{]{{{{-{^]{{{]]^^]{{{]]{{]]]]]{{]{{-{{{{{{--{]]{{{{{{1}{---{--{{-{-{{-{{{--{{--{{---{------{{--___-{---_&%%##@##@@$$@%&&;;;;>>>--__-_--_-->_---_>>>---_>>>_--_--______-__-_;_->_--_----{{---_--{]]{{{]]{{{{{1<{]{{{{]{{{{-[&'#@##,/>->_{{-{{->>_-_>__>>>>>>>__;>>;>>>>;;;;;>>;>>>&;>_;;_-_-->>_-__->;;;;>;&;&;;&;&&&&&;;;;;;;;&&%%&%%#####&#&%#%%#$$#$%#$####$$#&>>___;>>__>_>>>>>__-_>_>>____>>>__-----{]{{{]{]]{]{]^{-----{{-{]--{{->__&;>-_>_{-{^{{]{_>>---&;_;&;>;-->--_-{{_-->-{{--;>|**@.",
"+*=*^]{]^^]{^<]^]]]]]]{{{{{{{{{{{]{-{{{{[[{{{{{{]]]]^]]]]]{]^<]{{{---{{{{{{--{]{{{{-{[1{------{{-{--]{-{{{{-{{---{--{{-{---_-{-_--------_;&###$$$#$$$#%&;>;&;>>_---->_-----_>>--_>>>-{->>>>>>_--_>>>_____{_>__--_-__--_-{{-_----{{]{---{]{]]^{{]{{-{{{{-{{{^@'##$.,/&>_-{{{-----_---_-_>>>_>>>>;;;>-->&>;>>;>;>_>>_>>;>->>>____>---->;;;>>&;&&&;;;&>;;&&&;>&;>;&%&%%%&#####%;&#%%%%#$$##%##$#$$##&>>->>_>>>>_->>>>>_>____>>-_>>>>>>>_--{{{{{^^]{{-{{_{{-{{----{]{{]{{]->_-;-___;_--{]{{--->;>>&&_-&>_>__-_>---{{{{--_{]{_;-|=*@.",
"@.=)-^{]]]^]^^]]]{]^]{{]{{{{{{{]]{{{]{{]]{{{{]{]^^]]{]^^^^]^]^]]]--{-{{--{{--{]{{]]-{]-----{{-{---{-----{{{{--------------_----->-------_&&&##$$$$$$$$#%&>>&&>>_----___------{-_->>>_--__>_>>--_>>>_>>_>-->>--______--_---___-_-{{{---{{{{{^{-{{{{{]]{{--{{{='##. =~&>__-{-_--_-_---___>>>>>__>;>>>_>__>>>;>>>>>>_->>>>>;>--_-___---_;;;;&;;&&&>>;;;&;_;&;;&_>;&&&#%&&%###&%&&%%&&&&$$##%#%#####%&>>>_>_>>>__>>>>>_>>__-__->->>_>>>_--{{{]{]^^{{{---{-_{----{{^]{{{{-{{-_____>>>>__-{{{---_;;_>;&>&>|>>>>--{--{{-{--{{{{->{|==#%",
"@.=!-^{]]^^^]^^{<[{]{]^]{]{{{{{]]-{{{{{{{{{{]{]]{<^{{]]{^]]{^^{^^{{{{{]--{{---{{{{{{{_---{{]{-{{--{--{{-{{]{-{{{{--{{---{-_-_--_>__----_>-_%%#$$$$$$@$###;;;;>>>---___-----{{]--_>;>_---_>-_>-__>;>>;>>_-__;>__>>_-{__{{-----_-{{-{{--]^]{{^]{{-{--{{{{-{{_^#)@@. ,~___-{-__-->_-->>_>>>>__>>>>>>>_->>_>;;;>;>>>>-__>>>>>_-----{_-___>;;;;>;&&;>;>>&&&_;&>>;>;&&;&%&%&&%###%%%%%&&&%#%######%%%#%&>_>>__;>>___>>>>>>--------->>__><{_--{{{-{{{{{{-{{{-_-{{-{{]^^]]{{]]]-{-_-----_>>>-{-{->>__>>>&>_;>__;>--{-_{{--{{{---]__}@)@$",
"..=!_^{{]^]]^^]]<<]]]^^]{{{{-{{{{]{{{{{{{{{]{]^]^^^]{^]{]{{]^{]]]]{{{{{{{{{{{---{{-----_-{{{{{{------{-{--{-{{{-{{-{{{{----__->>__->_-__>_&##%##@##@%_%&&&&;>-_>--____-__-____--_>>>--->>_-______>>>>>_-_-_>>_>>>>-->_{-----__-------{{{{{{]^{-{-{--{{{-{{_^%).@@@*!>-{]{_---->_-_>{->;>>_>>;_>>>>>_->;>;>>;;;>>>__-_;>_-{--__--__->>_>>;;>;>>>>;>>;>;_;&;>>;&>>&&&&&&&&%#%%%%#&%%%&&###%%####%&%&;>-_>>-->>_>>>____-_----_-->>_-_^{>-_----{{-{]----__-{{{{{{^^<]^]^<^]{--__-{--->>_>{-{{_>_>>>>;>;>&>_>>>---_-{{{{{{------1.'@.",
".@+~$<{{^^^]^<]^{{^]^^{]{{{{{{{{{{{{{{{{{{{{{{]^^{]]{]]^{{{]]{]]{{{{-{{{{{{-{--{---_---------{{--{-{-{{-{---{{-{--{-----_--_->>>_----{_-->&%%%%#$$%$%>#%;&&>>-{>____>__-_____-->___----_>---____>___>_--__->>>_>>___--_-----___{----{{{{{{]-{{-{{----{{]{->{$,@@@.+!@{{]{__->>>--__{->_>>>_>>>;;>>>>>_>;;>>>>;>>>>---__-{____-_--__>_>>>>;>>;>;;>_>;>;>;;>>;>>>>;;%&&%&%%#%&%%%#&&%&&###%%&%##%%#%>____>-{>__>>>___>_---_--_>-{---__-->_>_{{---{{{{--{------]^^^^]{^^^]{--;>__>>->;{---{---->>_>;>>&;&>>>_-----{{{--{--{-_-1.=$@",
".#.)&]]{]^^^^]<]{]^]^{]]]{-{{{{{{{{{{{{{{]{-{{{{]<^-^]{^]{]]{]]]--]]-{{{]{{{---{{{--{---{{---{{{{{{--{-{{{{-{-{{{{{---{--____-->--------_>>&&&%%#@##$@$#%&__>>>___-_>_--__-_>--__--{---__>_----___>>;>_____>>__>>-_----{{{{-{--{-{{{--{{]]]--{{{{-__-{{{{]{-='@@@.=~#{{]{_>>>>>>>>>_->_->_->>>_&;>_>_>-->>;>;>>>>>_{-----_>_-_>>-->>>>>>>>>__;;>>_>>>;;>;;>>>>>>>;&&&%%&###&&%#%%%&%%###&&&##%##%;>_____-_-_>{_>>>>>------_>_-----__-_>_{-----{{-{{{{{-_>_--{]]<^{{^^]]{_>;;;&;;;;;;>;-{-_-{>;>>>;_>&>-_>_{{_----{{--{{-->-<==@#",
".@.~$<{]]{]]]]]]{]]^^{]]]]{{{{{{]{{]]{{{{{{-{{{]]^[{]{{]^]]]^^]{]{{{{{{{{-------{--{{{-{{{{-{{-{{-{-{{----{{------------{->__-->---{---{-_>>&%%%##$#$##%&;;;>;&>--___------__{--_>_-_--->>_-----__>_<_>_--___>>__--_--_-{{-{]----{{---{{]]{{-{{-{{_--{]{{{{^ ,.@.+=(#]{{--_>__>_>>_>_-_-_>>__-_;-^->-_>-->>>>;;>_>--_>_>____>_-__>-_>>>>>__>->;>>>>>_>>_>;>>;>>>;&&&&&&&&%#%&;##&&%&&%$#&%%%%%#%;;&_->>>_--___>>>>_------->>------_>_-_-{{--{{{--{-{{-_>>-__{^]]]--]]---->;;;&;>&&;&&&_{-_--___>>&>_>---{--{{----{{--{--->-[,*&%",
"@.@).[{]{{]]{^{{]{]^]]{{]{{{{{]{{--{{{{{{-{{{{{]{{^^--]^^^^^^^]]^]{-{{-{{{{]{{{--{---{{{-{{{{{--{{-{{{{---{{-{--{-{{{--{------__-------{{>>>;%%&%###$##%&&%&&>>>>___>_--__->-{-----__--_-____----_>_[{>_-_-_>>__>--___{{--{{{{]{-----{-{{{{{{{{-{{-_-{]{{{{]=,@$.+ ( ^{]---__>__>___>>_-->>>>->_]{____>>>_->>{_&>_--_-----_>>___>>_{>>>>>->>>_>>->>_>_>>->;>;>>>&&&&&&&%&##&%&&#%&&&&##%%%%%##%%&&;_->>>_---->;>_>_---_---_->--__>>__-----{{{{---{--{-_>>__-{]--]-__-----;;;&;;;&&;>;&;-{{--_{-_>;>__>_--_-]{-_-{{-{_>{{_>{^, &&",
"@../.[{{{{^]]]{{]{]{]^^{{]]{{]]]{-{{{]]]{]]]{{{[<]-{{{]]]]^^^]^^{{{{{{{-{{{{{{{{-{-{{{{{{{{]]{{-{{-{--{------{{{-{----{------------__---{>>>;&&%&##%####&&&%%_<;>_______->>>_---{-_--_>_-___-{-_{-_>>--____>>>>__--{--{---{{{{<<{{{{{{{]{{]{{{{{{{-_-{{{{{{-) %$@.+~){]^]-_-__-_>>>_>>-->>_>>_>_>>_>>>_->>>>>{>&>--------->>>>>>>-_>>>_>>>>__>>>_->>>>->>->>>;>>>&&&%;;%##&%%%%&%&&&&###%%%%#$%%%;;{{__--_____>>>>>_-_----->--_---_---{--{{{{{{{----{-_>>_--{{{]{--_--_->;;;;>&&&&&&&;>--{{__-{_>>>_>_--__-{-_-{{{{{_--{-&^&!@$@",
"@. ~#[]{{]]{^]{{{]{{{]]{^{]{{{{^]{]{{]]]]]]{{{{^]{-{]^]^]]]]]^]{{{{]]]]{{{{--{{{{{{]]{]{{{{{{-{]{-{{---]^--{--{--{{{-{{-{{_>_----_--_----->>>;&&%%####$#&&%%;>>>>_>>->_-_>>_>_-_->-{__---__-{__--__----__>__>>_>>---{{--{-{{{]<<^{{--{{]]{]]{{{]]{--{]{-{{{-, ;%#$.!){{^]----___->>;>___>__>_>_--_>>>>--__>__;;;>---__>>>>>>>>__>__>>-_>>>>>>>>___-___>>>>_>>;&;>&%%%_>##%&&%%%;&%&&%#&%&&%##%%&#>__-__-{-__->>>>>>_-----___{-_----_{----^<{{{{{{-_---->_{{{]]{]{-__--->>>;&;>;;&%%%&;>__-{-___>__>>_---{----{--{{]{---{_;]&)$#.",
"$+=)%[{]]]{{]{{{{]]]]]{{<<{{{]{{{{]]]]]^]{{{{{-{]{{{]]{^]{{^]]]{{{{^]]^{-------{{{{{{-]]{-{{--{{-{{{{{]^^]{-------{{{---{{-_-{{{-----_-{--__>;>;&&%%%%%&%&&;>>&;>>>>_>>___>>>_____--__-->__-___--_____-__-__>>>;>__--_-{{-{{{^^^<{-{----]{{{{{{{{{{-{]]]]{{-= ;>#.+~.<{^]{----_>>_->__>>_>>>--_>_>>__>--_>--_>{>>--->>>>>>>>>>>-__>_{-_>>_>>>-_>>>>___>__>>>;;;&&;&#&&&&%##&%%&&&&%%&%%%%%%##%%;>&>__--{-_-___>>>>>>_--__--_-{-->-{{----{]<]]]{{{{__-----{{]]{{{{->->>_>>;&;;;&&&%%%&;>>;--{-->_-_;>>>_-{--{-{--{]]{{{--_>{&)@&$",
"$. !%[{^^{{]]{{{]]{]]{]^{]]{{]]{{^{]]]^^^]]{--<^{{{]]{]^^]]^]]]{{]]]{]]{-{{--{--{{----{{{{{{{{{-{{----{{{]{{{{{{-{{----{----{{---{--{-]{---_>;__&;&%%%#%&&&&&;>;;;>>>-_>__>___----_--____--_--_-{__--_---__>>>;>_>_->_-----{^]^^<^{{{--{]{]-{]{{{{-{<]]]]]{-  %;#@ !$[^^^]]-__-_>>_--_>>>>_>>_>___>__>>_>_-_>>>_>__;>>>>>>>>_>>__-__-_--_>>_>____>>>>_>>>->>_&;&%;&#%%%&%##%%%&%%&%&%%#%%%&%#%%&;&>>{[{__>>___>>>>>>>---_{-__-_---{{----{{-{]]{{{--_---{{{{^]{]{--___>>_>>;>;&;&&&%%&&>_>>-{--_-->>;;&>{]{-{{{{]]{{]{{{{->->'$%$",
"#$ /$^^^{]]]{{{{^]{{{{^^{--]{{]{]]{]]^^^]]]]]{]]{{{{]]]]^]]]^^^{{{]{{^]]{{{{{{-]<-{{-{{{^{-{{{-{{{{{{{{--{{---{{-----------{---------{{-{-_-__>>>>&&%&&%&#%&&&&;>>;;>_____>_--_--__-{____----_-{{-_--_--__->>;>>>>>;>_---{-{^^^^^^^^{-{{{{]{{{-{{{{{^]{{]]]{. #%$@.~.|]{]{---_>-_>>-->_-_>_>;>_-_>-->>>>>-->>>____>>>>>>>>>>>>>>_--___-_;>-_>>-_-_____>_>>>>;&&;-;%%#&&%%#&#&%#&&%&&%#%%%%%%%&&#%_>>]^_>__--_>>>>>>_-_>--_-->_---{-{{-{]{{{{{]{{]{{--{{{]]]{-{---_>__-_>>;>>>&&&%&%&&&;__>>{-_{--__>>>_-{{>;-^^^{{{{-{{{{>-;,#$+",
"#$ /$^^]{]]{]{{{{{{{{]]{{^^{]{]{]]]^^^^^^]]]^^{{]{{]{^^]^^]]]^]{{{{{]]{]^{{{-{{]{{]--{{{{{{---{]{--{{]{{{{{---{--{{------{--{{{--{{{]-_-{-_--_>>>;&;%%_;##%&;;&;;;;&;;>>>>_>----____-_--______{]{________-->>>;;>>&;>>_-{{{{{^^^^^<^{{{^]{{{]{-{{{{{{]]{]]]{+ %#@$.~@<{]{--_--_-->>>_>__>>->;__---__>>;>_->>>>__>>>_>>>;>>>>>__>___-___>>>-_>>__>>_--_;_-;>>;&&>{;%%#%&%#%%&%#%%&&&&%####%%%%%%%&>>__>>>-_--_>>>_>>___>_--->____-{{{{]]{{]{{]{{{{{{{{{]{{]{{-_---_>___;;__;;>>&&%%%&;&;__>--{---{->>>_---_>>-]]]{{{-{]{-_>{;)$_;",
"$@+!%[]{]]{]]{]{{{{]]^^{]^^]]]^^]]]^^^^^^]^]]^]]]]]{]^]]<^^]^^]{{{{{]{-{{{{-{]{{-]{--{{--{{--{-{]---{{--{{---{{{{{{{{----{----{{{{{{{-------->_>>>>>&#%%%&%%&;;;&&>;;;>>_>>>>_{-__----_---__--{{-_--_--__--_>>>;;;;>>>_--]{{{{^^^^]{{{{]]{]]{{{{{{{{{]]]]]]{+ ##$$@~.]-]]---_-__-_>_>>;>>>>;>>_{{-___>>>_>>_>>>__>>_-_>&;__>>>>>_>_-___>__;;>-{>>>--_____>_>;;;;#&&%%##&%#%&&%%%%&;&%&#$#%&%%%%%%&>___>>____-__>_---_--__-->___-{--{]{{]]{{{{-{^]]{]]{-{{{{{-__-_>__>>;>>>;;;>;%#%&;>>>>_{-_----__>>_-{____-_-{{{--{]{{__>{;!+-^",
"#@+!;[]]]]{]{{{{{{{]^]]]]]]^]{^^^^]^]]^^]^]{^^^]]^]]^]]]^^^^^^]]{-{{--{{{{{{{{{{{-{----{-{----{{-{{--{]{---^<--{{--{---{---_---{{-{--_-{------>>>>>>{%&&%%%%%&;&>>&&>;;;>_>>___-__-----__---_-_-----_{-_----_>>>;;>___--{{--{{]]^^{---]{{]]{--{--{{-{]]]^^^]. #%$@./+^--{{---__-__>>>;&>_>>>>__-{->-_>-^_;_>>>_-_>--_--{>;>>;>>->>>____>_>>>>>>>__--_>__>;-_;;;&&&&%#%%%&&&&&%#&%&;&%%&%%&&&##%&%&>__________--__-_---->_-__-_-{-__{]{{{{{{{{{{^]{]]{{-{{{---_____>>_;>_;;&&>&&&%%%;;>___--__-_->>>-{-----__-{{{{--]]]{_->{#~.#&",
"&@ /#|]^]{{{{{-{{{]]]]]^]]]]]{{]^^^]^]{^^^^]^^]]^^^<]{^^{^^^{^^]{{{{-{-{{--{{-{-{{-{{{-{---]^_-{{{{{{{]]---^<^{--{{-{{{--------{-------------_>>_>&&>&%;%$##%&;_>;%&>;&&>_>_-___---{-------{-------____{----__>>>>>_----{---{{-{{{{{--{]{{{{{-{----{{{]]<[^]@+%&#$ !#[{{{---__-{_;>>>;>>>>>>>_>>-___>>_-_>>__>_->>_{---{>;>>--;>_>_-_>_>>;>>>>_____--___>>>>_;&;;&&%##%%%&&&%%&%;;&&%%&&%&&&&%%&#&>______-_>-{_--__--_>____>----_>-{]]{-{{]{{{{]]{{]{{]{-------___>>>>&>;;&;&;>;&&&&;>_>>_--___-__>___-]{--_>{]]{-{-{]-->>{&/.#$",
"#@ ~@[]]]{{{{{{{{{{]]]^^]]^^]]{]^^]]]]^^<^<^{^]]^]^^]]]^{]<^^^^]]{{{{{-{{--{{-{{]{-{------{{{------{{---{{{{]^<{-{{{{{{-----_-{{{-----_--{--->>->;;&#%%%%###&;>>;>;;&%;;;>>__--_-------{--------{-__-_-{-_--_->>>>>_----{----{{{{-{{{{{]]{{{{--{{-{{]]]][[<^.+;;;#.,#1^]{----_--_>;>>;>>&>_>>>>>>>_>>_>>--_-->>>-___-->>>--_-____>-->_>>>>>_>___--_>->___->>>>;;;&;&##&&##&&%&&%%&>>&#&%%;&%;&&%#&;_-_>>____--___--___>_--___--___-]{{-{]-{]{]]]]]{{{]<]-----{-----_>;&;;&;;&;_>;%&;;__>>__-_>---_{{>-{{]-_-_-{-{{]{---_>>{&(=$&",
"@@ /@[{{{]{-{{^{{{{]^]{]]]^^^]]^^^]]{][^^<[<]^]^]^^{]]{{]]^^^]^]{{{{{{{{{]{{{{-{{{-------{{-_-{{{-{{---{{{]]^]^^{--{-{-{-{{--{{---{{---------_-_>>>%#%&%%>%&;>>;;;;;>>;>>_-_--__------------_-----__-_------{->>>>>-__------{{{{-{]{{]{-{{{{{{-{{]]]^^^]^[<<#.>-->$)@|]]^]-------__>>>_>>>_>_>;>>_>>>>>>_-__>____>>_____-{{->>__-_>>__>_>>>_>>>--->-->_--->>&;>;&&&&&%&%%&%&&&&&&&&;;&%%&&;&&&&%%&>__-_>_--_--__----__>_---____----{{--{{{{{]]]]]]]{]]]]--_--{{{--_>_;;>;;&&&;>;;>&%;;&>>>>-_>_--_--_-{_{-__--{{]]]]--->_>^$! @%",
"$@*/$[-{{]{{{{]{]]]^{]{]]^^^^]^^<<[^]]]^<<<<^^^^]^^^^{{-{{{{^^^]]{{{{{-{{]--{--{--------{{{{-{{-{-{]---{{{]^]{{]--{--{{]{{{-{{{{{{---{{--{--{--____&&%&%#;%&>__>;;>>>>>>_-----_-------{-----{_---_---_---------_>_>___----__-{-{<{{]{{{^^]^]{^^{{{]<^^^<^[<^@#___>#)$[^]]^{{---____>>-->>_>>_>>>>>>>>>>>>>>>;>>_-_>--_----{{->>_--___>_>>>>>>>>-{>>-_---_>>>>>;;;;%&&##&%#&;&&&;;>&&&%%%&&&%%&&%#&;>-_>_-_-_--_-_--_-___----___-_>>-{--{]^]{{{]]]]^]{]^{--_-{{-{{-_>>>;;;>;&&>>&>;&&&&&&>>__>>_--->>>--]{_--_--{]]-{--{-_>{*=;##",
"+..!#^{{{{{{-{]-{{]]{{{{]^<^]]]]^^[^{]]^^<<<<<<^^{^<{{{{-{]-^^^]]{--{{]{{{{{{{-{]-{--{--^{---{]---{{---{{{]{{{{---{-]---{{-{{{{-----{----{------{->;&&%%#$%&>-_>>>>_-_>_{-_{-_____------_---_--__>-{>{{----{----_______--_----_^[{{{]-{^^]^]]^<^]]]^<^]^^[<]+&{-;&# ;[<^]^^]{--___>_>_>;;--_>>>>>;>>_>>_>>>>>>>>__-----__----__----____>>>>>_>;>->-->--__>>>>>;&;;&&%%%&&#&&&&&&&&;;&#&%%&%%%&&%&&;_-_;--__--__---->--_-------__>>>>-{<[[^]]]]{]{{]]]^^]-_-----{{{>>_>;>>>&&;>>>&%&&&%&;>>>>>>_>_-_->_-{-_-__{{-{{-{--__>&>)!%;#",
"+@$~$<]]]]{]{{{{-{{{{-{{{^^<^]^^^^]]]^^^^<^^[<^^^^^]]]{]]{-{]^^]]{-{]{{{{^]-{{-{{-{{-{-{]{-_-{]{-{{{{{{{{{{{{{{-{{-{^--_-{{{{{{--------{-------{{-_>&;&&#&&>>_>;>>>--_>>------{--------_>_----___--__----------_-___-__-__----{{-^^{{{{^<^{{^<<[^^^]^^^^<<^^@#->>>.*{[<^<^^^------__-_>-]{__>;>>>>>>>___>>>>;;__;__---{__-_>--__-_>_--__>;>__>;_>>--_>_>>_>>;;>;;;&;&%&%&;&&&&&&&;;%%&%&####%;;%&&&>_-]-_--_-__--_--_-_>{{_-_{->__;;-]^^]]]]]]--{{]]]]]-_--{----{->>___>>;&;>;;;&%%%%&#%>_>>>>>>_--_>>__>>_>_{]]]{{{{-->&%&'~ %#",
".. ~%<]{^]{]{{]]{^]-{{]{^^^[<^^^]^]^^^<[^^<[<^<^^^]^]]]{]{{{{]^^^]-{{{{{{{{{--{{--{-{--{{--{-{^{{{{{{--{]{{{{{{{{{{{-{--{{{--{-{{{{---{--------{-_->>;&%#%#%>__>;>>>__>>>__-------_-{{---_---___-{-____-___-_--___--_----____-{-{{]{{{{]<]-{]^^<<^^^^<[[^<<^@$>>>>#*{^^^^^<]------__---{{_>>>>>>>__>>___>>;>;&_->___{----_____--_____-->>>>>>{->>>>>>_>>>__>;&;>>&;>%&&%%;;;&&&&;;;&#&&&%#%%#&;%%&;>_-]-_--_--_-_--__-_>{{_---->>-__-{{]]]]]]]{_>_{{]]{__-{{-{---_>>>__>;#;>;&&%%&&;&&&;>>>>>>;;>_->>>__>;;>-]{]]^{----_>;;,! @@",
".+*);[]]]]{{{{{{{-{{{]{]<<^<^^<]^]^]^^<<[<<<^<[^^^^]]^^{{--{-{]]^]-{]{-{{--{{----{{{{]]{{{{{-{{]]{----{{]]]{{{{{{{{{{{-{{{{{--{{{{--{----_-__-___--_>>&%#%_&>-_>>_;>>-_>>>________-_-{---------_---{-_----_--_-_>_--___-___-_{{--{]{{{]{^]]{{]^^<<<^<<[<^<<] $_>>>& {^^^]^<]-----__----_____>>_>>_->>_>__>>>>>>>-__-{{_----_>>--_-___>___>>;-{-__>;>>__>>_>>>->;>;&&%;&%%%;;&&%%>>&&&>>##%%&&&;%#%___>&_-__----____--_-_>--_--_>_>>_-{{{{^{{]]{_>>__---{{_-{{---_>>>-_>>;>;;&&%&#&>&;;>>;>_>;&&;>_-_>>>_-&&;{^]]^]---__>>&>,( #$",
".@@,>1^]{{{-{{{{]{{{{{{^^<^]{]^^^]]]]^^<[<^]^<^<^[^]^^<]]{-{{{{{]]{{{]{{{-{-{{{]{{{{{]]{{-{{----{{---{{{]]]{{{]{{{--{{-{{{{{{{{--{--{{{{---_---_--___>;&%#;__-_>>>_-;>>_>>_-_>-{---_-{----{--{-_--{---{-__-----__----___---------{{{{]{{^<^^{^<^^[<^<<<^^^^-*$>>>;%*><]^^^^]{{---_>_--_-{-__>>---_>>>>>_->>;>_->___----->-_>>_-__--_-____>>>_>-{->>>>_->>>>>>>>;&;;&&%%;&%;;&&&&;>&&&&&#%%&&&&&%%%;__>_-__----____{---_---_--___>_-_-{{-{{]]-]{>{-_{---]{__-{--__>;__>>>>-;%%%&%#%%$&>&;>>>>;&&;>_-__>>>>&&>{^]{{{----__;&;!( ##",
"$$.'_1^]]]{{]{{]{{{-{{{^^^^]]^^]{{{]^^[<<<<^<<^^^^<]^]{]]]{{{{{]]]]{{{{{{{{{{{]^]]{{{{--{{{{----{]{{{{{{{]{{{{{{{{----{-{{{]{{--{{{{{{-{{---------_-->&&;%;_-___;>_>;&;>>>-------------------_--_-{{_--__-_-]-___-_--_----_--{{{--{]{{-]<<^^]^<<[[<<<[<^<^[&'#>>;>%=#[]]^^]{{{---__----{->>->_-_>__>__>>_>;;;--_>__-______>>-__-___--___>>_->_-->>>>__>>_>>>>>>>>&;&&%&;;;&;;&;>;;&&&##%#&%%%%&&%%;_>_--__----__---__-_____-_>>_>>->-{{{{{-{]{{---{{{--_--__-{-_>-{;_____>&%&&%&%#$#>>&&>>&&;&&&;;_-_>>>>>>>_{{---{-{{__;%&(( .#",
"%$+ {<^]]]]]]{{{]]{{]{]^<^]]]]{{]]]]^^<^]^[<<^<^^<^^]^[^{]{{{{{]{{^]{{{]{{-{{{]]]^{{{]--{]]{-{{{]]{]{{]<]{{{]{{{{-{{--{{{{{]{{{{---{{{----------{-_-->&&;&&;>_>>;_>;>;&;>>--_____-__--->__---_-__--{->>----_-->-____>_----_---{]{--^^--{{<^^<<<<[<<<<[[[<[|;'$;;&;#*>^{]^]]]]-------{--_>>_>>_>--______>>>>>>>-_>-{-_--_-____-_-_>>_-->>>_>_>_{>>_>_-_>>_>>>___>>&;&%&&%&;>;;>_>>;;&&%#%#%%&;;&&%&>__-_>--_--_>--_>--->>>____>>_->>_-{]{{]--{{]^-{]{{-----_--{-->_|{>--__-;%&;%%#%#%>;&;>>;&;;;>&>__>>_>>>>>_{{------->_>%&/~..@",
"##  ]^^]]^^]{{{{{]]]^{{<<^{{]]{{]]{{{]^^]^<^^^[<^^^^^^[^]]{{{{{{-]]]{{{{{{{{{{]]{{{{{{-{{{]]]{{]]{{{]{{<]{-{{{{{{-{{{--{{{{{{{{{--{{{{-----_--_------_>>;&&;_-_>>>_>>_;;>;>_______----_>__---_-------________-----_--__------{{{{{-{^^{{{^^^<<<^<[<<[<<[<[[{+@&&;&$@]{{{{{{]]{--{---{{__>>>>>>>---_>>>>_>>>>>>>___------_--__---_-^>>___>_>>_-__>>>>-->>>>>>>__>>;;;&%&&&&>>>;>->;>;%%;%##&&;;&&&;>_--_>_-__----_>>_-->_____>_-_-___-]{]]{->-^]]{{]^]{{{---{-]{-->-}--{-->&;&&%&##&_&&;>___>&&;>;>>>>;>__>>>>>_]---{-__;&%;~).$.",
"## @^^]]]^]{{{{{{{{]]{^<^^{{{]]{-{{{{^^^^^^[<<<^^^^]^[^]^{{{{{]{{^]]]{{{{{{{-{]]{{{{{{{{{{{]{{]]]{{{{{]{{]{-{{{--{--{-{-{]{{{{{{{--{{--{----_-__-_____->;&&>{--_-->>>_;&>>>__---_-{{--_______-------_>_>__--__-_____--__-__--{--{{{]^^{{{]<<<<<<<<^<^^<<<<<[$$&&&>$#^{{--{-{]{-{-_-{--_--__-_>___>>>>>>>>>>>>>>__>-----------___>^[-_>_-_>->-->->;_>>>;>;&>__>>_>>;;;&%&&;&>_>;;>>&&&%%&%#%&%&;;&&>--_-______---_>>>>_-__--__--__-----]]{{>_]^]{^]]^]]]{{--{{]^]]->^<-{-_;&;&&###%%&%&>;>_->;&;>;&&>;%>-->&>>;>]{---_--;&%>!/+%#",
"%$.#<^]]]]]{{{{{{]{]{]^^^^{{{{]{--{{{^^^<^[|<<^^^^^^^^^^^{{{]]{-{]]]]{{{{{-{{]{{{{]]{{]]]]^{{]{]{{{{{{{{{{{-]{{-------{{-----{------{{{{{------{-----__>>>>_------__>;;;;&>_-----_{----____--___---__---_---->--__---_--__-_-_<^_-{]]]]{{]<<^<<<[^<[^^<<<<<^+$>;%;#$]{--{{{{{{{]--]{-__-{-___>>__>;>>_>>_>>>>__>>------{----_-_-{-_--_---______>_->>>&>;&;;-{_>>>>;&;&&%;;>>>>_>>>;%&;#&%%&%;&&;%;_-__-----__-__-_>>>>__---_--___--->_{--_>-]^{_-{]]{]^]{--{]{^^]]]-{{{{;%&&&&##&&##&&%&>_>>>;;&>&%&%%;>_>>__>_----_--_>&&&/( ;-",
"##+.^^^]]]]{{{{{{{]^]]^<<^]]{{{-{{{-{]^^^<<<^^^^^^^^^]]]{]{{{{--{]{{{------_{{{-{]{{{{{]]]^{{^{{{{--]{-{---{]]{{------{{-----{{-_-{------{{--{{{--{]{_>_>>>_{{-_____;&>;;>;_-{{_--------____-----{-__-----__---_----_-_-__-_--^^-{{{]^{-]^^^^^<<[<[<^<[<<^[_*@&&&;.@<{---{]{{-{{[<^]----{{-_>>>>>>>>>>>>->>>>>_>_---------_-_--{{{-------_>->>_>_->>>;;&;;;>--_>>>>>&&&&;;>>>;_>>;&&#%%#%&%%;;;&;>--_--__--{-__--_->___--__>>>>>>____-__>>{{{---_----^^^{{-{]]]^^]]{{{{{_>;;&&#%%#%#&%$%>_;>;;&&>;&%&&%>__---_-{{---____&%%3~ %_",
"$. @[<]{]]{{{{{{]{{^^]^<[^{]^]{--]{-{{]^^^^^]^^]]^^]]{{{]{{{{]--]]{{{{-------]]{{{{{---{]]{{-{]{{{--{{-{{{]]{{{--{--{-{{{{--{{{{{{{{----------{{{-{{{->__>>-{{___-->>-;&>>&>----___--_--__-_----{---__-__-_-_--______--__-__-{>-{{{{{]{{]^<<<^^<<[[^<<[<[<[#'%&;>&+ ^^{{-]{-{{{]}[{]{{-{{{-_>_>>>>>;;>__;>_>>>>>>_------------_--{-{-____--__>_->;_>;;&;_;>>;>>>>>>>;&>;&>>>>;;;_>&%%%##&&%&&&;;;>---___>-_----_>_-___>_->_--{{]]]^]^^{]{]<^]]{{_----]]^{--{{{]^]]^<]{{-{->>&&&%%&%%##%#;>;;>%#&>;&&>&&>__-{---{{{-_____&%&/( .#",
"@. @[^^]]]{]]{{{]]]^^]]^<^{^^]]{]^--{]]^^]]^{^^]]^^{^]]^]]{{]{{]]]]{{{{----<<]]{{]{{{{{{]{{{{{{]]{-{{{{{{{{{{{{--{-{--{{-{{-{{{{{{------__------{{----{->>>_---_-_>>>_>;&%&>__---_--_--___-->_{---_____---_--__--{-_-____--_-_--{{{--{--{^^<<<^<<[^<<<[<[<[@=_;&;&.={^-{{{{--{]]{{-]]]{{-->>_>>>>>;>>>>___>>___>>>--_--{----{-----{{-_-___-___-_>>_;;>;__>>&&;;>>>>&>&;>;>>>>;;;>>>&#%$###;&&&;&%>__-___>____---__>>>-{]<<^^^^]^^^^^]^<]^^^^{{^^--{{{{{]{-_{{{^^]]^]{{{{_>>;&%%&&&&###%%%&&&;%#&&;;;&%>>;>_----{{{_>-->>;%&/!  .",
"@@*@<<^]{]]]]{]{{]^^]^^^^^]]]]{{^]{-{]]]^]{{^<]]]^^^{{{]]]]]]-{]{{]{{{{---]1}]-{{{{{{-{{{-{{]{{{{---{{{{{{{{{-{---{{---{{{--{{{{--------_____-_-{------_>>>>___>-_>;;&;&&&%>____----_->>_--_>>-->_-_>_>__--___--___>--__-__--_--{{{{--{{]^^^^<<<<<<<<<[[<^[#=&&#$#@*_{{]]{--{{]{{{{]]{{--->>>>;>;>>;>>>>_>>_->_____-_-{----{----{------{-_>>>>>>>-_;;&;___>;;;>>;;;;>;&;>>;>;&;>>>>;%$##$#%&>&&%%;__--__-__-_---_--{^^^^^^]{__--_-{-{^^]]{{{-{^{-{{{-{]{{---{{]]{{{{{{-{-&;&%%%%&%%#%##%%&&&&%%%&&>%##&>_>>>{{--^->___>>>%&(~=.@",
"#@*.<^^{{]{{]{{{{]^^^^<^]]]{{]{{^{{{{{{{{{{]<]{{^^^^]{-]]{^]]{-{]{{-{{{{->[}|^{{-{{{{---{{{{{{--{---{{{--{{{-{{-{-{---_{<-_--{-----_{{_--_--____>>_--_>>_>;>>>>_>>_;;&%###&&;>>_>_-->>>_-__--->_---__>____--__>___>_--__-_____-{{-{{^]{]^^]<[^^<<^^^<<<[<^<%,.#@@#.*{]<^]{--{{{{{-]]]{-{-_>>>>>;&>>>;>-_>>>>>>_--->-{{{----{--{{--------__>;;>;;_-_>&&;>_>>_;&>>>;>>;;;;>_>>>;>>>>&&&##$@%&&;>;#&__----__-__>>__-{{{-_>>>>---_--{--_-^^{{----]]-{{{{{{{--_--{-]{--]]{{]{_;;&&%#&&%#%%%%&%#&&###%&&&#%&%>_>>>--_{^->--__>&&>~(*@@",
"#@ $^^^{]]{]]]{]]]^^^^^]]]{{---]^-]]]]{--{{]]]]]^^^^]{]]{{]]{{-{{]--{--{--|}[]{--{{{-----{---]{{{{-{{--{{{{{{{----{-------_---{-{{---{-_---{__-_-__-{->__>>>;>>>>>>>>%&&%#&&;&___--__>>_-__--___-{___>>-__--_____--[{>_>>_____----]]^<^^<^^<<^^^^<]]^<<[<^<$).$@#% .<]^^{-{-{{-^88]{{{--->>>;>-__>>;;_->__>>;>>----_-{----------------{>>>>__>>>>_-;;;&>_>;>_>;;>>;;;;;>;>>>>>>>>;>&##$$#%&&&>;&;>--_-__>__>>_--_>>>>>>__>>>--__-->__]^{{_>_-----]^^^^]->_--{{--_-{{{{^]_;;;%&%#%#%%#%;&%%%%###&>%%#%&&>___>_-{{]]---__>&&>/3=..",
"+.@#^^]{]]{]]]]^^]]]^^]]^{{{---^{{]]]{---{{{]^^^{]^]]^^^^^{^]{-{-{{{{-{{--|8[--{]]{--{{---__-{{{{{-{{--{{{{{--]-_{{_---{{{-_{-{-{{{{---]{------{{------_____;>>__>;;&&%%##%;&_->----__>--------_--________-___-_-{^5[;-_>__-____-[<^]^^^<^^<^^^^^^--^<<<<^<@).@###+.<^]]{{{-{{{{<}[{]]-__-__>>-^1[_&;-_>>___>>>>------{--{----__-------_>_-__>>>;;_>;;>_>>>;>>;;>>;>>>>>>_>>_>>>>;;&######%;>>;;>_--_-->>_>____-___>__-->>__>_____>>_]^{_>>>__-_>-^^]][]-__-]{{--{]]]^{{_;>&%&###&&&%%%%%%&%#%%&;&##%&;_>__>_-{{]{-{{_>>;%>!3'.@",
"+@+.^]]{{]{]^]{]^]]^^^{<^{{{-[[{{{{{{---{]]]^^^^{]]]<<^]^^^^^{-{{-{--{-{-_^[{-{-]^{{{{{-----{{{{{]--{-{{{{{{-{--{{--{--{{----{---------]]-{----{----------__>>__;;;&&>&%##%%&___---__----_----_>-___>_-----_-__--{^}|>>-_--___---^^^^^^<<^<<<<<^<^{{<<<<[^<$!@#&%$@@^^]]]{-{]]]]{{^]]]-___-->>^1[-&;;_>>__>_>>___--{---{--{{------{_--__---___>_>>__>___-;;>>;>>;>>>>>>;>___>_->>>;%&####%%&>>>;&>_-_-->___---_--____>>--_>_->_______{]->>>>__>>>_-]^^^<]{--{-]{{{{^]]{-;;;;&&%##;;&>;%##%&%#&&#;;&%%&;>>>>>_-{{]{]]{->>&&_)!+..",
"@@ .^[[{{{^^]]]^^^<^^]^^{]{{{<<]]{{{---{{{^^^^^^]{{<[{^^]]^[^]{{{{{----{----{]{{]]{{{{-----{{{{{]{{{{-{-{{{]^{{------_-{----{{{-----{{-------{--_------{{-__>_->;&&&#&&%&#%&;>>_---__----{__----_---_>--_-__--_--{{][^>--____-----{]^^<<<<<<^^^]^<<[<<[<<^]+!$%.#&.+{{]^{{{]]{]]^^]^]{{-_>>>--{->&;;&>>--_>;>__--{{{{{-{{-{{{-----{---__----_----__>_-_>_>&;>>;>>;>>__>>>__>_-_>;;&&&%##%%%%>>>&;;_-______-----_-_____>>_--_-____-__---_________-->_^<^]]]]_--]{_{]{]{{_;;;;&#%%#&;&;&&#%&%%&%#%&&>_>&;>__;>_-{{{-{{{{->>;_~)+@+",
"@$ @<[<]]]]]{]]^<^<<^^[^]]]]]]{^]{{{{]{^{-]^<^^^]^]^^]^^]]^<^]{{{{]{{-{]{{--{{{{]]]]{]{-{{{{{{{{{{{]{-{{{{{]]{{{{{{--------_--{{----]{------{{---_------_-_>;;>;;>;&#&%%%#%>>>_-_-__--___--____------_-__-____>-{---<8^___>------{{{{{]^^^^]]{{{<|^<<<[[<{-'!$$$$# *-{{-{]]{{{]{^^]]]---_>>_]{>>_>;;&>>_-->_>>_-_-{-{{{{]{--{----{{{-_>>_--__-{{--_----_>>;;>>>>;&;_-_>>-->____&&;;;&%%&##>-&;;;;>-_>_>____-_--______-_>>_-{->_____--__-_>_----{{__--]<^^]^]-{{---{{{{{>>>;;&####&;&&%&&&&%#%&%;;#;_-&;___>__-{{{]{-{]-{_>{!/ $@",
".@@$[<]]]]^]{]^^^^^<<[[^]]^^]{{{{{{]{^]]]]]]^^]^^]^{{{]{^^{{^]{{{]]]{]{]]{---{{]]^{-{{-{]]{{{]{]{{{{{{{{{{]]{{{{{{{------____{{--{--{----_-{-_--_>_-----_-_>>>>>&&;&>_%&&%%;__-_>__{{---___--___-__------_-___>-{-_-[9|___-_-----{{{-_---{-{]]{]^^^^[<<[<{-=~+##+.+ {-_-{{{{-{]{{{^^---_>_-_{{>__>>&&>_--{{{--]{>-{{{{{{{--_-----{{{----____-{{-_--{---->;;>;;>>;;>_>>>>--_->>;;;>>&&&%%#%>>;;>>;>---__>__--_--_>____-_>_____-->>--_>_____----_------_{^^]^^{---{{-{--->__;&%&&##&&&&&%%#$#$$%%;;%&;>;;>___>-{]^]^]-{]-{->-)~+$$",
"$#@$|<]]]]^]]^]]<<^^^<<^<^{]{{]]{{]{{{{]^{]^^]]]^^{{-{]{{{{]^]{-{^{{]]{]{-{--{]]]^{-{-{-]]{{]]{{{{{{-{-{{{]]{{{---{_-{--__-_-{-{--{]-----_------__-{------->;--;;>;&&;&&%&&;>>_^{>--__{-_________-___--{{-__>__---_-^51>_____-_----{---{-{]{{^^]]^<}[^<[<-_,).@@#%@%<__-{{{]{]{{]]]]-{_>>-__>___>>_&>___--{{^^]{_-{{]{{]{{--{---{{{{-{]{--{{--{-__-__-{_;;;>>>>>>>>>>;>>>>>__>;>>_>&&>&%&&&&>>>>&>--__-_-_-_---____-_>>-_-->>_-->>>-___>__-_--___--__-_-^]^<^---{{------->;&&&%##&>>;;%########%;;&%%;>____>-{{^<^{--{{{->>,~ #.",
"#@*$[^^]^]{]<^]]^^]]^^^^^<{]{]^[]]]]]]^^^]{^]]]{-]{-----_-]^^^{--{{--{{-------{{]<^{{-{-{]]{--{{{-__{-{{-{{{{{{{--{_{{--__>>---{---{]------_---->_-------->>>>>>>{-;;&&&;&&;>>>^}--__-____--____-____------______-__-1[;>>_-__-------{]{{{^{{{{{{]][<<[[]-{.!+@@#;%_1->_{{{{]{{{]^^]^{_--_--___-->__--_>--{^^]{{]]{{{{{{{{{{--{{{{{---{{{{{{--{-------{->>>;;>>>&>>>>>>>>>>_>>>__>;&&&%&&%&;;;>;&>>>___>_-----___-___>___-->>>__{->--___>____------->---{^^<^{----_>----_;>;%&##>-;_>&%#&&###%%#&;;&%&_-_>_>--]^<^{-{{{-->-*/*. ",
"$$=;1^^^^]]^^^]^^^]]^^]^^^]]]]]^^]]]]^]^^]{]{]]{-{{>->>>_--{]{-_>-{{__-________-{^{{---{{{{{------_----{{-{-{{-------_--____--{-----{{-_----{--__>_----__>>>;>>>;>>;;&;;;&%;>__>5[>>-{_____-___--____---_--_--__>__>>{{>_>_--_--_{{---{{]]{{{---{]-{<[^{{-]$~ @@@&&^|-_>-{{-{]]]]]^^]----_-___>-{__-_-_>--{]-_-{{{{{{{{{--------{{--__{{{{{{-----___>>>__>&%;>>>>&>>;>>;;>>>_>>>>>>&&%%&%%;;;>>&&&>__>>_------_>>_-__-___>>_>__>__>>>>>_______-__-----{{-]]^^]---_>>---_>;&;&&%${{>_>;;&;&%%%###%&;&&%&-__->_--]]-{{{{{{-;{.~*+@",
"#%*>1^^^^]<<^^^^<^^^^^^^^]{-{{{{]{{{]{{{]{{----_>>_>>;;>>___--_>>_---_>_>;>>>>>>>>>--__--{{-----------------_--___--__-{------{----{{{---{{{{-->>-----_>__>>&;;&%%&&&;>&&&&;>>_;<[>-------{-{------{{{--------------_>_-__--{{--{{---{{]^^{{{{--{{{]^<^]{-{ ,.#@#;@[1_-_{]]]]]{{^]]{{]{{-{-___>>>>>>>_->>--______-{--{]{{-_-{->-{{->>_---{{--->--_>;>>>>>>&&>>>>>;>>;;>;;>>>_>;;>>>;&%;>&&&;>__>>;>_-___-{----{-___--__-_;;;;;;;;;;&&;>>>>_>>>__>>---{{{--]]]]--_>>_---__;;;;&&&{>_-->>>>>>;&&%#%>&&;>>_-_;>>__>_---{{{{->>=)*@$",
"$.,$8^]{{]^^^^^]{{]]{^<^{--{{{{{]^^]{{{]]]]]<[[<]-->>_>_>>-{{{{-_>>>-{-;;>>>_>>>_->>-{-_-{{{-__--{--__>>>_>____--{_>;;__>>>_>_>_----___>>_----_>>>>___>_>;&&%%%&&_-;%%&%#%##%&>>;;>>>>___-_----_>___-{---_-----_>>>>>>>;;>_-------{{---{{{{-------{{{{{{-{_/,$&$#&*#5{>>_{{{{{-_-__--{{{-->>>_;&_{]{{{{{{]{{<<<{-__>______>_---{---__]]-----{-__>_>;>>>>;>&%%&&%&>>;&>;;>>>>>>-{-{->&;;>;&&&;_>>>>>---------{{{{----__-{-;>>_----]{_>;>>>>>;-{---_---{{{-{-_{{]{_-_-]]{-_>>>>>&-->-{]]{__>_----_>_--_---{{_--]^]]]]{{^^^{^.2~=. ",
". =,;[^{{^^{]^<^<<[^^->>--{]{]^_;&&&&%%&&>>%#&&&%&%%%#%#$%%@@@@##>--_&_{--_%##%&#%&%@++#;&&;{--->#%%>>>>;>>>;__##%##>>>_---{{{{{{-{{---]<{->;>>;;;&&>;>_>>_--->>&#%;>--_-_>>___-_-{{{{_>>;>&;&$&>>>>;&>>;_____>>>>>>;&&&>_{{{-{->>__--{^^]-----{-_-_-{-]{>!0~ $$$@'(_[]{{]->-{-{{---{{_{]--{{-_;%#$#;;>>__->#$%]1}1||[[|^{]{>&%#%###@..%###$######@@@@.&>;>_--__>%@&_>_>&##%##@ ..@#_{^]{-{{->_%.@@$$@$$@@@@$#$$$###$$%&#@@$$+@$. .&&_-_-->_;#%%%%#$$$#%&%&;%%@#$@$#..+*.$##$#$$@$&&$@@%_->__>>>;&>>;>;;&#@@&&##+@%#>;%%#.(a(,='",
"++.=)@#@@&#@%%&&;;&#@+''** ++  ',)~,),)!)=='),,,'')==)=!~',!!~/))'==,!=+=,'!~!,,)))'):()=,''++ *,, ''= *,**=')')//)=*='  .@  .@+  + @++%>#.=,',,=')'*'')=.  +  ,!3/==   . ++ *= +#%%##*=='*,,!(= *==,!,,=..       **',=*.@@@@$@.   *  $>>;#..$.+* +=.@@#@,(~)*....+,)$&%$@@ ...#%#@.@@*@#@@@@=* ,!),'),' ++ )~~=&]{<[[]{&@@.+'),==)~)~/ *),!/)),==!)/(/'''*@@   =,~,=*',,')~!~3:3(/)  +.+$. *,'~/~,,~(~)~)!~~!))~))!~!)//3:(3:~/:a(~!,,,'  =)(//~!!!)~/)==,'!!(~(/!~//(:/~~~~~/~!~')),))* ,,'== ==  =*==,!!~,,)~~!!,**,,=~3~!=.=",
"@@.+@ ==* *++$@.@@.$$+. +.+.+.. *     **  .@....#+*..* *=**  ===* **======*='*+====*   =+@.@+ ++* +++   =*+==,' *=* *=='=**,=+*===,==* *=* *=*=*'''======,,=== =='= *='=='==='=*,' ',=,)',, *'=*=,,,''=*====*  ==',,=.$. +.++$@=+.*===*+ $#  @  *.@.  @+.#@+@$$@$%%##@..   .@.+.$$  ..@@. +.+ +@@.@@@.+@@@@%@+@@@@.@@@$+..* @...  **+  .@*  *** @..*==*.= ++.=,='===* *+ +*===*==.+  +*,= ,)) =,=*. ==***. ',**======'=,,),'=++*==* *=*=' @ *====*'=**='*+ ='= *,*+'=+='*='===* ==  +$.+ '*.+**.#@#%@.@+  .@. . +.@$%$..$@  * @*",
"%#$$@.@$$@$##&;###&&##%@$;%@@##%&@$@@#$%#$@%%$#;&@@@@. @@....  .@@@..$..##@.#&@   .@@@$.$#$%%$###..$##$.@..@.+.@$>%.+@#@$@$@.$$#$..@.@#&>#$@.@@ +....@@@.+.@@@@@@.+..@$@+$#@%..@.$#@@@.@..$$@..@@@$..@.@.@@$#$$....+@#%%#.%;&&#@@@@.@##;;;>#$##%$@#$@%&&&&&;&%%%&_;&;%%#&&$$%&&#$&&&&&&&%##;&&;%%&&%%%%#&%%;&&>>>>>;;;>>###$@####$%%@@$@@#@@$$@###%#@+@#.$%##@#$.@@+@.@&#$$@ @@#%@$###$@@.+.+@..@......@@@@+..$@@...++  = @$&#.@.@.#@.@..@&#@$@@.@.  ...  @$$@.@#$@+ . *+$.*.#$&$+$>@.@#@++#@++@&%%>;##$$$###$@$$#;--#@@#>&$@$+*",
"#&%$$@@#%#%&>;>>;;;;;&####%%##$#%##%%&%%&&;&%%&%&#$$#@@#$@....@$@@$@##@#%;#@>% =*.#&%@####%##&$$%@.#;&$@$@.$$$$%&>;..$##$#&;@.@.@$#&$@@;_>#@@...$@.@.@@.@@..%#@@@@..@@###$@#%@.@$#%%#$$&$@#$@@#%###@$$@$@$#$##$$#$@@$@%&#.#;_%@$$@###%%>&%&##$&;&#%@#%&;%&_-&####;%&>>>;;%$#&;&%&&&&&&%&&%#;>>>&&&;;&&&%;&%%&;;-->__;->;##%#$###&_->$##@##$##$#>&%%;%.@@@$%#$#%$$##$@@#&&#$@..#;&%&#%#$$@$$@$$%@$#@@.#@@@..@@@%%@@$@@$. *+$#%#$@@#@@$@$@.@##@$$#@+.@$.@@ +$#&#$##@..@..$.@$.@#$#%%##@@##$$...@@@$%@%>;&####$##@#;&>>;&#$#&$%&%@.",
"@@. .@@@@###&#;>%###%#@$@@.@@...@@@%#@@@$#%##%@.#..@..$. .   +.+.@..@. +..@$. ','*@#.@$@@..++.@$...@$@+.+ +..$%## +$@  @..@@*+@.++@##@..#& +.++.@++.+++ +@.+@@. ++..+#$@@.+@..+.$@$#@@.+@. + .#@.@.$@ +.++..$#@@#$  ..#@..$@$$.+@$.@$$..#$@@@.#%#%$+@@#@.$&>%@@$$@.#&%#$@$@..@.@&###@$$@@@@$##$&;&&%##&%$$$@#%#%##$.@$$$$@$$@@@@#&%$.@.+..@@$@.@@####.* @+ .+...+  $$.@@@@+ .+.@$@#$.+@.+$&@+++. %@@$$@  ++ @$..+.+.+@+= ...@@++@@.+++...@...+@.@  @@+.  .@@$#@.#$..+*.$+*.@. ..@%@*=+@@..  @+ ++@#$#$#. @$@@@@$%>&@$%%$.. +$@ *",
"##@+'=. =*@@.#%$&&@.@#@+ +. ....+++@.@@+@@@@@@*,=**=,,,)!,***,!!=*),'=*'  ..'')),,*.$%%&&##@='=','''),)!~((~~, =,))=+ ** *~:'*@+ @. ',+#&&.',',))!!)!~~!',,,,,)''!~,,,,,,~!,),'=  *+)!~~,=,~)~!))!'=,~,,~~!),,,=*=,,,==='',,,,=)),'',),)!,,'))=*,*@@+%>&##%##$@=,,=='====,)!),'*+..+*+@+ * +..@#%&%#$@$#@@..#%&&-^{->#$+== ..=','' ',, .   @@ * +@%+++, #@++*!)=,~/)='!!))!!!))!'**,~!))=*~)*='= +*  ,=*,)'),=,,=')),,)~!',,'',,=',','=,)'',)),,')),,,!~'**==*!)===!/,*+  .+++ .$ ='' +@+,',/~)!'+.*!)=)!)'=,,= ' +')*$ ,)=..=!)",
"[<^]->>->&-^{]^^[<{{{]^{>{{-{{{{{{{{{]{{{]{{{{>&#>&&$@@$$%>__&#%#%$$#>-___-_>>;;>>_-]^^^]]^^-;&####%#%$@.'  ..$%##$$>_____$::' ='+*!:&1}|[[_&;&%$@$@@@.@#@$##$@%%#@.#@@$#..$#&&;&>_&@@$$@#%##@.##@+*=* = ..#@.@##;;&%%;&&&$$##%$@$&&$.#&@'+##$#%$&][]^<[<<^]]^^>&&;;&&&&#$@@%&;>>_;_]{---_----]]]^^^]]<^^^]]<[[|1}1111|^;;{^{;%#&%%#&%_---------{]]{----{{{{{##&&@..@%=))!,=,==@%_>%#&##&%)b:=*===)/!!' + ',))===,!,=''!~,,,)!~),,,== =,*.+ ,,,'=)))'=,=#&&%&%@@#&#@@&>]]{{{{{{{{&&---{{{&&#+$#$&>>;$@.=!/)   +..$%&$&_;%#>{-_;%",
"{{]^[|[^^^]{{{{]{--{{{{]{-{{----{{{{{--{----{-{--_--{{]]]->>>_{{--{{-___>;;>>>>>_-__-_--__>_----__----{{{-{------___;;>>>;^ c'*==,!2@9[^]-{]^<^^^<<<<<^<^^^^^^^^<^^^^^^^^^^^^^^]]]]^^<[[^^^]]^<<<<]]^^{{^<<^^^<<<^^^^^^^^]^^<<^^<<<<<^^<[]]^<[^^<<^^^]]^^^^^]<[^^<<<[[[[^^]]]^^^<[<[[<]{{-{]{{]^<<<^^[[^<^^^]{-->>_>_{-_-_>&;-{^]]^^^^{-{{{{{]]]^]{]{][^{-_--{{-{{{{{]{----{{--<^{---{{{_>]'d= =*=~)<[{{{->>__----___-{_>>__>#&>>>>_____]{-->>>>--__-{]]<^{^]]^]]]^<[^]]{{]]]]^^<<^{-{{{{]]]<^]]]{-{]{-->>>{^{{]^^]^^^{{]{----{{",
"{{]{]]{{{{{{---------_--{_--^{>--------___>>>>>_>>>>>>>>>>>>>>>>>;;;;;;;;;&;;&;;>>____>>_>;;&&;;;&&;;>;;;>>&&;;;;;&&&;;;&&;%(=+.. ,2-1_{{-{{{{{{{{{{]]{{{{{{{{{{{{{{{{{--{{-{{--{-----{{{{{{{{{{{]]]]^]]{]]{{{]{{{]^^^]{]{{{{{{{{{{-{{--{{{{{{{--{]]]]^]^^^^^^^^^^^^]]]^]{--{^]^^^<^]<]{{{{{]^]^<^]]]^]^^]^{--_>>____>>_;##%&&>-__-{{{{---{{{]]{]]-{{]^^]{->>>>_{>>>>>_-{{--_---_>>>>>__>&_>()=   )*5^____-----________-_;;&;__&&&&&;;&;&&&&;;;>>--{{{]]{{][{{]---{{{{{{{]^]{]]^^]]]^{{----{-----____>____--{-{{{-{-------------",
"-{{]{]{{{{{{--{---------{{>]8]_-------__>>>>;&>__>>>>>>;>>;>_>>>;>>>>;;;>;-_;;;>>>>>>>;;;;>;;;>;;;;;;;;;;>>&;>;>>>;;;;;;&&&-)) @.  ~$|_-^|<{{{{{{{-{{{{{{{{{{{{]{{{{]{{{{{{--{------{]-{]^]{]{]]^]{{^^^^^^{]]]]^]{]<<<[]]{]{{{{{{{]]]{-{]{{]{{{-{{]{]^]{]^^^<^^<[^^^]]]]]{{{{]^^^^^[9[-{{{]]]]]<^^^{]{^]]]{{{{__--->_>__&%&&&>_-{--{{{{---{{{{{]]{{{^^^^^{{->>>____>>----{{----{--------_>_])~*  *!.5{-{^^^^{-___-____-{--__>_->;>>>>___>;;>>_-_---{{]{{{-[[{-{^{-{{{{]]]{]^]]]]]]]]1^--{{-{{-{-__-----_{{_----]{----------{----",
"-{{]^]]{]{{{-_-----_-{{{^{>|5]_-{-----__>>__>>>___>>>>;;>>>;>>>>;>>;>>>>>&--;>>>>>>;>>;>;;>>>>;>>;;;;;;>>>;;;;>___>;;;;&;>;;), + *.!#^-[85^-{{{{{{{{]{{{]{{]{{{]]{{]]{{]]{{{{{{{{--]]{{{]^]^]]^^^^]]<^^^<]{]^^^^^^[^^^<<^]]{]{--{{]]]]]]]]{{]{-{]{<^]^^^<[<^<[^^^^]]]^^{{]^]{]^^<<^[1^{{{{^]]{]^]<^{]]<^]]]]--->>_--_>>>&%%%;_-{{{-{{{{{{{{{]]{]]{^^^<^^]{--__-__-_>_-{{-{{{{{{{{----{{----{))** =/;9]<[[^]{{{{{-{{{{{{{{{--_----__---{-_>___-{{{{{]^]{]{^|]{--^]{{{{{{]]]]]^]^^]{]-<<_{]-{{{{---{------{]{{{--{{{{--{{{--{{{{-{",
"--{{]^]]{{]^]{]]]{---{{^]--<[{--{{-{---_>>__-{{_>>>>>>>>>>>>;>>>>>>>;;;>;;;;>>>>>>;;>>>;>>;;>;>>>;&;>_>>>;;;;;;>>>>>>>>>;;&%!, +* *(&{-}4|-{{{{{{{{]{{{{]{]^{]]]{]]]]]]{{{{{{{{]{{{^]{^^{]^<^^^]^^^^^]^^^]]]^^]]^^[^^]<[]]]{]{{{-{{]{{]^{{{{-{{{{^<^^]]<^^<^^[[^^]]^<^]]{]]{{{]^^^^^]]{{{{]]^]]^]<^{^^^^]]^]-{->&>--_>;;&;%#;_--{{{{{{{{{{--{{{{{]]{]^^]{-__-_-____--{--{---{{{{{{---{{-{->_),*=* )-}]<^]{{{]]{]]{{]]]]]]]{---_--__-{{------{{{{{{{]]{]]{[<{{{-_]]{{{]{]]]]]^]{^]]{-{]{{{{-{---{{------{-----{{{{{]{-{-^^-{{-{{-",
"{-][{{]{{{]^]{^^{]]{-_{{--{{]------{---_>-{--{{_>_->>>>>>>_>>>;>>;>>;&&&;;;;;>>;>;;&;;;;>>;;;;;&&;&;>>>;;;;;;&;>&;>>>>>>;&&;,,+@ ==(@{{}}]-{{-{{{{{{{{]]]{{]<^]]]]]{{]{{{{{{--]{{{{{]^^]{]]^^<^^]]]^]]]]]]^^^^]{^^]^^^<^]{{{{]{{{--]{{{]]{----{{]]]^]]^^]]^<<[[^^]^^^^]{{]{{{{]^^]]]]^^{{{]]]]]]]]^<^]^^]^^{]{__;_--{>;>&&&->_{---{{{-{----{{{{{{]{{{^^]{-__>____>>-{{-{]---{{{{-----{]{{{-%!,*+  ,^}{]{{]]]{]^^]]]^^^^^^^]{{{{{-{--{]{--{{{{{{{{{{{]]]{]<{{{{---{-{{{^^]]]]{]]^-{{]{{{{--{---{{{{{{---{{----{{{{{{----{]--{----",
"{{{{-{{{{{{{{-]]{{]]{_{{-{{{-_-{-_--{----{{--------;;>>>>;>>>_>;>;;>>;&;&&&;;;;>;;;>&&&;;>_&&>>;;>>>;>>>>;;;&&>>;;;&;>>;>>;@('@+=*'3$]-^{-{]]{{{{{{{{]]]^]{{^]]]]]{]]]{{]{{{{{{{{{{{]^]]]]]]^^<^{]]]]]^^^^^^^]{]]]]]^^]]{{{{{{{{-__-{{]{]{----{]{{]]]]^]]^<<<<^<^^^^^]{{]]{{{^<<]^^]]^<{-{]]^]]]]]^[^{^^^^^{--->>>_-_;;>;&;->_{---{{{{{{{{{{{{{{-{{]]]]{{{--__-_--_---{{-_--{{_-{-{{-{{]{-{@('  +*)_1{^]]{{]]^^^^]^^^^^^^^^^^]]]]]{]]^]-{{{{{{{{{{{]]]{{<{{{{{{{{{{{{-^^]]{{{{]{{{-{{--{-{{-{{---{{---{{--{{-{{--{{]]-{---------",
"{--{]{{{]{{{---{]{{]^]{-{--->-{-]{-{{{{{-{{-_----_>>>>>>>>_>>-_>>;;>>;;;;;;&;>>>>>>>;;;;>;>;;>>;>>;>;>_>>;>;;;;>;;&&>>;;>>-#3=.*=+=3#]_--{{{]]{{{{{{{]{]]{{]{]]^^]{]]{{]^]]]{{{{{]]]]]^^]]^^^^^]^^]]^^^^<<<<^^^^^^^]^]]^]--{{{]{--_-{{]]]{-{{{{]{]]]]]^]]<<<<<<<<]^^{{|1]{]{]^^^]]^^<<<^]]]^<]]]^^^^^]^^^^^]{--_;&>_>&;>>;;;>---{{{{{]]{{{{{--{-{]]]]--{]{---_------{-{-__-{{{-_{{{{{{{]{_{&~=+ +.)&}{^^^^^]^^]^^^]^<<^<^^^^<^^^^]^^^<^^^{{]]{{{{]]^]{{<<{{]]{{]^]-]]]{{]{{{{{]]]{{{{{-{{{-{{{{-{-{{{--{]{--{{{{{{-^^---------{{",
"{--{{--{]{{{{--{{{]{]^{-{-{-_--_{{---{{{-{{------_->>__>>__>__-_;;>;&;;&%;>;;>_>>>>>>>>>;>>;>>>>;;>;;>_>;>>>>;;;;;;&&&;>>>_-))+ + =(#^---{{{]]{{{{{]]{{]]{]]^]^^]]]]]{]]]^^^]]{{]^]]]]]^^^^^^^^^^]^]]^^<<<<<1<]^<<]^^^^]^-{]{{{{{---{]{{]--{{{{^]{]]]]^^]^<<<<[<^^^^]^1|^^^{]^{]^]]^[<<^^^^^^^]]<^^^]]<^^[^]]--_;;___;;>>;_---{{{--{{{{{{]{-{--{]]{{{-{]{{-_--_----_{-_-{--{-{{_-]{{{{{{{{]&~=@+*+);8]^^^^^^^^^^^^^^^^[<<<^^^^]^^]<^<<^<^{{{{{{{{^]]]{^^{{]]{^{{]{-{]]^]]]{{{{{{{]{{{{{{]--{{-{{{{--{{{-{]--{{{{{]{-{{-----{{{--",
"-------{{-{{{--__-{^^{{{--{{]---_-_-{{--{---------_;>->>>;>_>>_>&;&&;;&&>>>;>>>>_>>>>;>>_>;>>>>_>;>;;>>>>>>>>;;&;>>;&;;>____)' ..**:.[--{{{]]{{{{{{]{{{{]{{^^]^^]^^]]^]]]^^^^^]{^^^]]]]^]^^^^^^^^]^]]^^<<<<[[<]]^^<<^^^^{^^{{{{{{---{{{{{{{{{]^^]]]]]]]^^^<^<<<^]^]]^^]^^^^^]^^^^^^<[^]]]^^^<<^^^^^^]{^^]]^]---_>>_>>>&;>--{-{{]{^[^{{{{{{{---{{{{{{{{<[_---_-___-_--__{]-{{{]-__-{]]{{]{{{>)=@. .'.1^^^^^^^^^^^^^^[<^<^^<^<<]]]]]^^<<^^]{{{{]{{{{]]{^^^^^^{{]{{{-{-{^]]]{{{{-{{{{{{{{{{{-{{--{{{{^{-{{{-{{-{{{{{{{{--{{---{{-{-",
"{-{--{-_-{{----__-{]]{{{{{]{--------{{{---{---___>&-{;;;>>>;>_>;>>&>>;>>>>>>>>>>__>;>>;>>;>>>>>>>>;>>>_>>;;;>;;;;>>;&;;>>>;{*,@.  *(.<-{{{{]{{{{{{^{{{{{{]{]]^^]]^]]]^^]^<^^^^^^]]^]]^^^^^^^^<<^^^]^^]^^^<<<^^<<<^^^^^^^]^{{]]{{{--{{{]{{{{]{]]]]]]^{^]^^<<^<[[<^^]]^^^[<]^<^]^]^<<<[<]]]^<^^^^^^^^^^{^]{{{{_-{]{>--_>;>--{{{]^]{^}<{{{{-{--{]^^{{]^^]]{-_-{-__--__{-_---{{{{{-___{{---{{-_-=*@@..*.1^^^^<^<^^^^^^^[<^^^^^^<<]]]]^^^<<<<]]]]]{]]]{{{^<]^^{{^]{-{{{{{{]{{{{{{{{{{{{{----{{------{{-{{{]{-{-{{{{{{{]{--{{{--{---{-",
"{-{--]-__{{---_---{]{]{{{-{{{------{{{-----_-->>>&-}|;;>>>;>__>>>>>;>>;>>>>>>>>>>>_;--;>;;;>>>>>>>;>>>>>>>&;>>&>>;>;&&;>>>;-*)@.++ /$<-{{]]]]{{{{^^{{{]]{]]]^^]^]{]^^^^^<<<<^^^^]^^^^^^<^^<[<<^^<<^^^]^^]]^<<<<[[^{]<<^^^]{]]^]{{-{{{{{]]]]]]{-]]]]]{]^^<[^^[[<<^^^]^^^<^^^^]]^^^]^^[[^^^^^^^^^^^^^^]]^]{{{---{]->>-_>_{--]]]^]^]{-{-{]]{{{{{^[<^^^^^{{{-_----_-__-------{{{_>--_____-]{{{{>' @@@@**[]^<<<<<^^^^^^<<^^<<^<^^^<^^<<^<[[<<]]]]^]]]]]{]^]{]]{{]{{-{--{{{{{]{{{{{{{{--{{{{{--{-{-------{]{{{{--{{{{{{{{]]{{{--{-{---",
"{{{{^]-{----_{-__-]]]{{----{{-------{{{----{_>;>;_}9[;>>>>>>{_;>>>;>>>>>>>>>>>>>>>_>>>>>>>;>>>;>;>;;;>>;>>;;;;&;>>;;&&;;;>&-=,$@.+.)@]-{{{{]]]{{^^{{{{{]{{]]]]^^]]^^^^^<<<[<^^^^^^^<<<<<[<[<[^]^<<<^^^^]]{]^[[[<[<^^<<^^^]{{]^]{{-{]{{{]{{]{^]{^]]]]]]^^^<<^<<<<^^^^^^<^^^^]]^^<]]<^^^^^^^^^^<^]^^<^]^^^-{----_{-_>>_-{--{^^^]]]]]]{]{{{-{]]{^^^^]^^]{{{{-------_--{---{{--{__--___-{]]{]]{-*=.@$$=!_^]<<<<<<^<^^^<^^<<<<^^<^<[<[^^<[[^]^]{{]^^]{]^[^{{]^]{{{{{^{-{]]{{{{{{{{{{{{-{-{{{{{]{{--{{{{{{-{{{{{{{{]]]]{-{{{{-----{{--",
"{{]^<--------____-]]]------{{-------{{{-----_>;>&<4[;>>>>>>>_>>>>>;>>>-->>>>>;__;>>_;>>>>>>>>>;>>>;&;_>;;;;;;;;;;;;;;;&&&;&_*)@@+  !=]{{]{{{]{{{^{]]{{{]]{]]]]^]<^]<^^^<^^<<^^^[<^<[[[^<[[<<[^^^<<<^^^^<<]]^<<^^<[[<<^^^^^]{]{-{{{{{]{{]{]]]{]^^^]]]]{{^^^<^^^<<]]^^^^^^^^^^[[^^]]^^^<^]^^^^<<^]^]^^^]^]{]--{{>-___>-]{--{]^^]^^]]]{]{---{]{]^]^^]^^{{{{{{{{-{{------_---{{-_-_____{{]]{{{{^.=@@$$ ~@|^^^<^<<^<^^^^^^^<<^^<<^^[<^^^<^]]]]]]]{]]]]<[^^^]^^]{{{{{^]{{{{]]{{{{{{{{{{{{---{{]{{-{{--{{{{--{{{{{{{]]]{]^]{{{{{-----{-",
"-{^^-----{-{{__---]^--{----{--_-----{{---_____>;>11>&>>>>>;>->>>>>>>_-_{->>_>>>>>>>_>>>>>>;;>>>>>>;;>>>>>;>;&;;;;>;;;&&&&>;>=,.+++=(,^{{{{]]{{{{{{{{^{{{{{{^]]]^[<]^^^<^^^<<^^^<^<<<[<]^<[<<<^^^<<<^^^^^<<^<^^^^[[[[|}|^^]]]]{{--{--{]]]]]]^|^^<<^]]]]{]^^^^^^^^<^{]]]]^^]]^^^^^<^]^^^^^^^^<<^^^^^^^^{]{{{--{{]->_-{]{{--{^^^^^^]]{]]{-_-]{{^]^^]^]{{{{{{{{{{----_{<-_-{--{__-_--__-{]]{{^]^@=.....~#}]^<<^^<^^^<^^[<^^^^^^^<<<^][[<]]]]{]]]]{]^[|<]]]^^{]^{{{]]]]{{{^{{{{{{{{{{{{{---{{{{{{{{--{{{-----{{-{]{]]{{{]{{]{{{-----{",
"_-]^-----]{{{__---{^-{->_----------{{{{--_>>___;]<;;_>>>>>>_->>>>>>_-_>>->>_>>>>_>>>_>>>>;;;>>_>>;;;;;;>>>;;;;;;;;;;&&;&&&&-*,@@. =3=[{{{]]{]]]]{{{^^-^^-{]^]]]<^^^<<<<^<<<^^<^^^<<<<<^^<[<<[^^^<<^]^<]{^<<<[<^<<<[[[}}[^^]^]{{{{{{{]^]]^^]^}<^<<^^{{{{{^^^^^^<^^^]]^^^^]]{]]]^^^^]^^]^[^^^^^^^^]^^^^]^]-{{]]^<^{{^^{{{{{{^^^^^^<]]]{----{{{]^^]^^{{{{{--{{-------{]-_{{{-__--__--{]]{{{^<{{ =..@$@~%}]^<<<^^<^^^<^<<^^^^^^^^^^]{^[^]]]]{{{{{]^<|<{{]]^{[}]]{{]{{]]{{{{{-{{{{{{{{{{{-{{-{{{{--{{--{--{--{{{{]]]{{{-{{{-{--{{-{{{",
"--]{-->___{{---{{-{{->___-------{---{{---_>>-_>>^>&>>>>>>>>-->>>>>_>>>>>>>;>>>>>>>>;>>>>>>>>>>>>>;;>;&>>>>>;;;;;;;;;;;;&&;&-),@...=:@[{{{]]{]]]]]]^^{^1]{]^]]]^^^]^<^<^^<[<^^<^^<<<<[[<[[<^<^^<<<<<]{^]]^^^[[<<[<<[[<^<<^^]]{{^<{]]]]{{]^^<^]<<^]]]{{{^^<<]^^<<^^^]{]^]{{]]^^^^^^^]]]<1|^^^^^]]^]^[[^]<]{{{^<[<<^^^]]]{{-{^^^^<[^]]{{----{{^]^^{]^{{{{{-{{{----__-_>---]]-__--_>>]^^]{-{]]--)'.@%@.)&[]^<<<<^<<^^^<<<^^^^^^^^^^{{^^]]]{]{]^]]^[|<{{{{]]{15{]^^^]{^^]{{{{-{{]{{{-{{-{{-{{{{{{{{{{{{{-{-{{---{{]]]{{^{-{-{------{{",
"-{{_-->--_--__-{]{{--____-__--------{{-_______>{{;>>;>>>>>>-_>>>__>>>>>>>>>>>;>>>>>>>>>__>>>>>>>>>>>>>>>;>_;&&;;;>;;;;&;;>>$:,..++=/%^{{]^]{]^]{{^^{{^^{]]]]]]]]]^^^^^^]^<^<^^<<<<<<[[[[[<[<^<[<<<<^]^^^^^<[[[[<^<<<<<<^^^^{{{^<{]]]{{{]^[^^<<^]]<^^]^^^^^^^^^^^<^]{{]]{{{]]]]^^^]]]^<[]^^^]]]^^<[<|^{^^{-{^^<<^^^^]{^]{{]^[[^^^]]]]{----{]^]^^]{{{-{{{-{{{{--_-{--__----_____{{{]]]]{{]]{{;~*$##..!%^{^^<[<<^<<[<<<<<^^^^^^^^]{{]^]]]{{^^^^^[1[{{{]]{]]{{^]]^]{^^{{]{{{{{{{{{{{{---{{]]{{{{{{{--{{{{{-{----{]{]{-{{-{--{{{{----",
"-----_>_-___>_-{{---{-_>-_>_----{--{]]-___---{-{_>_>>>>>>>>>>>>>>>>>>>>>>>>;>>>;__;>>->>>>;>_>_>>>>;>>>>>>;;;;;&&>>&&&;&;&_.:=..  =)_^-{^{{{]^{{^^{]]{{^]{]]]]]]]^^^<^^]]^]^]^<^<[[|^^<<[[[|[[<[<[[[<<[[[<[<^[|<^^^<<<<<[<^{{{--]]]{{{]^^<^^<^^^^^^[<]]]^<^^]]^^<^^]{{{{{{{{{]^^^]]^^]]^^]^^]]^^<[<<^|^]{-{^^^<[<^^]^^]]]]^<[<^]^]]^{{{{{{{-]{{]{----{{{{{]{----{{{-_---__-__{<^^]{{]^]]^][&!+%&@. ~&^{^<<<<<^^[[<^^<<<^^^^^^^^]]]]<<{{{^^]^<1[]{{{]]{]^{{]^^^]]]]]{]]{{{{{{{{{{{{--{{--{{{--{]{{{{--{{-----{{{-{--{-{----{{---{",
"->_--->___-_>__]-----{___>_--{-----{{]------{--->>>>>>>>>>>>>>>>>>>>>>;>>;>;_>>>>>_>_-_;;>>>___>>>>;>>>>>;&;;;;>&&;&&&;;;;>&) @.++*~>]{]{-{{]]^^^^]]{{^^]]{{{{]]]]]^<<^]^^^^^]]^^<<<<^^<1|[||[[|[[[[<<[[[<[[[<[<^^^^^^<<<^{{{{{{{{{-]^]^^^<^^^^^^^^^^{{^<^]]{^^^^^^^]{{{-{{{{]^^^]]^^]]^^<^]]^^^<<<]^[^{{{{]^^<<<^^^^]]]{{^<^<^^^]]]{{{{{{---{{]{{--{--{{]^{{{{>-]{-{]-{{-{]]^^^^]{]]^]]]^<-=+$$@@+)%<]^<<^<<^<[<^<<^^^<^]^^^[^]]^]^]]]]]{]^|[]{{{{{{{{]{{]^^^^{]^^]]{{{{{{{{]{{{{---{{{-{{-{--{{{{{{----{--------------{{---{{{",
"_>_---_>-{{_>__-------_-__-_{{--{--{]{{{{{-----__>_>;>>>>>>>__>>>>>>>>>__;>>>>>_>>>>>>_>;>>>_>___>>>>>;;>;;;;;>>>;;;;;;>;>;_**$$.+ /%^{]{]{{{{^^^^{{{{]]]]{{{{]^^]{^^^]]]^^^]]]^^^]]^[^|1||[|[[[[[[[[[|[11<1[<^^^]][|^<^^]{]]{{{{{{^<^]^^^<^^<^<^<<]]--{^]{]]^^^^^^<^]{--{{]]^^^^]{{]]^]<<{{]^<<<^]{{]]-{{-{^<^]<<^^^]]^^^<<<^^^^]]{{{{{-----{{{{--{---{{{^]]{{^{{]{]{{{]]{]]{{]]]]]^{{{]^{{+ ..$@+)#^]^^<<<<^<<^^<<^^^<^^<[|[^{{][{{^^]]]<|<{{{{{{{{{{{^]{{^<]]^]^^]]{{{{]{{{{{--{-{{{{-{--{--{{--{-{-{------{--{{--{{--{-{{-{-",
"__>_-->>-{{-_____--------___-------_{-{{--_-_-->_-__>>>>>>>>____>>>_>>>___>>____;>;>>>__;;;-_>___>>>>>>>>;;>;;;;>;;;;>>>>_&{@=#@.+*~&^{{]^{{{{]{{{{{{{]^^]{]{{{]^^]]^^]]]^^^]]]]^^]^^[[[||1||[[[[[[[[[[[[|[<^^^^^]]<<^<^^^]]]{-{{{]1<]]^^^[<^^^^<<]^]_{]]]-{^^^^^^<^]]{----{^^^^]]]]]]^^^^{{^<<^^^{]]^{{{]]{]^^^<<^^^]^^<[<<<^^^^]{{]{------{{--------{{{]^^]{]<{{{{{{]{{{{{{]{{{]]]]{]{{^{]@'..$. )%<]^<<<^^^^<^^^^<^^^<<<[[[^^]{^^^^]^^<[<{{{]{{{{{{{{{{-]^]]^^^^]]]{{{{{{{{{{----{{{{{{-----{{---{{{--------{{{----{{{----{--",
"-__--->>-{{-__>>>>-------_>_--_--------{--__--_>>__>>;>__>_->-__>>>>>>>->__>>>>>>>>;__;-_;;>>>>_>__>>>>>;>>>>>>>>;&;;;;__>&]&'$@..*/&^{]]{{{^{]{{{{]]{]^^{]]]]{{^^{]^^^^^^^]^^^^]]^^^<[[[||||||[[[[[[<^[^^[<^^^^^<[^{]^^^]^^{]]{]]]{{]]^^^^^^^^^<^]]]{]{]]-{^^^^^^<<]]{{{{{]]^^^^]]^^]]]]^^{{{]^^]]]]^]{{{{{{{^^^<<^^^<<<<<<^^^^]]{{{-------------_---{{{]]{{{{-{]{{{-{-{{{-{]]{{{]^]]^]]^][&)@@@..!%<]^^^^^^^^^^^^^<^^^<<<^^^]]^^]^|<^^^^^]{{{]]{{{{{{{{-{^^]^^^^^]]]{]{{{{{{{{{--{{{{-{---_-{-{{--{-{--------{{------{------{{",
"_->-{_>>_---->>>>_>____-__>__--_--_----{---_--_>-_>;>_>>_>_-__>>>>>_>>>_>>>>>>_>>>>>>_>>_>>;>>>>>>>>>;;>>_>>>>>>>;;;;;;;>>;]#,#$. *~$^{{]{{{]{{]{{^^^^^^^^^]]]{{]]]{^^<<^^^]]]^^]]^^<<[<<|||[<<[|[[[<^^<^<<[[]^^^^^^]^^^{{^{{]]^]{{{{{]]^^^^^<^^^^^]]^]{]]{{]^^^^^^^<^{]^^^{{{^<^^]^^^^^<<^^^--^^^]]^<]-{{{{{{^^<<^<^^[<^^<<<^^^]{{--------_--{-]{__>_{]]]]{]{{]^]{{{{{{]{-{]{{{{]]{]^]]]]{<#,@@#. !&<{]^^]^^^^^^^^^^^^<^^<^^^]]]]]]||^^^]{]{{{{{{]{{{-{{-{^^^^^<^^]{{{{{-{{{{{{{{-----^{----{{----{---{-{----_^<-{---{--{-----{",
"--^{-_>{-__-___>>>>>>___>__>>--____>___-__--___>{>;>>_>>>>>>__>__;>_>>;>>>__>>>>>;>->>_>;>>>>>>>>>>&>>;;>>;>>>>>;;;;&&>>>_;]#,$$$+*~#^{{{{^]{]]^]]^]^^^^^^^^^]]{{^^{^<^^^^^]]^]]]]^^^<<^^[[[^^^<[[<<<^^^^^^<<]^^^^^^^]]^{{]{{]]^]{{{{{]]^^^<<^^]]]]{{^]]]^{]]]^^^<^^^^]^^^]]]]]^^]]^^^]^^<^^^]]^<<]]^<{{{-{]]^[<^^^<]^[<^^^^^<^^{{-----{{-_----{{{-__-{]]]]]]{{^{-{{]]{{{{{]{-{{^]{{--{{-{-^#)@##.=)><]^^^^^^^<^^^^^^^^^^^[<^]^^{]^{{[[^<]{]{{]{-{{{{{{{--{^^^^<^]]]]{]{{{{{{{{{{{----{]^----{-----{{-{{{------]]{-_----{-------",
"-_]]__>{{-_>>___>>>>>>>___>>_______>>__>_---_>__>>>>>;;>>>>___>>>>;>>>>>__>_>>>>>>>>>>>->;;;>>>>;>;;;>>>>;>>>>>>;;;;&&;>>_;]#,@$@ ',-]{{{]]]]^]]]]^<]]^<^^^^^^]]]^]]<<^^^^]{^^]]]{]]^^]^^[<^^^^^^<<[<<<<^^^^^]^^^^[[]]{]^^]]{{{]{{{{{]]^^<<^^^^^]]{{{]^]]^]{]^^^^^^<^^^^^^]]]{{{]{{]]^]<^^^]^]{{^]]]{{{{{{{]]^<<^<<^^^<^]^<|[^^]{{{-------{{---{_-{_>-^{{]]{{]{{{-{]]{{{{]]{{{{-{{{{--------+)@#@. ,;<]]^^]]^<^^^^^^^^^]<<<<^^]]]]{]{{[<^]]{{{{{{{{{^{{{{{{^^^^<^]]^^{{{]{{{{{{{{{-------{{---{------{{-{--{--{----__---{---_---",
"__>-->>>___>>>>>>>>>>>>__>;>--__-_>___-->>>__>>>>>;;>;>>>>_-_>>>>>>>>>>___>__>>>;__;>>>>-_>>>>>;;>;&&;>>;>>>_>>>;;;;;&;>___{+,@$@ ',{{{{{{]]^]]]]^[^]^^^^^^^^^]^<^^^^^^^^^]{]^]{-{]{^^<^<<<^^^^^^^<^^<[<^^^^^^^^^^^<^]]]^^]]]]{]{{{{{]{]^<^^<^^^^^^^]^^]^<]{{]]^<^^^^^^^^^^{{{{{{{{{]^^<[^^^]]{{]]]{{{{{{]{{]^]^^<^]^<^<^<[[<^]{{{{{--___-{------{^__----]]]]^{]{-{{{{{{{{{--{___-{{]]{-----=).$$@+)@<]^^]^^^^<^]^^^]^^^<<<^^^]{{{^]]{][<]]]{{{]^{{{{{-{]]{]^[[<]^]]]]{{{{{{{{{{{{----------]{{--------{{-------{{_---{{-{-_--__",
">>__-{>>>;>;;>;;;>>>>>__-_>___-----__--_>>>_>>>>>>;>>>>>>>>__>>>>>>>>>_____>>>>>>;>>>>>;__>>>;>>;>>;&&>>;;>>>>>>>>;;;>>_>-_{*'#@@.,!-{{{{]]]]]]]{]^]]<^^^^]^^^^^^<^^[<^^]]{]]]{--{]]^^^^<^^^^^^^^^<^^<<^^^^^^^^^^]]^^]^^^^^]]]^]{{{{{{{]<<^^<^<<^<<<^^<^^]]]{]^^^<^^^^^^^^^{{{{{{]]{{^<<<<]]]]^{{{{]]{{{{]]-{^^{]^^{^[[<^]{]^^{{]]{{{-____{--------_----{{{]]{{{{-{{{{{-----__{-----{{{{---]*).@@$@)@[^^^]<<^^<^]^^]]^^^^^^^<^]{{{^^{]{^|^]]{{{{^]{]{-{{{{{{^<[^]^{{]{]{{{{]{{{{{-{{----{{---{{-]{-{{--{{-{^----{[<_--{------__-",
">>_-_-_>>>>>_;;>>>>>-_>>>---_---------_>>>>>;;;>>;>>>>>>>>>_>_>>>>_>>__>_>_>>__>>;>>;>>;>>;>>;>_>>>;&&>>;&;>>>>_>;;;;>____>{*'#@+ =)-{{{^]]]^^]{^^]^^^^^^^^^^^<^^^^<<^]^]{{]{{{{{{{{]]^<]^^^^^^^^^^<^^^^^^^]^^^^^^]^^]^^^^^^]^^]]{{{]{]^<<^^^^<<[[<^{]^^]{^]]]]^<^^^^]]^^^^]{{{{{{]^]^^[<]{]]]]{]]{]]{{{{]]{{^<]]^]]{^[^]]]]]]]{{{{{{-_>_------{---_-----{{{{{{{{{{{--{--_____{-_-{---{{{{-^+,...@@,#[]^^^^^^^^^^^^^]]^^^<^^^^{{{^^]]]{{<[]{{{{{{{{{-{{{{{{{^<^<^]]]{{]{{]]{{{{-----{--{-{------{{--{{--{-{]-----^<--{----------",
"_---->___>>_->>_>>__--_-_>__-->-__-__>>>_>;;>;;>>_;>>>_>>>>_>->>>>_>>_>>_>>_>_>;>>;>;;>;>>;>>>>_>;>;&&&>;;>;>>>>>;;;>>_____]=)..* = ]{{{]]^^^{]]^^]^<^^^^^^^^<^^<<^^^^]^]{{{{{{{{{^^]^^^]]]^^^^<<<^^^^<^^^^^^^^^^^]^^^^^^^^^^^^]]{{]]^^^^<^^^<<<<<^{{]^^^]^]]]]<[^^^]{{]^^^^]{{{{{{^^^^<^]{]{]]^^^<^]{-{{-{{{]{{]]{{]^^]{{]^]{{{{{{]{{-_----{{{-_-_--_-----{{-{{----__--_--__-->_-----]{-{-{=,@$$..,#<]^^^^^<<^^^]^^]^^^^^^^]^]{{]]]]]^^{^<]{{{{]]{{]{-{{{{{{^<<^]^]-{{{{{{-{{-{----{--{-{{{{{-{--{{--{--------{-__-------------",
"_-__-___>_>>>>>>>_>_>_-_>__--___---___>>>>>>>->>>>;>>;>>;>>>_>>>>>>__>-_>>>_>>>>>>;;>>;>_>;;>;;;>>;>&&&&>>>>>>>>>>;;;>____>{),@.++,+[]{{]]^]]]{^^^^^^[^^^^^^^<^<^^^^^<^^]^]{]]{{--^<{]^]^^]^]^^^<<^]^[^^^^<^^^^^^^^]]<^^^]^^^^^]{{]{]]^^^<<<<<<^^<^]<<^^<<]]{{]^^^^]]^^]]]]^^]{{--{]]]^^^<^]]]]{{]<<^{{{{{{{{{{{]{-{^]{{]]]]]{]]]]{{]{---{--{{-_-__-__----{{{---^{--_-->-->-{__---_---{]--__!=##%.*!$[]]^<^]^<^^]^^^^]^^^^^^]]{{]]]^]]^]]{^^{]]{{]{{{-{{{]{-{{]^^{{{{{{{{{{{{{{{-{---{{--{{-{{---{{{--{-{{-{{------_>__---------",
"_____-_>>>>>>>>;>>>_--_-^{_--{{----__-_>>;>>&-{;>>>>;>>>>_;>->>>>;>__>__>>>__>>>;>>>;>>>>>;;;>&&;>;>;;;&;>;>>;>>;;;;;>___>_&~*@$+ , <]{{^^]{^]{^]]^^^<<^^^^^<<^^^]^^^^]{{|[{{{]]{-{]^^^]^]]]]^^^^<<<<^^^^<^]^^^^^^]]]{]^]]]]]^<]{^^]]^^<<^<<<<<^^<^^<<<^^<^{]{]^^^^]]]]]]]]^]^^{{{{{{{]]]^^^^]]{{{{^^--{{-{{{{{-{--{{{{{]{{{{]]]]^]{{{---{{-{{-___--__{{-{{-{---]]---_>{{>_{{>_-__-__--{---%!.#@@@*(.[]]^<^^^^^^^^^^^^^^<^]^^{{{]]{]]{{]{-]<]]{{{{{{{{-{{{{{]]]]{--{]{{{{{]{-{{----{{-{{{{---{{--{{--{{-{---__--______-{--------",
"_>____>__>>_>>>;__>____-<{_---------_>>_>>>>>;{{&>>;>>>>>>>_>;>>>;>>>_>;>>_>>>>>>__>;>>>;;;;;>&&;>>>>;&;;>->>>>>;>>;&>___>- 3 @. +, ^{{{]^]]^]]^]]^^^^^^^<^^<<<^^^^^]]{{]^]{{{{{{]^^^<^^]]^^]]^^<[^^[<^11^]]^^^^^^^]]]^]{]]]^^<^]<^]]^^<^^^<<<<<^<<<^^<^^<^[^]]^^]]]]]]]]^]]^]]]{{-]]]]{]^^^]]{]^]{]]--{{{-{{{-----{{{{{-{{{{{]]]]{{{{---_-{{---_____-{-{{---{-{---]{>_{-_-->_-___-__-----{$)+@$@. !#^{^<^^^^^^^^^^[^]^<^<^<]{{{]]{]{{{{-]{^^{{{{{{{{-{{{{{]^^^]^{{{{{{{]{{{{{{-{{-----{{-{{------{{--{{{{-_>____>>__--------_--",
">____>>>_>>>>>>>>>>_>>_->_----------->__>>>>>>;{-;>>>>>>>>>>>>>>>>>>>>>>>>>;>_>__>>>>>>;>;>>;>&;>>>>;&;;>>>>>>;>>>>;;>_>>>-'2 @..., ^{{{]^]{]^^]]]<^^^^^^^^<<[[^^<<^]{]^]]{{]]{]]^]^]^]^^]^]{]^]||^^<<<[1^]^]^]]^^^]]]^]{]]^^]]^^]]]^<<^^<<<<<[<<^<<<^^<<^<1^{^^^]]^]]]^^^]]^^]]]{{]]]^]{{^^{]{]^^]]]-{{-{{{{{-----{{-{--{{{]]]^^]]]{{{---------_-___----{{{----{^{--_->>-_>_-_>_-____-{--{./ $%%@ !%<{]^^^]^^^^^^^^^^^^^^<<]{{{{]^{{{{{{]{{^]]]{]{{{-{{-{]{{]^^^^]^^]]{]]-{{{{{{{{--{{{-{{---{--{{{-{---{--_{]---->_-_-----__--",
">__>_>_>__>>__>>>>_->__--__----{---->-{>>;>;>>;>]_>>;>->>>>>>>>>>>>>>>_>>>>>>__>;>>>>>>>>;&>>&>>>>>>;;;;;;;__>>>>>;&;_>>>;- 2*@.. )+<{{{]^]{]^^]{]^^<^<^^^^^<[<<<^^]]]^^]{{{{]^]]]{]]^^]^^]{{]]]<[]^^^<<^]<^]^^^^^^^^]^^]]]^^^{]^^]]^<^^<[<<<<[[<<<]^[^<^^^]^{^^]^]]]]^^]^]]^^]]]^^{{{^]{{{{{]]{^{-{{-----{{{-{--{{{{-{{{{{]^^^^^^^]{{---______------>>-{{------{[{>>___{->_-____-___-{{{-{@(+%%%# !>^{{{^<^]]]^^^^^^^^^^]^]{{{{{]{]]{{{{{{-{]{{{{{{{-----{{{]{]^^]]^{{{{{{]{{{{{{{{-{{{{]{---{{---{{->_--{{--]{{{-_-__-----_---",
"_>>____>____->>>_>______--_--------->-{>>>>;;>>;_{>>>>{-;>_->>_>>>>>>>>_>>>>;>>>>;>>>;>>;;;>>&>_>>>;&;>;;>>>>>>>>>;>;>>>>>-*:=@$. )*<{{]^^]{]^]]{]^^<<^<^^^^<^<^]{{]]^^{{{{{{{{]^]{]]]^]{]]{]]{]^]^^^^^<<^^^^^^^^^^^^]^^^]]{]^]]]]]^^^<<<<<<[[[<<<<^^^<^^<^^]]]]^<^{]^^]]]]^^^]]]]]{{{]]{]]{^{--{{---{--{{-{{{{--{---{]^]]]]]]^]^]]]]{__->>____-_--_-_>---_-{----____>>-->>---{_>>___-{---{#( %###* |{]{{^<<^^^]]^][1^^^^]]]{]]{{]]]{{{{{{{]{{{{{]{{{_-----{]{]<<^^{]{{{{{]]{-]{{]{{{{{{-{------{-_--{{---{----{{{----____-{{---",
">__>>>__>>__>>>>>>>______>>---------->>>>>_->>>>>>>;>_-{>>_->>_>;;>>_>>>>>>>>>>>;;>;>;&;&;>&>;&>>;>>>>;&;;>>>>>>;>>>;>>>>>_$('.$.+,*^]{{^^]]^]{]^]]^^^^^<^<<<]]]]{{]]]{{{{{{{{{{{]^]{{]]{]^{{]^^^^^^^^^^^^^^<^^^^^^^^^^]^]{^^{]]]]]]^<[[<<<[<^<<<<<[<]^<^^^{{^]{]^^]]^]^^]]^^^{{]]]{{{]]{{]-{--{-{----{{-{--{{{-{--{{]{]]]{{]]]]]{{]{{--___>____---_--__------{---__>>--_>--_-{__-____-----_!=#&&$=@1]]{]^^^^^^]]^^]^^^^^^]^]{{{{{]{{{{{{{{{{{{]{{{--__---{{{]<<<^{{{{{{]]{{{{{{{{{-------__--__---_--]^{---------{--_-----{-___",
"-_>>{->___->>>>>_>>-____-]_-------_---_>___->>>>_>__>>_>__>__>;>>>>>>__>__>>>>>>;>>>>>;>;&%->&&&>>>>>;&;;;;_>>>>;>>;;>>>>>;>,'$$.+' ^{]]]^]]^^]]^^^]]{{^<^<[<^<^]]{]]{{{{{{{{]]]{{]{]]{{{{]{]^<<[<^^^^]^<^]^]]^^^^^^^^]^^{{]]{^]]]]^<[[[<^<[^]^[[<[<<]^<^]{{{{{{{]]]]]^^]]]^^{{]^]-{{-]{]{-__{{---{--{{{{{{-{{{{{-{-{]{{]{{]]{{{]{]{{{{-_-___-----_____----------____{{__-{_>--_--_____---_- =$#%#*.|^]{^^^^^^^^^^^^{]^^^]^]]]{{]{{{{{{{{{{{{{{{{-----_---{{]^<[^]]{{{{{{{{-{{{{{-{{----_-__-_--]^--{{_-^^-{{->__>-{-_--_-----__",
"{_>>-->>__>>_>>__>>____>_{-----------___-_>>_>>___>>>>>>>>>>_>;>_>>;>__>>_>>_>>>>>_>>>;;&;;>;;&&>>>;;;;;;;>>;>>>;;;;;;>>>>;-*'##..)*^{<]^^]^]^^]{]^]]^^^^^<<<<<]]]{]]{{{{{{]]{{]{]{{]]{{{]]]^^^^[[<<^^]]<<^]]]^^^^^^^^]^]{{{]^^]{{]^[<<^^^<[<^[[[[[<^^^]^<]{]]{{{]{]{]^^]]]^{{{]]]{{{{{-{-__----{--{{-{--{-{{{{{---{{{{{{{{{{{--{{{]]]---__-------_-_-------{__--_>>{->_-____-________{-_---.+&#@@*@1]{^^^^^^^^^^^^^]^^]]]^{^]{{{{]]{]{{{{{{{{{----------{{-]^^^^]{]]{-{{{{--{]{--{--_-{-__---{-{^]{_----<^--->>-__--____-------",
">__>>>>____>_>>>>>_>__>>_>---------___-{_>_>_>>>>___>>>>>>>>>_>>;>>>>>_>>>_>>>>>>>>>>;>;;;&&&&&;_>;>;>;&;>>;>>;>;>>;;>>>>>>-*'#@+.',{]^^^]]]]{^]-]<^^<^<^^^^<^]]]]]]]]{{{{{{{{{]]]]]]{{]^]]<^^^^<<<<<^^^^]]]]]^^^^^^^^^^^]{{^^]]]{^<<<^]]^^[<<|[[[<<^^^]^<{{{]]]]]{]]{]^]{]]{{]{{]]{---{---_---{--{{]{{-{{-{]{{----{-{]]{{{-_---{{{]^]{---__>_{----------->----{->_-->_-->__->__>_-_>_{{_--{.+;%@@+@1{{]]^^]^^<^^^]]]^^]]^^^^]]{{{{]{{{{^^-{{{----------{{{--{^]]{{{{{-{{--{{{]{---__-{--_---{-{-__{]{---_<{_-_-{-_---__--------",
">>>>_>_-__>>>>>>>>>>>___-_--------___---_>>_--_>>>>>;>_>>>>_>_->>;>>>>_____>>>>>>>>>>;>>>;&;;&;>>>>;>>&;;>_>;>>>;>>>;;>>>>>-=,$..+'=]^^^^^]]]]^]{]]^^^^<<<^^<]]^]]^]]{{{{{{{]{]]]]^{{{]^{]^<^^^^^^<^[<^<^^^^]]^^<^^^^^^]^^^]^^{]]]^^<<^^^^]^^<[[[[<[[^^^^^^]]{{^{{{]^]]]]]]^{-]]{{{-_--{------{{{{-{{{-{]{--{{{{{-{{{{]{{{-__-----{{{{{--_>>_-_-----___-{_{]_-{-__-_>__-__-_-->___-->----{{-  #%$.+ [^]]]^^]]^^^^^]^^^^^^^^<]]]{-{{{]{{{]]]{]^{{----{{-------{]]^]{{{{]{{{-{{{-{{-{---{---_----{{{--{----__]--------{-_--{-----_",
">>_>_-_>__>>_>>>>>>>>>_____-----__--_--_>_>_-___>_>>>>>>>>;__>_>>>;>_>>-_>>>__>>>_>;>__>-{_&_>&>;>>;;>>>>;>>>>>>;;>>>;>>>>_;),@@. =={^^^^^]]]]^^^]^^<^^<<^^[^]^]]^<^]^^{{{{{]]{{{]^^]{^]{^^]]]^^]]^^<^^^<^^^]]]^^^^^^<^]^^^^^^]]]^^^[^^<]]]]<[[[[[[^^<^^^^^^^^]]{{-{]]]{]]{]]{{]{]{-_{-------{{{{---{{-{{{{-{{{-{--{-{{]{{_>__---{{{{-{{-_>--__-------^{--{{---__--{__-__>_>__>--_-___---{]&) $$@@ +[]]]]^^]]]^^^^^<<^]^^^<^]{]{{{]{-{{]^^^^^^]]-_----_-----{]]]^^{]]{]{{{--{{-------{---->-{{{]{{{---_--_>{]_--_{--_------{-___",
"_-_>>__-_>>>>_>>>>>_>>_>_----------__>___>_>>>>;>_>>_;;>>>>>_>>>>>>>_>>__>>>_>>>>>>>__;>_{-&>;&;;>>>;>>>>>>>>;&>>;>>_>>_>>-#/=.@+. '-^{]^^^^^^^]^^^^<<^<^<<^^^]^]^^<]]^{{{{{]]{{{]^^]]]{]^^]]]^^]{]^^^^^<<^]^]{^^<^^^<^^^^^^^^<^^^^<<^^^]]^]<|[[|[^^^<^]]^^^^^^]]{{]{]]]]{]]{^^{]]{-{{-__-{-{{{{{{-{]]{{{]{{{{{------{{^{--___---{{---{-__--_--___--{-{-__----__-->1]___--___>>--_>>__-_-]^#~ $@@@=@1{{]^^^^^^^^^^^^^^<<<^^^^]{{{{{{{{]]^]^^^^]-------]^{{{{]^^^^^^^]{------{{--_-----_>----{{{{----____-->]^_------_-{-------__",
"--______---_>__>>_>>_____--__----___>_>_>>>>>__>>>>>>>;>>>_>_->>>>>>>>>__>>_>_>>>>;{-;>>;>;;;;>>>;>>;>>>;>>>>>>>;>>>>>>>>>>-!,$.+.+*-]^^{^^^^^^^^^^^<[^]^e8]^<^]^^^^^{{{{{{]]]{{]]]]{^{]]{{]]]^^{{^]]^^<^^^^^]{^^^^||^<^^^<<^^<<<<^^[<^^^<[<<|[[[<^^^]{]^<<^^]]]]]]^^]]{{^]{]^]{{{{]{--__-{--{{{]{-{{{{{-{{{{{{{-----{{{{{-___---------{{--_--___--{----___-{-_--_>-{->-_-]___--_>___----{^>)*@$#.,+|{{]^<^^^^]^^^^^^<<<^^<^^]{{{]--{{{{]{{{{--_{-_{{]^^^^]^^^^<<<<^^]{---{{-{--{------]------{--->__-----{^{--------_--{--_>--_",
"_-_____>_{-{->>>__>>_--__>__------_>_>>_>>>>__>>>;>____>>>>__>_>_->--___>>>_>>_>>->_>>_>>>>;&>>>>>>>;;>>>>;>>>>>;;;;>_>;>>>-=,@+@.* {]^^{^^^]^^^^]]^<^^]<1|^^]^]]^<^^]{{{{{]]]]]]{]^]{{]{{]^]]^{{^<^^^^^{^^^]]]]^^^|[^<<^^^^^^<<^[<<<[<^^<[[^<[[[<<^^]^^^<^]^]{]]]{]^{{]{]]]{{^]{{^]__{^----{]{{]{_-{{{{--{{{{{------{{{-{-_-_---_-----{{-_--___----{-{--__------__>___-__-->_-_>_-__------{=,#&@ =.|{{^<^^^^^^]^^^^^^^^^^^^^{{{{{{{]{{{{{{------{_-]^<^^^^^^^<^<<<^^{{------{{-{{-----]-__--{{---{-{{___-{--{{-----_----__--_--",
">__>__>_>>_-_;>_>>>>>__>__>---------_>__>>_>_>>;;>>>_____>>-->>_-_----_>>_>>>>>>_->;>>_>_;>>;>;>_>;>>>>>>;>_>>>>>;;;>>>>>>>_=,.++.=,{^{{^^^^^<^]^^<<^]<[^{^<^^^]{]^^^^{]]{{{{]^]]^{]]]]{{^^]]{]{{^^^^<^]{{]^^]]^<^^^^^^<^^^^^^<[|<<<<[[^^[[^^^[[[[[^]^[<]<^]]]^^^^]]]{{{]{{]]{]{]]-_>{[]_-{-{{{{{---{]{-{{--{----{-_-{-{{-------__-{{--{-__--__{----{{{------{{-__--__--->_--_>__-{-__-{-{_- =##@.'@|{]^<^^^^^^^^^^^^<^<^^^^]^]{{-{{]{{{-{{{-{{--^{_-{^<<<^^^^^<[<<^]{]{-_-]{{{----_-{-___-{{{{_--{{---{---{{------_----___{----",
"_>>_>>>>_>_-___>>__>>>_>_-___---_--__->>_>>>>>>>>>>_-____>>_-___->-_-{>_>>>>>>>>>>>>>>>>>>;;>;>>>>>>>>>>>>>>>>>>>;;>>;>_>>;_=,@..+='{^]]<^^]^^]]]^<^]{<|<]^<<<^^^^^]^^]]]]{{]]]]]]]{{]{{]^^]]]^^{]^^^<^^]{]]^]]<^<<^]^^<[^^^^<<[[<<<[[[[^[<^^^<[[<<[<<<<<<<^{{^^<^]{]{{]{{{-{{-{]{----{--{{{-{]{{--{^{-{-----_>----_^^--{{__--_-_---{{{__-{____-----{{{^]----{-___--__--_--_{{>>---{-----{--.'@$##='^]^^<^^^^^^<^^^<<<<^^]^]]^]-{{{{{{]{]{]^{{{-{^]-_-{^^^^^^^^[[<^<^^]{{--{{{{{--{[{__---{-----{{-{{-----{{----_-_>]-_---{--{{-",
">>>_>>_____>_->;>__>__>__>>___-----__-_>>_;>__>>>>>____>>_>_-__>>___-_>>;>>>>>>>>_>;>>>>;>>>>;>>;__;;;>>>>>>>>>>>;;;>>>>>_;>='@..+*'-<]^^^]]]^^]]^^^{]]<<^]^<<^[[<^]^^^^]]]]]^]^^]^^]{{{]]^]]^^]]{^^^<^^^]]]]^^^^<^|5<^<[<^^<<<<^<<[<[[[^^^^^^^<[<<1<<[<<<^^{]]{]^{]{{{]{]{---_{^]--_-{{]]{{-{{{{--{{{{------_------{{-]^-__--____-{{{---_----_-------{]{_-{-___--_---___-___][{__-{-{{-{{-^#=##@@=){^]^^<^^^^^^^<^^^^^^]^^^]{{{{{{{{]{{{{{{{{-{{{^--{{{]]]]^^<||<^^^^^]{{-{{{{{{_^1---{-__-{{-----{{-----{----------_---{--{{--",
"___-->>{{>>-->>>-_>__>>_>>>_>>___-______-_>>>>_>;>>>>>__>-__-_>>____>;>>>;>;;>>;>>>>>>;>>>;>;;>_>;;>_>>;>>>>>>>>;;;;>>>>>_;_ ,$$. **{<]^^]]]]^^^<]^^]]^<[^^^<[<[[^^^^^^^^]^^]^^^]^^]]]]]]{]^]]]]]]]]]^]]^^]]^^^]^^]<1<<<^^^^<<<[<^^<<[[|^]^^]{]^[[<^]^<<<[[]{{]]{{{]{{]]]]{{{{{{]]->-]--^{{{{--{{----{{--]]------------]{-{--_--__--{_--__>--__--__---{_>-{{-----___--_--____-18[{_-{{]{]{-<&'##$ ',-]]^^^^^^^^^^^^^^^^^]^^]]]]{-{{{]]{{{{{{{]-{{^^{{]{]{{]^^^<}1^^]^^^^]]{{{{{{{---------{{-----{{--{{_----------{-------_-----",
"___---__-__--___-_>-_>>>>>_>>>_>>_______-_-_>>>>>;->>>>__>>_-_>>__>>>>>>>&&>>>;;;;>>_>;>>;;;>;;;>>>>>;;;>>>>>>>;;;;;>;>>_>>_ ,$#+*=.^^^]^^^]]^^<<^^^^^^^<^<<[[[<[<<<<^^^^^^^^^^^^]^^]]{{]]^]]{]]]]]]]]{]^^^]^^^]]]^[]<<<^^]^^^<[[<<^<[[<^^]]^^{]<<<^{^<<<[[^{]^]]{{{{{]]]]{{{]{{{^^{{--]{{]]{--{----{{-{]]^{_----{---{---{-_--_-_---{_-____--__-___>-{{-_--{----____-_--_-___-[545[{--{{{{_^#)##..*,-]]]^^]^]^^^^^^^^^]]]]^]]^]{{{]{{-{]{{{{{{{]]]]]-^]]^{-{]^|5|^]]^^^^<^{{{{{]{-{-----{{-__-{--{-{---_-------__{{---{---------",
"_______--_--__>>_>>>__>____>_>>__-_____>__-___>>_>_>;>>>>>>___-_>>__>->;;;;>>>>>>_>;_>>>;>->;;>>;>>;>>>>>>>>>>>>;;;;;>;>>>>_**#. .=*^^]]]^^^]^^^<<^]^^^^^^^[[[[[<<^^<^<^^^^^^^<<<^^^]^]{^<]{]]]]]]{{^]]]]]^^^^^^^^^[^^<<<<]^^^^[|[[<[<<]]^]]|[]^^^^^]^<^^^^^<^^^]{{{-{]]]{{{{{]^{^^]{]{{{{]]{-{-----{{-{{-{{---_-{-_----{------>-{---_>--____-___->>---_-----_--__>_--__-_____]|11[^-----{-- '@@.. =-]]]^^^]]^^^^^^^^^^^]]]{{{{{{{{{{{{{{{{{{{{]]{{{{]^]^]{{{{}8]{{]]]^^^<]{{]]{{-----{{--_--_--{-{---{{-{{-{{{{-_--------------",
">__>__---____>>>>>_______>>>_>>___________>->__>>>>_>>>>>;>>_--_____>-_;;_>;>_>>>>>>>>_>>>_>>;>>;;>>>>>>;>>>>_>>;;;>>;>>>_>_=,.+.@' ^^^]]^]{^^^^^^^^^^^^^^]^[[[[<<^^^^<^^^^^<<<^<<^^^^^]^^^^]]]]]]]]]]{]^]^^^^^^^^]^^^<<<<^^<<<[[[<<[[[<]^^^<^^^[<^^^<^]]]]^^<<<]^]{-{]]]--{{]^]]]{{{^{-{{{{-{-{{---{{-----{<{-__--_-_-----{-_-_------_----_-__-_____-_{--__--__-_>_----___-->-]^{-{-_-{-{-_+*+ .+ ={^]]]^^]]^^^^^^]{]^^^^]]]]{{{{{{{{{--]]{{{{]]]]]{-{^{{{{{{[^_-{{{{]^]<[^]{-----{{-{{---___-{{-{-_--{----{--{--_------------{",
">>>_------__-_>_>>__--__>__>>_-__-__-_>__>>__>>>>>>>>>>>;>>>___>>______>>_;>;;_>;>;>>>>>>>;>>;;>_>>;;>>>;;>>;_>>&;>>;;>;>_>>,)..+ '+^^{]^^^]^<<^^^^^^^^]]^]]<[[<<^^^^^^<<^^^^[^^^^^^^^]^]^^^^^]]{]]]]]]^]]^]^^^^^<^^[5[^<[^<|<<<<[[<[<<|<^^^^]]<[<<<[[^{{]^]]^]^<^]{{{]]{{--{]{{{{]{{{]--{{{{{_--__-{--{---{^-____-{__-----_-__--_-_-->---__{_________---->_{-__>>^|__--__--{-_{{-_{->{--{--+=.$@+*,{<^]]^^^^^^^^^]{^^]^]{]^]]{{{{{{{{-{]{{{{-]^^]{^{{{{{-{{{{-_---{{{--{^||^---{{-{{{--{{-_-----{{{-------{--{_-{-----{{-{-----",
"_>>>_-----__--_>>__>>--->___>_____-___-__>>__>>;>>>>>>>>>>>>--_->>>_>>__>>>;&;>>>>>>;>>>>>>;;>>>>;>>>>>>>>>>;>>;>>;&;;;;>>>>,,..* '+^^^]^]]^^^^^<<^]^^^^]]]^<^<[<]]]^]^[<^^^^<^^<^^^^^[]^]]^^]]{{]]^^^]]]]]]]^^^^^<<[}<<<<<^<<[[<[[<<<<[|[^]^<<[^^^[|<]]^]]]]{]^<<]]]{-{{---{]{-{{]{]{^{_{]{-----__-{{-----------_--___----__-_--_--__-_--->-]-_>_-___-_-__--_-__>^<____-___--_---__-]{_---_='@$. ==-]^]]]^^^^^^]]]]^]]^^]]]{{{{--{{{{-{{{-{{^<^]]]^{-{-{{{{-{{-{--{{{{--{][|---{{--{{{{{-----_-{{-{{{{_-{-{{----{{-{{{-{----{--",
"->___------_--->>__{]----___-___-_-__--___>>>___>>>>>>>>>_>>_-_-__>>>>>>__>>;>;>>>>>>>>>>;&>>_>>>>>;>>>>>>;>>>>>>;&>>;>>>>>&~,.+  **-^]]^^^^^^]^<<^]^^^<]]^<<<<<<<]^^^<^<<<^<<^<<^^^]][^]]{]]^]]]]]]]]]]^]{^^^^^^<<<<^[<<^^^^<[[[<[[<<[<||<<[[[[^]{[|^]^^^^^{]^^^]{]{{-------]]-{]^^^{--{{]]{-------{{{--{---{---]]_-_--_-_-__--_-_---_--_---{-_--__--_-__-->-___->>--__--_-----_>>>-[--{---',..+ ',-{{]]{]^^^^^{]]^^]]]]]]]{{{{{{-{]{{{-{--][<]]{]^]{]{{{{{{{{{{{{{-{-{{{-{]^---{{{{{{]--{{{-----{{]{-_-{-{-{-----{{-{{--{-----",
"-_--___-{--->---___-]]__-______--_----__>>_>>_;_>____>>>>_-__>-__>>_>__>>_>;>>>>>>>_>>>>;>>>>>_>>>>>>_>;;;>-_;>_;;;>>;>>>>;>!'#@*  '-^{{^^^^<^][<^^^^^^^^]^[[<^^^<<<<<[<<[<<<^<^^^^<^^]]{]<]]]]^^]]^^^]]^]-<[]^^^<<<[<<<<<<^^<<<<<^^<<||[[[[[^^<^^[[<^^]^^^^]]{]]]{]]]{--{---{]-]]]]^]--]^]{]-{-_--{{{{{{-------{{{---{-_--__---_--_--------_-----_-{_--_--_--__-____-___------_>>>--_---{-_*,+  + );^{]^]{]^^^]{{]^^^]]]{]]{{{]{{^^{{{-{{--<51<]{]]^^]{-{{{{{{{{--{{-{]{{{--]{{-{{--{{{{-{-{{--{{--{{{{--{{{{---{-{{]{-{{{{{-{-",
"-___->>----___-->_____-_>--_>_--______>>_>_>>>{->>_--->-_>_____>_>_->_-_>>_>>>>>;;;>>>>>;>;>_>>_>>>>;_>;>>>>>>;>;;>>;;;_-;;#~=@. +*'-^{{^^]^^]^<^^^^^^^^^^]||^^^^^[[^^<<^<<<^^<<^^^<^^^]{]<^{{]^^^^^^]^^]]{-{^^^<^<[<<^<<<[^^^]<<<<^<[|||[[<^^[^][|[<^^^^]]^^^^^]^]]^{{-{{--{]{{{]^]{]{-]]{]{---{-_{]{{{-{{{{-------{------___------__----___-------_--_--_-{___-___--_-__{--{{--{---_{_-{_>=, * .*'-]]{]]{{]^]]{]]]]<^{]^]]{{{{{]]{{]{{{{--[45<{]]^^]^{--{{{{--{{{{{{{{{{{{{{-][]-{{{{{-{--{{{{{--{-{{{---{{_----{{-{-{{{{{{--{",
"____->_----_-_>___-_--__----____-__>>>>___>>>>{{;>>---___>>_>__>___-_>__>>_>>>>>>;>_>;>>>;>_>>;>->>>>>>;>>;;_>>>;;;;;>>>_>>+(=.@. *={^{]^^^<^^^^^^^^^^^^^^^<1[^<[[[<^^^<^<<<^^^<<^^^^^^^]]{{{{]]^^^^]^^^]^{{]^^<^<<<[<^[<<^]]]]^<<<[[|[[|[|[<<[[[[[[<<^<^^<^<[[^]^^^^{-{{{{-]^]]]^^^{{{{]{]]{{{{{--{]]{{--{^]----{{------__----->---__---_---{{---{-_--------_--_--____-_>-{__-^<11]>_----_>))++  ='-^^]]]]{{{]]]]]]]]]]]^]{{{{{{]{{]]{{{{--^8}[]]]^]{{{{{-{--{{{{{{{{{]{{{{{{--^^{{{{{{{-{{{{{---{]{--{{{--{{----{-{{{{{{---{--",
"_---___--{-_-__-__-____--___>>>__-_>>>;]{>>>>>;>>>>>>>>_>>__>>__>--_{{>__>>>>>>>>_>>>>;>>;>>;>>>_>>>>>>>;>>_>>>>>>;&;>>>;_-=3 @$+*, ^^{^^^^^<^^^^^^^<^^<^^<[<<^^|[^^^<^]^<^^<^^]^^^^]^^^^]{{{]]]^]]^^^^^^]]]^^^^^<[<<[^[^^^{{]]]^^<<[|[[[[[[[[[[[[||[^<^]^[|[[[^^^]<^]{{--{{]^{]^]]]]]]]{{]{{{]{--{{]]]{-{{{{{-{{-{----------{_-__-_-^{__----{-----_---{__--__-___--__-__--__>_[58<-_---__{%~, +  *'-^^]]]^^]]^]]^^^]{]^]]{-{{]{{{{]]{{{]{{--^[[^]]]]{{{{{----{{{{{{{]]{{{{{{--{--{{{{{{]-{{--{{{--{{{{{{-{{{{{--{---{-{{-{--{--",
"______---{-_>_-__-_--_--___>>>>___->-->--_>>>>>>;;>>;>>>>>__>;>-____---_>>>>>>>_>>>>>>>;>;;>>;>>>>_>>_>>>>>>>>>;;;>;;;;-{>-*: @.* ' ^]{^^]]^^^^^<^<]^^<[^^<[|^<<<<^^^^^]]]<^^^^]]^<^]^<^]{{{{]{]]]^^]]^^^^^^]]]^^^<<^^<^^^^]{{]^]^^^^[|[[|<[[[[[[[<[<^<^^^<[[[[^^^^<]]{----{]]]]^^]]^]-]]{{]{]]---{{]]{{{{{{----{----_---------_---{-{---{{-{--]-_--_---__-____-__>--_-_______>-]_;>>__---{#/,+++. =_^^]]]^^^^^]^^^^{{^^{]{]{{]]{{{{{{{{{{{{_{<<^]]^{-{{-{{-{--{{{{{{{{{{{{{--{{---{{{--{{-{{{-{{---{{----{{--{-----{{-{{--{{--{",
">-___-{-{--_>--_-----___-__-___-__-->>__>__>>>;>>>>>_>_>>_-_>_>_-_-_>>--__>>>>->>>_>>>>>>{-;>>>>>_>>_>>>>>>>>>>;;;>>&>>;-__@~ @  . .^]]^^^^^^^^^<^<]^^^^<<[[[[<<^<<^^^^^^^^^^^^]^^^^^^^]{{{]]{{]]]^]^^^^^^]^{{]^^<<[<^<^^^{]{{]]]^^<^^[[[[[[[<[[[[<[[<^^^^^[[<[<^]<^]]{-{-{]^]^]]^]{{]{{^]]]]]{]{-{^]]-{{{{{{{---{--{--{{---__-----------{{{{-{-_--_----__---__--__>_--_-__-___>_>_>>>_]]_-_)=.  +  -]]]^^]^^^^^^^^]]]^]{]{^]{^]{]{{{{{{{----{^^^]]^{-]--{{{---{]{--{{{{{{]{{{{{---{{{{-{{{{{]{{{-{{{{{-{{{{{{---_--{{--{------{",
"-___-----------__------______-_---_>>>____--_>__-_>>>>_____--__>--_--___{_>___>__>>___>>>{-;;>_>>>>>->>_>>-->>_>>>>>;>>>;>>@,. ...=@<^]^^^^^<<<^^[^^<<<<[[[[[[|[^<<<^^^^^^^<<^^^^^^]^[^]]]^]{{{]]]]]^^^^^^]]<<^^^<<^^<^^^]{{{]]^^^<[<^<1|[|[[1|[[<[[<^]<[[|[[[<<]^<^]]{{{{]^^^]]^^---{{]^^]]<^]]{--^^{{{{^{{{{{--{{{{--{{{-----__--------{{{-{---------------------_----{-__-----_>___{]--__=,+  + *-{]^^^^^^]^^]^^]^^]]]{{{{]{{{{{{{{{{--{{--]^^^^]{{{{{{{]{-{{]{{{{{]{{{]]{{{{{{]{{{{{{{{--{{{{-{]{{{{{{{{{{{-----{{{{{{{{{{{{",
"--_--------------------_____>___-__>_>>_--_>_-----___>>__>>--_-_>-_--_>_--_>>>_______>>>>;>_>_>>>___>-->>>_->>>>>>>>;>>>;;&%)* .++*.^^^^^^^<<^<<<[<<[[<[[[||[<<[[^<<^^^^^^^^^^^^^^^^]^^^]]^]{{{]]]]^^^]]^^^{[[]^<^^^^<^<]^<]^^^^^^<[[^^|[[[[[[[[[[[[<[|[[||[[||[^[^^^]{{{{^^^^]]^]-{]]]]]^]{^<]{{--{^]{{{^-{]{{{---{-_-{{{-_-------{---{{{--^{-{-_---{-_-------_------_-{_>_--__-_>__-{-_{__.=+. ** --{{^]]^]]^]^^^^^^^]]{{^]{{{{{]{{]{-{{{---]^^^^{{]]{]]]{{^^{{{{{{{]]{{{{{{{{{{]^{-][--{]]{{{{]{{{{{{--{{{{{-----{{{{{{{{{{{{",
"--__----_-_____--__-___>___--_-__-__>_->-__-->__--______-__-_--__-_>__>_>>->>>_>>__>>>>>>>>>>>>_>>__>>>>>_>>>_>>>;>>;;;&;>&@~=@.+@' <<^]^^^^^^^[<^[[^^<[[||||<^<[[<<<^^^^^]]]^^^^[^^<^]]]]{]{{{]]]^^^]{{^^^]{{]{]^^^^^^^]{^^^^^]]^^<[|1[<[[||<<[[||[[||[[[[[[[[[<[^]]{--__{]]{{]^]--{]]^^]{]^<]----{]^]{^]-]{{{-{------{{{--_>_>_-_-------_{]{-__-----{{-__---{___--_-_-_-_>__>__-_>-____->_+*.@. =*----{{]]]^]]]^^^^]^]]]{]{{{{{{---{---_>__>-{]^{{{{{{{{]{{{{{{{{{{{{{{{{{{{{{{{{{^]{]{--]^{{]{{{-{{{{{--{{{{-_---{{{{{{-{{-{{",
"__>>>>>>>>>>;>_->>_>;;;>>_____>>>>>>&;>;>>>_>>>>>>>>>>>>>__>;;>>_>;;;;>_>>>>;>>>>>>;>>;;&&&&;>>;>>>>>;;>;;>;&>>&&;&;>>&%#$_@a'+.  ,,^[{-{]]^^^[[<<<<^^^<[[[[[^^^^<^^^^^^^]]{{]]]]^^]]]]]]]]{{{-{{{]{---{{{--{{{--{]]]]{{--{{--{]{]]^<||<<<<[[<<<[[[[[[[[[<<[<^^<<[[{-->>>>-{]^^^{{---{{]]{{]^]]{{{_-{{{-{{--_---___>;&;>>>>;;;;&;;>>>>>>>>_>__>>>;;>>_--_>>____>__-__>>>>_>;>;>>>_>_---_>>_&~+$$#@=:@^_---{-{{^^]]]^]{]]{{-------->>__-_>>>>>;>>--_---_-{{---__---------------{{{{--{{-__>_----{{{{{{----_--{--_>>_-{-{{{------{",
"]{{---{---_>>&$#>>>-]-__--_----{---_-_>{----------_--__-_>------_-__->;>;_->>>;;>__-___;;_>_>__-->>;>_&;_>>_>___>;&%.$&;>->2b)'==* !+^^]]^^^^{>{]^]^<^^[|1||<[[^<[<<[[[[^]^]]^^^^[]{{{-_--_-__-{{]{-{^{{<[<<]----]]^^]^{{{-]-----{{]^^]^<<^^<[[[[[[[<^<[[[<^<<<]>-{]]]]-__--;###&__>_{{^^]^^^^<^]{-{^^^]{]---{{{{{---_-{]]{{>__>;>>_{{{---__{]^^->>_--{--{{{---_>>>_--__{-_>>>__-_;&$@&;>__,a'@+=*,a/_]{---{{-&&__{{{]{{{{{-__--_>>;-{%;->>>>_>%%;>;>----{^^]]]-->>__----{{]{-_--{{{{{{{-{]]]{]{--_-{{--{--{{{{---_>>>>>_{{{{{_>",
"@=*+$#@$%@+ *)//=+*@&>-_>>>&$$$@@$$$#* $@$$#$@@@@@$$#@@@  @#$%%#$$@$#.==*@#+*))'+$@@%;&-<{^[{>>#. =,  =*+*=$$@.@+,)~(/'*@@/b/,  *+ )).#&&&&&#+'*.%&$##&>>;;&;;_]-&&;>>&&_---_%@#%&#+   =''==,,+@$@++.$+@-_>&@+**.#%#@$... =..@+ .@@$#&####%%&>_>>_&#$@#;;;&%#%$..+*+..$. ,'*=,!,=++=,.@#&&%;;&#$$@@#%%&%&&@@&>>-_>>&$$$@$#%# *=' *'+%@%_-[1}<_&%&_;;>>&$@.. +@.@*=,*@$.+@..#>%.@@ )~~!!,+ )(/'*===)~~'@.. ...=!!, .  @.@@.@.==*,),,))!~)),==,')),',==*  +@&&&&#  *'=  +.@%&&@ =*+@##$$@$%%##$&#$@+=+#%@@%###@##$$$.=,,,,*$@@$$.=",
"=,=',,,'=,,*='',,+*'* @++ *.*,','',,','''== .'),,=='=,=',= *= @+=,,''=== . ,',='=*,)=* .$@@@@$. *=!,)(,=))))= *=*')'==='=',=* .+@+  $.=*++..+. +$@@@+.@@$  @@.#%$  @.+  .@.%.',=*=** ====  ==*  @ =+== @@+++.+ +.@@ + =.+=+ .@*'*+@##$$#@.%#.@@%#$.@$@@&$#%#$@.+#%$ +.+@.= .$@...&$==+  ++ @.+*'',,=  *  *'=+* @..**='')~,,=+ ,)*== )!=..@%&@ *'*+'= =)!)!~/~,))'!~)==',,,,=  *=,!~!'*',)),= +  .+ +* ==** *+*=='+*=* .. +@.. =)!)',,)==)' =',,=='''),,=      =)!)!!)'' @*  =*=*=* == ''  '='*==    '+. +++* =,' ==''+*,=',',,* ",
"@@$. ..@%$@%%#.+ @#@@$&$@###$$@@$$$.$#@$%%$@##@$@###@.$$@%#@#&%;%.@@@#$@%>##$  + ....$%#$###%&&;%+ + *=  .+.&&%##@.#$#$@#%$#.$ +@+.$&#$$@##&&####&&&&&%>_%%>;_->&&&;&;&##%#%#$$$#%##%@$$.@%%%#$@$@$%@#&__>;&&####%#@####%#%$&&$$$&>_->>{_&%;->;{--_&>>#&>{{-->%$#;>$%;%&%$%;;&;&;-%$%%###%&&&;$@..@@#&%@@$%#$#%#&&@%%$@@$..@&&$.###$+ @&&$@@%%%%%$...*+ +.+   +  * @#$@$@.@@#%&#@. =  + +.@%#$#.+#$@@.@@.%#%%@@#$$.$$@%;&%%#%@..  +@..$@.+@.....+.@+.+@####%;&$@. +  .@$##%&#$..@$#@%%#@@@@##$##@$;#@%;>&#%;#.@@%#@.@$@$@.$$..@$",
"...+.@.#$@&;$$@.@+@@$#&#@$##@@@$$&%@##$#%&.* #>&$@$@$#@#%$@#$%$$>#.@$#%$@@.@+   * +@%;&&#%#;&&>&%.@*====*++@&&$@.@@##$%%&$#%$&@.@@#$$$@@##$;>#%%%;>;&&&&&%%&;>;;>;>;&>&$$%>##%$$@$%###@@@@%;;%@@$@@@$&;;--;>&$%%###%##&##$#%#@@#%>___>___>%;{>;>--{->_%&_-{{{>&#&>>;&&>>%%%#%%###$$&%#&%@%&%>;@@..@$$#;#@$&#@#>#$##%&$.@$.###%%%#&@  +.#%;>;%&;&#@..+*++.. +.++ * @$%&%#@.@#%#%#@.+ .+  @#>&$&&@@&#@@...$#%&##%###@#$@#>_%$$$..@.  @$#@+...@@$@+**+&# $#%&&%&&#&$+@.@@$$@%_;#$.+.@$$#$$@..@;####$#%@###&%+@@*=$#@#$@@@$#$@@$.@@$",
".@ *= ..@ +.+ + *** ++ @+* .+  +.@.*.   .@,), #$.  *+$.. *+  @. .@ *+@@+==,,'='','*.@..+   @@@$@#@==,,,=,), +.+  ++++ .@+ @. ++*=+@$  +.@..@@@@@$#$$@$#$$$@$####%$@$@.$#++$@@..+ +...@.= +.$@.+== *=.@##$$$@@@@$+ .@+ @@++@$$ *.$%%&##;##&#$#&&#_;&>;&$#&>--&&&&;&&;>&&&#%%$@.....$%@$#$..$%%@@   +$++#$.++...@+...+@.   +@.+#&@.++**,* * @%@$#. ==,=*=''='= ==*=*+.@@@.+ +.+@@..='*++==+#&.+.@..+#%@ = ..@+*.@++.+.+.#%%%. ==*=*===.@*=== ... ==,'.+==+#@@.+.@@+   ++ .@...+     .@**  **....+.+*=*+..=*',,,,'@.++ * + @. . +@@",
".@*~((/~)((////(33(//~/(:(3::((~!(3((~(3(3(33((~~3)~(~//3(~/:(~!~!//)!!)!~3:/(333~)')~,'===* *,,,)(3(3(:a2~/~~)//~)=),=*==*==)//3(/!)!~!!(/!,== +.@ =  =,',== .+==.   .@ =))'=  *=* ,)','  ''==',','=..  +$$. '')'*=*+*     +=+++@$@.@$@+***=** @$##>#@##%+ .#%>;&%##@+ .  *=,!,=='  =='),='= =)!'!,,''==!~),,  .+*=,=,' + *+###$.$&>>#$$>-]-$*'+.+@+=*=',' *=+=!'.+ =',)~~!~),'+*=='=,!),))==. !) .=,,,,,==== ,),'',)=*= =)'=='),,)',* ,~,,,=== @+ ,,'*    '=.*  '')~),=,===)/~/((3()((3()~'***'~((!,!:3/:2::()~3(///(/!~:/,=@+",
"'=,aa*.#@@.+..+=!! .+##. .+*  +..+ + .+  =+++  * +#@     ..+  +@$$@@$@@##@...+==@$##$$&----_--#$##$+  .* *'))'==.@$#$&->-_>>_#@@+.,,$..@.+..&&;>-^<-;__&&%&;&_^{&;--{]{-{-&#&--__>--;#&_>_-&%&;-->>>>-_---{]]>&#&___----{{---{^{{^^^]]]^{>>;&>&>{<<<|[<[|[_,=$&&#%%$ .>&&@@;;&#&>>&;_>>@+.@&>-_>;;%@%;&;;%@$#&{]^^]{;;&>]]-{^]^[]]^<[|<^<[[[|[{-]]^^{-{--_-{-{{;%>]{{-&%#$$$ '@#-{{>&&&%&%#&>{{-#&>&&;;&&&>>__-&%;&&&##%&_;&_-__-_>>>;_--%%&%>-{-{]->_______-{{-__>>#.#%$;-_-% '*++  ''. .#$_-_>>%.@$$$@+=))!,, @    . + .'b:=*=",
"',=2={&&>->>--->;>___>>_{{{->_-----__--_>>-{--_---__--------{{{--_----{{{-->&-{{{-----__>_>>__---------_-_&;;_>_----{->>>>;>;>---{-_{-{]^^]{]]^^^]{^<[<<[|<]^^]]^]{]{----{{{->>_>>___--_>__{{-{]{_>>>>>{{---{]<^]------{{{---]{{]{{<^]]]<[11||11[[[|[[[[^^}%!@##$$# @[}1|<^||[<<[|[[|||<]{][[[[[1[^^^^[<^^<^^^{-{]^^<^^^]{{{{{{{-----_---___>-<<---_------{_-{-{^{-{{---{^]^{-^{__>>_->>__>>;&%&>-{{{-__--;;>-_-{---_>>_{_;&&>-----__---_--{{___>>>>{-_>_-->>_>>>>>>_-___;&&>{{-_____&;_->>>>>>;&;>_>_--->&&;>;>___>>__---^,c'==",
".*,3%#@$$#$%&&&&;&#%&&&&&&&%&;>;&%%;>>;&%&&&;>>>>;>;;;;;>>>>;;;>>->>>>___>;_^->>>>__>>>>>>_>>>__>>>;&&;>;;>>>>>>>_>>_>>>;&>>;___>>_____---__-{{{-]^]^^^^]^]{{]]{{{{{->_---->;;>>>;;>>;>>>>__>----_;&>>_^----------_--{-{-->>_-{]--]^^]]{]]<<<<[[[<[[[[[]{]<-=@$%#%@,>8<<^]{{{--------{-->_>&;>__----{]]]]^{{]{{{{]{{]{{{{-{{{-_-----{{-{-{--{{---{----{{---_------_-{_>>___----{-_>;&%&######@$#%;>>_>&;&%;>>>>>>>;&&&&>&;&%&;>__>___-__-_>>;;>>_>;>>>>>>-__;&;;>;>>&;&&&&&&&__;&&%###%%#$%&&>>;;;;>>>_>&&&&&&&&%&&&&&;;;&>>/,. ",
"..))&$####%&&;>;;;;;&;;;;>>>>>>>;&&;__>;;>;>>>__>>>_>>;;>>>>>;>>>>>__---->_[}{>>>_-->__>>>_>>__>>>>__>>>>>_>>_>_>>_-__>;&&;;______>__>___--_-{]]]^<^^^^^^<^^{^]]{{]{_--_--_;>>_>;>>>>_->>-___{{-{_>;;-<{_----__--_-{----{-_>>-{^{]^^^^]]^^<<[[<<<<<<[<^]]^^^ @;;%%#';|^<^]]{{{{---{--{-->_;;>>_--__-]^]]^^]]]{{{{{-{-{-{{{{]{----{{{{{{---{{]]{]{{{{{-{{---{{--{-__--__--->_{--{{-_;&>>&%#%&%#%%&;___--_>;>>>_>>>>;>>&>>>;&&&>>_--_>_>>-->-_>;>>>>>>>>>>___-_>____>;>>;>;&>;;>>&&&&&%&&#;&#;>>>>>>_>_>>_;&;&&&;;&&;;;;;;;;&_,'  ",
"  '=_$####%&&&>>>>>>>;>>>>>>;>>>>&&&>__;;>_>>>__>>>>_>-{;>>>;;>>>&;>>___>_^{>>>__>>_>_>>>>>>__>>>>>__-_>>>_>__>>>>>____;&;>>>>>_>>__>>--{--_--{{{{^^^^^^^<<{]]{{{{]->-->_-_;;&;&&>>;;>_>>-_-__-{-_>>;-{_---_-____[^--_---_>;>_{{]]^^^^]]^^<<<<<<[<^[<^{{]^^<+ %%&%#*>1^^^]^{{{-_--{-_--->;&>>;_--__-{^]]]]{{{{{-{{--{{---{]]----{{{------_{{{{{{{{{-{--{-__-----_--__-_--_^]_---{{_>__>;&%#%%%%&&>>__>-->_>>_>>>>>>>>;;>>&&>;&>__-_>_>>_>__>>;;>>;>>>>>>>>->>_>>_>>>_>>;;&&>>;;;&&%&;&##;&%;>;;>;>>>;>_>;&&%>_&>&&&;;;;>;;;>=*  ",
"*$'=-#$#&#%;&;>>>>>>;>>>>>>;;>>>;&;;>>>>>>;;>___>>_>>>_{>>>>>;;;>;;>___>_{_>>>>>>_>>>>>>>>>>>>>>_>>>>>__>>>>__>>>>>>___>&;>>>>___>>>>>_-{{----{{]]^^]]^^^^^{{]{{]]->>>>>>_>>;&%>_&;;;&>>>__>__--__>__>>_----__--_^{_---_>;;;>>-{]{{]]]{]]]<^<<[^^<<<^<{-]<]<@'@%%%%+-}<^^]^]{{]{-_-{{{-_>>>_>>{--__-{{]^]{{{{{{{{]{-{{{{{{{{---_{{{--{-----{----]{-{{--------------_--__-_^{_--{{->>-;;>&%&%%##%&>>__>>_>;>__;;>>>;;&;;>>>&&&;>______>_>>_>>&&;>>;>;;>>>;>->>>>>>>>;;>;;;&&;;_>;&&&&%%#%#%&;&;;;;_>>;>>;;&&&&>;;&;&&&;;>;>&-+= =",
"*.,'_%$$%%&;&;>>>>_>>>>>>>>&&>_>;&&;>>_>>>{]----_>>>>>>>_>>>>>>>;;;>____-_>>>>>>>>___>>>>>>>>>>_>>>>>_>>>>__>>>>_>>>____>;>>>_____>_->__>-{{{-{{{^^]^^]^^^^{]^]{]]-__>__>__>;&;_-&&;>>>>>__{-_{{{-_>>__--_-___--->_--___>>>>>>-{]-{]]]]{{]^^]]<<]^[[^<]{]^^^.=@%&%#._1^]]<<]^]]{-{-{^{->>>>-__-{--{--{]^^{]{]]{{{{{{{{{{--{{----{]--{{------{__-{{{{]{{-------{----]{_-___;_--_{]-;_>;&&&&&%&;#%;>___>>-_;>>>>>>>>&&;;;>;-;&;;>>____->_>>_>>;;>;>>>;>>>>>__>>>>>>>;>>>>;&&;;;>>>;;&%%%#&&&&&&&;;;>>>;&;;&&&;&;;&;;&&;;>;>>;>=)  ",
"* '~&&%%#%&;;>>>>>>>_>>>__>;;>>>>&&;>>->>>{^-___>_>_->>>>__>>_>>;;>___--_>>__>>>>>>>>->_>>>>>_>______>_>>>_>>>>____>______>____--_>>__-__-_-]{{]]^^]^^^^^^^]^<{{]]]-----___>;&>;&>>>>_>___-{->-{{__>>_--__-_->----{{--___->__-{]{{{]]]]{{]{{]{^^{^^<[<^{^^^<@+&&&%# >1^^^^[^]]{{{]{{^{-___>>>_----{{{<[<^^]]<^{]{{]{{{{--{{{--{{{]-{{{{--{{{{-_-{{{{--{-{_{--{_{]--{----_-__--_-{8|;;>&&;&&%%>>&&>>-->--->>__->>>>>%&;;>;&&>&;>>___>-->_>_>;;;>>_>>_>>>>>-_>>>>>>;>>;__;&&>>>>>_;&%&%&&%%%&&&&&&;&;>&&;>&&>&&;;;;&;;;;>;;>>%~, .",
"+ =!%&##%%&;&;_>_>>>__>>>>>>&;>>;;;;>>>_>_;>>_>>>>_-_>>__>____>>>>>_>______>>>>>>__>_>>_>_>>_>______->__>__>__>>>___>_-__--_>>___>_>>--_>__-{{-{^^]]^^{]^]]]^^]^^]-_--___->>_;;;>>>>>>>_>_->----_>>_>>-_>_-]_-----{{]----_---{{{]]]{-{]]{{{{]]{{]]]<[<^]]^]]+@>&%&$*&1^^<]<^]{{{{]{{]{{^->>>>>-{{-{{][<<^^]^<<{{{-{{{{{{{{{{{-{{{{{{{{{{-{{{-_-]{{{{---{{-{--{-{{--{{-----{{---_-|[>>>>;;&&&%%>>&;>--_-{-__{-_>>>>;&;;&;>;&&;;>>_-______>>>;;>>>>>>_>>-_>_>-->>>>>>>;>>>>&;>;>_>>&%&&&&#%%&&%&&>>;;>;;;;;;&&&;;;>;&;;;>;>;;_~,.+",
"  *~$>$#%#%&;;>>_->>>>>>>>>>;;;>>;>>>>>_>>>;>>>^^;__>_-_>__>__>>>>>_>>>-___>>>_>>>>>_>>>>>_>>_____>>__>>>>>_>_->>>__>____-_>->>>;>>>>>>_>_---{{{]]{{^^-]^{]^<<^^^]----___>-|-%;;&>>>>__>__>_{--__>>>>>>_>__------{{{{_--__---{{{{]]{{-{]]{{{{]{]^^]<<^^]{{]{ .&&&#$.#1^^]^^]^-{]{]^{{{]]--___>--{{{]<[[<[<^^<[^{{]-{]{-{{]]{{{{]]-{{-{{{-{{-__{]]{--{--{--{{{{{--{--------{------;&_>>>;&&&&;>&>>>>-__{--__{--_;>->>>>&%__&;;>>>>>_-_>-->>;;>>;>_>_>>>_>>>>>>>>>>_>>_;;>&&;>;;>>;&&%%&;#%%&&&;;>>>>;;>&;;;&&&;&;;;&&;;;;;;>&/,.+",
"   ~@>##%%&&&>>>-{_;;>>>>>&;_>&;>&&>>>>>>;>>>>_-{_>>___>>_>>>>>>;>>>>>_-_>-_>>>>>>>_>>>>_>_>>___^_>>>>>>_>>_>>___>>>___-___>->_>;>>>>>_>_---{{{-{{{]^{]]{{^<<^^<^]---_-_>_^<&&&&;>;>__>_____>>__->&;;;>_____---_--{{-_---->_-{{--]{-{{{{{{{{{{{{]]^^{^<]{{^{=*@&;%$ #1^]]^^^{<[{{^^^{{]{-{-_------][|[[[[[^<<^^{]^-{{{{{-{{]]{{{{--{-{]{-----{{{{{{-{--{{{{{------{-{{--{{-{{-_--_-->>;&&;;&;>;;>>>---{_>_>_-___-__->;_>;>;;;>-_>>-_>__>>>;;>>___>->>_>>>>>;;>>>_-;;>;>;;;;>>;;;&%%%%#&;#&;>>;;>>;;>_>&;>&&&;;;;&;;&&;;&;;_ (=  ",
"  */$>##$#&;&;>>-->;>>>>>>>>>>&;;;&&;>>>>>>>>>>>>_>_>>>>>>->;;>>>>;>>>__>>>>>>>>>>__>>>-->>>___>-->>>>>>___>>>-__-_;>_______>_>>>>>>>>-_>---{{{{{]]{]^^]{^^^^^^^^]{----__-_;;&&;>>>_____>__>>>>_-;&;;&>>___---__---{{-__-->-----]]{--{{{-]]-{---{{]^][[^{{]-=.##&;% $[^]]^<^{^^{{^]<]{^]{{{---{-{<<[[|[[[[[<[^{]^]{]]{]]-{]^]]]{{-{{{{{{{--{{{{{{{{-_---{{{{{-{-----{-{{]]{{{--->_|1-;;&;>>>>>;>>>>---__>_-_-->-__>;>&_->>>>;;>>->>__->>>>;>>>_>>__>>>>>>>;;;;;;>>_>>>>>>;&;&;;&%#%%;%%>%&;;;&--&>>>;&;&;&&&;;&&&&%&&&;;;>_.~=  ",
" @=(@>#$$&;&&&_-_>>_>_>>>>>;&&&&&;&&;;;>;>>_>>>>>>>>__>>>>_>>;;;;&>>>>_>_>;>>>>>;>___>>_>__>_>__>____>___>>>>>______>>_>>_->>>>;>>>>>>__>__-{-{{{]]]^^]<<^<^^^^^^{{{{---__>>>&;>;>_-__-___>>>>>__;;&&;>>__----_-----{-____--{{_-^^{-{{{]{-^]-{{--{{^^<[^]{{{ .%%%;& @<^^^^<^^{-{{]^]]]^]]{{-{--{^<[<^[[[[[[<[<]^^^]]]{{]{{^^{{{{{{{-{-------{-{{{{-_----{{{{{{{-----{{--{{{{{---_>{}];&;;;>>>>>>>__-{_>>__>>-]-_-->>>;;>>;>>>>;>>_____>>>>;;>;>>>>>>>>;;>&_-&&>>;;>;>;&&&>;&;;;&%&%##&%&&&&;;;>>;;;;&&;&&;&&;&&&&&%&&;;>;;;;),  ",
"+@ (@&#$#;&%&;__>>>_>>>>>;;;;;;&;;&&;>;;;&;>>>>>>>>>-->_>>;>>;;;;&;>>>>>>>>>>__>-_>_____>>_->>_->___>>_>_>>_>>>_>>>>_>;>>>_;>>_>;>>>>>__--_---{-{{{]^^<<<^^^]]^^^{{----_>__>>>>>;>__>_-____>>>__>;;;;>>>_--____----__{{-----{--{{]{---{--{|^---{-{{^<[[<^]{^# %&%&&+#[^^^<<^^]{]^^^^^^]^]]{{{{{]^<[[<<|[<^<<^[[<^]{{]{]{{]]]]{{]{{{{-----_--{---{{--{--{{{{{]{{{---------{{{----->;-]_>>;&;;>>_>_----_____>>>-{--->>>&>;;>>;;>>>>-__>__>>;;;;;;>>>>>>>>>;;_-;>>;;;;;;&&&&>;&&>_>&&###%&#&;;>>>&;>;;;;&;>;;&&;&&&&&&%&;>>;;&_=)  ",
"++*/&&#$%&&%;;;__>>>>>>>>>>>;;;&;;;&;;;;>;%;>>;>_>>>>>>>>>>>;;>;;>;>>>_>>>__>_>>_->___>>-_>_>>>-->>>>_>__>>_>>__>>>>>__>;>>;>>-_;>>>>_----__--{{{{{{^^^^^^<^]^^^^{{-{-_>>__>>>>>>>>_____>>>>>_>>_>;>>>;__--_---------{{--------{]]{{{-{{{]{{{_---{{]^<[^<^{^&.%;;%# -}^<^^^^<{{{|}{^^^^^^]]]]{^<<<<[[[[<^<<^^<[^]]]^]]]{]^]]]]{]]{-{-{---__{{{{{{{{{-{{{{]]{]]]{{------{-{{{{---__>_->_>;;;;;;>>-__-_-__->>>;;>>_>>>>;;;;;;;&;>;>>>>>>>>>;;>>>>>;>>>;>>>>>&&;>;&;;&;;&&&&;;;>>_>&&###$#&;>&&;>>&>>;;>;;&&;&%&&&%&&&&;;;;>>&_=!+.",
"  *,_%$#%%%&&&&-->>;;>_>>_>>>&;>;&&;;;;;;;;&;>>>>>;;>>>>>>>>;;>;;;;;>____>>>>>>>>>___>>_>-_>>_->___>>-_>>_>>>>>>>_>>>>__>>>_>>>>>>_->_---_>>-{{{]{{{^^^^^<<^^<^<^{{{{-_____>_;>>>>_-___>_>>>>>>>_>>>>>>-------------{{{]{{--__{{^{{-{{{{-{{------{{{{<[<<<^]$@&&-%@.%[<[<^^]^{{]^[]]^]^^^]{]]^<[[<[[[[<<<<<^^[<^^]]]{{-{{{]]]{]{{{{{]{-----{{{---{{{{{-{{{{{{]{{-__{{-----{{{{--____{->>;>>;>>;_-_-_---__>>>>;;>>>;;_>&&&&&;&;;>>>>>>>>;>;>>>_>>>>;>>;&;>;;;>&&>;&;;&&&&;&>>>;;>_###$$#&;;_>%&;;;;;;;;;&&&&&&&%%&%%&&&>>>;&_=).$",
" +)']#$%%%#&&%;&;>>>>>;;>>>>;;;;;&&;&&>;&;>&;>>>>>>>>>>>_;>>;;&>>;&>>>>>_>>>>>>>>____>>>>__>>__>_->>>____>>>>>>>>>>>>>>__>>_>____>>-__--_-_>-{{{{{{{]^^^^^<<^^]^]{{^----___>>;>>>>>___>>->>>_>>;>>_-_>---{]---__----{{]]]{{-{--{]{{-{]{----------{-{^[[<<<<<##&%>%# .[[[[^^<^]{]^]^^^^]]]]]{^[<[[[[[[[<<[[<^[[[^]^]{]{{{{]^^]{{--{{{{{----{-{-_-{{--]-{{{{{^]{]{---{{--{--{{{--___>_-_;;>;>_--;>-_-_____>;>->;>>>>>;>;&%&;>>;>;>>>>>__>>>>__>>;>>&>>;;>>;;>>;;>;;>>;;;>>;&>;&>>&&%##@##%&&>>&&&>>;;>;;>&;;%;>%%&&#%&&;_>&>>>=)$&",
" .~,]##&%%&&%%;&&&;__>>_>&>;;;;;;;&&&;;>&;&&;;>>>>>_>_{__>>>;>>>>>;>>>_>>;>>>>;>>>__>_>>_>__>>>>>>>>__>__>>>>_>>>>>>>>;>>>>>>__>_>>_-_--_----{-{{{]^{{^]^^<<^]-{{{{---_--_>>>>>;;>>>>>>>>>;&;>>;&>>>___-{{{----------{^^{]]{{_{{{{--{]{{{--------{{]^<^^<[^[%+%>&$&+$|<^<^^<]^^^^^^^^^]]{]{{^<[[^[[[<<<^[[<^[[[^]^^]]{{]{]^]{{]{{{{-{{----{-{-__-{{-{{{{]]]]]]]{-{{-{{{---{-_-___>>_>;>;;>;>----->>>;>>>>>>>>;;>>>>;>;;&&>&;>>>>__>>_>>_--_>>>>;;;>>;&>>>>>;;;>>;;&;;>;&;>;>&;;&##@@@$##%;&&;&;;>;;>;;;;;&;&;;&%&&&&;;&&>>;>*'%&",
"  )'^&%%&%%##%&;;&;>;>_>>>>&&>;;;;;;&;;;;;;&;>>>>>>>_>>;;>>>;;>>>;>;>>->;;;;>>>>>>>>>>>>>>>->>>>>&>_>__>>>>>>>_>>>>>>>>>;>>>_>>>>>>>>>_-_----{{]{{{^]]^]{^^^^{{---{---_-_>>>&>&&&&>>>>>;>_>>;;;;&>>>>__---_-_--__---{{]]{{]{_>-{----{-{{{{--{-___-{{{{{-][^[# #>&##.@|<<^^<^^^^^^^^^^^]{{]]{^<^^1[^^]<[<[[^^[[[^^^^^]]{]{]]{{]{]^{{{--{----{{__----{{{{{{]]{]]{{-{--{{---_--_>___>>>>>;;;>;&;_{{{_>>>;>;>>;&>;;;;>>>>;;>;&&>;>>_>>__>>>>>_-__>>;;>>&&&>>>;>;>>;>;;;;;&;;;_-;&>;&#@@###$@#&>>&&;;&;;&&;&&;;&;;;%%%&&;&&&;;&&_ '$%",
" *'~-_%%&%%###%&;;;>;>>;>;&;>>;;;&;;;;;;>&&;;;>>>>>>>>>>;;_>;>>>>;;>>>>;>>;>;>_>>_>>>_>>_>>>>>---{<-;>-_>>>>>>>>>>;>>;>>>>>>>>>_>>>>>>_-------]{{{{]-{^]{]^]{-{{-{----->__>&&&&&&>___>>>>__>;;;;;;>>>>>___--_----{--{]]{{]{-__--_----{{---{{--->_-{-{<<^^^^[% @#%#$.@[[[<]^<<^^<[^^^^^^{]]^^]^[5}]^]{<[[[<^<[[^^[^]]^^{]]{{{{{{]{-{{-{-----{{--{{-{{--{]]{{{^{{{------_-_>_->>>_->_>>>>>;;;;>>____>>>;;>>&&>>;;>>>_>>>;;>;;;;;>>>>;>>>___---_>>>;;;>;>>>;>>;>>;;>>;>>;>;&;>;;;;&#####$$$#%>>&;&&&&;&;;&;;&;>&&;&%%&&&&;;;;&_*,.@",
"+*)(-_%#%%%%##%&;>;;;;;;;&&;>>>>;;;;;>;>;&&;;>>>>>>>>>>>>-_>>>;>>>;>>>;>>;>>>>>>>______>-_>>->>>^}];>>>>>>>>>>>>;;>_>>>>>_>>>>>;>_>;;>_------{{{{-{{--]]]{]]{{]{-{{-_>]<>_>;;;;&&>_-->;>;;>>_>;&;>;>>>>-_>___-------{{{{-]--{--_-{--{1|----{_--__{{{-^85<]^^#@#%##$.@[<<^^<<^^]<[^^^^^^]]]^^^^[|]]<]^<[|[<<[<^^^<^]]^{]]]{{{{-]]-{{-{------{{{-------{]{{{{--{{-___----__>_-___--__---_>>>>>__>>__>>>>>>;>_;>;;>_>;>>->;;;;>;>>;>>;>>>__-_--_>_>;;;>>>;;>_>;>;;>>;;>>>>;;;&;;&;&##$@@@$##%&&&;;;;;;;;&>;;;>;&;;;&&#&&&;&&;;;~, .",
"+ )=];###&%###&;;>>>>;;;>&&>;>>;;;;;>>_>;>&&>>>>_>>>>>;;__>_>>>;;>>>;>;&&;>>>>>>>>_-___>>_>>_->;_[]>->>>>-_>>>>>>;>>;>>>>>>>>_>>>->;_>>--{-_-{{{{--{{]]{{]{]]{{--{-->>><]>>>;;;&;;;__>>>>>>;;>;&;&>>;>_______----_-_-{-{--]<-{-----{][[--_------_-{]{-{{{<<-+;>%#$#.@[<^^^<[^]^^^^]^<<^]]^^]^^{]^^<^^^<|<<<<^^<^^<^^{]]]^{{{{]^{]{--{--_----{{-_-----{{{{-----{--__-{------__-____>--_>_>_>>____->>>;>>>>__>>>>_>>>>>_>;>>>;>>;;>>>>;>>>___>>>>>>>&;>;;>_>;>>>>>>>;>>;>>;&;&&&&%@#$@@@$%&#%&>;;;;;;>;&;>>;;;;;>;&&%&;;;;&;>_!,+.",
".+, {&#$$&%##%&;;>>>>;;&;;&&;>>>>>;>>>>>_>;>;;>>>>>>>_>;>;>__;>>;;;;;;>;>>;;>>>>>_______>>>>>_->>>-_>>>>>>>_>>>;_>>>>-_>_>>>>-___>>-_>>-----{{{{{--{{]]{{]]{{{{-{{-_>__>-_>>;>>&&;;>>>>>;_>&>>;>_;;;;>>__---------------{-8}>_-__--]]-_-----------{{{{{-{^^- #>;#&>.&1<<<<^<<]<[[[]]^<^]]^^^^]^^^<<^[^^^^^^^^^[^^^<^{]^]]]]{{^{{{{--{-------{{-------_-{---{{{--__-{{-{-----_-_-_--__-__>>>-_>_>>;;;;>>>>>;_>>_>>>>;>>>>;;;;>_>>>>;;>>>>>-_>>;>;;>>;;>>>;&;>>>>_>>>>>;;;&>_&;&&#$#$@@$%;;&%;;;>;&;;;;_;&>>;;>;;;&&&%&;;;;&;>!,+.",
"++,={%$$$#####&&;;;;;;;;&&&&;>>>>>;>_>;>>>>_;>>>>>>;>>>>>>>__;>_>;;;&&>>>&&;;;;;>-->_____>>>>>_>>>>_;>>__>>>;>>>>>>;>-{>>>>>>-->____>>_----{{{{{{{{{{{{{{{{{{{{----__>>_-_>>;>&;>>&;>>;;>>;;>>>_>;>>;;>---__-----_--_--__-}}->----{]]{------_--__-{{{]{-{{]<@#{-;&#*-8<<[[^^^^<<[<^^<^^^^^^^]^^<<<^^[<^^<^^^]<[^^^^]^]]^]^]]^]{{{{-------{--{{-{---{------{]{{----{]{{{-----_>>__-_>-_>>_>>_-__>;;>>>>;_>>>>>>>;>>;>_;;>>>>>>-___>>>>>>>>>>>>>;>;;;;>;;>>;_>;;>_->;>>;&&&;>;&&;%##$@$##;;;&;&&&&;>;;&-]_;_>>;&&;&&&%&>;;;>;;~,..",
".+)+<#$$$##$#&;;&;>>;;&&;&%&;>>>>>>>>>>>>>>>>>>>>>>;>_>>>>>>>>>>;>>;&;;>;;&&&&%;-______>>-_>_>_->>>>>>>__>>>>>>_>;>>;>{->>>>>--__>>>>>_--{-{{{{{{]{-{]{---{{{{-----_>>__--_>>;;;;&;>;>;>>_>>>>>>>>>>;>_------__----------_]|^----]^]{{{{{{--_----{{]{{{{-{^[.%->_&@ &1[[[^^^^^<<<<^<^^^^]]^^<^^<<[<^^^^<<^^]^^^^^^^^^]^^^^]]^]{{]]{_>_-----_-{{{{{{{--_-----{-_-{--{{{{---_-_>__-____>>>>>>>_-->>>>>_>>>>>>>>>>>>>>;;>>_>>_>>_>>_>__;>>>>>_>>_&&;&&;>;>>>>>;_>>;_>>;>;&&&&;;;;;&#$#@$#&;&&&;;&&&;;;;>;>>;;>&%;&&&%&&&;;;;>>;~,@#",
"..),]&@@$#$$#&&&;;;>;;>&;&%&>>>>>;;>>>>>>>>>>;;>>>>_{>>>>>__>>>;;;>;&;>;>;&&%&&&___-__>>;>_>>>_>>>-_>>_>>>>>>>>>>_>;;_{{_>;>>>-_>>>>>>_-{{{]{{{]]{--{{--{{{{-{-_---___-_-->>;&>;&&>>&;>>>;>_>>>>_>>>;>>_--_-------_-------_{]]-__{^[|[]-{{-------{{{{{{{--]<.#;;_;#+$[[<<<^^^^^<[[<^^^[^]^<[[^<<^<[<]^<<<<^]^^]^^^^^^^^^^]]^]{]{-{][1{_-{{-_--{-{{----__-------_--_{{----__-_>>_>>>>_>_>&;>_>>>>>>>>_;>_>;;>>;>>>>>;&>>>_>>>>>_>>_>>;>>>>>->;>;;&&;;>>;;>>;;>_>>;;;;&&%&&&&;;;;;%$$$$$&&;%&&&&&&>;;>>;;;;&&&&;;&&&&&&&>;;>>&(,$$",
"+.)/{;@$##$##%&&>;;;>_>;;&&>>>>>>>>_>>__>;>>>;>>__>->>>>>>__>_>_-;;;&&;;>&%%%%&>;>___>>>>;>>>_>_->_->>>>>_>>_>>>;>>;;_{-->;>_>>>>>>>>>_{{{{]]{{{{{-_--__{]{{---_{--__-_-{->;>;&;;&;>&;>>;;&;>>>>_>>>>_>_------{{{_-----__--_--_-__-]^|}1]-{-----------{{{{^_=@&_>&&.%1<<<^^^^^^<[[<^^^<^^^<[<<<<<<<<<^^<<<^^^]^^^]]]^^]^]{^^]{]{{-^|<------_-____-_--____----_----__-{---{-_-->_>>>>>>>&;;>>>>>;>>>&>;&>>>;>_;;>>>>;{-;_>>;;>____>;;>;;>>>-_&&>>;>>>>>>>>>>;>>>>>;&>;;;;&&;>;>>%&#$$$##&%%%;;&&;;;;>;&&;&&;;&&&&&&&&;;>>;>_.(=@#",
".+,2@>$$$$###%;;;;>>>]>&;&;;>>_>;>>>>>>>>>_>>>>__>>>>_>>>>>_>>>>_;;>>&;;&&&###&{>>_____>>>>>>_>>__>__>>>>>>>>>>>>>>>>-{{->>>>>>>>>>>>>----{{{{{{{{-_---_-{{-{-_---{-_----{-;--&;>_;;>>>>>>&;_>;;__>>-_>-------]{-------__----_--_-{{{{^1[{{{{----__---{{--^_)+;>&&@ $[^^<^^]<^^<|[<[^^[<<^<[^^<<^<<<[<^<<^<<]]^^^]]]]]]]{]]]]]]{{{->>-{--{_-{-__-__{---__----------_-{-{-{---_->>>>>>>>;>;>>>>_>>;>>>>>&>-_>>>>>>_>;-_>_>>__>_>__;>>;;>>>>;;&>_;>__>>>>>>_>>>>>&>;&;;;;;;&;;>;&&##$@@$&&%&%;;&>>;;;>>;;&&&;;&&;&&&&&&>>&;>-.:*@#",
". ,3$&$##$###%;;>>;>>;>;;;>&&>>>>;;;;>{>>>_>>>>_>>__>>>>>>>>>>>&&>;;&&&&&&#&#$%>>>_>_->>>>>>>>__>>>>_>_>>>>>>_>>-_;>>-{{->>>>>>>>>>;>_---{{{{{{{{{-------{{-{{--_----__--]{>;>;;;->;>>;;>>>;>>;;>>>__>-{{{-{{{{{----------_--_-----{]]{{{{{{{---____-{----]_=$>;$@+*&[^^^^<^^^<[[[[||[|||[<<^^<^^^[<^<^<<^<^]]^^^]^]]]]{{^^^{{{{{---{-{{{--{{-{{--{{{---_-{{-{{---_-{{{-{{{[->>>>>_>;;>;;;;>_>>>_>>-_>>>>_->;>>___>;&&>>>>>_>>_>>>>;;>;;>;;;>>>____>>>>>>>>>>;>>;;;;;;&&;&;;;&;&#%$$##&&&%;&&&>>&&;;;;;%&;;;>&;&&&&&;>>;;&>@:=.$",
"@ ,!>####$###%&>>;;>;>;>>;&%>>&;;;;>>__>>>>>>>>>>&;__>>>>;>>;>>;&&&&%%%%&#$%#$#&>>>>>_>>>>>>>>__>>_>>>>_>_>>>_>>>_;;_--{->>>>_>>_;;;;_-----{{{{{{{--_--_-{--{{{------___{{->;;>;;;;>>__>;>;&;>>;;>>_-{{{{{{{{{-{------_----__-_{{-{{]^]]{{]{{{-___-----{{{{>=#>-%@$'%}}1^]^^<<[[[[[|1||1[<<<^<<^<<<<^^<[^^^^^^^^]^]{]]^]^^^]{]]]{{--{{-]----{{{{_-{{{---{----]{{{-{{{{{--{]]>>>>>-_;;;;>>;>_>>>>_>___>>_>__>>>>_-_>;;&&;>>>>_>_>>_>>>>>>>>>>>>___>_>>>>>>>_>>;;>;__&>;;&&;;&&&&&#&%$&&#&%#>>&>;&&;;;;&%;;;;;&;&;;&;;;;;>;&>$/=+@",
"@.)'_###$#%#%%&>>>;&>>;>>;&&>>&;>>>>>>>__>>>>_>&;-<<]{_>>;>>>;;>&%;&%&%####$%%%#>_>>>>_>>;>>>>>>>>_>>>>>>_->>__>>>;;-{{{-_>>>_>_>>;;>_--------{{{-----_-{-{----_----__-_-{_>_->&>>>>>___;;&;;>;;>>>_{{{{-{{{{{{--------______----{{{{]]]]{{{{{---_--__-----^.@;_%#@)#}1|[^]<<[[[[[|[[[|||[<[<^^<[<^^^^^<<^]^^^^^]]^]]^]]^^]]]^^]]]{{{----]{-{]{---{{{--{-{{-{{{{{{{{-{{---_>>_>;;>>;;;>___>__>>>>>>-_>_>>>>>>;;>_>>>&&&&;;>>>>_>>>>>__>>>_>>>>>;>;;>>>>;;>>&;;>;;>>&;&&&%&&%&%%%#$$@$%%&##;>&&&;;;;&&&&>>;;;&;;;;;;&&;>&%&&_)'..",
"@@,=-#$###%%#%&;;;;>;>>;;;&;;>>>>_;;>>>>-__>>>;-|88^___->;>>;;&&>>&&%&%&#$$$&&#$&_>>>>>>;>>>>>>>>>>>>_>>>__>___>>;;_]]]]-_>>___>>>>>>_------{{{-------__{{{{-_--_--_--_--_>>_>>_>&;>>>>>>;>;&_-;>>_>_---{{--{{{{-----_______--__]]{{{]]]]{{{{---__--_--_---^@.&%#$.!$1[[[[[<<[[[|[||[<[[|[<<<11<<^<^<^^^<[^^^^^^]]]^^]]^]]]^<^]]]]{{{{{{{{--{{{-{]{{{{-{{{{{{{{{{{--{{----_>__>>>_>;&;>>_->_-;>>>>>_>>>>;>>;>;&;>_;&;&%&&&>>;>>>>;>>>>>>>>>>>>>;;;;;;;;>>>;;;;>;&&&;;>&&&&;&&&&%#$#$@#%##&&&&&&&;&&&&&&&>;;>>;;;&;>;&;&&_;&>!,@$",
"..,=-#$###&%%%&>_;;;;>;&&&&;;>>;;;;>-_;>___>>;_15}^>&;;;;;&;;>&#]1%%&%#%###$%&#%>_;>_>>>>>_;>>>>>>>>>__>>>>>>>__>;>_^<^^{_>>__>>_>>>>-------{]--------_>--------_----__---_>>>>>>>>>;__>>;>>;>-;>>___---]--{----{--______-_____{^{-]{]{{{{{]{{-{____---_-^];=$;;%$@)$[[||[<<[[[|[[[|[[[||[<<[75^^<<^^<<^[<^^^^^^^]]^^^^^^^]^<^]]]]]{{-{{--{{{]{-{{{]]---{--{{-{{-------__---_-_>>;>>;;>>___>>;;>;;>__>>>;>;;>&;>>>>;>&;;&;>>;>>>>>>__>_>>>>>>>;>>;;;>>>__>>>;;;;;>>;&;;&&&;;;;;&##%@$$#$#&%&&&&&&&&&&&&&;&;;;;;;&;;&&;&&_;>@('@@",
"@+=,;&$###%%;&&>>>>&;;&&&;>;;;;;;;_>_>__>>__;;-|}[>&>>>;>;>>>;&%-5]#%%###%#$##$#>_>___>>>;>;;>_>>_>>>>>>>>>>_>_>;__;{||[^{_>>>>>_-_>_---_{--{--------_>>__---{------_>>_---;;>>>_>>>;>>>>;&;>&;>>>>>_--{{---{-{{--{__--_---__----{{-{{{{]]]{{{{--_------__{%,@;>%$@)&}^<[<^<||[[|[[[[||[[[<<[1|<^^^^]<<<<<^^^^^^{{^^^^^]]^<^]^^]^{]{{{{----{{{{{{{{{{-_----{{{----_--__--------_>>>;;>_>>__>>;;;;>>>>>>>;>>;;;>>>>>>>&>>>>>;>_>>_>>>_>>>>>_>&;>>;__>__>>;>>>&>>;;;;;&&>&&>>;>;;&#$@@$$@#%%&&&&&%%%&&&&;&&;&;&;;&&&&&&&;;%&_.( @@",
".+=~;%$###%&&&&;>_>;;;;_>>;>>;>;>;>_>>>>>>>_>__-<{&;>>>>;;>_>;&;;]5>@##$#%%###$#;>>___>>;;;>>>>__>>>>>>>>>>>__>>>>>>>{||[]>;>>>>__>>----->{{-[^_-{--->>_>__-----_---_--_--_;&;>>>>>>>>_>&;;>>>>;&-]>------{{{{--{--[^>-_-_----{{-{{--{{{]]{{{{{-_---_-->_-{&,#%&>$.=&1^^<[[[||[[|[[[[||||[[[<^[[^^^]<[^<<<<^<^^]{{^]^^]]{]^{{]]^^{]{-{-{{-{{{--{{{{-{-___----{]-{--{{---{{--{__>>;&;;__;>>>>;&&%&>>;>>;;;>>;;;>_>>>;>>>>>>>>>>>>>>>>>>>;__>>>>>>_--___>>;>>;&>>&&&;>>;&&&&;;;;&#%;#$@$$$%&&%&&&&&&&&;&&&&&&&%&;&&&;;%&;&&&>@/.@@",
". '!;#$$$#%&&&;>>>>>>>__>>;__>>;;;;>>>>>>>>___->>>>>>>>;;;;;;;>;&%]-######%$%%#&&>>__>;;;;>>>>>_>>>>>_->>>>_>>>>>;>_>;_--__>>>>_-_>>__----{{-<]--{-->>>>>>>-{--_-_--_>_>__>>;>>;;;;>;>>>>;;>>>>>;-[--]{-----{{{----^]_--_-----{{{---{{{{{]]{{{----__-_>_--{&=@#%%%$+;1^[<<[[|[[[|[[<<|||||[<<[<^^^^]^<<^<<[^^^]]]]]^^^]{^^-{^]]]{]{----{--{{{--{{{-----__----{]{--{{-{---{--_->>>;&;;;>>;;>>&&%&&;>>;>;&;>;;&&;;>>;>>>>>>>>>>>>>>>>>>>>>>>>>>>>--___>_>>>>;&&;;;&&;;;;&&>>>>>>&%%&&#$@$$#&&%%&&;&&&;>;&;;&;&&&>&%;;&;&;;;;>@/*.$",
"+ *,&#@@@@#&&%;>;;>>>>>>>>>>>>>;;>_>>-->>__>>__>;>>>>>;;>;;;>;;&&&#&%#%#$##$##&%%;_>_>>;;;>>>>>>>_>>>>__>>>_>>>>>;>>>>;&;_-__>>__--____----{{------_>>;;>>__--_--__-__>>>>>>;;;>_;&>_;>>>;&&>____>_--{{--{{-{{----{___---{{---_-{---{{{{]^]{{{---__-->_-__-&!*##$&$=;1]<[[<[[|||1||[[[||[|[[[<<^^^^^^^<^^^<<^]]^^^]^^]{-]]-{^{{{-{{{{{{---{-----{{---__-__-{{{{]{-{{{{{{{{{--__;;;&;>&;_>&;;&&&&&;;>;&>;&&;;;;;&>>;-_>>>>>;>>>>_>>;>>>>>>;>>>>>_____>>_>;>;&&>_>&;&&;>&>>>>>>>>&##%$#@###%%%%;;;;;&&>>;;;>>&;;;;&&;>;&&&&>_@(*@%",
". *)&#.@@.@#%%;>>>>>>>>_>;>>>>>_>__>___>>_>>>____>>>_>>_;;>>;;&;>&%%####&#%#$#%$%&_->>>;;;>>>>>>>->;>_>_>>>_>>>>>>>>__>>>>>__>>>>___>>>_-------_--_--;;;>>__>__---__>__>>>>;&;>>>>>>_>>>;;>>>_>>_------{---{]]{-----_---{-------{-----{]<]{{{{---__{-__>>;_#~ #&&#@,%|^<<[[[|||[[[|11[[[||[[<<^^^^^^<^^<^<<<^^^^^^]]]^{-{{{]{{]{{{{{{---{{---{--{-{{>_-__----{{{]{{{{{{{----->>;;&&;&;&>;&&;&%%&;;>>;&&;;&>>;;;&&;;_-_>_>>>>>>_>>>>>;>>>;>>>>>>>___>>>>>_;>;&;;&>>>>>;;&;>;>>;>>%%#@@$$$%%&;;;&&>;;;;__&;;&;;;&;;&;>&%&;&;_$/ $@",
". '~&#@.$>#@##;>__>>>>>>>;;>_>>>>>_>_>>>>>>>>>>__>>>>>>;;;;>>_>;;&%%#%$#>;$#%%%###_->>>>;;>>>___>>>>___>>>>>>>__>>>>>>>>>>>>>_>>>>>__>__---_--__--__-_>>>>>>>__{-_--;-->>;;;&;>;>>>>>>>_>>_>>>>>>_------{--]^]{----_>__--_----]------{{]]{{{{---___--__>>;>$! $#%$@*_1<^^[[[|[||<[[<[[|[<[[[^<[<^^^^<<]^^^^^^^^^^^^]{]]{{{{{{]{{]{{----{{----{----^]_--_-----{{{{{{{-{{-{[{__>>;;&&;&;;&;&&&%&&;>>;>&;;&&;;;;>;&;;;&>>>_>_>__>>>_>>>>>>>>_>>>>>>>>>_>_>>>;;;;&&;;;>_;;;;;;>_>_-;&##$$$$$%%&;&&&;;&;>>;>;>;&;>>>&;;&%>_&&;;>>)=$$",
"@+*'&#@@&>#$$#&>>>>>>_>;>>;>>>>;;;__>>>>>>__>;>_>>__;>>&;;;>>>;;;&&%#####-%$%;%%&%>_>;>;;_>>-->_>>>__>>>>_>_>>>>>>>>>>>>>>>_>>>;;>_>>>--_>_------_-_>_>>>>;>>>___>_->__>>&;>>&&;;;;>>>>_>>;>>&>_>>_----{]^]]]{---_-_------------{------{{]{{{---____---__;>#!+@$#%@=-1<<<[<^<|[[|[^^<|[[<<[<<[[<^^^^^^]]<^^^^^^^^]]]]{{{{{{{{]{{{-{{-{{]{{-__----{--{--{{--{--{{{--{{-{-{[{->>>;&>>;&;;&&&&&&&&>>>>&&;>;&;&&;;;;>;;;>__>>>>>>_>>>_>>>>>;>>>>;>>>>>>__>>>;;;;>;;;&;&&;&&->;>>>>;&&##%$$$#%&&&&&&;&;;&>&&>;&&&>;>;&;&&>_%&;>>>)'@#",
".@.)&$.>-.@$##&>_>___>>>>>>>>>>>>>>___;>_>_>>>_>>>>>>>>>>>;;;;&&&&&##%%#@_>@;;;%&&;>>>>;>_>____>>>>>__>__>>>>>>>>>>>;>>>>>>-_>_>;>>&>_--_>>__--__--_-->>>;>_>_>>>;;>->>;>>;>;&;;>;;>>>>_>>>>>>>>>__----]]]]{]{{{-----_--------------_---]]{{---___>__--->>-.~.@&%%# {|<<[[[[[|<]<|[[<[[[[<<<<<<<<^<^^^]]^^^^]^^^]]]{]]{-{{{{{{{{{{{{{{{{{{-->_-{{{{-{---{--{{--{{{-{{--{{>--_;;&;>;;;>>;>&&;;&;_>>_>;;>&;;&;&&;&;;&;>__-_>>_-_>>>_;>>>>;>_>>;>>>>>>>>>>>>>;;&&&&;;&&;&&;>>>;>;&;;#%%$$#;;&;&&&;;&>;&>;&;;;&&&&&;&&&&%#&&;_-$/ $@",
".@=/&@.>_>$@##;>___{__>;>>>>;>>>;>>>_>__>>>>>>>>>>;;>_>_>&;;>;&&&&%##%##$#%#;&;;%>>>>>>>>>>_____--_>>___>>>__>>_>>>>>>>>>>>__>_>;>;;>_---____-->>---->_-_>>>;>>;>>&;>>>;;{->&__>_>>>__>>>>>>>__>_>^]--{{{]]]]]{{{-{{-------__-__----__-_-{{{-{-_>>>__---_>{ /+$&%$.@}|<[[[[||[<^<[|[[[[<[<<<<^<<^^^^]^]]]^^^]]^^]{]]{]{{{{{{{{{{{{]{{--{{{{{---{{-{-------{{{{{{-{{-{{{]----_>&_]>;;>>>>_>;>;;>>>_>_>&;;>;>&&&&&&;>;>>>>>>>>__>;;>>>_>>>;>>;;>>>>>>>;;>>>>>;;;;&;;;;;;;;;>;;;;;&&&%#$$&;&&&;;&;&&&&&&;;;;;&&&%&&;;&%%&%&;>-.(+$$",
"# )/>%+%&;%@$#&>>_>>>>>>;;>>>>>>>>>>>>_->>>>>>_>;>>>>>>;;;>>;;;;&&%#$###$@$;>&;>;>->>>>>>>>_-___--__>;-_>>>>>>>>>>>>>>>>>>-__>>;>>>;>_----___--___---__-___>;>>;;>>>>>>>>_{___>>>_>>__>>>;>>>-_>>_-{--{{]^]{]^]]{-]]_-{{--__---{->{^{__{_{{{{--__>>__---_>{.(+#%%$ %4[^[[[[[||[<[[<<[[<[<<[[<^<<<^^^]]]]^^]]^^^]]{{]{{{{-{{]]-{]]{]{{{-{{{{{{---{{{{{------{{-{{-{{{{-{{----_-;-^>&>>>>>;>_>>_>>__>>>;&;;;>;&&&&&;_;>__>>_{>>>;>>>>>>__;>>>>>>>>>;>>>>>>>;;;;&&&;&&;>;&;>>;;;;;;>&####&&&&;>;&&&;&;;;;;&;&&&%%&;&;&&&&%&>_-+(*@$",
". =~&-##>&&%%&;;>__>>>>>>;;>>>_>;>>>>_>>__>->;>>>;>>;>>;>>>>;&&;&&&#####$$%;;;;;;-_>>>>>>>>----___>_->-_>>>>>_>;>>_>>_>>>>_>__>>>>>>>>_--{-_>_--__--->>-_>__;>>>;;>_>>>;>;>__>_>>>>>>>>>;>>_>>>_>-_-----^<{{^^]^^{--{-{------{{---]]]->]{-{]]->>_>>__-{->>{+:+#%%$ %4|[[[[|||||||<<[<<[<<<<<[^^^^^]^^{]^]]]]^^^^{]]{{]{-]]{{--{{{]]{{{-{{{{{----{{{{----{{{{{{--{{-{{-]]-{{--_-;>;>>-_>>>>__>>>>-->;;;>>&>&>_;&&&>>>_>>>>>-_>;&;>>>>>_>>>>>>>;;>>>>>>>>;;;>>&&&&;>>;;&;;;>;;;&;>;%#%&&&&;&;;;&;>&;;&;>;&;;;;&&;;&&&&%%&&>-{.3*.@",
".@ ~%-^%$;;&&>_>>>>>>>>>>>;>>>_>;;>>>__>>__>>>>>>>>>>>>>;&>>;&&%>;######$$&&&;;&>>;>>>>>>>>_-_-___>>>_-_->>>>>>>>>>>>>;>;;>>__;;>>>>>>_----__----{-{---__>;>>__>>___>>>;;;;>-___>_-___>>>_>>>;__>____-_-]{{{^<^^^]{--{{-------__{]-{{{--]{]{{{_>>;>-----_>{ /.$#$# _9|1[[[||||||[[[<[<[[<[<<<<^^^^^^]]]^]{^^^]^^]]]{{]{{{{{{{]]{{{{{{{{{{]{---{{{{{{-{---{{{{{{-]{---{{{-{{{_;>>>>>_>-_>>>__>;>>>>>;&&&&&&&>_&&>;;>>_>>>>>;_>;>;>>>>>>>>;>>>>_>;>>>>>;;;;>;;&&&;;>>;;;;;&&>>;;&&&%%&&&;;&>>;;>>>;&&&&&;>&&;;&;;&&%>>%%&;-]{@~=..",
".+,)-;;#$&;&;>>>>>>>>>>;;>>;>>>>>;>_>;>_;>->__>>>>_>>>>>;;&;;&&%&&%#$##$$#%%&;>>;;>>>>>>>>>_-_____-___>__>>>_>>>;_>;>>>>;;>__>;;;>_;;;----__-----{-------_;>>___>>-_->;;&&;;&>-__>____>>>>>>>>>>>___---{{---^<^]]{{{{{{{-{--_>-{]{-{{{{-{{]{---_>;>_----_-{ ~@#$$%.^4[||||[[|[[|[[<<<[[[[[<[<<<<<^^]{]]^^]]]^^]]]{{{{{{{]{{]{{{{{-{]{{{{]]{----{--{---{{{-{{{{{{-]]-{-_-{--->>;>_>>>;>-->>-__>>-;;>>&%>%%%;&#%&;;_>>_>>_>->>;>>>>;;;_>>>>>;>>>_;>>>>>>>;>;;;&&&;;;>;;>>>;>;;;;&&&&&&&%&&;;>;;;&;>&&&&&&;>>&&&;;&&&;;%&;_<|{&!).@",
"+ )*^#@#>;&>>>>>>;>>>_>>>;;;___>;;;>_;>_>>>>>>>_>__>>>>>;;;&&&%%&%&#######%%%>>>;;>>_>>>>_>>>-_____--->>>>>>>>>>;>_>>>>>>;>-_>>;>_>>;&>-------{{-{--_---->>>>>>>;;>_>>;;&&;;&&>>_>;>-->>>>;>_>>>>_>_-_--{--{^^]]{{{{{{-{{{-_-{]]{{{{{{]^{{---{---__>>--_>_{ !@%%$&.]4[|||[[[[[[||[<[[[[[[[<[[[^[[^^]]]]^^]]]^^]]{]]{]{{]]]{]{{{{]{{]{-{{{]{--{---{{-_---{-{{--{{-{{{{--{-]{;_>>>;>>&;&&>--__>>>>>>;&&>;%&%%&#%##>->>>>__-_>>>>>>>>>>>>>>_>;>;&;>>>>>>>>>;;>;;&&>&&;&;>;;>>;;&&&&&&&&&%%;;;;;>;&;;&&;;&&&;;&&;;;&;&&&&;{<18{&~)..",
" .'*]##;>;;>>>>>;>>>>>;>>;;;>>__>;;&>_>;>;;>_>>>>>>>>>>;;;&;&&%%&&&######%%#%;;>_>>>__>>>_>>>>>__-_>-__>>>>>>>>>>>>_>>>>>__>>>_>>->;>>>------{{{-{{{----->>_>>>>>;;>;;&;&&;&&;>>>>>>__-_>>>>>>_>>>>>_>---{{{]^^^{{{]]{{---{]]]{]{{]{{]^^^]--{{{-_>_-__-_>>{.!#&&&&.{4[[||[[[|[|[[[[[[[[<[[[[||[<^^]]^]]]]^]^]]^{]]]]{]^]{^^-{^]{{]]{--{{{{]{--{{{---{-----{{----{{{-{{{{-]<>-->;;&;&&>>&&_-_>;;;>;&&;;&&&%#%%&&&;>->>>>_>>>>>>>>>>>>;>_>>>>>;>;;;>_>;;>>;_>;;&;>&&&&;>>>;;>;&&;;&&&&%;;;>>>>;;;>>;;;;&&;;&>>&&;;;&&&&>{]<<_>),++",
".+'*-#&>;;;&;>>;;>>;;>>;;>>>>>>>>;;>;>>;&;>>_>>>>>>>>_>;;&;;&&&%%&&#$#%%&%#%%;>>_>;>>>_>>>_>>;>>____>__>>;>->>>>;_>>>>>->-->>>>>>>>>_----->_-{--{{]{------>_--->>>;;>>;;>>;;;;;>>>>____>>>>>>>;;>>>>_>>----{^^<]{{{]]{--{]]^^]^]{{]{{{]{]]]]{-{-__--___>>>]&~.>>&&+-4[[[[|[||[[[[[<<[[<<[|[||[|<^^]^^^]]^]]^]^^]^]^]]]{{{{]{{{{{{{]{^]{{{]^]---{-----{{--{{{{---{{{{-]]{---{{->&;;%;&_-&&%;>&&%&&%;-;;&;%#####&>>>>>>___>>>>_>>>_>>>>>>>>>>>>>>;;>>>>>;>>>>>>;;>;&&&;;;;>;;&;;>;;&&&;;>>>;;;;>;;;>>>;;>;;;>;&;&>;&&&;;&;>;;-,=@.",
"+ ,={;>&&;;;_>;>>>;>>>>>>;>_>>>>>>>_>>;>>>>>>>>>>>;>>>;;;>>;&%%&&&&####&%##&&;>>>>>>>>_>>__>;>____-__-->__>>>>>>>>>;>>>>_>>_>_>>>>__>_{---_---{{]{---------_--__>;;>>>>>>>>;>>>>>;&-->>>>>>>>;;>>;>_>_____{]]]^{{{{{-{{{]<]{^^^{{]]]{{]]]]^[]--{--______->^>)@_;##*{4[[[||[[[|[[[[[[[<[[|[[||||<^^]^^]^]]]]]]]]]^^^]^]{{{--{{]{{{{{{^{-{{{{{]{-{----{{{-{{{{-{---{{{{-]{--_--_;;&&&-_;&%->%>;#&%##_-&;&##%##;>%>_>_>>{->>>;>>;>>>>>>>>>>>>;>>;>>>;>>_>;_>>>>;;;;>>;&;&&;>;&;;;&&>;&&;;;>;>;&>_;&&&&&;;;;;>;;&&;>;&&&;;&;;;>{))@@",
"  )'^>&&&&;>>>>>>>>>>>>>>&;;>>;__>>;>>>>>>;>>;>>>>>>>>;;>>&&&%%&&&&##%##%#%&&>>_>>>>>>>_>_--__>-____-___>___>>>-_;_>>>;>>_>>_>__>>>>>_{{------{]{-{{--_--__---_-_>;;>&>>>____->>_;;>>>>;>>>;;;>>;;>>>__>_-{{{]^--{--{]]{{]]{]^^]]]]]]]{{]^^^]{{{-_>>>>-__>]_=#&### ;9[[[||[|[[||[[[[[[[|||[[[|[^^^]]]]]]{]]]]]]^]]^]{{{{----]]----{]{{{{{{{{-{{-{--{{--{{-{{-{---{{{{--{---__>&;;#&_;;&#;{&%;%&###>-&&&#&&#%;{;>>>_>___>->;;;>>>>>>;>>>;>>>>>;;;>>>>;>_>>>;;>>;&;>>;;%&;;;>;;>;&>>>;&&;>>;;&&;;&&;;&&&&>>&&;&&&&&&&&&&;;&>_&/'++",
"  )'-;&&&;>>&;>>>_>;;>>>;&&&>>>>>;>>>>;;;>;>>>>>>;>>>;;>>&&;&&%&&&%#######$%#>__>_>_>>>>>>---_>>_>_{->__>>>>>_-_>;>>;>>>_>>_>>>>__>;>-{{_----{{-{{-{-{_---_---->>>&&_>;__>_{->_->>_>>>_;;;;;;;;>;;>>>>>_-_--{]^{-{{{]{]{{{{{{]{]]]]]]{]{{^^]^{---_>;>_>>>_{_,+#&%$ @}[<[|[|||[|||[[[<[[[[[[[[[[^^^]]^{{{{]]]]]^]]]]]{{{----{{{-{{{{-{{{{]{{{----{--{---{--{{-{{--{{--{--{_-_-_>;&&%#&%%&-_$#>>&%%%#;;&&#%&%&&;__>_>_->;>;>;&>>>>>>>;>>>>>>;>;>;>>>>;&__;>>>>>>>>>>>;;&&;;>>;;;&;;&>>&&;;&&&&&;>&&;&&&;;;;;;;;;&;;&&;;&&>_>-.3 @.",
"+ )={&%&&;>;;;>>>>>;;;;;>;;;>>>;>>>>>>>;>>>>>>>>>>>>_>>>;&;&&&%%%%&%###$#@##%_>>>>>_;;>>>>_{{_-->>>__-_-->>___>>;;;_>>;>_>__>>>>_-_;;-------{{--{-----_------___;;&;___-_;;>>&>-_>>>-__>>;;;>>&;;;;;>>>__>>------{{{{{{{{{{{]]--]^]]{{{]]]]^^]-{-->>-__-{{^>).&&#$ #8[^^<|1|||[||[[[<<[[[[[[[|[<<^^]^]-{{]]]{]]{]]{]]{{---{{{{--{{]--{{]]]]-{{---------{{{--{-{{--------__----->&%%%#%%##>%%&&;&%&%%&;%$&;&#>->>>___>>>>&;&;>>;;>>>>>>>>>>>;>>;;>>>>_>;;>>;;>>>>;&;;&&&>>;;;;&>;&;;&&;>&&&&&&;;&&;>;&;;&;>;&;;>&&&&&;&&;___@(=$@",
"+ ,)>$&>;>&;;&>_;>;;;;;>>;;&&>>;>>;>>>;&>>;;;;>>>>>>>_>_>;>;&&&&%%&##%$$$@_;#>>;>_->%;__>>_---{{____---__>>>>_>>;>>>>;;;>>>_>>>>>__>___--{{--{-{----_-_------{-_>;>;;_{-->;>>;&>_;;>__>>>>;>;>>&;;&;>>>_>___-__-{-{{---{{--]^{--{]]{^]{]{{]]]^{---_---{]]{^{=$&&%@ #5<]^[||||1|||[[[[[[[|[[[[[[[^]^^]]]{{]{]]]]^{{]{{{----{{{---{----{]]]]^{-{-----{-----{-{{----------_>_-{---->%#&&&&##;;#%%##%#%&&&&%#%%&-->>>_>>>;>;;&;;>>>;>>>>>>>;;;>;;>;;>>;__>>>;>>>>>>>>;;;&&;>;>>;&;>;&>;&;;>&&&&&&&&&&&&;;;;;;;;;;;&&&&&&;&&&;>;;!=@.",
"..=(%#&>;;;;;;>;>>>;>;>>;;;;&;;;;;;;>>;&>>;>>;>_>>>>>--_>>;;;&%#%%#$#$%%##;&#>;;>-->;%>>;>>>-{{-_-_>_-__>>>;>>>;>>>;>>>>__>_>>>>___--_-{{-{----{{--{-_------_-->>>;>>----_>>>>;;&__;>>;>>>;;;&;;&&&>;>--___>_---------{{{{]^]^[[^{{{^^]]{{{]]^^{---__]]{{--<+@%%#@.@1[<^[|||||1|[[[[[[[<[[[[[<<^]^]]{{]{{{]]]]]{{{{-{{----{{{--{]{_--{{{]]^{_-----{{-------{-{----{-__->>-_--{-__;&%;;###%&&%&%%%&%%%&&####-->>>>_>>>>&&>>;;>>>>>>>>>>>_>;>;>_;;;;_>;>>>>;>>>>>>;;;&&;;;>;;;&;>;;&&>>&;&;&&&;&&;&&&;&>>&&;;;;;;;;&&;&&%&;;;_*'.+",
"++,~&##;;;>>;>>&&;>;;;>;>;;;;;&;;;;;;>;;;;>_>;>>;>;>>--__;&>;&#%&&#%#$%%%#$$$;>>>>>_>&;>;>_>_-----__>___>>>>_>>>>_;;>>;>>__>_>>>___--_-]{{{{-----{---------_--__>_>>>-{-_->__>&;;;>>>>>__>;_;&&>;%;;;>--_______----{--{---]^][|<^{]^^{{{{{{{{]^{---_-{]{{{{[@@;#$$+ ^1[^[||||[||[[[[[[<<<[<[[^^^]^]{]]]{{{]]{{{{{{{{{{{----]{{{{{{---{{{]]{-------{-------{---{]{---{_-->{{-{--_>&&&&&%#%&&%%%%##&&&##@#%%%>_>_>>>>>>;&&;;;;>__>>>>__>>>>>>>>;;>>_>;>>>>>>;>->>;&>>&;>;;>;;;;;;&;;;%&&>;&&&>>&&;&&;>>>;&&;;&;>>;;;&&;&%&;>&-+,. ",
"  ,:@>%>>>>>&&;;;;;>;>>>;;>;;;&;;;;>>>;>;>>;;;>>>>>;>___->>;&&%%%%%$##$####$#>>;;;>>>>;&;>_>>----_>_-_>>__>>>>;>>>>>>>>>>>_>___>>_---_-]]{{-----_{-----_-----_____>;>---__--_>>>_;;>__>>>>;>>>&;;&>>>>____--__--{{{{{{------{{--{{]^{-{{{{-{]{]{__>_---{{-]] @%#%#@ ^[]^|||11[[[|[[[[[<<<<[[<<^^^^]{]]]{{{{]]]{{{{]{{{{----{{---{{----{{{---_-{{---{{-----{{---{{-_]]-__-_-_---->;&&&&&#%&%%%$#%##%&#####&&&;>>_>>>>>;&&&;&>;-];;__>>>>>>>;>&>>>_>;;__>>>;>>>>;;>>>>&;>;;>>;;;>&;;;&&;>;&&&>>;&&&;>>>&&--&&&&;;;&;&%;&%;>>&>').+",
"  =:.-&;;;>&;;&>;&;>>;;>;;>>>&&;;;;;>>;&;>>;;;>>>>>>>>>_>>;&%%%#@$########&%#>>%&;>&;;;&>>>>>_---->>_>>>_-_>>_;>>>_>>;>_-->>>____-------{------{--------{-_-_>>__>>>___-____>>>_>>>__>>>;>;>_>>>;;;>>&__>_-___---{]]{{---{-_---{{{]{{--{{{-{]]{{_>>__---->{-*$#####=-}]^[[|||||[[[[[[[[<<^<[<<^<^]^]{]{{{]]-]^{{{]{{{{{-_-{{{-{{----{--{{{---{{{{-{{{{---{-{{--{]{{{-__--__>>___>;&&&>&%%%&####%###&##>%%%%&>>&&>>;;>;;;&;>&&>>_>>->>>>>>>>>;>>>>>>>>>>>;>>;;>>>>;;;>>;;>>>;;>>&&&;;;;;;;;;;;&&&;>;&;;>__&&&&;;>>;&&&&%>;;>;~,  ",
" .=3$-&&;>;&&;;;;>;;>;;;>;;;;__;;;;>>;;;>>&;;;;;;;;>>>;>>;&&##%#$$#%$#$$$#->#>;>>&;>&&;__>>>>_-_-->>_--___>->>>_>>>>________>>>>_-{{--{{--{{{---{--{]{-_{---_>>>__>>_>__>____>;>>>>>_>>_>;>>>;>>;>;>>>>_>__>>_----{{-{{------{{{{{]]]{{{{]]]]{{]->_>_{___>--,+%#$$@,&}]^[||1|||[[<[[[[<<<^<<<<<^^^^]{{{^{]]]{{{{{{{-{{{--{{---{{{------{{{---{-{{{{{{{---{{{{{{{{{]{---{{{---____&&&;-&&&%#$%%%%%&%%##_&&&%&&;;&;;>;;;&;&;>>>>>__>_-;;>>>;>>;&__>>>>>;>>>>>;;>_>>>;>>>>;;;>>>;&&&&&&;>>;>;>;&&>>;&&;&;>;&;&;;;>>;&;;&&&&;;;>!,  ",
"..=/&-;;>>&;>;;&;>;;;;;;;;&>;__>;;;>>>&;>;>>;;>>>&>>_>&;>>;&%#%&$#%###$#@#{-#&&>>&>>&&>_>>>->_-----__--_>>>__>>>>>__>_>>_-_>>>>__------{-{{------{-{{{{-_--_>_>>>>>;;>>>>_>>>>;;>>>>>>>>>>__&;;;;;>>>>>>_-->__--{-{^{---_-{----{]^{{{{-{-{{]]{{^->_>-{{__>_;).%##$$.>1^<|||11|[[[<[<<<<<<^<^^^<^]^^]{{]]]]]^{{]{{{{{{{--{{{{---{{{------{-------{{-{{{-{{{-{{]^{{]{---{----{-->>;;>>;&&&%###$$&&%#$$;%@%#&;&%;;&>>;>;&&;;&;>>>>>->>_>;>>>>>>>>>>;__;;>>>>;;>_>>;--&;>;>;;>>>>;;>;;;;;>;&&;&;&&&;&&&&;&;;&&&;;;;>;;;&&&&;;;;&!' *",
"+.=!;>>>>>;_-&;;>;;;;;;>;;&>>;;>>>;;>>;&&&;>>>;>>;;;;>-&;&&&&&##$###&%##$#;&#%&&&;;>&&>;>__--_-----_-__>>>_>>__>>>___>>_>__>_-_------{{-{{{]-_--------{{---_>;>>>>;>;;;>>>>>>;&;>;>__>;>>;>{{_;;>&;>;>>>-----_---{{<{-{-----{{{{]^{{]{{{{-{{{{{-->>-{{{->__&'$$$$#&@<1<<|[||||[[[[[<<<^<^^<<^^^^^]^]]]-{{]]]^]]]]{{{{{{----{]--{{-___--__-__---{{{{{]]{{----{{]^{{{{--{--_{{-_>>>>;_>&;;&;&#;;%&&##&%$&;%>&&;;>>>>>>;&&&;>;>>>__>>>;>_>>>>>>&;>>>>>>>__>_>>_->>>-_;;;;;>>>>;>>>;;;&;&&&;;&&&_>&&&;>;;;&;>;;&&;;;>>>;&&&;&>;&,=+ ",
"+.=);>>>>>>>>;;>>>;;>>>>;;;>>;>>>>>;;;>;;_;&;;;;;;;>&{]&;;%%%##$$##%>;%%%&#@%&;;&;>;&>>;>__--__-{-_-_-____>>_>>-->>_>____>-__->__----{{{{{]{_--__-____-{-__->;>;;>&>_;;_>>>>>>>;;>>_-_>>__;;__>>;>>;_>>_--_------{{-{{{--__-{{]{{]]]]{{---{]]{--->&-{]{-_>-&'@@$%>%.||[<<|1[[[[[||[[[<<[^^^<<<<]^]^^^^{]{]]]^]^]{{{]{-{---_{]--{-----____--_---]^]{]]{]{{---{{{{]{--{{----{---__-__>>>;>>;&&^]#%&%&%@&-&>_&;;>>_>>>>_&>-;>;>>>>-->>>>>_>__>>]_>>>>>>>_>>>>>_>>>>;>>>;;;>>_>&>>&&%;>&%&&>;&&;->&;;&>;;>&;>;&;&;;&;>>&;&;&&>;&,=..",
"@$ ,__;;>;;;;;;;;;>>>>>>>>>;;;;>>>;>>;;;>_;>;;>>&;;>>;;;;&&%#@$$$##&;&&%#;%@$&&&&>>>;>;>>___-_-_-__--_-_-_>-_>>_--_>>__--__>__>-_-{---{{{{{-____>>>--_-{--_>>;>>&&;>>>;>>>>-->;;>>;>_>-_>_;>>>_>;>_>;>>>>>_--_----{---------{{{--{]^]]{--{{^^<{__->-{]{{->{$)@#&&##$[1|[|||[[[[|[[|[[[<^<<<<<<<^^^]^^]]]^]{]]]]{{{{]{-{-_-{]--{{{---__----_--_-]{{{{{{{-{---{]{{]-_-{{---]{-----_-___>>;;;&&-&#&&&&&@&;&;__&;>>>_>>>>;>>>>>>>___-->>>>>_>>>>^_>>_>>>__>>>_>>->>;>_>;>>>>>>>;;;&&&&&&&;;&&>>>&&&%;>;&>>;;&>&&&&;;>>&&&;&&>;&>))**",
"$@+,>>;;;&&&&&&&;;>>>;>->;;;;&;;>;;;;;;>>>;>;;;;;;;&;;&&&&%%#$@@@###%&%#@%_%.%&&>__>&&;>>>-_>__>>>>_-_-_>>>_>>>>>__>>>>_>__>__>_---------{{__>>;;>>>>_---_>;&&&;&;>&&;;;>>>___&&&;>;>>-_>>>_>__>&&;>&>>;>>>______--__-------{^--{-{]]^{{{{{]^^{__{{{{---_>^#)$%#@##$[|<[[||[[[[<<[[[[<[[<^<<^^^^]]]]]{{{{]{{{]{{{{{{----_-{---{-{{----------_____--{----_----{-{{--{{--_-{{-_--{-_-_>>>&;>%#$#%&;&%%_##;;;>>>>>>>>_>;;&&;>>>_>>_>__>>;&>>>>>&>>>>>>>>___>>{{;>>;>;>>;;>>>;;_>;&&&%&&&&%&>&;&#&&#%;;&;&&&%%#%#%&;;&&&;&%&&&&>~,  ",
"@@,(&;&&&%%&%%%&&&;;;;;;&&&&&&&&;&&&;;&&;>;;>>&&&;&&&;&&&>%##@@.@$$#%#$$@#;%@#&;>>->>>;>>>>__>_-_-_>>__>>>>_>;>__>>-{_>>>>_______--{{{{{----_>>;;>>;;>___>&%%###%;&&&%%&>>>_>>&&&&;;;_-__>->>_>>>;>;;;;;;_>_>>;>--_-----_>----__--{{]{----{]{---{^{{{__>>;{+)$#@#&@+^[^[[[[[[<<[[<<|[[||[<^^^^]]^]]^]]^^]{{]]{{]{{{-{---_---{{{]{{{-{{-{-{{{-___--___--_-__--{]{-{{{{--_-{{{___-{--->_>;&&&%%;>;;&;%];@&&&&;>>>>>__>>>;>>>>__>>>--__>>;;>>>_>__>>>>>>__-_;^{&>>->>_>&&;>>>;&;&&%#%%%#%%&>#%&####%%#%#$$$$@$@$$#&&&&&&%%&&%%>,,.@",
" =)0'-&;>&;_;#$$#%&&&;&&;;;>>>__;&&;&&&>;&&&;;%%%;;>;%%%&&&%&&#$@@$#&#$@@##&%;>__;__;>&;;;&;__---_>>;;;;;;>>;&;>>>>>>>--{->>>>>_-{{{--{^]-_-->;&&&;;>>>---_>_-{-%%&&%#&>_;;>_>&&;>>;>>>>>>;>>;&&&&%%%%%%&;;&;>>>>;>>>>_>>___>>>>>_--------{]{-{^]]]^]{]-_]<)~.%&%&@=;1[||||1[]{^<<<<<|[[[<^]]^^]{--{{]{{{{{]{{{------_>>>>----{{------_--____>>_>>;;;>>>;;>>_{]{_-{-->>>---_>>>__>>;>&%&%#%%#$#&&#$@##.%&>>>>;;&&;;;&&&%&%;;&;&&>>>>>>&&&&;>>>>>;;;;&&;;&&#%&&;;;;;%###%&&%##%###$@@@$####%####%#%&%#&&%%$####$###%%#$#&>#%<,/*=",
"=+=:b'$ !:~,+%{^^{_;%.@..$+,* =+@..@&;;@.%&&&%&&;$#$%>>>>>#@. .@&;>-_-{--_;.@@.$%>__;%&;&&&&&&$@$&&;>>>;;;%.&&&&;&&;&%@. .%;&&;#@$&___;.+.',++$;;>#@@+.++++@@@%-]---__-&&_%@$#@@.$$#%;&;;;_-{]<^]]]^<^{]^^{-^]---_>>>;%@.@@###@@#{>$&&%&;#&&&&_{>&_>&&$$@#+(,$#%$## =_^_&&;>&-]]^^^]^]^<<^]]]{-{{{{]{-{-{{{{]]{{--{-----____-{]{-------{]]]{{{__-__--_---_>>--_>_{]^]{]]]]]{{{{{{{--_-]1}<_&;__-<^-&&>]1|^^^-__------->---_-{]]]{----_>_------->>_>>_-__>_{-;-]---_>--_>----_-{_;>;>&%%&&&;;&@..+.@@#$@@@&>>>>;&%%#%;>>%$;-*d)',",
" +):0(~(00a0:,#;&$*))/~(2:20aa0a()~(~!)((!!,)!!))/~/!,)=,'~/3a:(),),~,.@= ,:/(23,.*',))',,=,!)~~/~~,=',,))!)!!),,!~',!(32()!)!,!(:)==*)3~~((3/)=,,)/3:(((3:~(3(!=,'=,),~!,!~(~!(3(/!~!,,,,'' .%{{----^^--;#++ ,)'=,')~!(::3/~!~() ,!!,,!)~)=')= ',=,)~(,=~()*###@@# *.@ * +*)=@.++@..@$@....+ =*+.$@ *  @$.+.@@@.**='   ..='+$@.@+..  @#%;;&@.*=*.@+.@... ==+.*' %;&%#%&%&%#$##$##%>>>{--]^[[]_;%{^[[|^;.',' .@##%#$$+ #@%&&$@&;&&;&;;>>%&%@@$@+*='+$#$@##&$* #$$#$*#%$&_%##+**''*= =,~~)')~)//(/~3~,(::~),)),,),,')*'')(')b( = ",
"===!,*))')!,'*=))=,!=='')!,)~!!)'==,)))==!))!)!,,=),=',=)!,=='',,',,,),'*  )),))=.*==*,* '=,)),',,,,,,),')*+))'')),,,=',''=!)='),)'**='* ),==',,='==)),=='===* *''',,',),)==),=,,,='!,=,,,)!**= *=','**,, ',''=,!~~!!))')!),'*='''=*='*',==@.*++++ ====+@.+* $#$#%#.%>#@@@$@='**= ...$#@...++. *== ')))),   =,=''=',)',),,,,===,'==,,,,),=**====)* ,=  =',!~, .*, +*='=''=))),,,,,===',,   $%*)),'+.+@ ))'=,*=))= ',!/~~~!)!!!'='=,','= *,'))!)!))!,'')))','=)!)=,/! *,''))))))),)'==)!)'=,!)),,'=),=,,,*==',',,='=))))=+ ~,= + ",
"='*.. = +.@.@$$#$#$ .$@@ *++ ** +@@+..+.+..*+.+... +#@. *.. .@.+ ++.@#@.%%$..* ++ .#%@.@@+.++.+++@@++@@..+@+=*.@++.+.#@..+$@+$@*=*.@@.$#@.+..+++$#$++.+..@@..@@#$$@.....  ...@+ @@. +++++ .@$$$#%#@.#@.@@@+ #@@&@ **.#... $$@#$@.+.@@@.+.#@##%#$###@@@.$#%%#@$#$&&#;;&>_;#&#. .$#&$$%&&;#$%###@@$@$$ ** +@&;%.  *   *   *=*==* .+@@..++ @@$@@@.+ @$@###$.*'' @%$..@&#+.$@ +.++@.*+.+.. .##..# =.@+.+ $#@@+.@.@@.@%%@*'' .==' &$ ++ + ++@@..+. *+* + @.++ @.@$...$.=+@##$+.+.@. ++.$@ = +...+ @@@@.+++@....$$..+.@+ .+  @#@ @.*++",
"%+* @. ..+.@@@@%&%$..@@.@...  +..$$..$@.+@..@@..@#@+@.@$..+..+.@ .@.@#$++$.## +..$#$#$$@@$@@.@@+@.@@.$@@.. ..   $@+.##$$@@%&@.@+  %##@#%#$@@.@@.$#$..@@.@#$$@$@%%$##$++.@++..$++$@.@.+@..+@$$&#$;&#$$;$@$+@..@@%$$. .$@+@.@@@##$....@@$@$#%$%&#$##$$@@@#%#&&&##&&%&&#%>->#&#.$&##%#$#%%%####&&$%#.@&.  .#%%;#$+*   + = @+  *=  @#$@@..++@#$..@..@.@&>&#$.*=*+$&%$@@%#@....@$$+.+ .#%@.@@##$@@@@.+@.@@@+@@ .@+$#@.&>$+==.@ =*.;#+.+ +..@..@$@  ++ $#@@@%@+.@@@#@+.$@+ @&;#@+.#+@@+....#. @#@ +%@@$..@$$.@@$###@@..++   +@$ .@..##",
"@#.=*   + ***++.@@+ .@++@.. ==*@@.+   +      + +@@.+* +$@  +. = + ....+@+ +...+ .#.@#..$$$.@$+* ..+++.++   @@*''.#@.%@...@.+.  +.+@##$#@@@.+.++  $..@ .@. +@.@@@@.@@.   + +  .    .@ *.. .@  .+.##.+.$.  * .**$@..*= .@+.*....@@+++. .@@@+@$@@#$..++@@..@$;&$$$;&#$@.&_&&&###%%..+@#.#%.$$@##%$@...@#+* @#$@@ ..*='= =* . '===*.&#+.@ *  @$@+   @@@@$#@+ '*  @@.@++..@@+= .@.**+  .$.@#...++*..   +.#  @@  .@+.$ $#@ ,= ='*.#@@.   +.+ *+.@.  * $@+..@#.+= +.@+. +@  +@;>$ **+@ +@++.@@++++*+.. +..@$ .@@@ +@@. +.*   ++  ..+.@.",
"'')!~)=*,~/, @$##+='!!!/~,!(23(!,,,=*  =)~),,,,=,,'*)~/~~~~),),!,,)=')=*,,,3(,),),),'!)',,,,')/!)//)~()!~!,)!,'= @*====,*!(!),= ....=, =))!~),)))'',!~~~))!==+.')==,),))!),),=)~),~!))~/(~,=+.&&%&&#  . ',,)!)=',')/,')))!!/~,* ')))),,)~),==,**,)))* ,,=,**= *  *=','*='**=+.*,,)!**==,,'  =,,),)~)')~~!,)))!'')~(///(((3~/~~,, *!!!)==~~,,!))~/,,)~~/~/(~),,!!)!!,==,)(~!)~!!/~~!))=.@ '3)=*   **'!!*'))!,'!,,!,)!//)~(/!=*!),!!,',!',!),),!/!=)~,=='',,))'~~!!,~!,=@&.*!~),!~),!,,),~!!/~!)~~)',,~(~!',)****)!)(~!!!~~)!,*@+=",
";$@#$@&-&$#>]]]^]{_%.+@+.$++   +##&__-->$.@%##%%$$%%#@.++=,.$$%###$%##%%#&$+',== =**.+=  *= ='),,. ),,,=$$#$@%_-;;&#$%%#% :b3',,=.@(~#>;@'=+.####$##... @$#&_{{;&>%%%%##$@.$%##$#$.+.%+ +.#_{^|[<[|[{-{{-&###&&#%&#@##$$@@.+.;;;>$##$$$@.#&%&%%&%###;;%&&$#%>>;;#+,@&&%&$+.&>_>;;%$$@'=.*+.. @;###@$$$@.@.@#$%&$@..@.@,/~~ #%%;%$$$..%>_&@$#*==='*$$@ +.+== @@@@$#@+.*/!,' #+*@..''.&&>^{& a3,*='=,/~&->% ========*)((3(~)))!,*+*,* ==.+*',,!/!!!!~!,,)((~~)=''='*@%&{<<-&@* *) @@#@@$@++**=,'.$$@@$ =+.%%&{;&;%@ .@@..+.@$%>]{-",
"-^^{{{_>_]]{_>>_>>>-{{]]->---_>>>__>>>;>_--___-{---{{{{{]--]{-_-{{{--{{---{{->_-{{{{{{--{{{{-_>>>{_>-{_-]]{{{-__-{]]-----{;00, ', ,/><----{]{-{-_---{]{{-_-_>__{{{->>>__--_;;;_--------{^^^-_-________>>>__------___>>>>-{{{{--_>---{]{{{{----{{{{^^--{{{]^^{{]]^^{{{{-{{{^^{-------]--^]]^]<}|]{]^{-->>_>{-->>---___-_>_-]{>;>_----->>>-{--__>>--{-{^{{]--_-]{--{{{--__{{-{-_-{--{{{{---{8*b!'='=)(]}^^<^^]{{{{{{{-_&#&---_>{{{]]{{{{{{{-__;>_>;>__>-_#%&;------{^^^{--{^^{-{-{]]{{^]{]{-{-_-]]]]]]]{^]{]{--{]-{{]{{{{{{]^]-___",
";;>___>>>>>>>>_>>;;>;&&;&&%#$####%;&>>&&&&%&;&&>>>>-->;>_--_-_>>>>>>>___>>;&;------>>_------{_>>>;&%%%&&>>--___>>>>___-_-_]#:! .  /.<>>>>-_>>>>>>>>>>>&&;>>;>>>>>_>&##%&&&&%##%&;;;>>;;>>>>;>>>>>>>>>;;;&&&&&&&;&&;;&&%%;>;;;&;;&&;&%%&;&&;;&;>>--;>&&;;>>>;;>__>__&##$@$&&&;%######&>>;>;;&_>&##%;;&#@@..#@@%%%&&$@@@###%#@@@@$##%##$$@..++@$@@#%%##&#%&&%%&>;#@@#;%#%%###%%%#%&;>;&;;;>]]-()++*=/,[->__-{]{{{{{{-_{]{]{{{-_>_--{{-----_>______>_-----{^^]--_>_---__-___--_-{->>>;>____---__-___---_-_>>__>__>>>>>>>_>>__>>>;;>",
";;>>__>>>>__>>_>>>>>>>;&&;&%&;;&%&&;>>;%&&&;>;&&>>>__>_____-_-_>>>_>___>__>&>_-{---__--{{---{-->>>>&##%;>>>>>_>>;__->_]___;-=)* +.!@<_->-_>>>>>>>>;>>>>>>>>>___>>_>;&;&&&&&%%&&;__>>>__>_>>>>>>>;>;;>>>;&&;;&&;;>>;;&&&&;>>>;;;;;>>;;&;>;;&>;&>>-{;;;&;>;>>;;;>_>>;;&%#####&>>&&;;;%$%&;>;%#&%%>;&;;&&%$@.#%$;&&;;&&###$##$$$####%%%###$.@$....$$%&%&;#&&&&&;>;&#%&&%%@@@#&&&&%&;;;;;;;;>[--.,+* .)=^->---{{{{{{{{----__---__>>---{--{-____---___----_--{->_-_>_-{----__---_---___>>__--___-___-_----___>_-_-_>>_>_>>__-_>_>>>>_",
">__>____>__;>-__>>__>>;>;;&;>_>>&%;;;>;;>&;&;;;>>____---_-_-{-__--_>--_]->;;>_----{--{{{{{---{->;&&&%&&>-_>>>>__--{{-_{-_->- ) +  )#^_-__-_____>;>>>___>;>>>>>_>>__>;;&;&&&&&;>>__>_-__-__>>_-_>>>;;>__>;>;>_>>;>;;&;;&&;>>;>>>>>__>>>>;>>;&&>__>>>;;;>>>>>>>>__-->&&&;>&##&;>__>;;%&&;>>>&&&;;&&;;>&&%$@$%#%%%;>&&;&&%###%###&&%%%&#$#$@@#@$%@@%%%#%;;;&&&%;>>&%&&&&%$###;&>;&;&;;>>>>__>>^;!*=  )*<{-{--{{{{]{{{{{{--{-{-_>]<-{{{-]^--{{_{{-{-_--{{---{{__-----{---__]------{--___-__----{__----{-----{--->__>>_>_-_--_-___>>_",
">_>_-_>>;>-->_>>>__-_>>>;>;;_>>>;&;>>>>>>;>;>;>>>---{->--_---{__--__>__{->>;>_-{----{{{{{-{{--->&;&&&;&>_>>>>>_-{-{{{{-----{*)+.  )$^________-__>_--__>>;>>>_>__>>>;>;;>>>&&&&>>__>_--____>____>>>;>>--___>>-_;>>;;;;>&%;>;;;_>>___>_>;;>_>;;>_-_>>>;>>;>>>>___--{_;;&>;#%&&;;-->>&&&>>>>>>&;{>&_;&&;&&%@$&%%%%;>;&;&&%########%%&&%###$&#$$$&#@%##&#_-&&%&%&>;&&&%%%####%>;>;&;;;>;;>>>_-_{@)**+ !*<------{{]-{{{{{{--{{--__<^-{-{-{--{{{{{{{{{_--------{-_---_--{{-----{{{-{{--_---------_---{--{{-{--]-_>-__>__>_-_-__-_-_>>_",
"___--{>>>>_-_>___>__>-__>>>;;>>_>&&>___>&;>>>>>>>-{----_{--{-----_-_>>--_-_>>_------{{{{{{{-{{{_>_>>;&>>_>>>>__--{]]]{------*,.  +)$<>_>____>>_-_>---__;&>>__>___>>>;&;>>>>>&&;>-_>__--____-__>>>>>>>_-__>_>>>>>>;>;;;;&&>>&;&>;;>>>>>;>>>>_>>_-->>>;;;>>_>>----{{>;>>;&%%&&&&_->>;;&;>>>&>&--&_]>&&;%&>#$%##;;&;&&&%&#>{_;;;%&&&&&%##$#&_#.#%$#%##%%>&%%%&%&>;&&&%#####%%;;&%&;>>_;;>>_-{{{=)***+=*^{--{{{{{{{]{-{{{-------{>_{{{{{{{{-{{{{{{-{--{-_--{{--{-_---{{{----{-{{-{-{-------__-__-{------{---_-{]-__>___-_------->_-_",
"__----{_>>>____-_>______>>_;;>_-{>&;>_>__;>>>>>>__---{-_------_{---__>_-_-->>-{--{{{{{{{]]{-{{{->>>>>;>__>>___--_-{]{-{-{{-{*,+   !#<>_>>>;___-_>>____>>>;-_>_>_>>;;>;&&;&&;&&;>>____>_-_>_-__>>>>>>>>_>>>>>>;;;;>>;;&&&&&;&&--;;>>>>;>>>>>;>>>_>>>>;>>>>_>>-_---{_>>_>&&>>&&&_{-;;;;>>>;&&&>&&>>&&&&###&%%##;>%&>;&&%&[8[_>>&;>>;&%##@##;%.&#$&#$&#$@#;&&&&>_;&%%#%####%&>;>&&>;;>>>>---{{] )*+*+@ -{{---{{{{{]{--{{--{{{{---{{{]{{{]{{{{{{{---{--___--{{---{-{{---{-----{--{-{---{--_<[>-----------{--->][--_>>__>>_-------___",
"_-___-->>>>>_-____>____>>__>;>-{^^-;>>>_->>>;;>>__-{-{-_--_----__-___---_-_;>-{-{{{{{{{{{{{]{-]-_>;&;&;-_>____----_]{-{{{{-{ *. *+)#^>>>>;&;--_>>>>>>_>;;>_>>>_>;&>>&&&&%&%;;>_;>>>_->>--_>_-_>>>>>>>_>__>>>>;;;;>;&%%%&&&&&%^^;>>>>;__>>>_>>>>>>>>>>>>;_>>__>--_->>>-->>>>;>;>->&;;;___>;&&&&&&&%%&&%#@;&##%&%&&;;&>;&>|8^;&&&&&;&&###%%#$#&&$;%#;&#$#;>;;;>>;&%%%;####%%;;>&&;;&_[>>-{-]-]+)+.+   {{{--{{-{]{{{{-{{{-{]{-_--{-{{{{]{-{{{-{{------__-----{{-{------{--{---{{---------_^[----__-----------_>--_>__>___---{-_--__",
">_-__-__>>>;>_->>>>>__>>>__>>>_{^<^{>>_>>>>>>__>_--{{_-{-------_---__-{{->>__---]{-{{]]{-{-{{{{{{->>&%;-->>_--__-{-_-{{--{-{.=+*+ !$<>>>>;;&>>_>>>>>>{_%;>>>>>>&;&>>%###%#%;>>_>>>__--_-->___-_>__>>>_>>_>>;>>>;;;;&;&&&&&&&&&&>;&&>;{-&;>>__>>>>>>>>;>>>>>_>>---_>>_-{__-_;>;;_>>;;&>_>>;&%;;&%&%#;>&&%;%#%%%&%&;;;>>>&;^^>&&&;&&&&%$###%@#&&$&_&>;&%&%&;>_;;;&%%#%##%##&;;;&&;;>>>>_---]{{*=@.++=,-]{{-----{]{{{{{{]--{-----{{{{-{{----{--{{--{-_-_-__-]{{-_-----{{{{--{-----_{---{-->>{-_--------------_>_-_>>__>>>__--_{----",
">_--{>>_-_>>;>__>>_>___>__>>>_>>>-{-]-;>>>>;>_>>___----{{{{---_-{-_----_____---{]{-{^]^]{----{{]{_>&&&;>_____{------{{{--{-]+=@@+ )={_>>>>>;>>>;;>>-_->&__>>;;;&&>;;&##%&&%%&;>_>>>---_>>>______>>>____>>>>>>;;;;;;&>&%&%%%&&%&;&%&>>;;;>>>>>>>>>>_>>>>>>>>>>>___-_>--{->_>&&;&>_>;&&;>>>;>%>>#&#&&;>;;&%%%#%&&&&&;>>>>>&&>>;&&&&&&%%%%%$##@##@%_;>>&$%%&;>>;;;;&####%%##;>&>;%;;>>&>----{{{,=$@  =)-^{{{---{{{{{{]{-{{--{-{---{{{{--{-{{-{--------_-{--{{-{{{-----{-{{-------_--_-{_--__--__----------__->>__>;>>>_>>__-__{->-{",
">>>-->_>_>_>>>>-_;__-_>;>>>;>>;&&&>>_>>>;;>>>>-__-_--_-{{{{--_-_-__-{{__-_>>>--{{{{{{]]]{_----]^{_>&;>;>>-_>>-{{-__--{{{{--^ ,$#+ ,'-_>;>_>>>>>&&;>>_>&_>;;>>>>>;_>&&##%%&&&&;_>>>>_---____>_____>___-->>_>>>;;;;;;&%%&&%&&%&&&&%%&;>>>;&>>>>_>_>>>__;;>>>;>>>>__-_>_-_-__>&;;;>->>&;;;;&>>%%>&&#&%&>>;&&%%%%%&&&;>>>>>>>>>>>>&&;;&%%#%%%#&%$$$#%#&;&$#%%>;&>&;&&###&&#%&&;;;%>{>;>>_-------'=$@.*=,-]{-{{-{{{-{]{-{{{{{{--{_---{-{{-{-{{-{--_-->-->-{{{{{{-{---{---{{{---{-----_-{_-___>__-------------_-_>__>>>>>-_>____--->--",
"__--_>__;>>>_>>>_>__-->>&>_>>>;&&;;>;___>>;>>_>>_----__-----__-_-_-----{-_>>_{---{{-{]]]-----{]]-_>>>>_-_->;>_---__-_-{{{-_{=)....,'-__>>_>-_>>&>_;&>;;>;&;&_-_>>;>>&&&%#%%&&;>>->__----_______--__-_--_>>_>>>>;>;;;%&&%%&&&%%&%&&%&>>;{^;;;>>>_____>>;;>>;>>;>_>>;;>--_>>-_&&;>_>>;>>&&&&;&#;_&#%%>->&>_#%>>&&%&>>>->__>__>>_&&;&;&%#%&%&&&##$$$#;;&#$##&>>&&;&%%$#&&%&%&;>>&;>>>;>_----{_-' @.++=,-]{{{{-{{{-{]{{{-{{{--{------{{{{{{{-----__-__>__{]{-{{--{{---_---{{-{{-{-__-{_____>>>__--__-------__-_____;__>>___--_-__-_>",
"_____--_>>>>;>>;;>;>_>>>>>_>>>>;&;>>>>_>_>;>__>>>>_-__--__-__-_-{__-------__{{-_-{--{{]{-__-]{]{-_>>>_____>_-->>>_-_--{{{-__)'..$.,={-___-_-_>>;;_;>&;>;;>;;;_-;&&>;;>;&&%%&;__>>__--{--->_-___-----_>___>_>>>>>>>>;;%%&%&&&&&%%&&%&&>;-{>>>>;;>-___>>;;>>&>>>>>;;;&&_{;>>_-&#;>>;;>>;%##%&&&&_>%%#&_>>;%#;&%>;&;>_>___-_>>>>>;;;;;&%&&&&&&%##%$#%;;%###;%%_&&&%%###%&##%&>;_&&>_>>_----{->-= @+ @*)-]{{{{{-{{{{{{{--{{{------{--]{-]{{{{---__-_>>_--{]{{{{{{{{{-_-------{---_---__>>>;>>>>___------_----_>___>;>>>>___-___>-->>",
"__>>--->>>>;&>>;;;;>>>>>_>_>&;>;;;&>_>>____>>__>;;>_--__>}<>--_____-{{_--_>---{__{{--{-{-___^]{{--_>>>>--{->{--_>_-----{--->!=@.++'*]{___--_>_>&&;;;&;>&;;;>;_>;>>&&>;&;;&%&&>_>>>_-{-{---_______---]>__>_>>>>;>>>;;>&%&%&&&&&%%%&%&&;>&&>>>>>>>>>{_>>>;;__&;;;;&&;;&>_->&;>;;;;;;_>>&#%#&;>&#&&%#%&&%;&##%%#&;>_>___-__-__>>>>>>;&%%&&&&%&#$$;&#%&&%#&%$$$&>;%#%#%#%%&%%&;>>;>;>>__-{--{_-%, ..*+=)-^{{{{{{-{{]{{{--{{-{{-{{{]{{{{-{{{{{{-_>>__>-->{{-{{{{{{]{{]{___-{{{---_---_-_;>;>-;>>>>>_-_--_--_-->_____>>>_______>>__>_-",
"_-_-_--_>>>&&;;>>;>>>->>>>_>&&>>;;&>>{->_>_>>_>>>>>>>_>;_}^>--{-__>_-{---____----{-_-{--{->--]{---_>;-_-_{-_--{_>__{-----_{#(*@...*=--_>_>>___;&_-_>&&&&>;;>;;>>>;&;;;;;&&&%&&__>_-_---{{{-_---___{---__>>>;>>>_>;;;;;&%%&%&#%%%&%%&&;>>;;;;>>>;;>>;>;&&;__&&&;;;&;>;&&>;%&&;_-->;>;&&&&&>>;&%%#%&&;&&&%##&&#&>>_>___--_--_>>>>>>;&&%&&&&&#$$$&>&%%#%&;#$%&>&&&#####%%&&%&;>>>>>>___--{{--{.!@@@. =)-^]{{{{]]{{{---------{{{{{{{{-{{-{{{{{->>>_>>-__{{-{{{{--{{{]]----{{{{{->>_-___>;;>>;;>>>>>__--{---_>_-_>_->>>_-_>_>>>__>>_-",
"_--->____>>;&;;;>>>>>-_;;>;;;&;>&&;&>{-;_>;>>>_>>>>->>___>__------>>_-{{_-{-__-----{{---_>___--{{->_>{_--_-{-->>>__-{{-{--]./.@...''____>_>>>>;>---_;&;&&;;;_-;>>%%>>;>;%&&&;>>>_--__-----_-----__----->>__>>>>>>>;>;;&&%&&&%&%%%&&&;;>;;&;>>>;&&&&>;>;&&%&>&;>>_>>>;&;;;%&&&>>{->&;&&;;&>>;;&&#&>%%>%%###&&%;>>_-----_{-_->;>>;;;;;&&;&&;%####;&%%%%%##;&>{%%%%%&#$;;%&&>>;_>;>_-_--{{---^@(+$@@+=,-]{]]{-{<{{{{{---__--{{{{{-{{{-{-{]{{-->>____-_-----{{{{-{{{]]]-_-{]--{-__-->>-_>>;&>>>>>>>>__-<->_--___-____---___>>>-_>>__",
"__-_>_>_->>>>>>&;__--__>;;>>;&&;;&;>>;>___>;>>_>;>_--->_--->_-_--_>>>___-_---_>>---{-___>>>>>>-]{_>>_>-_{]]--_>>>_---{{{--{ ~....+,,>-_-__>>>>>>>__>>;;;&&>&_-%&;;;>>>>;%%;&&__>--_-----_>--_>-______->>>_>>;;;;;>>;;>;%&&&&%##&&&&&>>;;;>>>>>>;>;;>>>>;;;;;&;>__>__>>>;&&&%[5^>-_&%;>&&%&;;;&%#&>&%&&###%%%&;>>_---------_>>>>;>_;;&;;&&&%#%%#&;%%&%#%>#@;-&#&%;;&#;;&&&&;;;>>>___---{{--]$~ @.@ =,-]{{{{--{{{{{{{--__-{{{{--{----{-_{{{-_>>>_-_--_-_-{----{{{^]]^{{----{-------__-__>>__-_______--{-_--___--___>_--__>>-_>>--_",
"-_____-_>__>>>>;;>>----->>>>;>;;>;&;>>__>--;>>;>>;>--->>_---___>___>>>>-{>>__->;_---->>>>>>;>__{{--_>__{]]{{{-____{{--{---{@/ @$@ =)&{>_--_>>>>>>>_;;>>>;;;>>%&&&;;;_>&;&&&&;>>__---]{__-_-----__-->>_>__>>>;&;>;>->;;&%&&%&%$#&&&&&&;>;;>>>>;;;>>;;;>>>>;&&;>_->___>>>>&&&&]6f<&_>#%>>;%;>;;&#%&>&&%&####%%&;>>>_---_----_>>_;;>>;;&;;&;;%####&;##;&$;&$;>&#%&&&&&&&&;;&;&;;;_-_-__--{{-_-$, $#.+',{]{-{{--{]{{{{{-___-{{{{{{{{--_----{{->>>___>_-_---{{_-{{{{{]]]{{--{--{-_-----_-_>>>_-__--__-----{___>>_---__________>>>>___",
"-_>__>_->>>>>>;;>>>_---___>;>_;&;>&&_>>>>_>>;;;>_;>______>__-__>__>>_>>--->;>__>_---__>>>>>_____]]{{---^--{^]{{_>-{--{---{{&~*$$++=~&-_>>-_>>>>_>>>>&>--_>;__>>;&;>>>;&;&&&&;>_-_--{^{]]-->_---_--->_>>>>>>;>>>>>;>_>>;%%%%%%$%%%&&;;;>;;;>>>;>;;>>>>;;;;;&>>>----_>;;;>>&&;;[e|>>-&#&&%&>>>&&#&>>&;%%&###&&;>>>_----_----__>>{{;;>;&>>&>>&$##%%##$###%#%##&##&;&;;>&;;;&;;;_;>--__---{{-__&)=.@..*)>]{{{{{]{]{{]{{--_---{{--{{{{{-_---_-->>____-__->{]----{]{-{{{]{{-{{_-{___->_---__>>-->--->>___-----_>>_--_____>_>_-_>;>>>>>",
">>___>_-_>>>;>>;;>>__---_>>>>>;>;&;{->>>>;>>>>>>>>>_-_--_;_---___>>>_>_---_>__>>>-_>_>_>_>>>-_>>_{{-{^-__-{{]]{_>_----{{{{--=,....'/;-__>>>-_>>-__>>>>__>>>>-->>__>>;;;&&&&&&>----{]]]]{____---__-__>>>>>>>;>>>;>>;>>>;#%&&%%#%%&&&;>>;>>;>>>>;;;>>>>>>;;;&>>>_--_>>;;;;;>;>_-<{-_{>#$$%&>>;&&%%&&&>&%%%%%&&>>____----_--_>>>><];>;>&>>>_>;####;%&#@$##$#@#%%%>;;;;;&;;;;;;&>>>_____--{{->;-'=@..@ ~$^-{{{{]-{]{{{-__----{{---_{{{--__--__>_-__--__---{{--{{{--]{{]{{{-_-{__-___>_---__--_______>_------->>--_-_-_>>_>-_>>>;>>>>",
">>>>>-{-___;&&>>>>>__----_;;_>;;&&&>__>__>>_>_>>>>>-{-->;>_-_-_>_>>>>>--_--->___>__>>>>>_>>>>_>___>_-{-_>_-_-{{->_---{]--{-{+=@...,!;-_>_>_{>>>>_>>>>>_>>>>>_>_>-_>_;&;&&&&&;>__---{{--__-----_>>__>>>>>>;>>;;>>>>>;>>;##&&&&###&&&>_;;>>>>;>>;>>>>>>>>>>;&>>>>_-_>>&;;>;;>---_---->%##%%&;&&&%#%#&>;&%&&&>;&>__-_----___>;;;;&>>;;>;>>>->>;%$#&&#$@$@#$$$#$@%&&>>;&;>>;>>>>;>-______-{-_^^-*'..@@ ~$^-{{]]{{{{--{----_--{{-{----{----___>_-_-___>-------{{{{-{{{{]]{{---->>_{>>_>_-____--_>>>_>_--_---->_____-_>-_>__>>>>>>_>>>",
">>>>>{{>>>>>>;>>>___->_-{-;&;>>&&&&;>__>--__>>>;>>>_-___>-_>___>>>_>>_--_--_>-->-->>>>>>>>-->>_-_>>>___>>--_]->{-__-_{{--{--+=$. .,,--_____>>>>>>__&>>>>>>>-_____>>_>&&&&;;;;>___---_>_--__-___>>>>>_>;>>_>>;>>>>;>>>>>%%&;>%%%%&&;_-;>>>>>>;>>>>;;;>>>>__>&>>>___>>_>;;;>-----{--_>&&%##&;%#%%%%$#&;>;&&;;>>>___--{-__>>>;;;>>;;>>>>>__>>>>%#$%%%&$$#$#$$$.@&;;;>>;&>>;;>;>>>>_-_>>_-{-_]^>)'@..+ )&^-{]]{{{{-{----{-_--{{{{-{--{-_--_->>--_--___-__---{{{{-{{{]{{{{-_-_>>__]{_>;>_>_>>____-{___-__----__>>_-___>>->_>>>>>->>>>",
">_>>>-_>>;&>__>;>>_>>_-_-_>;&;>&&&;>>>>;___>>>>>>>__>__---__->>_>--___--____>>>_-_>>>>>>>_-_>>>___>>>__>>___{->--__--_---->>==..++=)_{_____>>>>>;>>>;;>>>>>_____>__>>&&&&;&>>>-->__>{{>_________>>__>;>>>>_>>;;>;>;>>>&&%;>&&&&#&%;_;>>;;>>>>>>>>;>;>>>>_]{;_>_-_>>;>>;;__>___--___;&&%%#&&&###%&@$%%&;;&;;>>>>>>_---_->>;&&;;>>;__;_-__>>>;%%&##%_-$$#@@$$$$#&>;>>;&&>>>>>;;>>__>>>-----;%>,*$@@. )&^--]]{{{{{{------__-{-{{{--{{-_-_-->>_______->_--{{-{]-----{{{{_{{-_>>__-^]-->>_>>_>>__--->>-__---__>>___-->>->>>>>>>>_>>>>",
">>>_>;;>;&;&>>>>>_>----__->;;>;&;>>>_>;;>>>>>->>>___>-_>_---_>>>__>____-_>>__>>>>>>>>_>>>__>>__>>>__>-_>>>-->>>>___--_---{]$~*+.. ')>{____>>>>_;;>>>>;>_>>>>>>>>>__>>;;>;&;>>>>-_>>{}[>_>>_-__>__>>>>>;>>;>__>;;;>>>>>;%&;;&&###&%&;;;;__>>>>>;>>>;>>;>{___-->>__>>;&>>>_>--_-{-___;&%&&%%;&&%$%&$#%%&&;&;;;>_>__>>____>;;;;;;;>>;;>_--_>;>;;&;&%%#;&@$@@#&%%##&>;>;&&>;;->;;___>>__-{{->>>#) @##@.~#^--{]{{{{{{{--{{-__---{{---{{-___->>>_____-__----{{{{{{{------{-{{-_>>>_-]]]^^{-_>>>>____>>___----->>_-_____>>;>>>_>_>>>>>>",
">>>>>;;&&&;;;;>>>_-_--_-_;>>;;&&;>>>>>;;;;>>__>>>__>-_--__-{->>>>>>->_-->-_>>>>>_>>>>>>_>>>>>>>>>>>>>>_-->_->>>_>>-__----{^.:=... ,=-----_>_->;;>>>>>>>>>>;>__>>_>>_>>;;;>>>>>>_->>[8^--_>>__>>>__;>>>_>>>;>_>>>>&>>>;&&&&&&&##%&%%&;>{^-;>>>>;>>;;>;>>-_____>__>>>>>&>__-_--{-{---;%&&%&;>;%##%&#%&&%#%;&>>>_>>__>>>_->;>;;>;;&;&>_>_>-81>%&&%;&&%@$#&$@@####;];>>>>;;>>_>_>>-_>__--{{>>>-#~ .##@ ~#^{{{]]{{{-{{------_-_---{--{{{__-->>>__-_--__-{---{]{-]{--{{{_-{_-_>>>-_-{]]]]^^]->>_>-_>>_-_---_--->-_>-__>>;>>>_>>__>_>_>",
">_>>_>;;&&;;;;>>__-----_>>;>;;;&&;;>>>>;;;;>__>&>--_>---_>___>>>>>__>_---__>>_>>_>>>>>>_>>__>;>-_>;>>__-_>>_>>>_>--_------{&~'.@++'=---___>>_>>>>>>>>;;;>>>>-_>>>>>>>>>;;>_>;>____><<{{{-___>>_>>>>>>__>>;;>__;>>>;>;&&&%&&&%$###%;>{<^_>;>>>>>;>>;;>>_>_{-____--_>>_>>>--_-{{-{---&%%%&%;>;&%%&&$%>&>&#&;&;&;>>__>>>-___>;;>;>;&>>>__>><[_%&&&&&%>#.##%&#@$$$-^;_>;;;%>-;;>>>;{|>>---_<{&_&! $%&$*~#^{]{{{{{{---------___----{{{{{--___>___--__---_--{]{{{{{-----{-{--__>>-_-{-{{]]^<<^->>-_>_>>_{----__>>_>__>_>&;>>;>_>_>>>->",
"_>>>>;&;;;;>;>;>>>_-{{___->>;>>&&;;>;>>&;>>__>-{>--_>-->>_-->>>>;>_>>__>-_>__>_->>_>>_>>->>>_>>__>>>;>>___{->>>>_-_--------{',@@..,*{__-___>>>>>;_>>>;>>;>_>_>_>>>>>>__>>>>>--___>__-----_-_>_>>>;>>>>>>>;;>>>>>;>>&&;&&&&&&%%#%&>{<^{_;;>>>;;{{;;;>>>>>>_>_----->_-______------]-;&%%%>%&>>_;&-&%>;&->#%&&;&>______>__>>;;>>&;>>;>__-_>;;>&-&&&%>>#&>&#>_&@#%&&-_>_;%&&_>&;--;]1__---_[{&;>,*%;#..)$^{{]{{{{{{--_---_-->__--_{{{{---__-___--__>--__--{{{{{-{--{---_>_>>>_>___---{]^]]^<<]_>>___>_>_---___>>_>>>_;;>>>>-__>>>->>",
">>_>;;;&&>;;;>>>>>>_--__-__>;&&&&;&&&>;&;;>______---___>>>>]->;>>>>>>__>>>>_>_-_>--;>_;>__>>>>>-__>>->>>>_{-__>>____------_{.)@..+,'___--_>>>>;>>>>>>>;>>>>_>>_>>>>>>>>>>>>>___>>>--___----_>_>>>;>>>>>>;;>>>>>;;>>;;>;;;&&;_-{{^<^]_;>>>>>>>;>_;;>>>;>_>>>----->>__>>__>_-__--{^>;;&%&&%&>>&&;_;%__&;%%&&>;;-_>--->>>>>>>>_>>>>;>_______>;&]>#%##%{_>{&%>-&@_->__>>;&&%&>&-{--_>---{-_>>_;>,*$$$@+!#^{{]{{{{-{---------_--{{--{{{--____-__--___-__---{{{{--{{-{-{-->>>_>_>>__-----{{{{{^[^->>>____-____{{;>_>>_&&;>>>-_>>-___;;",
">>>>>;;>;;;>>;>__>>>>_---->>>;;;>&&&&>&;;;>>_>>;>--{->__>-__{_;>_>;;>_>>>>;;>_>>---;_>;>__>;>_--_----_>;;>_-_--_>>_---{---_^%,$.++ ~&-____>>>;&;>>_>&;;;;;_->__>>>>>>>>>>>>_>>_____-_____--_>>>_>>>>>>>>>;>_->>>;>>>>>>;&&%;--^]-_;>>>>;;>>>>>>;>_>>>>_-___{{--___>>>__>--___--->;>&&&%%&;>;&;&--%>>>>&;;&;;>__--_->>_>_>>>>>_>>>____-_>>>;#_{###@_{;>;>&;>-&_{>>_>>>>&%&>-_>>-_>------_>;&-*=@#@$$~+^-{{]{{{{{------{{-----{]{{{{{_>__>_-_--____-_>_-{{------------_>__->-___---------{{]<<{_>_______--__>>>;>;;;;>>-_>>>>>>>>;",
">>>>>;;&&>>&>>__>>--_______>>>>>>;;>&&>_;;&>>>>>_---_->>>__>__;>>>>>__>>_>;>-____>>>;>>___-__--___--__-_;_-->-->>_------{{-]#'$@.+*!;->-___>;;&&&;>;;;>;>>____>_>>>>>>>>>__>>>__--__-___--_>_{>>_>;>>_>>>;>>>>;_{;&;>>>&&&&&>;;;&&;>>>;__;>>;>;;>__>>__>__-----_-_>>_-__>_-____-_>&%%;&&&;>__;;{_&&&_>&;>_>>>_--__>;>_>>>>>>_>>__>>_--_>>>;&->&&$@;&;>&&>&&_{;%>>__&>>%&>--;>>_------__>;;&_'=$#$..)@^-{{{-{{-{-------{{{---{{{{{{-__-_--___-___--_>_{{---{-____-__-_>->>>-->_------------][<]---___---{_>_>>>;;>_>>>>>>>>>>;>;&",
"-_;&;;;>%>>&;>----_{-_>___->>>>>__>;&&;>&>;>_>>>_--__>>;_>>__>>>;_>>>>>>>>>__>>>>;>_>___--{{-_-->-__-__-__-{_>-__{-_-----{_^#!@$@+')&______;;;;&%&&&;;>>>>_>>_--_>__>>;>>__>>>>_-__--___-___-^->>>>>>;>_>>_>>>>>_;>>;>>;;&;;;;&&>&&>>>>__>>>>>>>;>_>_______--___-___>>_->>_>>>_-_>;>&;>&%&_{->;&&-_>_>%>-_>>>__--_>;;;>;;>>>>;>_>>_----_>;&;^;&{%.;_;%&&_;%;-_&>>>-;&;&&-->_>__-{-----_;>&&-'*##.+ ~%^-{{--------{--_{{{{{-{{-{{----__---__>_____--__-{{{----__>___-_>___>>-->-{_---_>_---{]^^{-_--_---{_>_>__>>>_>>->>>>>>>>>;;",
">>&&;;&>;;;>_>>-----__>_-_->>>>_>>;;;&;&;>_>>>_>_-_-_;>_>>>>_>_>;__>>>>>;_>;>>>>;>>>>--------_>__>_>]]>>_-{{---_--_{-----{-^$!@$@+'!;-_>>_>>;;;&&&&&&;;;;_-___--_____>>_>_-___>__>__>>_-_>-_;>-_>>>>;>>-___;>>>>;;_>;;>>>;>>;;>;;>;;>>>;;>>>>>;;>_>>_>_-___--__-__>>>>_>>>;>;>_->&&;&%##%&>-{{-;;{{>;%&--__;>____>>>&;>;;>;;_>;>>>>_--->>;;&%$;^>@>-&>>%&>;%_->>>>>->>>;&>-_>---------_>;&&_,*$@.@ ~$]-----{-{--{{{----]{{{----------___--_->_______-_-{{---{-_->__>>_-_--_>_>-{--__>____---]^^]-__-{{{_;_>>->>>>;>_->>>>_>>-__>",
">&>;;>;;;&;;>>>_>>]->_->_{->>>>>>;;&;&>;&>_>>>>>>-____-->>;;>-->>>__>>_>>____>>>>_-___-------_>>____--___-{-{{---__------{-^#)....,~;-_>__>_;;&&&&&;>>;;&>>__----_>>_>__>_{-____>>>->>__>__>>____>>>>>>>__>___>>>>>>>>>>>>;>>;;;;>>>>>>>>>>>>>>>;>_>>--_---___-->_>>>;>>>>;;>-__>&##%####__-{^]_>_;&%$;>-_>&&>>>>>>&&;;;;;>{>;>&;>_>--___>>&#$#{>#;>_>%&%&>&>]>>_>>__>>;&>__>_-{{--_>>>;;&&-)=$##@*);{{---{{-_--{{{{{-{{{----__---_---___--_______----{{]]{--________-{{-{->_-_{{___>_--__--]]^<{---{{->>>>_->>>>&>{>>>>__>>>_-_",
";&>;;>;>>&;;;>-_>_>---_>>_>>>;;&>>>%;;&&>>;;>_>>>___{{>>>>;_-{->__-->;____-______>-__-_{{-{{---___--_>>_-{--{{-_>____----{_^#)..$@,/&_-___>;>&&;;&&;>>>&&;>>>----_>>>>___---_____>>->>>>>-_;____>_>>>>>>>___>_>>>>>>>>>>>_>>_>>;;;>>_>>>>>>__>>>>>>__-__{{__-_--__>_>;;>>>>;>>>>>&;-&&&&%>--{^]-->&###>;__;&>>>>;>>&;>;;;;_->;;;;>]{>-_>>-;&&&$;%@;[-%&&&%%&>^_;_>>>>>__>>>_>_-{{{-__>>>;%&_,=@$#@*'{{-------{{--{{{---{{-_--___-------_>__--_>___--_-{{{]]]{-_>>-_>__]]{{]{>___]-___------{]^]<^{--{{>>>>>_>>;>&>{_>>___>-_>;>{",
">&;;;;&;>;&;>-->>----_>>>>>;;;;;;>;;&&&&>;&;;;>>>>-__-_>-_>-{{{---->>>>>_->_-__>__>>__-{{{]-{]-_-__->>__--{-----_-___-----_^#).$@.*/%-_-->>>>&&;&;&&;>>&&;>____--_>>;>_>_--__-____>_-_>>>_>>>>>___>;>>-___>__;>>>>>;;;>>>>>>>>>>;;;>;>>>>>>>>__>>>>>_;_-___________>>&;;>>&;>>>;&%&>&%%#$;--{{--{;##&&>->&;_;;_;&;>&;>>>>>>;>;;>>&{{_>__>>;%&&#%$$-]_>>-&%%&--;>>;>__>><_;>__-----_-_>>>;&%-,'.$$@ ,_{---{{--{{-{-{---------__-__-----_>>__---{__-_-----{--{{-_______--{]{{----_-^-___---__--{]<[^--{-_>;>>>>>;>>--;>_>___---_>>",
">;>&&>;&&&&;_-_>;{[>>>>>>;>_;;&;>;>>;;;>&&;;;;>>;_->;_-__>-{{{-{--{_;>>;>_>___>>>>>>_>--{{{-{{_>--___>_-_-{{-_-{{->>_-----_]%'@$. =~&-_>-_;;&&&&&%%&;&&;>>;____--_>>>>>>>________>_>_>>_>>>>>>>>>>>;;>__->;_->>>>_>>>;>>>>>>>>>>>&;>;>>>>;>;>__>>>>>>>>______>-_;>>>;>;;_>&&>>;&%#@@###$$#---{{-->#;_>;__%&_&>_%;>&&&;>>_>>;>>>;>;&;-_>__>-&$&&%$>{;&@$>>&>>_%&>>>>>__;-->_>>--___>>>>>;&%&{,'@$..*,-{---{----{{--{---------_--__-----_>>>>_>-]__-___------_->;>_>_---_--->_---_>{]-_--{----{{]^[[]--__-_>>>_;;>>_>>_->_-____-_;",
">_>&%>>;>;&>>>-_>>{->_>>>&;__>&&;;&&>;&>>&&;;>>>>_>>>>___----{---{{->>>>>_-___>>>_>>__-----{{-__>_--_^{>_----_------_--_-{_{#,$$+ '!;->>>_>&&&%&%%%%%&&>_>>>>_-__->;>>>>>_____-__>>-_>_>__>>>_>>>>;;;>>_->>>>>>>>>>>;>;>>>>>>>>>;>>>>;>>>>>>>__>>>>>>>-->>___>>;>-_>;&&&;;&&&&&&##@@$;&@@&{-_-]{-;;>;>>#%&%%&;&&&;&&;&>_;>;>>>>;;;&>-->>>;;&%&&&#--%.@.@>;-_;>;;__>-__;&__>;;--_--_>>>>;&%&-,=#@+ *'-{--{--_----{{--------___-_____--->;;>_____--->>__----_>;_]>>>>>____-->--_>>>>-]{---__-_-{{^<|[->_--_>_>>>_>>>>>->---_>>>_>>",
"_->;>_>;>_>>>___>>_-_>>;&;>;;>;%&;%&&&&;>;>;>;>>_>_>>__-_-{-{{-_--__-->---__-_>>--_>>__----{--_->>---{{>>--_-----__-{----{-^#,#$+ =/${__>>>;&&&%%%%%&;>>>>__>_____>>>;>>>>__-_-___>>>>_>>>>>>>>>>>;>>;>>>;>>>>_>>>;;>>;___>_>__;;>_>;;;___>>>>>_>>>>>>-->>>_->>>>_>>;&&%;;&&#%%#$$$@@##$#&>_--{{->>;>>>%#%%%;&%&&&&;;&;__;;>;>;&&&;>__>>>>&&>>#;##{&$@@#&>%%--&>>>>-__>>>___-___-__>__;;&&%]',$#$@ '-{--{{-_----{{--{---__-____-___---__>_-____-_-_--__-__>>;-^>>>>>_--_--_--_____>>-{{--->>---]<[|<>_-->>__>_>>>>>>___---_>_->;",
"_-_____>>-_>____>>__>>>;&&;&&;&>&&;&&&&;;;>;>>;__>>>_-_{--]-{{----_--_>____-_>>-{___>>_--------__>>_-____---_-----__---{---<#)#. +'/%{_>>>&&&&&&%&;>>>&;;>-_>_-_>___>;;;>>>__--__>>>>__-->>>>>>>>>;>>__>>>>>>>>>__>>_>>___--_-_>>__>;;{{__>;;;>>>>;>>>___>>__>>_>__>>;&&&&&##%%$$@#####$#%;;>-{-_>_>>_>%%%&&&&&&&&<-#;>;>&>;>>;;&%&>>>>>>>>&;;$##%;$#@;]_&+@^_%;&>__--_>>_>-_-____>;>_>;&&&;!*$#$. '_{--{-----{{-----{-----_--------{--->_-______--_____>>_>>;>_>>>______{-_---__->>>_{---____-]^^[1]_-__>>>>>>>;_________-_>_-&",
"-->>>>_>;>>__>>>>>>>>>;;&&&;&;>>>&>&&&;>>;;>>>>_->>>----{----]{{{-{]-____>_->>>>__>_>_----__{----_>_-__--{--_>__--__-----{-].,@..+,,-->>>>;&&&%%&;;>>>;;&{{;>___>__>;;;&;____---_>>___---__>___>>>>_>>___>;;>>>_>>>>>_>>__--______;;-^{;>->>;>>>>>>>>>_->-___>-_>>_>&>;&%%%$#$$$@.@#%;>#%;%&]]{--&;->__&&;&&&&&%&&>&&>>>>;>>>;;;&&;;;>>>>>;%&&##$>%@$${&_^%@%&>;>_>--->_>>_>>{_>__>>;>>;&&>@( @@@@*'-{-{-----{{-------{------------{-{->_>>>__-_--___->{^;>;;_>__>>__>_-{{--__-___>_->;_-{->>--{]]<}1-___-_>;>_;>>>>--->__-->_-&",
"__>;&;__->>_>_>;>>;>>;>;&&&&&>;>>&;;&&;->;>->&>>_>>-----{---{{-{]{^]-->-->>__->;>>>>>_--------__>__-_>__----_>>____------{--==@@..'*{_>>>>;&;&%&;&&;;;&>]_>>_->>_>>;;>&&;>_--_-->>>>>___>>__>__>>>>>>>-_>>;;--__>>>>>______-___-_>_{]-;;>___>>>;>>>_>>>--___>___-_>_;%;;&##$$$@#@@#$#;>##>#&[^--->&-{__>&;&&;&&&&#$%&&&>>;>;;;&&&&&&&;;;>>>&%#&;#>%##@&%@_-@.%>>_;>{--__>---_>_>>__>>>;;&;_+( ..@@ =-{-{--_-{{{-{{{--_-{--__----->_----_>__>_-__--__--_-{>>;>_>>_>___--{^{__-_>__->>>_>>_{{---{]{{<|[-_>_>__>__>>>;__-_-->--_;;_",
"-_>>;;_-____-->>>_;__>>>;&&&;;&&>&&&-_&__;>_>>;>_>>------{{--{{{{{{{_>_____-{;;;;;>>_----{-{-_____---_>__-_>-_>>_-___-----{>)*@#.+'=-_>>_>;&>&%&%&;&&;;-]>>>____>>;;;&&&>;>----_>_>>>___>>>_>>>>>>>__>_>__>>--_--_>>>>>>_--_>____-{->>;>>;>->>>;__>>__>--_>>>-__-_>_&%;&%###$#$$@&-#$;>%#;#&[{_->>&>^_&>;&%&;&&;;%%&&&;>>>;%&&&;&###%%&;;>>;%##>&>$$$@&->%>&%&>_>>_{-{->>-{--_>___>>>>>>;&-*3.... *'_{--{__{]-{-----_]^_--_>>--_--_--_---__>>__>>--_-___>>_>>>>>>>__>__--_>_____->_>>>>__;>_--{]{{^]-_-__>>>>_->>;;>_-____>_>>_>",
"->>>>--->___-->;;>>;>>>>;&&&&;>;&&&&>&;>->>--_>>>>__----_-{-_]]{{{-_--_>>_>__>;;;;;>--_-{-^->-__-{-_-_>__--____>_>--_-------**$@+.''-_>_>>;;&&%&&%&#&;>&&>-_>>>_>;>;;;;;>;>_--___>>>>>>>>_>__>>>>_>__--->>_-__-____>>>>-_-->___--->__>>>;;;>-_>>>-___-_-_->>_----_>;&&&%&%#$$$@@$$%%#>_&%&%--_>_;&%&;&%&&&&&;&&;;&&&&&>>>;;&&%%%%#$$#$&-;;;&&>&$>%@$@$_>->&-];>->>>_--_;_--_--_--_>_>>>>;;-@/*@@. '={{------{{-{{---_]]---->>--__-_------>>____>>----_______>>>>>-->>>>_>>>_>_-__>>_-__>--;&>-^]{{{------_>>_-->->>>>-_>>_>>_->>",
"_>___---_>____;&;>;&;>>>>&;;&;>;>;&&&&>>>>>_-_>>>>;>-___-----{{-{{--{{->->>_>>>&>;>_____-__^->^]>_{->___----_>>_>>--__-->-_{+=@@@@),-_>>>_;&&&&&%##>&%&%&>>>>>>>>>;>>;;>;;>>---__>>>_>>>__->>_>>>__>>-{->>_---_-_>>>>>>>__>_>---_>__>>>;>;>>>---_--__--___>_-_>-_-_;&%&&%%#$$$@@@$#%#>-&#&>]-_>_&&&&&;%#&&&&&&&;;;&&%>;>>&;;&&&%&%%$&>&>&;>&%_>@&&;&@.;&#&&&-_>;>>_--->>_{-_-_>-->>-_>>;;>_%~=.@@., ]{-------{{{{-{--_>----_>___]-_----__>_________-_---___>>>>>_->__>_______-->>>>-___>__>;;_{<]{__{---_>_---___>;>>>>>>>>;___>",
">__->----_>>>_>&&>;&;>_>;&&&;&;;>;&&&>>>_>>>-_->>;;>__>>>------{{{{{{{-_>>__>>>>;;>>-_]-;__-^>^1__-->_-_-_--_>__-_;_>_>__->-*,@%$ )'-_;>>;&&&&%%%##;&%&%>_>;>>;>>;;>>;>>&;>>>__>>>>>>__>-_>__>>>>>-_>_-_________{_;>>>>>__>__-_>___>>>_>>>;>>>--_--___---_>--___>__>&%&%#$$$$@$$@#&%$;>#$%->>{>>>%;>_;#>;;&;;%;>&;&&&>>>>;;&%&&&&##$#&#&;;;&;_&#$$>^{@&>%;_{{>;_-;_{--{->{-_-;>>>___>>_>;&>#~*@@.@* {{---------{------_----_>_--{-_---{{>____>_--___--___>_>>>>-->>____>-____-_>>___---_>>_;_-_]<{--{{-_>>>_>>_->>&-->>>>>>>__->",
"__-->>>_>>>>__>&&>;&&>>>;;&&&&&&>>>;;>>>;;>>--__>>>>>-_>>___---{---{--_>;>_>>;;>;&>_-_{<{___^{>]-__---___-__-____>>_;>_>>{->)'#$+ ,=->>>;&&&&&;%%#%##%##&>>>_>>>>>&;>_>;;>>>__>>>_>>>{]>>->>_>>>>>_>__>__>>>__>_-->_>>>>>>>_->>>>>>>>>_>;-;>-;>_>--_>_---____-_____;&&%$#$$#$@@#.$>#@%;$@%>>;{_;>&&>;#&>>;%;;;>;&;%#&;>>;>;;%&&%####$#%$&>;;&%#&&@@-^>;>&@{}{;;>->_-{---_{{__>>___>>>>_>;>_#~*$$.@+#{--__--{--{------------___>__-____{-____>>____---_-->__>>>_>;>_>_--__>_>_-__>__-->---_;>-----_-{{{-_>>>_{>_____-_____;{{>_>;",
"___--_>>>>>>>>;>>>&&&>>;>;;&&&;;>>;;>__>;>_>__>;{->_>->_>>>_-{-{-{{---_->>>>;>&&;&;>>_>-<{___^-___----___-__--_-->__>>>_>-->!*#$+ ,=->;>;&&&%%>;%>&###%&&;;>>>{-;;&;_>;;>>_-_-->>___>{[->_>>_>;-_>>>_>>>>>___--______>>______>>>>>>_>_>;;>>__>>_>___>{{>>_->_-_>_>>>&&$#%$$$$#@$@@;@@&&@@#&;;__;>&&_;&>&&&&&&;>&&&%%%&>>;;&%&&&##%####$$%&;&&#%%#%#%_-;#_%&_>>>&_>-{-->_-_{_>>;>___>>>;>;&_#/=.@$@+#{--__->-{-{--{---_---___->_--_{-_-____>>--__>_--------__>-_;>>>__---_>>>_>---_-->__--_>;_--->--{{-__>>>_{->>--_-__--_>->>_>>",
">---__>>__;>>;&&;>>&&>>&&;%&&&&;>>>>;;>>>>>--_>>_-____-->>>>{{-{{{--{-__>__;>>>;;;;>_--__{---]]____--{---------_-_;>>_>_->_-=+$$+ =,_>;>;>;%&&#%%_>#%&%&>&;&>>>_>&&>>&;;;>__--->__->>]1^->_>>_>>_>>-->-_>>_______>;>>>__>___>>-_>>>>_>>>_;;__>>_>>_-----___>-_>>>>>_>#@;_$$$@$@$#@#..##$#$&&&-->&%;->&&%%&%&;;>;>%%%%%>;;;&%&&&>&#$###$###;;%#&%@$#>;$$%{&.@&>;&>>_-{{_-__{>>>>>>>-_>>>_;%_%)=+.$@.*{-__--__-_--_--_----_----_---_--_--_____{--__-_______-_>-->;-->--__-_>;>>_---_-_>_-_-{>;_----{-]{{--___>-->{{__--_;>_>;>>>>>",
"-{{->>;>->;>_>;;&;;;;>;%&&%&%;;;_>>>;&&>>;>_-_>>>>>__>_-_>_>-{{-{{{{-___>_>>>>>>&;;>____------]-----{{---_------_>>>;>>>>>_>, $@++ ($->>>;;&&&##%%%#%&##&;&%>_>__>>;>;>;;_>>>{->-_>_>^}[->____->>>>>___>;>____>>-_;>>_->>__>>>>_->>___-_>>_>_>>__>_-------_>_>>>;>;>;##{>$$$$@@$%@@@@@$$#%&&&>_;##%;&#>->&%&;;;;;%&%%%&&;;>&&&&%#@#%$#$##%&%&&%%#@#{;.;&>#@$&>&_->>-{{{---{>-_>_;>_>>__;;;_%! $@+@.,>{__--]]-_-18--_----------_{---__-_-__-----_--_______>--_>>>>>_{->_>>>>___--____>--_]->>_----{{-------__-_>---{{__>>_>>>>>>_",
"-{--_;>-_;;_->>;%&&;>>;&&#%%%&;>>_>>;>>;>>>>>>>>_>&;__>>_>__----{{{{--__>>>>>>>>;&;>____------{{_{{--{-{-_----_____>>;;;>_-@! @@+. 2+{;;>;&&%%&&#%&%%%%%%%&&;-_>_>;>>;;;;>>>>>____>-_]}[_>-->_-_>>>>_-_>__-____>__>-___>__>>_->{{>>__-->>>_>_>_-------_-->>>__>;>__>;#;-#@##$$@$#@@@@$#%##>&&;-&>>&&#&_->%%&;&&;&&%##%%>;&&&%&#$%$$#$$$$$###;>#%##;#>{^;&>@;&&_{>;-{{{{---__>>__>_>->_-_>_-./$#.+. !%^_--_^|-_-^<-_--{-------->---{-_-----_____--_---_>__>-->_>>>>->>>_____->___-__>_-_-__-_>_{-{----{{-{{____-----{_>_>>>>>>>>_",
"--_-_;___>;>>>;%%&&&>;_;%%&%%&&;>>>;--_>>___>>>>>>>;>>>>>->>_{----{{-{->;__>>{-;;&;>-__--]]{{-----{]-{{--{-----__--_>>;>---@~ @@+.*:={;&&&&&&%&;%%%&%###%%&&>->>>;&>>;&;;;>_>_>>>__--{11->-__-__>>>>-_>>__->>>_>>___>__>__>_-->]^>____>>___->__-{---{]--{_>_->_-----_>###@##$#@@$@@@@@##@#>>;>>#-]&%>_&;>&%&&;>;&&%###>-;%&&;&%&&####@#$$$#&%#&%%%-#@]_#_&@%>>>>>->-{{{-----><^>___-_>-->;-.~@$#..+~%^--------->_-_------{---_>_-{--------__--_--_----___-__->_>>->>>>>__->_--_____>>>___-{>;_{--_-{{]{{{--;{{_--{__->&>>>_;;;>>",
"--__>>>>>_&;>;&;&&%&&&-;%&&%&&&&;>;>_>>-____>>_>;>->>;>>>>_>>{{--{-{{{-_>___>_>&;;;_---{{{{]]{{{--{{{{--{{--{-{->--_>__>__-$/ $$+.+3*-&;&&;&&%%&;&%#%%#$%&%%;>_>;>__>;;&&;>__>--___-_-1}{>__--__->->_>>>;>>>>>>>>___>>_>>>___-_^<>-__>>___>>_-_-{-----{-_-_>>^51{_--__#.$$$$##@.@$@@@$$$@#;>;>&#&&%>_;&>>>;#%>>&;&###&&&;&;;&&&%$#%####$#%$%%#%%$&&>-&%_>@$#&_>;{{;--{{{-_-_-]{--___-_-_;;- (*$$..+~#]_----__-----_-------{-_>_->---------_>----_-_----_--___>__-_>>__>___>>-___>-_>_->_--->>>_-___{{{{{{->-^__>_{-_->&>_>;;>>>;",
"_-->;>;;&;&;>&;;%%&&;>_;%%%&&%&;;;;_>;>{->>>>>_>>_>>;&>>>>_>>-{{{{-{]--_>>--_>;;;;>_-{{{{{-{]^1]>_{{-{{-----{{-_-----_-_>_-@/ $.+.@~+>%;;&;&&&>&&&%%&%$%&#%%;>___>>__>;;&&>-->--___---1}^>__--_>>>_>;>>>&>>>>>>>>>_>>>>>_>_----<^_{____>-->__-_-{{{{{--{-__>_}e}_>__>;&#&{>$#$$@@$$@$%@$##&&;>>#&&>;;;>_>;>;%;;%&;&#&%#&>&;&&&&$;-&$##$%#%##%&;%%&$;{#>-&$.#&>_>->_--{{---_>--_---__-_>>>&_+( @@$@*)_{----_____--__-------{---____------___>_----_>_-__-->_>__>-_>>>>>__->>______-___>>_----______-{-{{--{]<>>_>>->_>;;__;>>;-__",
"-__>;;&;&&&;;>>&&%%&;>>;%%&&&;>&;;;;>>;>_>>>>>>>->;>>>>_>>>_>>-{{{{{{{->_|]>_>>;;;__--{{_---{<[{---_-{{-----{-_----__-{-__-@/ .... /+>;;;;&;;&&;&%%&&%#&%##&_>>-__>_-_;;;;>---_>__---_<}^------>;>>>__>;;>>>>>>>>>>>>>>_-__----<^-{-_-{>-__-__---{{--{{{-->_-^<]-_>__&&&&>{&##$..@$$#&%$$#&;>>%#;>__;&;>;%%&&&&&%&&%>&%&&&&&;&%&{{_>$@$###$@&_%&&&%@_{>#__;&;>>--__-{{{--___>__--____>>>&&_+/$@@$.=={{--{-__-___--_---------{-___---_-------__---_____--_______>>>>_>>>__>;>________>>>>_--_>--_>------_-{]>;->>>>>>;>&;;;>>__>-",
"-_>>&&#%&;;>;>>&#;>&&&;&&%;&&;;&&;&&;_>;_>>>>>__>;;;>--_>>_-_>--{]{]{{{_][>_>>>;>;>_-__------{]]{--_---{{{-----{--_>>-{{{>_$/=....=(.-_;;>&;>-&&&;&&%&&###;--_-_>____-_>>_-----___--__{}<----__>>_>__>>>>__>>>_>_>>>>>>_--->_--[<-{--{--->--_---{{{-_{{{-{--->>>_-{>>&##$@_%@@$$>_###%%$#%#&;>>#&;-_#&&&&#$#&>&&%###&&&%&&&&&&;_-;;>#%#$#%%$@;#_%&&%>--&%>>%&>>---_-{{{{-_>_>>>>-_>_>;>>;%-+(.....'+[{-----___---------_---______---_-----------_____-->_--_-_>>>>_>>>_>>_>_>-{>>_-__-___-___>--_--{{--{{{>&-_>>_>>&;>;&>>;>-_->",
"-__;&%%&&&>;>>>&%>-%&;&>_&&&&;&;;;&&&>>>>>>>>>>;&>;>___;;_---{-_-{{{{{-{_;>_;>>&;;>---_-------]]]{--_--{]]---------_>_-]{;-+: $.+ +)%->>>>>;;->&&>;%%&%%%#>-_______--{->_-------_>_--__[<_----_-{_>>>>>>>_-__>__->>;>_>>>_-__--[[------[-____---{{{---{-----__--_{{>>&##$@>>#@@%^|&@%%#$##%>&;-&#&_>%&;;&%##%&&&&#%&&%%%&&;;;;%>{>;;&#%#@><>;>%#>%$>;#&%#;#%%>---__-{{{_>>>__>__--_>;;&;;%_'3=++ +)#[{-----__------_{]_------_-___---{---___-----__--__--__>-__>>_>>_>>_>>_->--____--____--->>------{--{-->-{>>>>>;&;;%&_;&-_-__",
"_>>>%#&&%&;;_>>>&&&%&;&>>>;&;;;>>;>&&&>_>>>>->>>&>&;_>>>__>---{-_-{----->;>>>;&;;>{--{--]]{----{{{{{_>---{------{-{-_--]{;- 3@@+ @.'>_>>>__>>;;;;;;%%&&&&%&>>;;___---{-;>---_---->__--_-{-------{___>_>>>_--_>>_>>>;>>;>;>-----^|{_---<^>__---_{{{-{{{--{--{{-____--;;&&$@@->&%%;{_%%#%#@#;>&;_&%#&>;&;&&&%#%&;&&##>_##%>;&&;;%;]{>>_%%%#>[-_%%###;###.%>&#&&>-{-__{{-->>;_-_---___>>;;>&%-'3 .   )%|------__---------_{-------_----{----_>-----______--__>-__>>_>>>__>__>----_____>_-_>---{->>-{{-_-{{-{->_-_;&&;%%&;&;&&;>>___",
"->>>;&&&#&&;__>>;>&&--]{;&;>;>_>>>;;;&>>>>>_-_>>;;&;>>>-->;_-_----{{{--_>>>>>;&;>-{-_--{]]]{-_-{-{{{{^{]{-{{---------_---_].3=...@=)>-_____>_>;;;;>;&&&&%%&&&_>_---{-___>>-----__>___----{----_----_-_-_>--_-->____>>;;>>__--_-^1[__-{-_-_-{-_--{--{{{----{{{--_-{-->;%%#.%&#&>-;_>-{%#%$#&%$;>&%#;>;&>%&%##&&&&&%#;&%##&;&>;&;>;>;;&&&>-#_-#&&%#&%$$%&#&;$%>>----{{{{]->_--{-_--__;&;>>;&-,/.+ +.,>|{{---_---------_--{{----_---{--------_---{{__>_______---_>_>>>>>>>_-_>>-___>_____>_-----__{-{--]]{{{_>;__&&&&%#&&;&;&;;>>_>",
"-_;;>&%#%&;>_->&>-;>^^^_&&;>>_->_>>>>>__>>>-->>>>;&;>--{{_>;---_-{-]--{_>>_>>>_>>{{----{{-]]-_--_{]{{^{]^{]{-{{{---___---_{.: .@@.=,>-____>__>>>;>>>>;;&#>_&>_>>----_______---__>_---{-{{--{{____--__->>-{-_-_-____>;;;;>__-__][}}]>--__{--{{{{-{{{{{-{--{]{------___;#@.#>@.;{{{&@$&_&##%##$$&];%&>&&>#-{#&&&&%%#;&##%%%&>>;_;&&;&>>&>>{{;;;>&%%%##$>{@#>@%_>_--{{_-{]->__----{->__;>>;>&_'3*...@'^1{{{{{--------------------__------_--------{-__>____---___>_>>>_>>>___>>_>_->_______--_-__----{{]{{]->;>;_>;&%%%&&&&&&;>>>>>",
"{_>>;;&%#;__-->>>>>&_->&;>>;>_--_>_>&>--__-->>___;&>>---]{_>--{----{{{--__>_-__-->----{{--{^-_---{{{{-{{{]{--{{{--->_--__>-*~. @@.=,___-_____->>;>>>>>;&&__;>>>>>_-->_>>_>>-_--___-----{---]--{>_{-_-__-{->--____-__>;;>>___>{[|1}1->------{{{{-----{--{{{{---_--__-->;@%-&@$-{]-$%%@;{-$###&#&-{>#&>_>%]^%>>;%%;&%%%;&>-&>;&-_&>_&;;>>&>->>>>;;&%;&#%##-##_>>_-_--_-{{-_-_-_>_-_>__>>>>;#-+a=+...=;|{{{{--_------{{{_--------_-_---_--_{--_{{{{-________-_________>>>__>>_-_{-_-___->>___--_-__--{]]{{-_>__>>_;%%#%&&&&&#&_>_>>",
"--->>>&#%>_>__--&>_&>>>>>>>>>_-_>>;>->>_---_>;;>_;;>>__-]]-_----{]]{{{--_>;{{_-->_---{{{{{{]{__---_------{------{{-__-{-___@) .$..+=_-___>_-__>>>;;>__>&&>>;;_>;>>>->>>;;>_----__>>__----{{{-{{_----->_-__--_______-->;;>___>-<1}}}|__-{---{{------{{-{]{{--_-_---{_>>&@>-%#%{-#$@%%@#&^{#&>-]{#><-%&>>;_>&_->>;>>{;%&@;_&_>&>>;&>>&&_--_;>___>>>;>%##@;_#&&;>___->-{{{----__-_____>>>__;%->(,..+ ,#|]{-{-->>_----------{_<]_---------_--_---{--->>___-----_______->;__>>_>_-->_-_-_>>___-{---__-{-]{]->>___>;>&&&%#&&&%&%&&;_>>",
"--->>>%#&>>>>_->&-_&>>;>>>;;>_--_;;>_>;_--_>>&;>_>>;;;_{{]{>_--{{{{{{--{_>>>>--__>_-_-{{-_---___--_---------__--------{->>-.( %@#@',;--____-_>;&>_;>_->;>>;;___>>__>;>>>;>>_--_>>___--_---{->{-__>_-->_->_-{-_--_>_-->>;;___>_][|1}8[_---__-{{-----{--{{{-{{{---{{-__>;&@.@$@-]@+..@$&#${-#>-_->%|[&%&;&&_;-_>>;&_[>$@#%#&;&;&;&>--_;>-{_>-->>>__>;&%###>;;_;;>>>>_---{----_--_->_->;;>;>&>1,!++  !&[{{{-{____------------_-__---------_>__----->>>___---____>>>_--{{>>>_>>>_>>>>__>>_>>>-{---__----{-______>>;;;&%&%%%#&&%%&>>>",
"___>_>&%&;>>>;>>;__;>>&&>>;&>--_>;>>&;___->&&&;>;;;&&;__{]-;>>-{{{{-----_>--->>-_&_---{->_---_--_____------>>-----_-_--{_>-+3 $@@ ,)>--___>>_>&;;>;_-__-]>>---_-___>>>>__>__--_>>>__->>---{__-_->_--_>>-_>-{_--____-___&>__>>_-]<||1[_----_-{{------------{{-;-{-__-->;&@.#&@@>-@+@###&%&;&;&#&{&>>&]]%%-_&_>&;&&%%&%%^&$&%;&_>;->>>-;>-_-__>>__;;>&#####&#>_&&>>-_--_-__->>-___--__;;;;>&>|',*** !@<{{{--_--_--{{---_--___--_--------_>>>>-{--_>_>___________>>>_>]^;>__>>>>>_>>>;>_;_->----_-->-{>--_---__>>;>&%;&%&#%&%%%;;>>",
">>;>>&###%>;;%#%%%#%%&%%&&;&&>>>&&&;&&&&>>&&&&%&%##$%&;;_-;&&>__{{--_--_>>_{-;>_>&>-__-->___-__-____-__--_>;>----___>_--_;_ ( %@*+*,;{___>>;_>;;&;>>-__>>>_--__;;>>-->>>>__>>_>>;&>>>>_-_-->>;;__>{{_>>______-__--____>>;>_>>___][[^{_-___>_------_-----{]--_&>->><];;%$$+@$@..$@.@#$##&_&&%%;&$&##%-<]|-$%&>^_&&&;]{{^;%%&##&&&;&;;&--;>_-->>__>&&%#$$%####%;_-__>>-_-__>>;;>>-^__->;;;&#_|''=   ,)^{{{-__-_----{-____-_>--_-__>_--->>>>>>----___->>______>>>>;;>>>;;>>>>;;>>>>>;>_>>>>>_>__>__>-________>>>;&&%&&##&&%#%#&;&>>",
";>>>>>{-___{{;;;&;>-_--;%###%%>---;###&_->&%%&;;>-->>_{{{]_>-{{{^]--^{-->;;>--_;&%%>>_->&&;>>;>_-_>>_>>;;>;%&>_---_>>>_>>>_)(+#...+,&];>>>>;>;&%#&&&>>>;;>>>>-_&&>_-_>>;;>>>_>>&#&;>;>>>>;>;&%&%&>>__>>>__>>>>---_>__;;;&>>>_>_--<<{-__>__>>_--_____----{{-->%%;>;>>;&&&&&##$@@..@$$$&;&%%%;&#;{^_;;-][}{;&%>}[{<1|[|[^^}<--_>{{--;_>>_>>>--_--_&&%$$#&%####%>--_&&;>__>;;>>&&;__>_-_&%%%#[^:'+.+ '(_<>_>>>>>>>-->-->>>;>__--_>>>>_-_>>>;>_----_>>>>>>>>>>;;;&&%&&&;;>>;;&&&;;>>>>>;;;&%&__>&&;>>_____>>>_>;&&&#&#$$$#&%$$%&&;;>",
"]-{{>@@ =,=@@.&%#&%.$.$]1|<[[[|<{%;-;&;&$&->>>&#$@++.%@.$%&%%@@@@#&&-{>-{---->>{{---{^<]^{---<1[{__---__{[[^{-{{]]<<{-_{]-$22, @@+=2 [_{]-{-_--_--_>_>>;_>>_]]-_>_--{{-{-_>__>>>-{{--___---->---{-{]--{{-_>{]^[{>>__-{{{{---->_{-{{{{{{{--{{{{---^<^]{{]{_{----]^]{]{--#@$##&&&%%%#&&$$&>;>-->_>;&#_]&%;>;-]>&&$@&>]5[-_$@@@@...%;&;-_--_--->;]^----^^{{>&%&>$$;->>--_--_>&---_-{----_-^<[}'c, ='=,a)<^[<<<^^{{{{-{<]^^]----{-{{{{{{-_-----__----{---{-{{---{{{-{{{{__---__-_-{-__;;;>_>>>_;_{{]-_---------{_;>;>-]->;;>_>>_>>>_",
"+'=,~2a:2a((2(~!!~(2(33)#{>;##.)~:)=)!~(:!,)),)/(:0a:(:(~~(3:/(2a:/)~,==**.=)~!+$   .*= @;-&&;;{1}[]]]]>%@;{;&&;&$%>>{[{.)~3:!,* +=aa#-&@ '==+#@#$ *')),' ='$@='),* .@@.@@$##%$@$$@@##&;;@@@@@$@$ @@..$%&&&>_&%&{^-&%@@$@@#@.=' @@  .@@@+==$>>--&%##@..@+'=  @@@$#&&@ !aa023(/~))~/:3:3()=+=',/:3)), =!(/*++'((::3~,*,//aa2:2:2a:(!!),,''!),,/)&[||}].!~/~~)!((~,=+.+  *!~!)=+  +*,)= .&;+(0~=== *)(a=%%&#&&%@#>;;;##$$%&&&&%;#@.@@.%#%#&;&-{{;$@$+.@@@$$.@$@$$.@+$##$@.@@@+'==.%;{][[|1[^^{%+.#%;>$+ .@.=*@###;#$##@%&#@@*.%;&%",
" *')!)'=),,),'' .*'!) =',,',~/3/)!'*,*,)=!~,,,*=')!)),=***=,)'=)!!)))'.=~)=====*=!!,=,!,!,=!~3(,#% '=*')!:(~)~!'+ ',= +'~)=*'=*'*+ ='= ',,/~)''!!!,'!),,'',,,)~))~'''=,),,)))*=!!))'=,,=*,)'*''!),')==,,*. *. '=@#. ''. ,==),==',))!)=,),,), . .+=!!!~!!~,),!!)~~,='=,!~~~~~//!''~!~3~//,=. =!~!)=*= .+  @+** +=*++=),''','),,,''),,,,)= )!,''), +  ,,)~)!~)!),~~)'!)=,,~~),,,'',)))',))'(('.@+ ++ *,,~!,,==~/)=,==,~~!)=',=, '~),~!,,'),'=+..,,~!))))',~~'=))!/~~))==!!)!!~~!~!**+#&%%;>&$ !(,= + ,)~~,)))~),,=,)'))',~/*!~===,",
"%%. .@..@@ +...@%$++@$#&$$###.+..@$@$%#....@@@##.@.+@$##%;;@@.@@++.$#@$#+.%%%&##&#@@$#&#@@@.+  +.....+  + '=  .$;;$@$..#@#&$$$@..@%%#$.@#...$@@$..$@..+.$$.$#@.+..+@%##%#$@  @@.@@.%#.@@@$@$###@..$##...@#;;%&&%@@$##%%;;@@%#.@#$.@@.#$$@.$##$#$&#..@@#@+...+..@@@$$$.@@@.='*.+@. ..=  .@#&#$@.+..#%&#$;&####%&#$#%@@$.@@.@.+ +..+..++.$#$.+.@.@++@+@$++    +++ .++#@+..  ++@@@@+...+ @#..$@+..+ +@%.   +##..++ ++.  ....  +..@+.@+ *.+=*+.@$. .++@$@@@  .... ++== +.@. .    * +.+.$@$$$># ==+@&#$$@@+ $.+   +.+.@#@$@. +* .@@.@",
"#&%@@@@$%$.@$@@@$@.@>>#;%%%;&$@+.&&#&#&#@$@@#&%%%%$$%&%%;->%#@@@$$%&&#@$$@#&;&%&;>#%%&-_&#&#@$@%>-]>&$..#@.+@#%>&%###$$&%&>>;&@%@$;#@@@$@#&##%%#%#$@@@.@>&###%&&%%.@%&>->&%$$&#$%%#@$###$%&#$#%#@%%>&@.$$$&;;>_;&%#%;;%;;&%&&#%;_%.#%$#$@$%;##%#&;#$%;&%@@$#@+@@@@#>#@&;#@ = +.$$$#@ #%#%;#$%&@+.@;;&%%;&%&#$##%&%#@%$%#$@.#@@@.@@....@.@%$%%#$%$@@@%&#$ .. . @%$..&%.$@..@@&%$@.@##@@@#@%#$..@. .##&..+$&@@#$.+.@@..@@@$.+$#@..@.@$  .$.@$%%.@@@@@##%$...++@.....+..@@..+++.@+..@$&;&;&&.  +#>_##%@#$@#. +.@#$@@$$@$$$$..#+.#@#",
"@@#&#.$#@@@@@.@@@.###$#&%&>%@@  .$$&%$@@@@@@##.##@@@$##@%&&%..@..@#%##$$###%#&>&$$$$%%%;%$%#@..@>-{-_#.@$$$+.#;;#@@$@#$.###%$@@@@#@..+.+@%#&>%$@#$@..++.#@@###>>$#@.$#&&&%@+@#&###@. @@$$%;#$##@$;&#@.@@@$%&&&>_;&&&&%#%;;##&&;&>&@$&$@@@$@$$$@##%%#####.@.@@.@....#;;%&@@+='  $#$. *#@#>&#$@.@@.@#%%%;&$##@##%#%#@$%.$@+$@.@@.@....++.. @#####$$$+ $#@@.+.@. @;>#@@$$#@..@#%%$##@.##$.@##@@++@  @@+%#++@@...@..@@@...$@.+.@@.+.+.@@. +. $#$$+@@+.@.@@+++  .. +..@. @@+++++..++ +..%;#@@ **=.%>;#@$$#$@. +.+@$$$$$++.@%@+@@ + .@",
"...$. ..    ==== =+@#>>;#$$*,,,,=  +.  =),= + =..**=* **    =','',====* .@@@@..    *  =*='=*'==*.@$##.+.. '''+$.+   =='=@ ,'),*)'===),),'*+#%@+..@%#@. *=   ++@+** '''''* ',**+   *'',,'*+.@    +@.+=,*=,=+@..@$.@.+++ .@ * .@.@$@+*   ..  = ''=' ..+.@ +*)'++++    .$@. ,)!),!,'**'= * #@. ===*.. @&#+ **+.++$++ *  ''=,*.==***','',,),',==''**='))= *=,),',',)* == *'====''    *====''*',,'''))),),*'','==='),=**,'=*=!),,'',='=,)'*)/'+.$  =))),)'')',!,',!)*,~~~,'!~),!!!~)='')'  .*!,)~,+. *='+$+*,!,'''= = *,)== ,==',,,+ ",
" +.,!~,+ '+.*==+@;{15455}^-;;#*)))))*. ,=),*=)) +*='+.@$@.@.+*=*+    +++@%&#@+)!,)~!!,=,,* **$>]^]];%&%&&.=#>>_>#.=' %;>{-;&&%;;>@+.++*$&_{^<|[[<<[[<^]]{]{>__$ *='= $@#>;&&%.  +@+    '=.@%@@#.@#@@. @##%&&#$  +.  +@@@@   + = ++*'~~,'=,=. =* *+=,'  ,,3a!),=*== ,)), *,/~=,),,==)),,~!,!(~(:~*)!) *~,= + =,*+*+;->%++  .*,'='='),= == *.&;%$_;&>---->##&+=),=*,~/~~(!~/)=* @@.=!~,=@;;%%&%&;%@@$#. @%#&>;;&$#%##$#%%&##.=  ),,(~!= @@&>]<_-&.*=++  + +#$@@$$##@==$$@@@$@+'=,)= #&&>^-%%#$. . *=,),,/~(3) #.+.=,~3(~(:202(/)='",
"  =!(=>]]{{]]{{^<11[|<<[1|[||[]{>;;;-<]{{-]^-;&-{]--]]^<<<<^^]{{]^]]]]]^]^[[]^_&%##&&_]_-^]^[[1|<^[1|1|1|^^]<[<<<^{{]^[[|1[<]]^^{_>-{{-{^]^{{{{{{--{----__{^^^]{{{{{{]^]{{]]^]{{{]{---]--{{]]^^{{{]{{{^^<<<<<^^]]]]]]]^]^{{{{-{]{]-;$@%&;;>]{---{{-%>-->##,a2!  ===~('>{{{_>->-{-->;&>>$$%$+@..+@&$$#&&_^<{>>>>]^[11[[]{{{{-_---{{_>-{---{]1|^<1|<<[^^^^^<^{]-{<^-;#$$#&%#>{{-{]]-%&--{^<[[<^^]{]^{]]{]^^]]]]]^^^^^^]]{^^{{__>>_;@&>>>{]-_--]]]{_-{-__-_-{{{{{{{{{-_--{{{{]{__>>>-{{]{_{]]{{^--{__-&##$&;$>-]{--__%$$#.+ ':ba,=,",
"..=!'<<]]^]^<^^]]{{{{{{{{--{]{{^[||[[<]{{]^^]^^^^]{{{{^^^^^^^^^]]]]]^]]]]{^<^<[[<[<^^{-_--_-^]{----^[[<^<<^]]]]{]<]-_;&&&&%$@$#$@$$###>%#&&%#&;>___----_>_-{{{{{]^^]{--{--{{-{{]{{{-_-{{{--------{{--{]]{{]^^^<<]]^^]]{^]{-{]^^^^^[|1|[[<<]{[^__--{{{{-{{{]~d=$$+ '(/_<{]^]]{{{{--{]^^]^^^{{{{^]{[^^<<<^^<[[[[[[[<^{--{{---{{{]]{{-]<^<<<[|^-_-__{]>__-----__---_-]^^]^^^^]{------]^{_>;&-------__---{]{-----{--{{{--____>>_>;>>_{->>>>_>;;-->;;>___-__->>_>>_>__>>>;&&>>>>____->;&>>>_---_--_--__{]{{{{{{-{---__-]^{-{-{-_)a**=",
"@#@! []]^]]^^^]{]]]^{{]{--{{]{{]^^^^^]{{{{{{^]{{{{{{{]]^^]^^]^]{{{{]]{{^]{^^]^^]]]{{]--{-_--]^]{]]^^^<<<^^^<]^^^]^^->>>;;%%%%$#%$%%%##;&&;;>>>--------{-_--{]{{{]]{]]{{{{-{{-{{{{----{{{{{{{{{{-{]{--{^^]]^^^^^^]{{]]]]^^^^{]^^^^^<<^<^^]]]]]{--{-------_>-.3 @@.+*(=^{{{{{{{{-__{{{]]{-----____-{{{{{-]^^<^^<<<<^]{--{-<1_----]{{^1}||1}1^{{----^^_-{{-{{{------{---{{{{--{-{--{{-{-_-->-{--{]{--{{{]]{{{{-{{{{{{---__------->>_>>>>>__-_>--->__>__-{__--_-->--_->>__;___>___->>;;>>>_-----_---{----__---{-{{-____->>>>;&_&/' +",
"#$@)@[{]]]]]]^{{]]{{-{{-{{{{{{]]^[^]]{{{]{]^{]^{]{{{{{{]]]^^]]]]{{]]{{]^^{{<^<[^^]{{]{]]--{{]^^]]]]]^^[[]]^^^^^^]{]{_>>>;&%&&##&##%###%%&;>___{--------_---{{]{]{{{]^^{{---{{{{{--{{{{{{]{{{{-{{{^^{-{]]]^^]^^]^^]]]]]^^^<^<<^^^<<^^^^^^^]{]----{]]{{-{{{--&!=.@.  ~.<]{{]{{]{{_-]{{]]]{----{--]]{^^{-{^<^<<<[<^^]]---{_1|_{--{{-{[1||18}^{^{{{-{_---{----{{{{--{{-{{{{{{-{{]{-{--{-_>_{-_-{{{{{--{{{{{{{-{--{--{---__-_-----_________-_>>>---->_>>>_--_-->-->_->_>>>>;--;__>-_;>;;;>>>_---_-_------------{{--->-__->>_>>>>>),+ ",
"@@@)$[{^]{^^]]^{]]]]{{{{{{]]{]]][[^]]]]{{{<^{]^]^]]{{{]]<^]^^]{^{]^]{^^^]{{[<]^^]]]{{^<]]{]^^^^^^]{^[[[[<<<{<[<<^]{-{_>>;;%&%#&;&###%%&&&>>_>---_---{{---{{{{^]]{{{{]]{--{]]{]]^]{{{]]]{{{{{{{{]]]^{-{^]]^^]^<^^^^^]]]^[[^^<^<^^<^^<<^^^^^]^^{-]^]^]]{]^]--#!=..++ /@|^^]]]]]^^{-{{^^^]{{]{{{{{^^^^^{-^[<^[[[[<<^{{{{{{{--{{{-{--{<[1}}[{{^<]{-{{-{^]-{{{{]]{{{{--{]{{{]{{{{{]{_-->__>>]]_-{]{-{-_-{{{{{{]{{{{{{{-{--------{----_--_---_____-_-______--_-{-->{-_____>>>-_____->__>>-__->-{{_---{{{-{--{-{{-{{--__>_____>_-_>)=+ ",
".#@,#|]^{{]^^^^^]]{{{{]]]{{{]]]^<<^]{{{{-{^{]^^^{]]]{]{^^<^^^^]{]]^]]{]^]]^^]^^]<<{]<[<^]]]^<<^{^]]<[[<^<[]{{<<<^<]--->>;&%%%#&&#$#&%#&;;>>>_>>----_{--^{{{{-{]]^]{{-{]^{-]^]]{]]{{{{-]{{]{{]]{]]]{{{{^^^^^^<[^<<<^{]]^[<<[^^<^^<^]^^^^^^]]]]-{^^{^^]]^^]{{#!*..+@./.|^]^]]]]{]{-{]^^^]]]^]{{{]]^^^^{-<[<[^<[<|[^^{--{{{--{{-{{{-{^[1}[{{^^^^]{{{{{]]{{]{{{{{{{{-{{]{]{{]{]]{{{__->__>>_]{_--_---]]{]-{{{^{{{{{--{-{-----{{-------{-_---_-_>-__->-_-__-----__{]__-_>>>__-->_>>--_>_---->_{{___-]{--_{--{{{{--{--_>>__>____>>!,+.",
"@$@,@[]{{{{{]<^^]]]{{]]]{{-{{{{]]^]{]^{-{]{{^^]{]{]^^]{]^^^]^]]{{{]]{{^]^^^^]]^^<^{^[<^<<{]^<<]{]]{{<^^]^^]{{]^^]]{--_>;&%%%%##%$#;&%&&;>>_-_>-{{{-----{{{{{{{-{^]{{{{]^]--{{{{{]{{{{--{{{{{{{{{]]]]-{]^^^^^^^^^<<]^<^^^^<<^^^{]^^^]]^^^^^{{-18---]^]]]^^{{#!*..@@ ~'<^]^]{]^{---]]]]^^^^^]{{{{]^^]{-<[<<<^^^<1[]]{-------{{---{{{]<[<^]^]]^^^]]{{]]{]^{{{{-{{-{{{{{{{{-]{]]{]{-_____>>>-]-----_-<^-{{{-{{{{{-{{---{{__-----------{{-_---_->>__->________-->__-____>_>>>___>>>-_>>>__-_>_--__----->_--{{--{{---->_>>_>_>>-_;!,.@",
"@@.,=^]]]{{{^[<]^]]{]]]{{{{{{{]^^{{{{^{-{{--]^]^]{{]]{]{{]]]]]{-{{{{{]]<<^^^^^^<^{{^<<^^^{^]^^^^<]{{]]]^^^^{{{]]^]{-_>;>&%%%%##>&#&&&&;>_>-__>{{{{{{-_-{{{{{]{{----{{{]{{{{{]^]{{{]-----{{{{{{{]]]{{{{{^^^^^^^<^^^][|^<<<^^^^{{{{{]]^]]]^^{{{8}-_-{{{]^]]]^.~*+@#$.',^^{^^{{]{--{^^^{]^{]{-{]]{]]]]{{[[^<^^]]<^^^{-------{------{]]^^^^^]{]^^^]]]^]]]]{{{{{---{{{{{{-{{{{{{{{]{__-_>>>>>{]--{-_--_---]{{-{{-----{----------{------{{{---{>-_>_>_->>_--_----_-_---____>>>>-_>>>>_>_>>>__>>--_--__{{_--{{-----{{-->_;;>__----@/=$+",
"#@ ).<^^]{{]^^^]]]]{]]]^{{]]]]^^]{]]]]{{-----^^]{-{{]]]]-{]^^^{{]]^^^^^[[^^]{{{^^{]^^]]{{{{^^^^^^^]]{{]^^^^^]{]]{]{-_>>>%#%%###>>#%&&&&>>-_>>--{--{]--{{-]{{{-{--__-{]{{{{]]]^]{-]{{]--{{{{_-{{{{{--{{]]^]]^]^^<^^^^^<<<^^^^]{--{-{{]]]{{^]{]{---{--{]^]^^<@~..@#%@)+<^]]^]{{{-]]]][[]]{{--{{{{]^]]{{^<<<<^^^^<^]{----{{{{--{----]^^^^^^^]]{]^]]^]]]{{{{{{{-{-{{{{-{{{{{{{{{-{-----__>>>{-----__>_---{{-{]-{----_--_---{{-{{-----{{{]--_-__->_>>>___----____-_-->_>_>>_>__>_;>>>>>_>>>>>___---------{{{{--------_>>;>__--_{.3=++",
"#$+)#^]^]]]]]^^^^^^]]{]^{]^^^^^^^]{]]^{--{]{{]]{{-{{{]]]{{]^^<[]]^^^^^^^^^{]^--{^]]]]^{{{-{^^^^^^^^^^]]^^^^^{{]]-]{-_>_>;%###%#&&#%%&&>_>>;;>__-_-{]]{]{]{{----------]]{]{{]]]{{{]]{{{-{{----___----{^]]]]{{]^^[[^<^^^^^^^^^]{---{{--{]]]]{]^{{------{]^^^<@)%%@#&%!@|^]]]]{{--^^]][1^]{{{{{--{]^^]]{^<<^^]^<^^^]{-----{--{------]^^^^^^^^{{]^{{{{{]]]]{{{{-{{]{{{{{{{{{{{{{{------__>>_{--___-____{{---]{{{--{{{{{{-{{{{---{--{--{{^{_---____>_>>___--_-_--___-___>______>>>__>_>_>>>>>-____---_-_-]-{{{------{->>>&>_>--{ :=++",
"...=&]{]^^]^^^^^^^]^^{^]]]{]^^]]]]]]]<^{]^]]]]]]^]---]]]{]{{]]<^^^{{{]]{]{{]^^--]^{{^^]{-_^1^^^^]^^^<^^^^^]]]{{<^{{-_>>>>&%##%%%%&%&&&>>;;>;>>>--{{{^]^^]{{---_-----{]^]{{{-{]{{]]^^]]{{{{{{{--__--{^{{^]]]]^<<[[<^^^]^^]{]^]{{{-{-{{{{{{{]^]--------{]^^^^;,@##$@$,@<]]]]]{{]]^]^^]^<]{{^^{{{{]]]]]{^<^]]]]^^]{{{---{{--------{{{]^]^]]^^-{^]{{-{{{]]]{{{{--{{]]{{{{{{{{--{{-_---____>-{{->___-___{--{]{-{-{{{{{-^^-{-{]-{{---{{-{{{{----___>_-->>>---_-_--___--_>>____>__>>>>>__>>>;>>_-]-_-_----{{{{----{-_-{->>>>>_____.~*. ",
".  =><{{^^^^^^^<^^]^^]^]{{{]^]{]]^^{]<^^<^^]{]{{]{-{{{{]{{]{{{{^]{{]]]^^]{{{]^^{]]{]^]]{{--<^<]]^^]^[^^^]]{]]{{{|]-{->>>&&;&%&%%&&%;;&%;&&&&>>;_]{{]^^]]]]{{{-_____{{]^{{{{{----{]{^<]{{{---{{---]^]]{{]]{{{^<<<^<^]^[^-{{-{]{{{{{{]{]]{{{]]]{------{]]^^]{{* $$.+ ,_<]]{]]]{]^]^^^^^^{{{{]{{{{{]{{]{]<<]]^]^^]{{-{{--{--{{----{{{{]]^]]]^]{]^{{]{-{{]{{{{-__{]-{{{{{{{{{----_-{__-{_>>_{]]_>___-_----{]-{{{{{]{{{{---_{-{{-{{--__-{-------_>>-_>__>--_-___->-_>-_>>>__>___>__;]{>>__>>___{_>_-----]--{{-------->>>>>>__>>>@).@ ",
"+  ';<]]]^^^^^^^<^^<]]]{]{{]]]]{^{{}}^^^<^]]]{-{{----{]-{{^{{]-{{{^^]{{]^{{]]^^{{]{]{]]{{-{{]^^^^^[^^^^^^{{{]^{{^[{{->>;>;;;&%&&&;&&&&&&&%%>>>>>_]{]^^]]-{{{{--__--{{{]]{{-{{{{{{--{^]{{-{{--{-{]{]]]{-{{{{{]^^^^^]{{<]-{{--{]]{{{{{{]{--{]{]{---{--{]]^^^{-* $@@.*,]^]]]{]^]]^]^^^^^]{{{{]{{{{-{]]^{]<<^^]^^]{{----{{-{{-{--{{--{{]^^^^^]^]^]{{]--{{]{{{{--_{]--{]{{{]{----__-{-_-]^^>>-{^{{{__{----{{-]{{{{{-]{{----{-_---{-_--{{--{-{--___;>->;_-_____>>____>>>>>>>___-_>_>_-_>>____>__>>>__---{-{--{{-__-{__->;>>>_>_>;>,*$.",
".@.);|^^^^]]]^]]^^^^{{]^]{--{{]]^]][|<<]^<^^^{{]{--{{-{-{]]]{[^-{{]]{{--]]^<^]]^{]]--]^]-{]]]^^]]]<<^^^^^]{{^<^^{<[-_>>;&&;;&&&;;&&&&&&&&;{-&;>;>-{]{{]]{_-----_>--{{]]{{{{]]{{{{-{-{^{{^]{-_-{-]-_]]{{{{{{{{^^^^^]{{--{{{--{{^]{{{{{{--{{]{----{]]{{{{]]]{{* ##$@*'^^]]^^]]]^^]^^^^^]{]{{^{{{{-{]{{{][<^^]^^{[[_-{-{{{{{--{----{{{]]]^^{^^^^{{]{{{--{]{{{{{--{{{]{{{{{{--{-__----__-->__-]{{{{-__---{{{]-{]{{-{{{---_-___-{__-__{{--{--{--->>>>>;>-->_____>>>>>;>>>>>>___>>_>_>>>>>>_->-_>_--__-]{-{{--{------_-{;>>>>>_>>%~,+.",
"@@ !#1^]^^]]]]^^]{^]{{]^]{--{{{<^]]-]<^]{]^[^{]^]{{{{{-{]]{{{]^{{{{{-{{{{{]<^{{^]]]{{{]{{]{]]^^]]^^<<^^|[^{{^^^^{{[{>>;;>&>;&>;;&;&%&&&;__^-&;>>__-{{{]]{->--------{-]]]{{{{]{--{{{-]^]]^]{{--{------{{{{{{{]<^]]]]-{]]{{-_-{]]{{{{{{{{{{-{{{{{]]{{{{]]{{{-] .&#@$+=^^]]^^]^]^^^^^^^^]{{{]{{{{{{-{{--^[^<^]^^^<]--{{-----__{--{--{{]^^]^^]^^]]]{{{{{{{--{{----_]]{{{{{{{{-{--__-{---__>___-]{{{{-_--_--{{{{{{{]{{{-_--___-->_-----{-{---{-{->>>;;>>>_--__>>;;>>>_->;>____>_->_>__>>>__-__>_-_-__---------------_>_>;>>__>_-.:'++",
".+ ~$|^^<<^]{{]{{{]^]{{]{{{{--{{{{{]^^^{--]^<^^]]{-]]{]{]]{{^{{]{{]^^{]]]{{^]{]{]{]]{{{{{{]^^^^^]]]^^^][<]]{^^^]-{]{_>&%-{&;;;>;&>&&&&&&->_{>&>__>>-{-{]{{--{-_--{{--{^^]{{{--{]{{{{{{]{--{]{]-------{{{{---{^^]^{-{]]]{---_{{{-{{{-{]{{{{]]{{]]]{{{]]^]{{{&'#&%#$ =^<]]^^^]]^^^^^^^^]{{{^]]{{{{{{{{{^^^^^^]]]{{{{{{{{---_-{------{]]]]{]]]{]^]{{{{--{{-{{--{{--{{{{{{{]{--{--_--{{----_---]{{--{{{----{{{{{{{]{{{----_--{->-----{{---{-----__->&>>_>-{_>>;>>-->__>>_-__>>{->__>>>___--_____--_-{-_--------_---_->;>>_>>>_-@/* .",
"@+*~;|^^^^<^]{{]]]{]{]]{]-{]]{{{-{-]^^^]{-^^^<^]]--{^]{{{{]^]]^]^{{][^{]]{-{]^]{]{{{]]]---]]^^]]^]]^^[[]^^^^^^^--]{-_>;&;_>;>>;;;&&&&%&%;&{]>>>>___{{-{{{-----_-]{{-]{]^]{{{--{]{{]{][11|[^{{{--------{{{----]]]]{-^]-{{-{{--{---{{{{{-{]]^^]]]{]]]{]]^]{{^#).#&;# *^[^{]^^]^^^^^^^^^]{{]]]]{{{-{{-]]{]<{^^]]]]]{{]{{{----{-{----{{]{^^-{{{<^{{{{---{{{{-{{---{--{{]]{{{{{-{{--------_---{{{-_-{-{{--{{{{{]]{{{{{]--___---{{----{{{--{{-{]_----_>>__>>-->->__{->>>_-_-____>__>-_>>>_-----{-_-_-{-{[-------_-----_>>>>_>>>_-#) ..",
". .'&1^^<<<]]]{]]{{{{-{{]^{{{{]{{-{]^^^^]{{^]]^^{_-{]]{{{{]^]]]{^]]{-]^^{{{-^]{]{{]]]{{{--][{]]^^]]^^<<^^]^^^{{]--{{_>>-;#;>;>;;;;&%%%&&%&{>%_>;>{----]]{-{{__<{{_-{]]]]^]{{{{{{{{{{^<[|[^{{{{---_----{{{{--_{]{{{{-------{{-]{_-{-{{--{]]]^]]]]]]{{]]^]{{]#! @#;%$@^<^{]^]{]]]^^^^^^]{]]{{]]{{----^^]]^^^]]^]]{{-----{{---{-----{{--]^-{--]{{{{{{{{{--{-{-{---_[<-]{{{{]{{{{--{]--{---_------{{-{--{{{{{{{]]]{]{{{--__-{{-{-_-{--{{{{{{]^-_----_;>-_>__>->>-_-___-_-_-___________>_--------_>-_-49_-{{--_---{{->_>__>_>>_>-,'..",
"#@+';[]^^]]]]{]{{{{{{-{]]^{{{]]{-{]]^^^^^{]]]{{{{-{-{{{]{-]{{]{{]]]{--]^]{]{{{^{-{{{{{{{--{]]]^]]{-^^^^^]]^]{{-{{{{{-;;-;&&&;;&&&&&#%;&%&;>&&>>>----{{]{-{{-_-]]---]]]{]]{{^]{-{{]{{----_-{]{{---{----{{{-----{{-{{{{-_--_--{]{_-----{--{{{]-{]^]^[]{]]{-{--=+##&&@+^<^]]^]{^^{^^^^^^]]{]{{{{{{{{{]^]]]^^]{]{]{{{{-{-{{--{{{-{{-{{--{-{{-{]--{]{{{-{--{{{{---{{-{{-{]{{]]{]]{-{-_------_{{----{{-]--{{{{-{{{[^{]]{-_--_--{----{{-{]{{{]^]{{--{-->;>>>>>>>>>>-__>__-_____>>______>>__----{_--{{__^1^-{{-{--{----{___>______>>)'+.",
"## ,;<]^^]{]^{{{{]{{-{]]{{{--^]{--{]]]^^]{]{-{---{--{{-{--{-{]-{{]]---{{{{{--{]{-{{--{--{]{-]^^---{{]^^^]^]{{{{--{{_->&#%>;&&&&;;&%&#__%&&>>;__--{{-{-]^----]{{]^^{{^^{{]{{^]{{{{]]]{-]{{]]{{--{{{--{{{-{{{--{--{^{{{---{---{{----_----{{{-{-]]^]{<^]]{--{-_' %%#%@@^<<^]]]]]^]^^^^<^{]{]]]{-{{{{^[11]{^]{{]]]]{{{-----{{-{{-{-{{{{{{{-{{{{{{-{{-{-{{-{-{{{{--{----{{{]]{{]{--___---___-{{{{--------{{{{{-{{{[}]{{_--{{--{--{{{]{]{{{]{^]-{-_{{->>;;>>___>----_->_______>>__>>>-->>_---{_{--{-_-{--{--{---{{----_>_-__--__>-=,@.",
".@.*_<^]^^^]^^]]]{{{{{{]{{{{{{{{--{^]^]{{{{{-----{---{{-----]]{{{{---{----{{-{{{{{{{-{{-{^]]]]{{{-{{{]]^<]]{{]------>;%#%&&&%&;;>&#%#&>;&%;>;>__-{-{{--{{{--]]{{^]-{^]]]^^{{{{{{]]^{{^{{{{]{{{-]{{{{-{----{--{{-]]{{-{]]]{-------{^_-----{-{^]{]^]{]]]{{{{-_, #%#@..^[<^<^]]]]^^^^^<^]{{{{{{{-{]^[[[1}^-]]{]{]]{{{{-]{--{--{{-{{{---{---{{--{{---{{-{{--{{-{{-{]---{-{]{]{{-----{-----_---{-{---{-__--{{{--{<99]{---{-{{---{{{-{{{{{]{{{{{--_{{-_>>;>_________-->>>--_________>-->>---{--{-{{-{{{{{-{{{---{----__>-_____>_>-')..",
".@+ -<^]]]]]^]]{{{{{{{{{]{{]]{--{{^]^<]-{]{-{{--------{---{^]{{]]{--------{-{{{--{]{--{-{{]^]]{]{-{]<^^^^^]-{]-_---_>;&%##&%#&&;;%%%#%;;;>;>;>>_{-{]{---]--{-{---{{]{-{]{]{-{]{{{{^{-]{{{{]]-]{_--------------{]]{{]{{{]]{-_-{-__-{--{----{{^]^]]]^{{]^{-{{%! $%#@  ^<<<<^^^]]<<^^^^<{{{{{{{{{^[[[[<{[5|-]]]]{]^{{-{{--{-{{-{{{{{{-{{-{{--{{{{{---{{{{-{{-{{-{{{{---{{]]]{{{----{{----_-{{{{-{{----_{--{-{-^|[{{]{-----{--{{{{-{]{{]]]{{]]------_>>;>->>___-_-_>>>>--_>>>-{>___>>>__---{{-{{{{{{{{{{{{{-{-----___-___-_--__;~,.@",
"$@.'>[{]]]]]^]]]{{{{]]{{{]]]]]{--{]{^^{{]]{{-]{-_{]-{--{-{^^{{{{{{]{---{--{{]{{-{{{{{-_-{-{^]{]{{{{]]]<^-{{{{{---{->>>&#$%%%&&;;&>&%%&&;;__;>>>{{-]{{{---_-{_-_--{]{{{{{{{{{{{{]{{]{{-{{{{{{{]{___--------_--{{{]{{{{{-{{{{_-----__-_------]]]]{{{{{{]]{{{]$~ #&%%@=_<<^^<^^^^^<<^^^^{{]]{{{]^<<<^^^^]<5|{]]^]-]{-{{--{{-{{{{---{{-{{{{{{{--{-{{---{{{{{--{{{{{-{{-{{{]]{{{-----_----_-{{{{---{-{]_--_-{{{]^{{{]{{-_-{------{{{{]]]{]^]{]]------__;;&-_>>_---_>>>-__-__>;{<>_>__>>>_---{-{]-{{{{{{{{{{-_-{--___>_-__>_---_-@(*@.",
"#$.)>[{{]^^]]^^]{{{{{]{-{]]]{{{----{{{]]]{{]{{{_-{{-{{-{{]^]{{]{{-{{{--{{{{{]-{{{]]]{--{{--]]{{-^]{^^^^{{{]-{------>>&&;##%%&&;;>>&%&&;;>&;>-_>-^^-{{----_-___>>-{{{{]^]{{{{{{{{]]{{{-{]{{{-]-{-_--{-__------{{{{{----{{{{{{]{_---->---{{--{{----{{]{-{{{{^./ ##%_#)&|^^[[^^^<^<<^^^]{{]]-^<^[[<^^^^^^]^}<]^]]{{-{]-{{{{---{{---{{{-{{{{{{{{-{{-----{{{{---{{-{{----{{]]{{{-{]------__-{-{{-_-{---___---]]{]{]]----------{{-{{]{{{]]{^<{{{{------->&;____----_>______>_>>>________>_-_{-{]{{{--{--{{{-__-{-_>__>_-____-_>_-@( .+",
"&$.'>[{]{]^]]]]{{]]{{]{{{{{]^]]{{]{{{]<^]{{]]{{{----{{{{]^^{{{]]{{{{---{--{-{{---{{]{-----{]{]{{]{{{]^]{{{{{--_---__>%&&%###&;;>>&%#&;;&&;>>--_-]]{{{---_-{-___>-{^]{]^]{---{{-{{{{]{--{{{]{------_---__---_---{{{{-_-{{{{{{{--_-->_{---{------{{--{-{{--{^@/+$@.@.,;1<<<<<^^<^^^^^^]]]{{{][[|1<^<<^^<<][|]^{{{{-]{-{{--{---{{-----{{{{{{{{]{{{----{---{------{{--{{{]{]{]{--{-----{-_------_>-----__---{]{^]]]-_-----_----{{-{]{{]]]{]]{{{{--_--__>>>>>--_--__>>_-_>>>>___-->;__>>-----{-{]-{^-{{-{{--_--->______>>---->_{@(=.@",
"#$.,;<]]{]^^]]^{]^]{]]]{{{{]]{{]]]^{{^^^]]^]{{{{-{-{{{{{]]]]{{]]{{{{{-----{]-{{{{--------{{{]{-{{-{{{{-{{{-{{--_--__;%%#%_%#%&>>&%%##%%>&>->__--{{{--{-_-------{{^[^{]]{{---{{{{{{^{]]{--{{{--{-_---{----{--{_--{-{--{{-{-{{-----_-------{{{{--{--{{--{--{^%) @$@+==]|<<^^<^^^^^^^^<]]]{{{{-{]<[<<<^^<<^[1^^^]{{{{-{{-{{{--{{{{{-{{{{-{{{{{]]{{{---{{{{{{---{]{{{{{^]{{{{{{-------_--____---->___--_--_-{]^{{]]{-----_>--_----{]]{]{]{]]{{{{---___-_>>>_--_---_>{--_-_-_-{__>-^-;>>>--_--_-{{{]{{]-------_____-->_-_--____-@/=@$",
"@@.=>^]^{]]^^^]{{<]]]]{-{]]]]{{]]{{^^^^]]]{]]-{{{{---{{]]{{]]-{]{{{{--{-{{-{----{{_----{-{--^{{{-{{{{{-{{{{]{-->___>;%%##>&%&&&>&%&#%##;;>>>>---{{]--{-__-__--_][{^{{{-{-------{{{]{{{{-_-{{--{{_-{-^{_--{-{{__-{-----{-{{--{{{---{-_-------{-----{{--{{-{{$)*@&&.='^|<<<<<^^^^^^<<^]]]]-{{{{^[<[[^<<<<^1[^^^]]{---{{{{{---{{-]{-{{-{{{{{{{{]{{{{-{{{{{-{----]{{{{{]]]]{]{---__{-_----_----_-{________-{-]^{{{{{{---->-{---->-{{--{]{]]]{{{{----___->>__---{--__{---->_->-_>;[5_>>>>__-{-__{{{{{{{{-{{--_>_________-_-_>---./*$#",
"@. '><]]]]]]]]]{{^]]^]-{]{{]]{{]^{{{]^<]]^{{]{-{{{---{{]{{]{{{]]{{]-_--{{{]-{{-{^{--{{--{{_{^]^^{]]]]{{^{-{]{{->>-_>&%%$%&&>;&%&;&%%%#%;>__;>_---{{]]{{-_-_>>>_-{{--]{-{--___--{{{{]{{----{{{--{{-{]^{_----]{>_-{{{--{--{-_-{{{-----------{--------{-{-{-{{#)+$%#. *][<<<<<<^^^<^^<^]]]]{{{{{^[^[[<<[<[}1^^^]^^{-{{-{---{--{{--{-{-{]{{{{{{{{{{{-{{{-{{{{-----{]{{{{{{]{]{---------------------_>___----{{{{{{{{{-{-__-{---_---{-_-{{{^^{{{------___-_--___{----_-_-_-]_>__>>]]>_>>>__-{{-{{{{{{{{--{--_>___-__-->>___-----@(*##",
".@.,>[^]{]]]]{{{]^]]^]{{]]]^]{]]]]^{{<[^]^]-{^{{{{{--]]{{{{{{]{{{{{-_--{{{]{{{-{{{{-{{{{--{]]]{{{{{]^]]{]{-{{->>>__;&#$#&&;>;%&&&&%#&#%>>>_>>__>{{-{]{---->>>;__>-{---{--_>>--_-{{{{{{-----{{--{{--{]-{{---{---_-{{----{->--{{{{-{---_-{--{{---------{--{{{>,@@@@@ ,-<^<<<<<<<<^^^<^]]]]{-{{]<[[<<[[<<11^<^^]]{{{-^|-{-{{--{--{{---{]{{{{{]{]^{{{{-{{{{{--{---{]{{{-{-{{{{-------{---_{--------_>-------{{{{{{]{{{{]->_-----{{{{{---]{{{{{-{{---_-__----____--{__---_{^>--___;;_>>_>_----{{{{{{{{{_---_>>>__---->>>____-__{$3=%#",
"@@.=]<^{{]^]{{{{]^]]]]{{^^{]^]]{{{^]]^]^]{]{{]]{{{{{-{]--{]{{<]-{{{-_--^^-{--------{{{]{-{]{{{--]{{{{{{{{]-]]->>>>>>%#$&&%&&#%%&&&&###%_>>>_>__>{{___{---__>;;;__>_---{-_>>____{{{{---{-_-{]--------]<-{---{--__-{{{------_-{{{]{-{{-------{{---_-{---{{{--{,'.$$@*,-^^^^^<<^^<^^^^]]^{{{{{{^[[[<<|[<[[<<^^^^{{{{-{<---{{-{{-{--{{{{{{{{{{{{]]{^{---{{---{{{----{{{{]{-----{----------_--_-{{--___--_-_---{{{^{{{{-{{{{_>_-{{{{{--->-]-_{{_{{___----___-____-------_-_>___-_>>__;___-__----{]{-{]{_>>__>_>__>_-_>___>_____-@(=@%",
"$.**^^^^{{]]{{{{^^]]^{{]]]{{^^]{]]{{{{{]{{{-{{-]{-{{{{{{-{]]^^{{]{{-_{{-]{{{-------]{{{{]---]]--]{{{--{]---{-_>>;;>;##$##%&>####&&&#%&&;>__>>>>;>_--_{->_-_>;;;>>>;>-{--_>>>_>-{{{{---{{----{{------_]{_-----__-_------_--_----{{-{{{{------{--__-----{-----),.$$@ '-^^^]^<<^^<<^]]]]]]{-{]]<<<[[|[[[[<|[^^^]]{{{]{-{{{{--{{-{--{{---{{{-{{{{{{]{{-{--{----{-{---{-{{{----{{---_---_------{-----_____-_-{--{{{----{--{{{__-{{{{{-{___----_---__>____>>>>>>_--{_------_____-_>__>>>_-__----{{{{__-_->>>>_->>>>_-->>>>__>__>-@( @@",
"&$  ]^^<{{]]{{{^^]]^]{{]]]{{]]]]]^]{{{{{]{-{{{{{-{{{{-{]{-{]]--]{-----{--]]{{{-_--{{-{-{{-{{{{{---{]{-{-----__>>>>>;&#$#$&&>&##%%&&#%;%;>>_;;;;;&_-----___>;;&;;>>>>_------___-{-{{--{--{---]{{--{{-_>--{-----_------_-{-_-{-{{-----{{{--{--------_-_{{--{{{)=$@@. =-^{{{]^^]^<^]]]^^]]]{]]^<<[[[[<<[[<[<^^^]{{]]]{-{{{{-{{{-------]{-{{{{{]{{{{{{----{----{{{{--{{-{{{------------_----{{-------_-{-_-----{{-------]{{{---{]{{{{--->_--__---_--_--__--_--_-----{--_{{----____>>>>__>___-{{{{{{-_>>;>__-_>>>_-_>;;;>>>___>-#( #@",
"%&$+{<]{]]]]]{]^^^]]]{{{^]{{{]{{]]{^]{{{]{-{-{]--]{----{]{{{--{{{----------{{--------{---{]{-------{{]{------>>;;>>&%#$%$&&;&#$###&#&&;-_>>;;&;>%>__-{---__>&&;;;>>>---_-{{-__----{---{{--_-{]{-----------{{{--_-{--{_-{--__--{------{--{{{--{--__-_--{{{-{{,'....*,-^]{{]]]{]]]]]]]]{{]{{^|<[[<<<<<<<[<^^^{<]-{{]{-{{{{{]--{{--{---{{{{{{{{]]{--{{--{{{-{--{--{--{{{{{{--{--__------___{]---{-----<{_{--{--{{{{-_-_-{{--{--{{{{]{--__--_----___-{---_------_---{-__-{-{--___>_>>__>__------{]]{{{>&;_>-_;>>>>{]---{>>_>_>-+( $#",
"#%$ {^]]{]]^]^^{^^{{{{{{^]{-{]{]^{{]]{{{]{]{-]<^{{--{--]]{--{--------{{--------{-{{{{-----{{{__-----{]{{-----_>>>;&%##$$#$$%&%%%###$;;&-->>>>&%%>-__-{-_--_>;;;;;;>_-{{-------------{{---__--{{-{-_{------{-{]-_----{-_-{-__-_-{--{--{----{----_____{--{{-{-)'.@@@==]^]{{]]{^|^{]]]{{{{]]^^[[<<<<<^^^^^^^^]]]{{{{]]{_{--{-_-{{-{{-{--{{{{{{{{{{---{{-{{------------{-{----{--_--_----__---{-------{[[>->-{---]{----__-{--{{]]{]{{]{---------------_--____-__-------------_>_>>_>>>>____----{{]{{{{_;>>>-->>>;;>-^1}8[>>_>_{ (+$#",
"#$.={^]^]]]]]^]]<]{{{{]]{{{{{]]]{{^^]{]]]{]{{{]1]-{{-{]{{{{----_---{-----{----_-{{{{{--__-------{--]{{{{{--{--_;>>&%##@$#@$%##%#%#&#%%&-->>>>&#;]>;_------_>;;;;;>>_-{{-------__--__-^-____-------------{-__--_-----___>{]>_-{_-{-----{-----__{-_>_---{-{{{{*=@$@.*.^^]{]]{{^[]{]{{]]{{]]^<<[<<<^^^^<^]^]{]{{{{]{{{{-_--------]{--{{-{{-{-{{----{{------------_-{-------{--_----_-{--__----{------]|8{>__---{-{{{{{-_-{-{{{^]{]]{{{{---{{--{-_>-____--_-___--_-----------__>;_>>>___>___-{--{{{<<_{->>___>_>;_>&;-^|5^>__--$~ $$",
"%@ *{^^^]]]]]{]^^]{]]]]^]]]{{{]-{^^]]^]{^^{{{{-^]{-{{]]-{{{{----{]]{--{]{{-_--{---{{-{-__-{__{{-{{{-{{{{{{-{{-_>;;&#&#@$##$##$##$&>#&%>]>>>_>;&;-&&>>__--_->>;>;>>_-{{{----______>_--------_>__>-{--___--_--_____---_>___--__--{-__--_-----_-{--------{--{-{+=$@@.=.^^^{{{{]]{]{{{{{]]]]^^^^<^<^<<^^^^]^]]]{{{{{{{{-{---{{{{--{{{]{-{{{{--{]{--{{-_--------_----{{--{------^{----_---__---__-_---]^[5];__-]{{<]{{{{{__---{{{{]]]{{{{---{{{----___----------{--{-{-__>--__>_>>>__>{->_--_---{{{{-{--__>__>>>>>>>>>;>_-->>__>>)=@$",
"#@+ {^^]{{{^]{]^^]]]]]]]^^]{{{{{{{{{][]{]^{]{{{-]]{{{{{{{{-{-{{{]^]{{{]]{-----{-----{{-_---__{{-{{{-{{{{{{--{-_>;;%&&$$@$#$####&##&%&%;_>--_>>&&;&&;>__----_>>;{^>_{{{{---__>___>_-__---____>--_>-------_---->_-__-_----_-->_----_>__---_-----__{^---{{--{--*=@.@., ^]^{{]{]{{{]{-{^^]]^^^^^^^^^^^^^^^^^^^^]{{{--{{--{-{----{{{{{{]{{{-{{{]{{{{{{--------_------{{--{{-{---{---_--___>>--_-_-{___---------^{{^{{{{{{-{--]---{]]^]{{{----{{-----_{-----------------_->>>>>>;_>>_>>>>>_----_-{{{--_{-_>>_-____>>;__;>>;>____>>)'@@",
"$@ ,_<]]{{{]]]]]]{]]{{]{^^{]{{]{]]]{]]]{{-]{--{-{{{-{{{{----{{{]^]{{^^{{]{{{---__<^--___--{-----{{---{{-{-{---;>>;%%#%#$##$##%#%%$;&&&;{-___>;>>;%&>>>_---__>;;_-{->{{-----_>>___---_---__>>_--_>___{{___--___>--_-_--_____---_-__-_>_{]>_-{----{{-{{--{-{-- ,@$$@, ^^{<|{{{-{]^^{]<<^^^^^^^^^^<]]^<^^^^^^^^]]]{{{]]]{]]{{{-{{{{{{{{{---{{{{{{{{{-_------_--__-_-{--{--^{----_---__-->>>_-----_>_>_;;>>^[__---{]{{{{-{--{--{{]^]]]--{]---{--{{-_{--{{-{--------_---__>>>;>>>>__>>>>__-{{-{{----{{{-_;----___>;>>;>>;>_->__>&!,..",
"$$.~%|{{]^^^]{{]{{]{{-{{]^]{{{]{{^^]]]{]{-{-_-{{-{{-{----{{--{{^]]]]]^{{{{{{----_]|^_____-{---_-{{---{-{{--{_{]>>&&#$#$%&#@%##$$#;_&&%;]-_>>;&_-;%&&>_>____>>>>;;_>>-{-{->_-___--_----_--__--__-__---___---_____-__{-___>__-___-_--____----_--{{-_{-------__==#$@@*'^^^9[{]{]^^^^^^<[^]^^<^^^^^[^]]^^^^^^^^^^]{]]{]]]]]]]{{{{]]{]{{{{{{{{{{]]{{{{----_------{-_--{{---------{{-__>_-->>>----->___-___>>-{__---{{{]]{--{{{--{^{^]{]{{{]{--]{{---_-{{{{-{-_{----_____>>>>>>>;;>>>_>->_-__---____-{{{{_>_--_>__>>_>>>>___-____;!=.@",
"&$.)#|{{]^^]]{{]{]]]{--]{]^]{{{{{]{]]{{]^{---{{{{{{{{--{-{{--]<^{{<^{{-{{{{------__---___{-{--_-___--_-{-__--_-;;&&%#$@#&#$%%##@#>_%&#&>___>_->__&%&>_>_>__>_>_>&;>__--{->>>___----_-____-___->_---{-_--__--_-{_>_---_-__-__-___-->>___>{{-_---{{{-------{->,*@$#@ ']^<[-]]]^^<^^^^<[^]]^^^^^^^^<]]^^^^^^^^^^^{]]]]{]]]]{{{{{{{{{{{]{{]-{]{{]]]{{{{{-_--{{-{^{-{{-{-{-----------_>____>_----{---___-_>_-__---{--{{]{{-{]]-{{{{{^{{]]{{{{{{{-----------__------__>>_->>>>>>;;>>>_>___>__>->>_>--{{-{->>-_>__>_->;;>>_>>___-_>)=$$",
"#@.=_<{{^^]{{{]{{]{{]--{]{]]-{{{]{{{{-^^]]--{--{{--{----{{---{^]]]^^]]{----___----___--_--{-_---_>-__]]---_-->&&&;&&&$@$#&#%%##$#>;%;%&>_-_>{]___&%&>-____>>>>>>;>>______-_>>-_--______>_-__->>>_--------_--__-__--____-_-_>>____>__>>__----__-{{-{---{--{-_'=@.#@ ,-<]-]]]]]]^]^<<<<[<^^<^^^^^<<]]^^^]]^^^^^]{]^]]]]]]]{]{{{{{{{{{{{{{[<-{{{{]{{{{{{---{----------{-------{->_-_>_______-------_>-->>--__--{{_{{{{{]-{{]]---{{{]{{{]{{{{-_--{-{{------____-_____>__>>;>>;>_>;;>_>_____{->>_>{{{{{->>_>>_>;>_>>>>>>>>__>_->;)=@#",
"@...{^]]]]]{{{{-{{]{{-{{{{{---{]{{{{{]{<<{{---{----{{{----{--]^^]]{{]^{--_--_-----_>_-_-----__--__--_^^>--__-->&&>>;&$$%&&&###$@%;%%&&__---;{{_>>>#;_-__-__>;>>>>>>_--_----_>>--_---__>>-___>>--__----_---{--_--_-->_-_>_---_>>_>>__>>>>_--_-__-{{--------_;' @$@.=*]]{]]]]]]]]{]^[[[<<[<^^^^^^<<]]]^]]]^^^^]{]{{]^]{]{{{{{{{]{{{{{{{-{<^{{{{]{{{-{{--{---{{------{-----------___>>-->>-_--___{---->_-->>-----{{{{]]{{{--{----]{]]{{]{{{{{{--{---{{{{---_----___>>>>_;>>;;->;>>>>>-_-_-->>>>-{{--->;__>_>;;;>>>>>>>>>__>__>&,'@$",
"$#.*]^{{]]{]{-{{-{]]{{{{-{{---{{{{]{]]{[[-{--{{{-{{{{{---{---]^]]{]]]{{{-__-----------__>--________---__--__-__;;_>;>#@#>>%%#$@@#&%%&#_-_--&-->>&_;;__--___>>;>___>_-->-------___{{___>_>_>>>-_--__{--_------{->-->>_-__>_--_>____>>_>>>_--____--{{--_-{--_>,=$&#+,.<-]]]{]]{^]{{{^^<<<[<<^^^^^^^]]]]]]]]^^^^]]{{{]]]{{]{{{{{{{{{{{{{{{--]{{{]{{{-]{-{{---{]---{{-------------__>>>>__>_---_-__--___--->_--{{-{{{{{{]]{]{-]{_-]]{]]{{{-{{{]--{{{--<]-{{--{---_>>>>>_>;>>>_>__>>>>_>>>_____>>_-{>_->>>>_>&;;;;>>>>>>>>__>>_>;)'@$",
"%%.*{^]{]]{]]{{{{{{{]{-{{{{{-{{-{]]{{{{{{{--]{-]]{{------{----^]{{{{{{{{-_-__---{{--____>>___>____>_{_>__>>____>;__>&%#@%>&%#@@@$%&%&%;_>_>&___;;_;;;___>_-_>>;>>___-------{]__>__-->>>>>>>_-___-__-_---{->_---_-_-{-____>>>_______-_>>>>--_>_-_------__---&~'$%#@=,-]]{]]{{]]^]{{]^^<<^<<^^^^^^^^]^^]]]^]^]^^{{{{{{{]<^{]]{{{{{{{{{{{{{{{]]{{{]{{{-{{{-----------_-{--_-{---_-___>>__>_------{-_-__-_-_>>_-{{{-]]{]]{{{{{{{_{]]{]{{{--{]]--{_-{{-]^-{^--{{>__>>>>>>;>>>>_>>>>>>_-_>>-____>_>_{>>_-_>>>>&;&&&;>>>>>__>>__>>_,'.@",
"%#@ {^{{]]{{{]{{{--^^-{--{{{---{{{]{{{]]{{{{{{{{{{{-{{_-----_{^]{{{{{{{----___-{---__-____>___>>_>>---___>>>>>>>>___;&#%%&&##&%@$#%&>%#;>>>&>->;>>%&;____>_>>_>>>>--_----{-{{>--___>__>>>>>______>_-{-_-{-{-__--__--__>_->>___>>>>-->____-----_----__-__--->)'...@.'_]{{{]{{]{]{{{^^^^^]^^^^^^[^^^]^^]^^]^^^]{{]{{{^<|[{]]]{{]{]^{{{]]{{]{{]{{{^{{{{{-{---{------------___-_--__-_>_-_>___-------{_>--_-_>_-{-{{{{{]{]{{{{-{{-]]]{{{{{{]]{{]--{{{--]{-]{---__>>>>;;>>>>_>>>>-___--_>>>>____>>-->>>-_>>&;;&&&&&&&;>>>>>>>>_>-,,+@",
"&$. ]]]]{]{{]]]--{]^]{{{{-{{---{{{]]]{]{]]{{{{{-{-{{-{------{{{^{{{{{--{---__--{------_____>___>>>_-__-__-->;>>>__>__&&&&%#$&>&#@##&;##;_>;&->;&;;%&;>_>-_>>>>;>-__-->---{{-_---_____-___>-_>_---__--_-----_-{___-_-----_>>_>>>>>-_>>>>_____-___---_>>---{-_)'@@$.+=-{{{]{]^{]]{{^]^^^^]^^^^^^^]]]^]]^^]]]^^^]{]]{1}}1{{^]]]]^]]{{]{]]]{{]{{{{{{{{{{{-------{--{------__--_-_-----{>_>>___---__--_----__->_--{{{{{]{{]{]{{--]{{{]]{]]{{]{-]{-{-]^^]---{{---->>>;>;>_;;->;>>____{-_-->>>-_>___>__>;_>>&&;;;&;>>>;;&;>;>__>_>>!,+@",
"#@ *{]{]{]]]]]{-{^]{{{--{{{{---{{-{]]{{{]^{-]{{-]-{{{{-{---{{-{^]{---------------_-{--->_>_-__>__>_>_>-{-{->>;>>&__&;&&##%###%&%@@$%;&;;__;&_>;;>%$&;>__>>_>;;>__->-]___-{{__-_______--__-____--_--__--_>--________>>-_>____>>>_>>_>>_>>__-___>_-_>>>>_--{-_,'..@$ =-{-{]{{^]]]{{]]^^]^^]^]]<^{^]]]]]]{]^]]^^]]{{[95}^{]]]]]]^]]]{{{{{{]]{{]]{{{{{{{{{{{{---{-{-----{-__-_--_----_-_>>>___----__----_--_--_>-{{-{^{{{{{{{{{{{^{{]{{{]{{{{-{{{{{{{[|----{---_>;;;;;_>>_-_>>_>>>_--___>>>_>>_-->>>>--;;&;;;;;>_>__;;;;;>__>>_>!,.+",
"@$.={]^^{]^^{{-{]]]{-{_^<---------{{{]]{{]]{{{{--{{{{{{{]{-{{{-{]---{--------_--__-----_>__-___--_{{_--{--->->;;>>>>_;&%#$#%$@##%%&%;&;;_>>%>->>;%$&>_>-_>>>>>>>>_{{-{-----_-_-______-----__>__>>-{-__-->-{_>___->_-__>>>>->>_>>_>>--_-_>--__--{-_>>>____->-*)...$ ,{{--{]]{]{{{{{^]^^^]]<^]]{]]]{]^{{{{]]]^]]]{{[941{^]{{]]]]^^]]{{{{{^]]{]]]{{{{{{{{{{{{{{-{---{{----___------_>>_____-----__------_-{-__--{{--]{---]{{]{{-^]{{{]]]{{-{]]]]{{]{{]{---{{--__;;;;>;>>_--{_>>>>--___>_>;;>--__>>>_->>_->&>>>>>___>;;;>>_>>_>-*,..",
"$$. {^^^{]]]]-{]^]{{{{-^<{-------{]]]^]]{]]]{{{--{{{{]]{{{{{{{{-{{-{{-----{-__-___--_-->>__>__--__-{{-----_;;>&>>>>;>>&%%$$#$##$#;;%;&&>->;&>{_>;%#&;>_-->>>;>>>;_---{-{-----___--____-->_-_>__>>_-{-_--{--->_>_--____>>;_-_>>_>___-_>_->_--------_>>__->>>_*, ...+,>--{{{]]]]{{]]]]]^^^]^^]]]]{^^{{{{]{{{]]]]{]{^59[{^]{{]]{]^]]]]{{{{]^]]{]]{{{{{{{{{{{]{{{{---{---------_---_______-_--{--------_-><|>___-{{]{{{---]]{{{{-{]{{{]{{{---{{{{{{{]{{{{----{{_>&&;>>;__>_-{{>>>_----_>>>>>>_--___>>>-_>__;>>>>-_>>>;>>>>>>>_;_ ,+.",
"$.+ _[^<^{]{_<|_-{{-{{{--{{-{---_-{^]]]]]{-{]{]{{{]{{]{{{{{-{{{{-{]]-{{--{-_--__-__-___>>_-_-___--__--_____>;;;>>;>>>;&&##$.@%%$%;%&;%&;>_;%_->>>&#&;>_-__>;&&&>>__-{----_-____---{-_>-->_-_>--_------__{---__>____>>_>;>----->__-____>__>>_----__-_>>_>__;-*,++++ )@{-{]]]]]]{]]{^{{^]]^{{]{{]{]^]{]{{{{{{{{]]]{^51]]^]{^]{]]{{^^{]]{{{]{]]{{{-{{-{{{-{{---{-{------{---_----____>__>>---{------___--]{-_>>_--{{------{{{{{{-{]{]]]]{---{{{{{{{]-{------{{>;>;>>>>>>>_----_>___-__>>>>>>_>_->;>>>>>__>>;&>->;>>;;>>>>>___;_*,.+",
"@$@)#[{^[]{--^^-{{{{{{--{{{--{{---{]{{{^{-{]]-{{{---{{{{{{-{{{{{{-]^]---{{---_---_--___>>_-----__-->>-__-->-_>_>>;;>&&&&#%#@$$&%#%#&>&&;>>&#>_&;->#&;>___>;;;&;;___--_--_----_-->_{---_>_-_--_-----__--_;_-_-_;>>>->>>>>___>-->>->__>>>>>___-_-{-__>;>>>-_>_=)..++ ~@^{]^]]]]]{{]{]{]]]]^]]{{{]]{{]{]{{{{]]{]]]{{[|{{]^^]]]{{{{]^1|{{{]]{{]]{{^<-{-{-]]{{-_--_-{{--------_-{---___>__>_--____{]_-__-_-_>{_>>_-{{--{--{---{{{{{-]]^]]]{--{{{{{{{]{]{{-__---_>>_>;_>>____{{_____-->>___>>>_>>_->;>>&;___>;;>_>>>;>>;;>>>_>>_>_*=++",
"@##).|{^<]-{]{{]{{{{{{-{-{{]{-----{{^]]]{{{]]{--{]{---{{{{]{{{{-{{{]]{-{{{_---------__--_---_____-_>>>__-_--_-___>;;>%%%#$##%&%%$%%#%&;>;;>&>;%;]>%&>_>-_;>;&&>_>---___--------_------>__>-->_-___----{-_-_-{>>______>;>_>___-_-_-->>>>>>-___--_-_>>>>>>>_>- ,+.+.+(@[{]^]]{{]{{{]]{]]]{]^^{]{{]{{{{{]{{{]^]]{{{^|]{]]]^]{{]{{]]{]1}^-]]{{]]]{-}}--{-{{{------_-{---------{----_>>_>>>__-_---_--->_->_-___>>__----{------{]{{{-{^{]]{---{--{{-{{]]{{---____>>_>>-_>_-_----_>>_-->>_->>>_>;-_>_;;>;;>>>>;>_>;>>&;_>;>>>>>>>;_*'. ",
".$#,$1]-[}--{{{{--{{{--{{--<^------{]]^{{{{]]{{{{]{-{{{{{-]{{{]]{{{]]^]{-{-_-----{-__--___----____>>___-_--____-_>>;&&%#%#$#%%##%;##&#;>;;;;;&&>-&%&>_>>>>->&%&_------_--_{-_-_-------_->>_>>_>-__-{---_---____--_>__>_>__--_-_-_-_>_>;>___>>___-_>>>-_>>>>_', +.. (@[{]]]{{]{{]]]]{{]]{]]]]]]{]]{{{]]]]]]]{{{{{^^{]]^]]{{{]]{]]]{{^}[_{{{^]^]{^1{-----{--]^--{_-{-----{-----_>>->>>__>_----_-_____-___>_>>>>--_---{{--{{{{]{{{-]]]]--{{---{{{]{]{{----__>_>>_>-->;>]__{->-->->>>__>>>_>;__>>>>>;;;&;>&>>&>;>>;;>;;>>>>>>>>;!'$@",
".@.'_[]{[1{{{{{{{-{]{{{-{{{]{{{-{{{{{]{{]-]]{]]]{{{{{{{{{{{{{]{]]]{]]]]{------_-{--__-_>_>____-_-____-----__>_--->>&%&&#%#@@@$#%;;%&>>;;>>;&;&&;;&&>__>>___>;;;_-__--___-_>___-{----------_>_>>------{-__{-___--___>>-_>>_{--_-_>>>>>>>>__->>>____>>>--_>>__!, +..+!@]{]]]{{{]]]{{]]{{]^]{{]]{{]^]]]]]^^^]]]{]]{]]]]]]]]{{{{{]{{]]]{{}|{{{]{{^^{-{{{-{{{{{{{-{{--------------__-_>________-___-----_--__-_->_--------{{{-{]{{-<<{]{{{-{{--{{{{{^^{----_-->;;>__]-;;>--_{]_--->>>>_->_>_;;_>;;>>;>;&;;;;;&;;;>;>>>;>>>>>>>>;>~'.@",
"..=+<]{{-{]--{{]{{{{{{]{-{{{{{{-{]{-{]{{{{{]{]{{]]{{{{{{-]]{]^]]]]]]]{--{-_{---_{----___>>_>>__-___>__-__->-_>--_>>;&&%###@@$$$#%&&&>_>>__>;>;%&;&&----___>>;>>>>__-_---_---_---{---__------->>_{---{{{----_____--_>>_>->--__--_>_>_>-_>____>______>>>____-%~'++ ++!@]{]]][^-]{^<{]]{{^]{]]]{{{{{^]^^^^^]^]]^^]^{{]]]]]{{{{{{{{]]]{{{{[]{]{{{^]]]]{{{{{{{{{---------_-------_-_>>>-___--__--___----__--_--->-{---{---{--{{{{{-]<{]]{-{{{-_-{-{{]{{{{----_>>>_>_]_>>;>--_--__-_>>_>->__;__;>>>>>;>;;&%&;&&;;;;;>>;;_>>>>>>>>&~,+@",
".@ $|^]{{{{---{{{{]{{{]{{]{]^^{{{-{{]{{-{{{]]{{{{^]]]]]{{{]]]]^{{]{]{--{]{{{--{-_-__--_-__-_>__]_>>>_>>-_>___>-->>>>_&%%%##$$$$@#->%&>>>_>-_>;&;>;>-{--_>>>;>;&>>__-___-_--------_-{------{--{-_-{{-_-__-_----__--___>_{-__-_-__-_>--_>__-_-_>--___-______{@3=+++.=,>{{^]{<^{{{{^{{{{{]{]{]{{{{{{]]^^^^^^^]]^^]^]{]]]]{{{{{{{{{]]^]]]{{]]]{{]]]]{{{{{-{{{{{{{-{{--_-^{---{{-_-_>>>_______--_->----_>---__-------{{{--{-{^{{]{{{-]]]{{{{{{__-{{{-{{^{---___>_->-{>_>;>>----{_-{_>>__>>_>>>;;>;;_>;;>&%;>;;>;;;;;;;>;;>;>>>>_&(,+.",
"@$.$|^]]{-{{-{{{{{]{]]]]{^]]^]]^]-]]-]]-{{{]]]^]]^^]]]{]]{]]{^]{{]{-{--]]]{{--{{{{__--_--_____>>__>_-_----_>_>-_>>>>>;&&###@$$$@%&;&&;_-___>>>;>;>-__-__>__;>>;>>_-_-{--[{_-{--------_-__------__-{--______----_>___-_--{---{-___>____-____-__--____-___--{#(=+ ++=,{{]^]]-{{{-{{{{{{{{]]]{{{-[[{^]]^^^^^^]]]]^^^]{{{{]]{{{{{{{{]^^]{]]]]]{]^{]]{{^{{{]{{{]{{{{{_---[]_----_--_>>-{____-_-{_-___---_--_{{_---_{{{--{{{{{{]{]{{{{]{{{-{{{{---{{{{{^]{{{-__-___>]{__>;>------_-{---->_>>>;>;>;>>;>>;&&>>__>>>;;>>&>>;>;;>>>>>-))  ",
"$#+#|{{]{{{{{{{{{{]]]^^^^]{]]]^^{{]{-{{]]]{]]{]{^^]]]{{]^]]]]]]]{{{{-{{{{{--{{{{]{{--_>___>>_-_--_--_--_---___-____>&&&###@@##$$%#&>>>_---_>>>>_>>>>_---_--_;;;;_----{{-{{_----{------{{-_-{{--------_-{-_---_--__{-__--__-->--_--__--__--____--_{-__--_--_>,,++ + '_{{{]]{{-{]{{]{{]]{{]]{{{{^^{]]]^^]^^]]^]]^^^]]]{]]]{{{{{{{{]]^]]]]{{]]]]]]]]]]{]{]{{{]]]{{{----_---___-____>--_-_____---___----_--{-__-{--{-{{{-{-{{]]]]{{]{{{{---{{-_-{-{{]]{{]-______>_^{_____--_-__{----{>;>>;>>>>>>>_>>>;;>>>_>;&;;;;;>;;>>;>>->>&_ !+*",
"@$.$<{]]]{{{{{{]]]]]]]]]^]{{]^^]{{^]]]-{^^{{{]]^^^^[{]^{]{{^^{{]^{{{----{^---{{^]{]{---__>>>__--___-_>--_--__-_--___&%&###@$%&%##%>>____---_>>__>-;>-_-----_>>>>>>>--_{{__-----{-{-----]{------_---_--{{{{----_-_>___--_----__--___-_-________----_>___--_>-*)++ ++'>{{{{]{{-{]{]]{{^^{{{]{{{]{-{{^[^]]]^]]]]]^^^^]{{1<{{{{{{]]{{]]^]{{]{{]]]]]{]^]^]{]{{{{]]]{{{---_-----_-_>>_>>>_>_->__--__>-{--{_-{__-_-------{{{--{]{{{{]]{]]{{{{{{{----{-{]{{]--__-___>-]----__--___----->>>;>>>;>;&&;>>>>;>>>>_>>;&;;;;>>{_;>;;>_>>&{#!.=",
"$@ ={^^]{]{-{]{]^]^]]{-{]{]{{]]]]^{]^]]{{]{-{]{]{]][]^^]{{]^^{-{]{{{{-_-{{{----{{{]{--{--_>__>--___>_>>_-->__-{__-_>{;%###$$###%;&>__->-_-__>_>__>>---_---__->>>;;>------_--{]---------------{{_--_-___>-{-------_>>-_----_--_->__--__--_>_--___>_>_-_--___- , ** ')_{{{{{{{{{{{]{{]{{{{{{{{{{{{{-]8<{]]^]{{]^^^^^]{{^^{{{{{{{]]{]^]]{{{{]{{]]-{]^]^^]]{{-{]]]]{------_---______>>>>>_>>-___>_>_-_--_-__-__--{{-{---]{--{{]{{{]{]{{{]{{{{{---{{{{{{{--_>_>___{{>--___-->-__--->;;;>>>>;;&&&;;>_>;_>>>>;;;;&;&&>;-_;;>>;&>>&{$~ @",
"@.*'-^^]{{{{{{{]{{{{]{{{]]]{-{]{]]{]^^]{-{{]]{{{{-{-{{{{{]]{{{---{---{{--{{{-------------_>>--__>>________-___--_-->]_##$$##$#$#;__>__>>_-->>_>>>;>->-----_-->>>;>;>-_-__-_-{{--------_------{{---_--_____-{{_--->_-__--->____>_->-_____>____>>>-________-__*'  * ')-{--{{{{{{{{{{{{{{{{-{{{{{{{{{-{]{]]{]]{{]]]^]]{{{{]]{{{--]{{]]{]{{{{{]]{{{-{]^^^^{]]--]]{{{------__---_-__>>>>>__>>_>>--____-_-|->_-----{{--{-{-----{{{{]{{{--{{--{]{{{--{{{{--{_>__>__>^{>---__-_>>>>_-_;;;;>>>;;>>>>&_>>>>>>>>>>&&;&&;>;&&;;&;>;>>;;{.~.@",
"$@+*{^]{]{{{{{--{{{]]]{{{]{{{-{{{-{]]^]{]{|[{-{]{{{{{{]]]]{{--{---{--{{--{{--------------__>-{>>__>___-{-------__--_%%#%#@$$#####;____>;_--_>>_>>>&>_-_-{_--___>;>>>>{->>__---{--{-----_-----------{{-__>>{{-______-{{_--__>>___->-____>>____>___>_>_____->- )   +=)_---{{{{{{{{{{-{{{{{{{{{]{{{{{{-{{]^]]]]]]]]]^]{{{{]{{{{{{{]^]{{]{{{]{{{{{{-{^^^^]{]]{{{{]{{{-------__---_>>>>>__>>>____-___--_{<>>-----{{----{{{----{{{{]{{{{-{-{{]]{{-{{{{{{--_>_->>->>]-_-_>{{___>>__-_&;;;>;;;&>>;&&>>;;;>;>>>;&>>&%>;&;;>>>;;>>>>%-&,@+",
"@+.@{^]{{{{-{]{{]]]{{]{]^{{{{-{^{-{{{{-]^^[<]{{{{^{{{]]{]{-{{{]{{{{]]{{{{--{{---{------{---_>_--_>___----{---------_&&##$$$$###&#&;>->;>>_>>>>__-;&>_>---_---____>;>>]{_-_--{{-{-{-{----{-__-{-{--{{-{{_>]]---_>____{-{-_-_-__-->----______________-__-___>_*,.+ +=)>{-{{]{{{{{]]]{{{{{{]{]]{{{{{{{{{]]]]]]]^^^^^^^]]^^{{{{{{{{{^]]{{]]]{]]{{{{{]^^^{{^]]{]{-{]{{{{{-----_----_>_>>--______>___----->_---{-{{{{--_{{{--{{-{{{{{{-{{{{{{]]]{]{{{{{--->___>>>>_-;>>_-{{_>__>_---_;;>;>>>;>>>>>;>_>>>;;>_;;>;&^>&>>;;>>>>>>;;#{&'.#",
"+@@#{]^^]{{{]]{]]{{{{]]]^]{{{{^^{{]]-]{{^^{]]]]{]{{]{^^{]{-{]^{{{{]]]{]^]{]]--{{]{{{-----{{-_---_>_-_--{{-]-__---{{-;###@##@#####%&&&&>>>>>>>>>__>;>-____----{--->;_--{{-----{{{-{{----{{--{----{-{{{]{_^}]_-{_--_{->_--{-_------{-_-__-__---______--__-__>_,=.+ + =-{{{{]{{{]]]]]]{]{{]]{]]{{{]{{{{{]]]]^^^^^^^^^^^^<^{{{{{]]]{]^]]]{]]]]^{{{-]]]<^{{]{]{]{{{{{{{{----_----_{->___--___-___--__----_--__{{{{{-{{_-]{{{{<]{{{]{]{-{{{{-{{{{]]{{-{-{-_--____>-{&;_---_>>-__>-]{->>>;>>>;;>_>-_>>>_>;;>;;>>%<[&>>&&&;;;;>>;&#^&) @",
".#.,{]{]]{{{{{^]{{{]{]{{]]{--{]]]]{{-{{{]]]]^]{]]{{{--{]]^]{{{]]{{{]]]^<^]{---{{{{-------{{{{--_>--__--{{---__---{->&##$####%&%$###&%%&;;&;>&&;>&&&%{{;>>_---]{-->;_--{{-------{{-----_>_---------------|<_-{{{-_--{--_--{---------_>>>___--____--_--____>->~*++++@ >{-{{{{]]]]{]^]{]]]]]{]]{{{{{{{]]]{{{]]^^^^^^^^^^^]{{{{{{{]]]]{{^]]^]{{{{{{^{-]{{{-{{{]]{{{{{{-{---_-{----_----___>_--_-____----_>__---{{{{--__{{]]{^^-{]{{{{-{]{{--{{{{{{---____>>>>>_;->%;>_>>>;>_>>_-{->>>;;;>>>;_->__>>__>>;;&&;;>{>>>>;;;;>;;;&%%&[=)@@",
"@+=/%|{--{--{{{{{--{]^{{^^]{_-{]{{---_-{--{{]{{{{{{{-----]]{-{{{^]{-{{]]^^]{{_-{{{__-{]{-----{--_>;>_>-{-__>;>----{{_>-____-_--_>&>>-{--__-_>>___>--&;----{{-__-_;&>>>_____----{{{{{-->>>>__---------__{^-_{____-----{-{----_____>_>;;>>_---_>________>>>;<*c,++   ~#[_-----{-{]]]]]^^^]^]{{{{{{{--{^{{{{{]^<<<<^^^^^]{{-{{{{]{{^^]{{{{]^^^^^{{{->>--{^]-{{^^{{^]--__>-->_>_-__>___>__>>>___>;>____-->>>;>_-_---{---{]{-__-{-_-------{---------{->>>;;;>>-{__>>---{{{]{;;>;>>-_>>>>>_->__---_>___>;&%%&;;;&&>;;>;%&;;&&&%#^_:) =",
".  ,~&^{----{--_{^{]>&%;;;&_--{{----_-_--][^-^<{{{--------{{---->{{----&%.@&;>&%&&->&$.##&{{{&%%#;>>%>;;->>>_>#%#%%@ ''*===),,,===,'..#&-<<^^[]%... ,*.++.#%;____-]^]{{{]{{-_%$$#####$%----{>%##%###$#$.= .@>->#$$#$@.+@#$>___-->;;&;;;>>>>__>>_>;>__>;>>_#02,=*=*,()-^^^]^[[^{;&&#&&&&&%;{{__-_>_-_>_--__{>&;>>>>;&&;-{-_-{--{>#%&---_#@###%%#%%%_-{>;%&%##%&&%%>_>>>%;>;>>_>_>>>>_>_{{-_>>>;;>&;;>-----{{{]]{_&&&%&&_{^[[<]{----__--_-_>_&#&&%#&-_>>>##&$ +%&>{{_&#@ =,,''*++ =@#+* ' .$$$@@@$%>>_--->;;;&%;&#&>;>>>>>;>_!2,*'",
"$@@+,=@.@.  .++*.#@+=,),''= +@@  + +  +  #&#+#%.@@+ .@@@+ * + ..=+$.*+  ,(),=+',,=.,)~/)'** @*'),===,=,'====.=!)'',!~!~///~(~(/~/!~~((~)* .+.+=)!~3/)!~~~~~)* *.+.$$&&##%%@*=*,)'=),,''=++ +=,,),=)))),~((~/)''=,'',~~)',, . .  ='),=*=,=*  ..  *'='*   **)()*+ *  ,, @#&>>-{_.===)'' *'==  =  == .     =* ',=@.+ === +..+ +++@ ,,=@.++ ),)!'==== .* *,)*=,,,==,*.*= =)==,*..   **==* .&@=+*,',,''=**...@###&%@+ =*= +**@#>;%$@.  *+.  +.*==**=,== ====,),!/~,*+@+==,((!/~,~/~~/()!/(3((!)))!~!,''*... ==,',))'),='==*=,,'),= + ",
"#@$%###$@.++@.+@$.+ @@. +@@@...@@ ++  $.+$@@#@$$@.@++$$@$@...+@@  #$@++$+ .... +....*   .$++@.. ..   *+  .+.+   .@+.++*     +.++++.... .#..@.@@...+++ .@.+ +##+.@@@@.$$@@@@  @.+.$.$%@...@@++   .$.+..$.$@='','@#$.+ +%. $@#&@*==',='+.  $$@@@.@+**=*+@#$@##..++..$@@$@.#;%##@@$. + +@@$$@+.+$..+.@.@..@+.+=*@;&@@$$.@@@#..@@$$@@+%#@@.$.... +@@... @@ ++.@#....##.++++++ @@@@@. +. ++*.@.@+==*  *..*  +++#%@..@. .$%$+@#$@.+.#@+ .#@$$.@.+.$.+@$.+= ..+.. +@$%%;#.@@ ==+.+* * . * ..* **+.  @....+ *=*.+**====*='=*+* +* .$#@@@",
"%%&;&&>;@@&$.$#;&@%%%&%$$$$##$$%&$.@@$&##&%%;>;&#$#$@#&%##%#@#@@$$$&&&$@@$@##@@$%#$$$$$.$$&####$@$%#@@$$#&%@@@@$$#$@@..$@..@@#@.@$$$#$#%%%&&#&;#$@#@@&#$###$%&%$#&&;&;_>##%###$$##$#>%%%#;%.@..$$%%###%#&&@.+= %;#$@@@#$#%&_-%.  *   .$@.#>%@$%##%. +.$$;>>;#@@@@@$&##;-->-_&#>&$.@$#$#&&&#@@#%%&%##%#$$$%%@$$;;&;&&##&&&##%;_>###&&&#$##@&#@@$##@#&&##&$#;;#$@##%%#####@%;$$&&$$#####@$&;##@ .@@##@.@%&#$>_##$$@@$%;##;->##$>-%###&;&%&###%#####$@.@%&%####&&&_->#@$#**$>$@#$@@@.@@$@@@#%$@$%##%&@$$+..##.+@.+$@..@#++@@#;;>&$@",
">>&%%&__&##$.@&&##&&#%$#%@@@$$@###@..@$$##$>;#&&##$@..##@#%%$@.@@..#%%@+.@..$#$#@@@..$#.@$&$@$#$@@#$$%$$#$@$$+@%>$....@@...@@+.++@$#@#&%#%%&%%&#$$$#$%&@@@$$@&&$%&#%;_>%####%%.@$$@@#&&%#>& +.@$$$##$#$$#.@. * &%@@@@.@$$$###$.*=   ++..++@+.$$@$@++ +@.@>;$$$#$$@@#$$;{>%%#%&#@..@$@@#&&%$.$#$@%%$#%#@@@#;&%##&>_&$%%>>#%%$&;#@@##$&#@#@$@@.$&@@@$#@@%%$$#$@..$@@&&@$$@@&%@@$%&@$$@#%$#&##%@*++.%#.@.@#%#%%###@@$#$$;##&%##$&;%##$#>%$$#%&>%##$.@.@$@#&%#%###%;#%$+@@ +.%####$@.@..@@@@%%@@@$@$&&@.+   +.....@@@$.@.@++@$>_#%#@",
"#@=* + ..*=','.=)  =*==*@ ),=*=,=*==,'=''',*=)*+=* *=,)',= * *,','='=)' =,),=*.+,'=',),=)'''=,)',))'= *=)!'*)),  '==''==*,~)' .+.$@+,=$@ * ....@ *='='==,!,''** =+@.+..*=====+*,',),+.+  @ ))'*====',==**!,)~)==' ='*=))==*=  '=')=,)),,!~/~)='==,))~)),,.+==*=''','='*+  ))* ,)),,,,' @+ =),+*),===*=),*. +  *  **=  +@++ ==**='=+** **=)),)=+ =,,))'',,*=),,====,*'*=,'= ',''==,,'','===!,==..@@+* += .++ *++= =* * +.++**+  #.== ++=,+ *+$+  =*'= '*..  ...$+,~'',)=!) +*+*''='=',''===='====+.,~)'='!!)'===,,''',',* ==.+=='",
"..#;;;%&####$$$##%#$&% *',)!))!~,)(~,)!,*+&%%%..'!)/(//!!))!/(a:3:a:(:!~333(//~/2a23!''=@$$&;$$#=',===.#.@.'**=#@#>;&;&;>; d( ++++=:=-{^;%&;;>>>>#@.@..#@+.@$$$%#>__>&;&$@.$#.*=*=+$;&&&&;##@*)3:33!'' . ',@#$+/02a)==+@##%&__%&&@#$=* =,='),,= ,)(~~~~!,=))!(/,~~!~)=== .$$##+,,,!~!)!=.+ ''**='**=*''= @%&@  ,!)'    .$@ + ')((3!==.+. ===='))/3(!= *=' =)!~),,)().  ==**'''',*.@$@@@@$#@33=*  *=)~~~= ' .@+,'**'=,=.###+.%$@$=)' ')'==  ++ *)!~!'))'*'=...@@=(/+>>__#$;;&;.,/(3(~)* *=*  *)'+..$@&>>&@@@$..*=*='!/~~, =!, ,))",
"--^<<^^^^^^]]]{]^]{{]{--;>>>>&&;;;$.>->>-]<<<<-]{_>#@#;;;&&&@ .=),=.$@%..@$%%#. * .$&;;;-----{-_>>>;;&_{--_;__>__------{{{[ a, *==~(]<>__----{{{]{{{-{{{{{{]]]]{]]{{{{--{{{{{{---_{---_-{--{-_&$@.#;;&>>;_;>{->%@..%>&_--{---_{--{{]-----______->;&;;;>>_;;;;@#>&;;;;>_-_-^]{{->_>&&;>;>----_>_-__-_->>__-]]{-_>>>_{{-{{]{---{;@##%---{{{{{{{->%#%_-{>______>>>>>>>>-----_>>--_>>-{{{{{{{-[#0!''=',/: ;{]{{<<]{-{{---{^^^^^^<<^]-_-]{----{^]{{]>&%;--_----{{]<]]-]<[[|<^<^^^^]-&#$#&-------{->-]{{^^]]]^^^^^]{----_>;>>>-_;;>_-_",
"_>>____----_>_____>>>>>;;&&&;&&;&&&%&>&##&######%&&;%######&;>_;&&;>%%##&;;>&%&;>>_;%######%%%##%%%%%&&&&%%&&%%%#%&&%&&&;&;^!~=* .,*];_>>>>>>_____-____--------_------_>>>>>>__>__;&;>>>>>;&%%;>;&#@.@@@@$$.+#%#;;;#$%%&;>>>;>>>>>>___---_----__>>>>>>>>>>>>>_-_>>>__>>_>>>>;>>>>>>__---____->>>>__-_>>____-------{-{{{{{--__-{]]]{---------___-{{_>&&&&;&;>--->_-{-__-_>>_--_______>>__>>>]'~+. *,3 <^<^^^^]^^^^^]{^^<^]^^^^^]]^^^<^^]]]]^^^^^<[^]]]]]]]{{{^]^<[<{_{]{--_---{{^^^^^{{{{{{{-{{{{{{-{{-{--{{-{---->;;;;>;%%##%&&%",
"->_------{--------]-_-_>>;;&%&&&;&%%%%&&&&&&&;&%%##%##%#%&%%&%#$#$@@@.@@@@#$@.$#%##%%%%&;&&>;&&&&&%&%;>;>;&;;%&&]_&;;>>;>>%{ ,+ @@,#^_-_-_>__>>_-----_------{-{{---{{--->___--_>>>-]{>>>>_>>&%%#$@@@@@@@%%$#.%>%#@$##%;;>>>>_>>_____>>____--___-_>>>>>>>__>>_>---________-_______>--_-----__-_____--____-------{---{{{{{{{--__-------{{---{{-_____>>>>>>>>_---__--{{--_--__--__-________>_;^&!@.  =!&<]^^^^^^^]^^]]{^^]^^^^^^^^^]^^^]{]]]]^^^^^]]]{{{{]]]{]]]^<<^]{{{{{{{--]{--{{{--]{{]{-{{--{----{1^-{{-{{{--{-->>;;;&&#######",
"--{{{--{-----{{_--{---_>>__>;>;&;&&;&&>>>>>>>>;>;;;>>>;;;&;>>&&%##%#$@$$$%&##$;&@#&&&;&&>&;_;;;&&&&&&>>;>;;&;&&;->;>;_->>_&-+,+ ..*$]------__-_-_----{--{-{{--{{-{{{{{-------{{^[|[^_>>>-_>>&&&&%#$#$@##%&$..$%%&%###&>>;>_>>__>__--_____-_--_---_>>{{_--_----------------{{-____--_-{-_------------___--------{--{{{{]^]{]{-{{{{{{{{{{{{-{{{{---_-{-_-___--{{---{{{{{----{-------__--__{_;]%,++ + !%[^^^<]^^<^]]^<]]^]^^^<<<^^^]]<<]]]^^^^^^^]]^^^{{]^^]^^]]^[<^{{{{{{]{-{]{{]]{--]]{{]]-{{{{{{{{{-^|{{]{{{{{{{{--_>>;&&#%%%%%%",
"-_-{{--{-----{{{--_-{->>>__>>>>;>;&;;>__>>>>-_>>>>>>>_]>>>__>;;;&%%####&&;&&&#%&#&&&&;&%&&>>>>>;&&;;;;>>;;;;;;&&&&>;>>>>;>&>)! @@.+'---__-->-{-__----{{-{----]{---{{{{----__{[}}|]_>>>____>>&%&%%#@$@@##%%$@$##$&;%##;>>;&__>>____-__--_-_>>--------_--___-__-{-_------------____---{----{----{-----___------{{-{{{{]]{{]{]{{{---{{{]{---{--{{{----{---_--_-{{----{-------{----_-----_---->_+=.+*+ !$[^^]]^^^^^]]^^^^<^^^^^^<<^]^^<<^]]]^^^^^^^^]^{]]{]]^^^^]^<^{{{{{{{{{{{--{]]--{{{]{{{{{{{{{-]{{{-{]{{{{{{{-{]-_>>>_>%#%%%##%",
"_;_{{------------_>-{-_>___-__>>_>>>>__>>__--_>>>_>>>_-_>-{_>>;;;;%$$#&;;;&;&##&%&&&&&&%%&>>_>;&&;&&&&>>>>>;&&%;>;;;>>>>>;>$(,.. .==--__--__---__---__------{{----------__{[}1<{>>__>>_-__>;&&&##@@$@$$@$@@##%##&&&%%&>>;;>_-;_-__----__->>_>-----{{_____->>__-_-------{--____>----_-------------___--->---{-{{-{{{{]{{{{]{{---]^{{{{{{-{{--_---------___-_--{{--{{-----__---------__-______,'.+  *,&<]]]]^^]^^]]]]^^^^^^^^^^<^]^<^]^^^]^^^^^<^^]]^]^{{^^]]]{]]{]]{{{{{{{{{-{{{{-{]{{{{{{{-{{{--{{-{{-{{{{{{{{{{--->>>_>###%####",
"->-{{{--_-------__>-{--_-__----_>>>>>>__>____>__-_>>-->>>_>_>>;>>>%$#%&;&&;_&#&&#%&;&&&&%&>_->;&&;;&&&>>__>>;&&>&&&;>>>>>;-@/=+  += -_>>-___>_----__--_>_---{--{{------_{[}1^->_--_>-_>__>_;&&%%#$$@$$$@@@$###%#&#&;&&>>-->>_>___----___>_{{___-{--{{-_--->>_--_---------____>]-_-____--------_--___--__---{---{{-{]{{{{]]]]--{[[{{{{{{-{{--__>-------______-{{-{--]{----__--_-{-_-___-_>_--),    +)%<]^^^^]]^^^]^^^]]^]]^^<^^^^^^^^^^^^^^^<<<^]]{{]{{^^]^]{{{{{{{{{-{{{-{-{]{{-{]{{{--{{{{{{--------{{-------{{--__>>;&%##%####",
"---]]{{-------{-_-__-{---------{->>>>>_>__>>__-__>>_--_>____>>>_;&;##%&;&&>>&#;;#%&&;&&&&;_--_>>;&&%;>>>>>__;;;&&&;;;>_-&;>&!' +++==-_>>_____-_--___-->_-_-{----------]|}[]_>__-----_{-____;&%&&%#$@$@#$@@$#%%&&%&&%>>>__>>_>>>>>___{-->>_]]>_-----{{-_-___>_-__-_{{__-{--___--__-_--_--{-----_--______-----{{{{{{{]{{{{{]{{{-{{-{{{]{{-------_----------_-----{-{-[<_------------{-__--__-_!)** . ~#<^^^]]{]]]^]]^]]^<^]]]^^^^^^^^^^^^^^^^^^<^^]{{]]]^]^^{{]{{{{{{{{-{{{{{{{--{]{-{-{{{{{{{{-{{-{{{-{{----{-{{----_>>>&########",
"---{{{-{--_-{{{{--__---_--------{>>>>>>__>>__--___>>_{_>>_-_;>>;;;&###&;;;&;&%%%#&&&;;&;;>-___>;;&%&>>>>>>{-;&;;;&&>;;__&;&_=, ...''_->__-->{-__-_-__-_--_----{---_-^[|[->>--_-------{{____>&&&%#$$$$@#%@@$&##;;&;&#&__>;>>>>>>>_->>--____-_----_---{{___-_>_-{-__-----{--_____-____---{--------___--___-{--{{{{{{{{]{{-{{]{{{{{{]]{{{{---_----_------{{--_-----{{-{]{--{--{--{-----______>{+)+  + ~#<^]]]^1^]]]]^]]]^<^]]^^^<^]^^^^^^^^^^<^^^^^]]]]]]{^^{{]{--{{{]]{{-{{{{{{{{]{{-{{{{{{{{{{{]--{]{{--{{-{{-{-----_>>;&%##%###@",
">>_-{--{--__{{-{-_------_>_--__-_;;>>>>_>>_________-___>>___>>;&{-####&;&&&&&%%##&&&;;;&&;____>>;;&&>;>>>>-_>>>>>&&;;>>;;>&>*). .@,,---__-->--_--_--_>--_-{_{{_---{<[^_>>___-----------{-__;&;;%$$$$##$&$@#&%$&>;%%&&;>>>>;>>>>_-_>____--___--_--_{--{-_-->---{--_>{{{---_-_--____-_-{------{---_>--_--_----{{{{{]{{]]{-{{{{{{{{{]]{{{-{{__-___>-----{{-{------------{{{{--{{{---{-_-__-__;]%,@ * ',{^]{]]]}[{{]^]]]]]^^^]^^^^^]^^^<^^^^<<<<<<^^]]]]^]]^]{{{{--{^]{{{{{--{]{{{]{-{{-{{-{{{{]{{{-{{{{-{--{^{-{{----__>>;&%%%###@@",
">>_--{{---__----{_--_-{{___-_->->;>>>>>>>>_>__>___--_>>_>>_->;;>->&###&&&&%&%&%#&&&&&;&&;;>__>>;;;&&>>_>>-->>_>&>;&&&>_;>>&-=).+++,'---_--__-__--_>-->;_--__{---_-]]-_-_--__----{___-_-{{-_&&;;;#$$###$#$@#%$&;%%%%&%&&;_->>>>__>>____----_{-__-{-------__-{{----_-{---_>>_--_-->____----{--------__--_--{{{{{{{]]{]{|^-{{{{{-{]]{]{^{-{--__->_-{---{{---{]]-{{----_-{{{--{{--{------_--__>]#)    ,=|^]]]]^{]]{^^^^]]]]]]^^^<<<^^^^<^^^^<[<[[<^^^^^]]<^{{{{{{{{{]{{-{{{--{]{--{{{{{{-{{{{{{{{--{{{-{]{]{-^[-{{]{--_->;;&&&#$#$$@",
"->>>-{---__-__----__-{_>---___>_>>>>>>>>>>>>___>__-____>_>_>>;;>>;>&##&&&&%%&&%#&&&;;&&&&>>>_>;;>&&;>>>>-_>_>&&&;>;;>>_>;;;{+'++ +==--__-______-->>-___>-->{---_-----___^->--_-{-_--_----{^^>&&;&#$$##$$$@#&%#;%#%#%#%&&_-_{->-_>_________--------_-___->_------_----_>>__>_____>_>>>----{_{^^]>_-->___--{{{{{-{]{]{{]]-{-{{]{-{{{]]]{{-{---{-----_-{----{{^]--{-----{{-_--{-----__{--__-->- )+.  ,&8^]]]]{{]]^^]]^]{]]]]]^<<<^^^^^^^]{<<<<<[^^^^^]]]]{-]]{{{--{{{{{{{{{{--{---{]{-{{-{{{]{{{---{{{{{{]]-{]{--^{-_>_>&&>&#$@@#$@",
"_>>___-__>_--_-__-__--_>-{-___>_->;;>>;>>>>_>_____-_>>>>>_->;;;;;>;&%#&;&&%%;%##%&&&;;&&&;>>>>;>;&&;;>_>-_>_;&&&;>>>_>>>;>>- '$@+ = --_-->__>>_-_>--_>__-__{----_--_--___>-->-{--------__-{^-&%%&%#####$$$#%#$#&&@#%##&;>_>-->__>________--__--___-___>>->>--_--_---_>>__-->__>____>>_-----]^]->>>___>_--{{--{-{{{]]{{-{{-{{{{{---{]{{{{{^]{{-___-----_----{{{----------___-{--{-------___>>').@++)_}]^]]^{{]]^^^]]{]^^]]]^<<^^^<^^^]]^^^<[^^^^^^]^]{{{{]{-{{---{{-{]]{{{--{{-----{{]{{--{{----{{-{{]{{{{{{{{{-{-_>>_;;>%##$@#$$",
"__>_>-]{{_>_---_-->_{-__-{--_>>__>;>__>;>>>___-_>>>_>>>>>>__>;;;>&;&%#&&&&%%&%##%&&&&;;&%>_>;>>;;&&;>>>>__-_&>;&;>>>>>>;;>;- ,@.. ' {{--___>>>___-{-_>>->>__>--__----_-_>_-_{{___-__--__-__;&&%%&%########%#@##&&$&&$#&;__>>->>__>->__>>_--__--___-__-->_>_______{-__>>__>--_>___>>>>_----{-__>>___-___--{----{-{]{]{{{{{-]{--{--{{{{-{]^^]]{{{--{--{--------{{-_-------_>_--------___-_>_>_*!+.+ ,]}]^]]]]{]]{]^]]]^]{^^^]^^^^^^^^^]^^^<<<<]^^^^]]{{{{{{{{{----{]{{{{{----{{-{-{{{{-{{----{{--{{--{{{{{{--{{{{{-_>>__&%%##>#@.@",
"{&;;_]{]]_>>----->>_---__---_>>>_>>>>>>>>>>__-_>>>>_>>>;;{___>;>>&;;&%;&&&&&&&%%%%&&&&&&&>>>>__>;;;>__>;_-->;;>;;>>>>>>;&;>-*).+@@,=--_;>>_>>>>_>-{--______>>>-_---->__>>-_>{-____--_--_>__>;&%%&%##%%##&&%%$##&;>{%$&&;>>_>>_>_>>__>___----_---__--_-_>>>_-__--____>>____--____->;>_-___----_>_-______---{{-{--{{{{{{{{--{{{-{]--{{--]]^{]]{]{-----{{__----{{{{__--{--->_-----_---___--__>-=)@.  ,^}]^]]]]{{]^]]^]]]{]^<^]]^<^^^^^^<^<[<<<]^<]^]{{{]]{{{{{{---{{{{{{{{----{---{{--{{{---{{{{-{]{{-{{{{{{--]^{{{->>>>>&%&#$#;%@#",
"^{&;-{-{]->__-{{-_-_--__>-->__>;__>>>>>>>_>_>_->>>>--_>&]<>__>>>>;;;&%&_&&&&&%%%#%&&&;&;;;>>>_>>>__;>>_>__>_>;;;&;>>>_>>;>>-*,@#$+'*->;;>_>>_>_>__-->-{_-__>>>>--_>____>>_>__--__>---_____>>;&##&&%%%&&&&%#$#&#>>&-;@%&;>>_-___________---__-__-{_>_-_>>_>>___--__>____>_-_---__-_>>>-_------__-->______-{{]{-{{-{{-{{{{{--{{--{--{{-{]{{]]{{]{-----{-----{{---{-_------>_---------___--->>-=)@@++'^}^][<]]]]]^]^^]^]^^^]^^]]^^^^]<^^^^[<^^]]]^^]]{{{{{{{{{{-{{---{]{{{{-{{---{{--{{{{{{{{{{{{-]]{{{{{{]{{{{]{{--->>>;>&%$#%&%#$",
"-}{;__{]{-----_----_____---__->>>>>{_>>>>>>>>_>>__>_-->;--___>;;>;>>&%&;&&&;;&%%%&&&;>;>;&>_>>>>>_>>>>_->>>-_>;;;>>>;>_>>__- *@@+ =+-_>>>>;_->_______{-_-_>>______>_-_>->;>-__-____--->__>>>;%##&;&&&&&%####$#$>;%--@%;_>;>--__>>-_>_>___-_---_--]-_--_>___>__>>-->________{{>_->_->>-_----_________>___--{{{{{{{{<^-]{{---{{{{--{---]^]]]{{{]{-----------]^---{--{{--------{------_-_--__>;)'+ . '<}]^^^^]{]]]^^{]^^]]^^]^^^]^<^^^<<^<^^]{^^{]{{{{{-{{{{{{--{{{{{]{{{-{]{{{-{{-{{-{--{{]{--{{-{{{]{{]{{]]{{{{{--->_>&>;#;%&#&$$",
">]1]>_{{_-]>>--_--__-___---___>_>>_->_>&>_>>>_>>>>_--___&>___-;>>&;;;%;>&&&;&;&#&;&&&>;;&&>>;>>_>;>>>>__>>;-_>>;>>;>>>_>;>>-.=@..+,'--__->>>>>;__>>>{-_>>-_>>_-__>_->__>>>>>>-----_-_>-_>_>;;&#%%%;##%##$$$$@#$>&%-&$&;>_>>___>____________-{----{---_>_>-->__>>___--_>_>>---__--__>_____--__>-->___-_>-----{---{-^^{{{----{{]{-{{{-{]]]]{{{--{---{----{{{----{---{{---{{{----__-----_---->;!'.@.+)-}]^]]^]{{]]]]]]]]^]]]]]]]^^^^<^<<<<]]]{]]]]]{{{]]{{{{]]--{{{{^{-{-{{{-{{-{{--{-{---{{{--{{--{]]{{{{{]{{]{{{-_>>;>;&;&#$#%#$$",
">-1}-_]{{{-{__{---_____--__-->&__>>__->>_>__>>>>>--_-__>;>>_>>>>;;>;;&%;;&&;&&&%%%&&;>>&>;;>;>->>>>;>>_>>>>__>>>>>;_-__>;>_{ =@@@.,*{-__-_>;;__-__>--__>>>_>>>__>>_>>___>>>>__-->____>-->-_>;%%&%%#$$#%;$$#@$$#;&#&##&;;_>>>>-->____>--___-__----_-{-_____>_-____>__-_>>__-_>____>>_>_--__-_>>--__>_--_>_-{-{{-{---{]--{{--{{{{]]{]{{{]^{{]---{{-----{-_-{---{--_---{{-{{-{{---_---------->>~,+@%@!%}]^]^]]{{{^]{{]]]]]{]]{]^^^^^^^<^^^]]{]]]]{^]{{{{{]{]{{{{{{{]{{--{{{-]{{---{-{]{{{{{{{{{{--{]]{{]{{{{{^{--]{_>>&&&&%&$$#%#$#",
"--<}|--{{-_{{_{{-_--___---____>__>>_>>>>________>__-_>>>;>>_>>;>>>>>&%%&&&&;%#%%%&&>>>_>>>>>>>___->>>>_>>>>>_>>_-_>>_-->>_>{ '$@..='_>_>>_>;>__>>>>_>-_;;>>>>>>_>>___>>>{_;;>-->>___>_>>-->_>###&&@@$$#&$$%@$&$%%#&%$;;;_>;{_>->>_>__--___---__-_-{->__>_>{->____->_{->___>_---_>>>>>_--___-_--____-______{--{{{-{]{{]{{---{]]{]]]{{{]]]]<{_-{{-{--{-{-_----{{----{-{--{{-{{---__--_-{-___>_),+.$@,.1^^^]{]]^]]]{{]^]]]{]^]]^^^^^^^^^]]{]{]]^^]{]{{{{{{{{{{{{{{]^{{{{{-{]{{--{---{{{]]{{{{{{---]]]]]{]{{{]{{{-{{-_;&&>%#%#$#;#@@",
"--][}[{-{-___---{->_->>_--__>_>__>_->>>>>____--__>>_>>>>;>>>>>;;_;;&%%&;&%&&#&&&&&;___>>;_>;-_>__->>___>>_>_->>_->_>_-->>]{_*,$@@.=~&>__>_>;>>;>>>_>_->>>>>>>>>>_>>_>>>>-_;;;__>_>_-_>>_>>>>&#$#&&#@##@$#@$@@&$##$&%#&;;_->__>>_-____>>>-__---__-{--->>_>>--____-->_---->>__-_>_>>______-__-__-___-->>-__-_-{{--{-{{{{{--{{{{{{{{^]{{]{{]<{-{---{---{{-_---{-----{{-------{-----__^^>______$~=@@@.,*[^^^]]{-51-{{]{^^{{]]^]{]^^^^^{]]]{{{{{{{]^]{{]{{{{{{{{{{-]^{]{-]]{{{{{{-{-----{{-{{{{{{{-{]{]<{{{-{]]{]]{---_;&;&%###$@]&.@",
"_-{[|1|{-->>_--_{{_>___-_>>_>>>-__-__>>>>_--_____-_____>>>>>_;;>;%&&%#%&&&&&#%;;&;>__->;;>_>_->>>>>>--->>___--_-_>->--_--{->)=##$.,,;^{__>>;>>;>>;>_-_>_>>_>;>>>_>_-_>__;>>>>>>>>____>>-->>>&##&###$$#$##@@@@%###$%%#&&;___>>>>>__-->--__>_-_-{--_>-{_>_>>_>-________{->_>_>___>>>___>__-_-_>___>_-__-_>_-_-{----{-------{{-{{-{]]{{]]^^]]{{{------_-{-_{--{-{--__-{---_-{{-{--___-]___-___.3 ..@.)+|^^]]]]{]<{-^<{]{{^<]]^]]^^]]^^{{{]]{{]]{]]{{{{{{{{{{{{{{{^]{-{]{{|{-{{{------{{{---{-{{{-{{{{]{{{]{{{]]{{{-->&&;&%%###@##.$",
"--{<|1}1]>--__->>_>>>__;__>>>>_-___>;>>>--_-__-__-----__>>_-__>>;%%&%%#%&&&&&&;;;>>__-__>>__>>_____--{->__>>-->>-{>_-_____-$/ #&$.)=><[>_>;>>;>>>>>>-->>>>>>>;&;>____>_>;>>>;;;>_-___>>__>>>;&&&#$####%#$#$@$%$##%###&&>_--___-_;>--_---__-{--]{_>>>-_>>___>__>>>>->-{_>>____--__>__-__->--_____>_->_->__>-------{{]--{{--{-{{{{{{]]]]^]{]-___----{---]]^]{{{--__-----{->_-----____>_----_- :=@.. !;}]^]]]]]{{{][<^{{{]]]^]^^]^^]^]{{]{]{{{{]]]]{{{-{]{{{-{]]^{{{{]]{--{-{{{-----{]{{]--{{{{-{{-{{{{-{{{{{{{-{{-->;%&&%#%#$@.@@$",
"{-{[}858^>--_----;;>>>;;>>>>>>>___>>>_>>>____--__-______>>____>&&;&####%&&&&;;%;>>______->__>-->___--____>>>>-_>-{>__-_>;>-@( &;#@',&]1_-_;>_;_____-__-_>_>_>;;>>>>_>>>>>>>;;>>>>->__>>>>>>>%#;%#####%%%##@.#%$$$##%%&&>__>__-___>_-__---{--{{--_;>_>_>>_-__>_->__>___-_>__-_____>>_--__--___>_>__>_-_--_>>_--_^[-{{------{--{-{{{{]]^{{{{[]>_---_-{-_[5]{----_>__--_----_-__-______>___-_-=a'@$.*)&}]]]]^]{{{{^<[<^]{]^^]{^^^^^^{-{]{{{{{{]]]]^{-{{{]{{]{{^]]]-{{{-{--{{-{{----{{{{-{{]{{---]^---{-{--{{-----{-_>&;&&&%##$$.@.$",
"--^}8551-_-__-_-->>;;;>>;&>__-_>_>>_>>>>>______-___--_>;>__>_>_;%%&####&&&%&&;->>>___>_-_;_->-->>>>>--____>>>;>>>__>>-_;;>>>, %##$=~#^|-_>>>>__>_-_--__>>>__>>>>>;-->>;;>;>;>>;>_>>>_>>;>>>;%#&%####&&###@@@.##$#$%&&;&&_>>__>__-->__>_---{--__>>>;>__>>_>__>_-__-___>--_>__>__>>>______--__>>-_>_>-{>_-->>_---{]{-----------{-{{{{{{]{]{_]{>-{{--{---{|{_-___-___----_>------_>>>>>__>_-_-*a=@#+=);1]^]]]]{{{^^^<<^]{{{^]]^]^^^^]{]]{^^]]^^<^{{{{{{]{{{{--{]{<^{-{]{-{{{--{{-{{-{{-{{]]{{{---^]-{{{]-{{--------_>&;>&%%#$$&@@@@",
"-]111}[{--_{--_>_>>;&&>>>;;__>___>>>>>>-_____-___-___>>>>>>__>>&&&%####&%&&&%>{;>>__>_-_>>>_>>-_>>>__-->_-_>;;>>__>>>>_;>>;-*=#$@@=!;-__-_>;>->>>>>_{{>;>>>>>>;>>>>>__;;;>>>>;;;>;>;;_>&>_>&%$&%&#@#%%#$$$@..$$#%##&;&&;>__>>-{-_---____>--____>>>>>_>>>_--_-_>___-_>__>__>>__>________--__>_-___>__>>_-->___---------{{--{{{{-{{{]]{{{]]->>_---_{{_{]--_-{______---{-__>_-----_>>_>_____>>.(=@@==)&1]^{]]{{{<<^^]^<]]]]^]^^]^^^]]]]{]^^^^^]<<{{{{-]]]{--{-{]{<1{{{{{{-{{{{---{{{{-{^-{{]{--{--]{]{{]{{{^{-{-_--->&&&&&%#@@#@@.@",
"]{^{{{--{-{-{_>-__>&;&;>>_;>>>__>>>;>_______-_>_>____>>>>;;__>>&&&&#%&##%&&&&&%>&^[;_{->>_>__>___>>__-_>>{{;>>_>>>>>>>_>;;;{+'$$@@*);_;>--_>__;>_>;>{->>>_>;;>;>>->>->>>>>_>_>>&&>;>>;;;>_&;&##$;;#@@#%%$@@.@@@###%&&;&;>_>;-[[]----_>>___-____>;;;>>>>>_{-_--___>_>>-_>__>__>____>_-_>_->___-_________-_--__----{----{--{{---{{{{]]]]{]]{{{-{-__-{--]]--{{---_>_-__--___-__----__>>>>__->>@:=@.= !%1]^{]]]{]]^]]^^<^^^^]]^]]^]{]]^<^^]]]]]^^]-{{{{]]]{-]{-{]{][{]{{{{-{--{-{{---{{{]{--]{-{]--{]]{{^^{-^]-{----_>&&%%&#$$@@##.#",
"]{-__--{-{{{-____>>;;>>>>->>>__->>_>_-__>>-___>>____>>_>>;>___>&&&&%#&#%&&;&&&&>;{->-->>>>>_->_->>>>-{_-->>>>>>>;>;;>>_>;;;{**$@$@ )&____-_>>;;__;>>-_;;_>;>>;;>>>>___>>>>->>;>;;;>>>>%&>;&;&#$$;&$$$$%;%@@.@.@$####&>;;>>>-]^^-____>>&>{____>>>>>;>;>>>_>--__--__>>>>__>_>-__-__>_>>--___-_-_>_-->>_--__--___---{{-------{--{{{{{{{]]]]{{]{-{_>>--__-{{{-------____---_>-___-__>>__>>_-_>>@:,$.*+!%1]]{]^]{^^^]]^^^<[^]]^^]]]]]]]^<^]^^]{]^^^]]{]]]{{{^]{{{]]{]]{]]--{{{-{--{{-{{{--{---{{{{{--{{{]{]]{_-{{---->>&&%%%##$@#>#@%",
"-----___-{{{-[]>_>;>;&>>>>_-__>-->__>_____--_____--________-__>;;;&##%#&&;;&;>;;_>_{_>______-_>__>>_--____>>>;&;>>>;>>_>>>&{*'@$@@ !&_>-__>>>>>->>_>>__>>;>__>>_>;___>>>>_>>;&>>;>_>>;&>>&;>&#$#&%$#@.$&&#@@@.$%%###&&&>_>_{{--->>__;>>;>_>__>>>>>;;;&>_____----{_-_>__>___----_>>__>-___-_____>>______>-_____]{-{{---__--{-]]-{{{]]{-{]]]{-{-_>_{->-{-{{{->_-{--__----_----___>>>_>>>___>>$(=@.*.)&1]]]^]]]]^^^]^^^<^^^]^^]^]^<^{^^]{^^]{^^^^^]]]]]{-]]{{{{{{{{]{{{{{{]]--{---{{-{----{{-{{{{--{{{{{{{]{-]{---->;%%%%####.@;>@@",
"-----___-{]{11_-->_>;&>>>>>___>____>>_--_-_--_____-_-____>____>;&;&$#%#%&&>&;;;;>_--____>-_>-->___>--_--__>;>;;>>>>&>>;>>_>_ ,@@@@*($->_-_>>>>____>>_>>>>>>>>_->>>->>>>>;>__>>>>;>>>_>>>&&;>%#%&#&#$@.@##&%@..#%%$#&&;&>_>--_>__>>>;&;_>>>_>__->>&&>;&>-_-_{]----{-_>___---__>>_>>__>_>__--->___>>___>_>>____-]------_>>>-{{{{{{{]]]{{-{]]{{--{]-----]{{{{__>-{_---__--___--___>_>>>>>>__;>+3*$. +,@1^^]]]]]]]]^^^^^<^<[<<]^^^^]^{]^]]]]]]^^^^^^^]{{]{{{{{{{-{{{{{{{-{]-{{--{{-{-{{{-{{{{--{{{--]]]{{{]^]{{{---->&%%%%##$@@>%;$.",
"--_-------{{<{----->>;>>;>>>_>___--___--_-----_____-__-_>>>__>>&&&%#$##%&;;>;&&;>_____-__--__-_>-_>---___>>>>&;>>;>>>;;;;{{>,'$@@.*: {>>-_>-__>>--_->>;;>;;>;_>>>>__>>>>>;>;;>>;>>;_>;;;%%>;%##%%%&$@@$%###@@@@####&%;&&;>>;>__>>>>&&%&>>>>_-__>;;;&&&>_>-_---{--{_>>__>>-_>>_____>__>_-__-->_>_-_>>_-__>___--_-{----____---{{{-]]{{-{{{{]{---{{{--{-{{--_>>__>--__--_->>__>_-_-____>>__>&>=a*&$+*),[^]]]]^]^]]]^^^^^^^[[^^^^]]^{]]{{{{{]]^^^<^^{{{]]]]{{{--{{-{]{{{]]{{{{{-]{---{{-{{{--{{{{{--{{]]]]{{{{--{__-_>&#&##%$@;;@#$$",
"{----{->__---{{-----_>>;>>____-__-______-__-_-->-->__>__>>_>_>;>&%%%###%&&;;>;&;____--___>>-_-->__--_--__>>>>&;>>;>>;>>;&-_&)=#%#.*:*^>>>_>>-->>_{-->>;;>;>>;_>_>;>__>>>;;>>&;>&;>>>;;&&&&;&$###&&&%@@#@$$$#%$@$#%##;&&&;>;&;_->>>;;&#%;>_>>--__>>>>;&>___->>-{{{-___>-_>>>_>>____>____>_-__->__-__>-->______--------_>___-{]-^<{]----{{{{------{----{{-_>____->>_---_->>-_>>___>___>___>;>=(*$;@ */&[]]]]{]]^]{]]]]]^^<<^^]]]]{{^]{{]{{]{^^^<^{{-]^{]^{{{-{{-{]]{{{]{{{{{{{--{-----]{---{{]{{{{]{]]]{{-{--{-_--_>&#&##%$&&@@#$%",
"{-{^{---{-_--{{---_-->>>_>>>--_-________-_________>__>>>>_>>>>;&&%%%##$%&&&;;;&;>______;>>>____>>--_--_>_>>>>;&;>>;;;>>&;;&-*)$&#@*:.^>_>;>___>>--->>>;;>;>;;>>>>>>>>>>>;;>>;>&;;>>;;&&%&&;&$$%$&_&##@@$@$##%##%##&&&#;##&&>>>-_>>>&;&&;;>>______>>>;;>>_>_>_-]{{_>-__--_>;__>>__>____->-->-_>>____>______-_--_----{-_>___-]{-<8{{-{{--{]{--_-{{{]{-{{{-________>_---_>_>__>>>__-____>>>_&>@/ @$@ =~&[]]]]{]]{]{{]^^]^<^^^^^]{]{{^^]]^{{{{^^^^^{{{{]]^]{{{-{-{{{{{]{-{{-{{---{]-----------{{{{{{^]]]]{-{----_---_&%&%#%#$#%$@$$%",
"--{]---{]{{--{{-----_>>_>>>_--___________-__________>__>>>>>>>>&%&%#$$#&&&;>;;;>>_____>;>__>_>_>--__{-_>_>>>;;;;>>;>;>>&;;%-*,$#@@*:+]>_>>>>_->;_-__>;>;;>;&;;;;>>>>>>>;;>;&>>;;;>;>;&&&#%;&%&##&&%#$@@#$$$$%#>;&&>;#%&#%&%;>;___>>&;&&&;>_____>_>>>;>>>>>>__-{-->_>_->_->>_>>>>>-->-->_-_>-_>>>___-__-___---_-------{{__--{-{{]]]{--{^-{---{{--{^{-{{{____>______-_--_>>_>>__---___>>__>;>@/@&#@ =!%[]]]]]{]]{{]]^^^^^<^]<[^]^^]^^{^^]]{]^^^^^{-{{{]^^{----{{{{{{{{{{-{{{{-{-{---{-_---{--{-{{{]]]]]{-----{-_--_;&%#%%#$@$$.@@#",
"-{{{{----{{-{{{--_--___>>>>_--____>_>____-_>--__-_>>>_-_>>>>>>>&%&##$$#&&&;>>;>>__---___>_>>>>__-_-_{-__>_;>;;&>>>&>>>>;;>&- '@@@+=2']->>>>>__>>>>>>;;;;>>>;>>;&&>>;>>_>>;;>>;>>;;>>;;;&%%%##%#&@.#%##@###$$&#&>;>;&%#$>_%%&;>>>_>;;&&&>>>_--___>>>>>>>>>>>_-__-__->___>>>>>___;____-_>-->>-_>>_>_-___---___>__-_---_-{--__---{--]{--]<-----{{------{-__>_>_-___--___-_>>>>__>--___>_-_>>;>./.&&$+*)&[]]^]]]{{{]]]^^^]^<^]<[[[[^^]]{]]]]{]^^^]]]{]]{]]]{-{{{{{]]{{{{{-{{{-]<{--_-{---_---{{{{]--]]{{]]{-{{---{--_;%##%##$@$@@$@$",
"{{-{]{{--_-]^------___->_>>----___>>>___-_]<_{-__->_>>>>>>>>__;&&%#$$##&&&;>>>;>-_---_>>>>>__>>-_>---{-_>_>;;&;>;>;&;>>;;>&_*,@@...(+{>;>>>_>>_>_>;>>>&;>>>>;>;&;>;;>>>__>>&>>>>>>;>>>&&%%%%&$$$@.#%###$#%#$$%_>;>;&%##_;@&;;>;__>;&&;;;;>__---->>>>>>>>>>>_--_-_-__>__>>>>>-_>__>>>>_--_>>>___>_--___----->>----_-----{{------{{---{-__>_-{{{{--{{{-_______--_---__-__------_---_>>-__-_;>$3=$#%.',{<^]]]{]]]]{{]^^^]^]]^]<[[|[^]{]]]]]{]^^^^]]^^^^^]]]{{{]]]]{{-{{]{{-{{{]{----{{------{{{{--{]]{{{{-{------{-_&%#%%$##@$@@#@@",
"-{-{{{-_--{{-------_>>>>_>_----__>>;>_>__>|7^>-___>__>>>_>>>_>;;&##$$#$%&;;;;>>>>__--_>>>_-->__--_-{--_->>>;;&&&;>>&>>>;&;&-='@@.@ (.>&;_-;>>__>;;>>>;;>;>>;>;;&;>>;;>;>__>&;>>;>>>>>&%&%%>;#@..#@@###%#$%#$#$>;&>>;#%$&%%&&;;>___;&&&&>->---{{{_>_>&>>>_>>__--_>___-->__>>__->__>>>>>_>_>>>__>___--__---{-_--_-{___----{{--------{{{-_>>_-{{{{-{-{{{-____>_-----_-----{{{{----__>--_>___;>#(*@%%.==]<]{{]]]]]]{]]^^^]^^]]]^^<[[^^^{{]]^]^^^^^^^^^^^]]^]]{]]]{]{]{-{]{--]]--{-{{----{---{--{{-]]{]{--{-{-{{{-_--_;%#%%#$#@$@@$$@",
"-{--{{-{-{{-_---{_>>_>>_>>>--____>>>>_>__>-1}{>->;>__>;>>>_;;>;&%##$@$@%&;;;;>>>___-__>;>>>__>__-__{{-__>>;>;&&&>>>;;>>&&&&{=,@@$@=(._;>_>>>__>>>;&>;;>;;>>;;&&;;>>;>>___>>;&>>;>>>>;;&%##&%@@@@#@.&;##%$##@##%%&;>&%%%%%#%&;;;>->;%&&&>{{_--{-__>_>&;>>>>>---{____>_-_>>______>>>>>___>_-_>_>>___----_----_-----_------{---{{---{{---_{]>__-]]]]-{{{{>_--_{----{_-_-{{{{{{--{--{_>-__-_>>- 3 ##.+ +^^]]]]]]{{{]^^^^^]^^{{]]^^^^^^^^^]]]^^]]^<<^^^^]]]]]]]]]]]]{]]{{{{{{{{-{-{{--_{{---_---{-{]{{{{{{{-{{-{--_--_>%#&%$$#$@@@#@.",
"{{{{-{-{{{{---_{{_>>__-_>>__-_____>>>______>{[{;-|[>>>;;>>>;;>>&##@@@$$%&&;;>;;>_______>>>>>-___-_-{{__>>>>;;&&&>;>>;>>&&&&^ !.@.$+/@_>__>>>_->>>>&;;;>>;;>;&&&;;>>;;>>-_>>>>>>>>>>;&&&#$##$$@$#%$.#>%$#$%&%$#;&&&>&#;_&#$#&>;;>_;;&&;;;--_---_>>>>>>>>>>>>>-__-_--____>>_-__>>_>_->>_>_-__-___>_____-__---__-{___----{{{-{---{--{--__>^<_-_-]]]{{{--{{-{{{-{{---->>--{{{-------__>_->-->;-.:*#@.@=.<^]{^|{{]{]]]^^^^]^^{]{]^]]^^]]]^^^{{^]]^^^]^^{{]^]{{{{]]]{]{{{{{-{{--{{--{-_-{{----{----{-{{-{{{-{{{{------_;%%%###$$$#@@@#",
"---{{--{]]--{-----_>>_-__>_>>___>>>>____-___>-]{8}->>>;&>>;&;>&%##$@$$$%&&&;>;;>>_-____>>>>>{__-----_-_>>>>;;&%;>>;>;>;;&;&^ ,@@.@ (.->___>__>_>;>>;;>>>>;;;&&&&>>;;>>>_>;>>>>>>;;;-;&%###%#@@@##$$@$%$$#&&%#@&;&&;;;>>;%#$&>;;;;;;;&>>&;;_-__{->;>>>>>>>__;__----___>>>>--_>>>>>_____>-_>_-_-_>>__-{-____--_-----_----{{---_-{--{{_---_--{{{-{{{]{-{-_-{{-_-{-__-_>{]{{{-{{{--->>_>__>__;- 2*#@@@=+<^]]^^{{]]{]]^^^^^^]{{-{^]]^^]]]]<<]{]^^^]^^^]]]^{{{{{]{{{]{{{{{{{{--{{-{-------{{-{{-{{{--{---{{--{]]---{{-_;%%#%%#$@@$@@@>",
"-{-{^--{]^{-{{_--->__>;>____>>-_>>>>>__________<^;>>>>>;>>>&;>&%%%@&-@$%%&&&;;;;>>>____>>>-]-_--_-->--_>>;>>&&&;>>&&;;>>;;&{ '@$$$=:.->>____>;>>>>&&;>>;>>>;&;;&;>>;>>>;;>_>;;;>>&&->&####&%@@@$##@#$##$&>$$&$#&;;;;{_&>&@$%;;;&;>;&;;;&;>>_____;;;;>>;>>_>>;>__-___>>>>____-_;>>>>___>-____>_-_>>__{->-_>_-_----------{{---_-_-{{--{{{-_-{{{-{---{--{-------{{-----]]{{{]]{-_--->_>__--_>_ : @.#$'+<^]^]]]]^<]]^^]^^^]]{{{{^^^]]^]]]<<<]^^]]^^^]^^^]{{{{{]]]{]]{]]{{{{{{{--{-----{--{----{{{-]{--{{--{-------_-_;&%####$$@..@@$",
"{--]]{-{{{{{{----____>>>>___>__>>>>>>______>__->>_>__>>>>>>&&;&%##$#####&&&&;;;>>>>>>_>>>>]]_------__-___;&;&&&&;>;&;;>;;;%^&)@$@.+(+->>-_>>_->>_>&;;;>>>>>;&&;>;>;&>>;;;>>>;&>>>;&&&&%##%%%$@$$##@%#$@@&&$$#%&;>>&>{_;&&#$&>;>>;;;&&;;;;>_>>>>>>>>;>;;>>___>>>>>-_>>>>___>>-_;__>_>>__>>--__>_>_>__>__--_>>_-__-------------_>-{_------_{]-{{{-]----]]----{-{{{{----{{{{]{{-_>_->__>>_-_>>@(.#@$$=+<^]]]^]]]<^{{]]^^^]{{{{{]]^]]]]]]]^[[]{{]<^]]]^^]{{{]{{]{]{{{{{]{{{{{{--------{----{-{{--{]-{{{--{-{-----___>&%#####$@@##@@.",
"{-{]{-{]]-{{---__-_>>>>;>_>>--____>>>>----__-_____>_>>;;;>;&&&&&%$#@@##%%&&&;;;>>>_>>>>>>>-___--{_--_-___;&&;&&&&>>&;;;;&;&]@,#@++ :+->>_--_>_>>>>>;>>>>>>;;;;&&;>;&;>>>;&;>;;;;;&;;;&&&;>&%$@@#&%@$@@..##$###>;>>;>]>&%;&$;&;>>&;&&&&;>>>>>>>>>>_>;;;>>>--_>>>_>>>;>_-__>>->>>___>>_____>_>__>>-_>_>__---_>>_____-------{--->{-__{-----{{{{-{]{]{-{]--{{{--{{{------{{--{{--->>>>>_-____>_$/*$#. =.<^]]]]]]]{{{]]]^^^^{{--{{]^^^]{]]{]<|]{{^^]^^]]{]{{{{{{]{{{{]{{{{{{-{--{{{-----{{--{{]{{----{{----{{{{{--_-_>%#@##$${-.&|%+.",
"-{{{{-{{]{{{{{---_-_>;;;>-_>-___-_>>>_--_---___->>>>>>;;;>&;;&&&%$#$$@$%&&&;;;;;;>_>>>>>>_>>---_-_>-___>_>&&&&;&>>;&;>;;;;%]$,$... (._;>>>-->>>>>>>;;>;;>>>;;>>&;;;&;;>;>;&;>;&&&&>>;&&;>;&&#@.#-#@##@..@#@#&#&&;>&;-;&%;&$%&>;&;;;&&&&;>>_>>>>>>>;;>>>>>>_>>>__>>>>_>_-->_-_>_-->;_-_>-_>>___>>>>>>>___--_->_____-__-{---]{__{->_{-{---{]{{-{^]{--{{^^---_-{{-{{--_-----{-----_>__________#!=@@$.=+^]^]]^]{]]{]^]]]]]^]{{{{{]]]^]]{{^<^<^]]]]^^^]]{{{{]]{{{]]{]{]]{-{--{{--{--{{--{{{{{{--{{{-{^^{--{{---{--->>_&###_#$_{&@_;%_",
"-{]]{-{{{]{{{---->_>>;;;>__>>>_>_>>>>---_-___--_>>__>>>>>>>;&&&&%%#$$@$&&&;;&>;;>>>>>->;-->>_-{---__>>-_>>&&&&&&;&&>;;;;>;%{ ,.@.@ :+-&>>>>>>>>_>>>>;;>>>>>;>;;>>&&>;;;;;;&;;;&&&&&&;&;;>;;%#$$%>#@$%#@@@#@%&$%&&&#;-;&&>##%;;;>;;>&;;%&;;__>_____>;>>>;>>>>>>>>_>>___>_-__---_-_____>>_{_>_>_>>>__>___----_>__>--__------{{-___---{{{{{{{{{]^^^]]{{]]]{-------{{{----____-{_-{->_---__-__-$/*$@..*,{^^]{]]]{^]]]]]{{]]{{-{{{]{]]]]{{^<^^<]{{^^^^^]]]]{]]{{{{]]{]^{{{{{{-{------{{{--{{{{{-{{--{^]{----{-_--___>&;--;>#%&%>>&&{{",
"{^^]{-{{]]]{------>>>>>;;>__>__>>_-_;_---___----___-_>>__>>>>;&&%%#$##$&&;;;;>>>>>>_>_>__>>>>_-->--__>__>;&&;&&&;&;;&;&;;&;_!,@@@@ 2={&>->__>>_____;&;>;;;>;;;&&&;;;>>>&&&;;;>;&&&&&&;;>>&;;%$%$@#$@&#$@#@@;;@%;&%$;-;&&;#$%&;;_>>;&;>&>&;_>>>>>___>;>>>;>_>>>_>>>>>__>>__--------->-->_{_>_>>>>>>_>>_>_--_____--------{-{{->-{-----{{{{{{{{^^^]^^]]]{{{----{-{{{---_-->>>_-__--__--__-___-@/ @$$. )&[]]^]{{]]]]]^^{{]]{{-{{]{^]{]]{]]{][^{][^^<^^]]^^{{{{{{{{]]^{{{{-{{---{---]{-{{{{{{{{----{{{{]]------->>>>;#>]--@#-;%&-;$--",
"{^^{{{{]]]]{{-_-<->>__>>;>__>>____-_>__---__-__-______>>_>>_;&>>%##$$$#%&&&;&;>>>>>;>>___>>>>__>>>_>-_>>>>&%&&%;&>;;;&>;&&;_!'@@@.+(~>;>>>>>_>__>>>&&;&>>>;&&;;>>>>;>>>&&&;>;;;&;>;&%;>;;;&;&%$@$#$$%##@@@$&%@#&;&#;_&&&&$$&&>>;_>;&&;&>>>&->>>>>-_>>>;>{_>>;>-___>>>>____--__---_>;__>_>>_>_->>>>>>>_>>>-_>___-----_----{-->-{---{-{-{]{{{]]]^^]]]]]^]-{{-_--{--{]-_--__-____-{___>__-___-#~.@@@@ !&[]{^]{{]]]^^]^^]]]{{{{{{{]]]{{]-{{{^^]^<^<^^]{]]]{{{]{{]]^{]{{{{{-{{{-{-__{{-{]]{{{{]{-{]--]{{]{---_-->;;&&&;-_;;>;&%&-#$_-",
"_{^{--{^]]{{{{_-{>_>_>>>>>__>>>--_>>_>--_____--_--___>>_>>>&&%;;%#$#$$#%&&&&&;;>>;>;;>>>__>>>__>>>>>_->>>>;&&&&;;>&;>&;;&&;-),.@@.=(/;;;;>>;>>>__>_>;;;>>>>;;>>>>;>>>;&;;;;>>>>;;>&&&&;;&>&&&%####$$.##$@@@##@##&&$%-;&;&.$&;>>>>_&&&&;;>>_-_>>__-_>>_>>{___>>____>>>_>___---_>-___{{>-____>>>>>>___-_>_>>______-_------____>__>-{{^{{{{{]]]^{]^]]{{---{]----{---]{_>_-_>__>___-___>___-__-$(+@@@@+!&<]]^<{{{]]]^]]^^]]--{{{{{{]]{--{-{{{^^^]^^^<{{]]]{{{{{]^{{{]{{{{]--{{{{-----{{{]{{{{{]{]^{-]]{{{{--_-_>;&&&>->^-_;%&%&;>_&$",
"_-^]-{]^^^{{^-__>__>>>>;>>__>>>--___>________--_-->-->>_>>>;&%%&&%##$$$#&&&&&&;;&;;&;_>;>__>>>>>>>_-__>;_>&&&&&&;;>;;;&&;;;>)=@.+.=:)>%%;;&;;;;>-_>>>;;;;&{-&;>>;;>>;;>;>>>>>>>>>>&&;&;>&&&&&%#>#.$$.$@@$#@$#@&>#%##>>;>%@$%;>>__;&&>>&&>_->>>>___>>>_>>;>>>;>>_>>>>>>>>>_-_-__----]{__->>-_>>>>>__>______---_------------_>>>>_-{{^]{{{]]^^^^]]{-{-_-------{{{--_--_--_--_____________-__-#(=$#@@@)#[]^]{{{{{]]^]]]^^]{{{]{{{-----{{{{{]^^^^^^^^{{]^]{-{^{{{{{{{{{--{--{{{{------{{{]{{{{]]]]{-]]{{{{-__-_>;>&%_^->->&&;&&&_>##",
"_-]^{{]^^]]{{-____-_>>>;>>>______>__>____->__-____>-_>>>>>>;&;&&&####$##%&&&&>;&&;>&;;;;;>___>>>__--_-_;>>&&%&&&&&;;;;;;>>&-*,..+. 2=-%&;;;;;;;;_->>_>;;;;>_&&&>;;>>;;>>>>>>>>>>;>;%&&;>;&%&%#%;&...@$.@#%$$#@&&###%-_>&&$#%&>__>;>_;&&&>_>>_>>___>;>>>>>_>>>>>>>>-_>_>;>_{-___-_-->_->-{_>>>_>;___-__-__--___--------_--__>>_>__--{]]{{]]]^]]{-{{{{_------{{{{{{-_----_-_-__>_->>__>__-_->>!,@$.@.'><^]]]]]{{]]{]]^^^^{-{--{----{{]]{{{{]^^^^^]]]{]]^{{^]{{{{{{{]]{{{----{{------{]{{{]]]^^]]{{^]{{{{{_--_;_>;&;--;;>;;;&>&&&;&",
"-_----{]{{{]->____--_;>_>>__-->>>_>_>____>>__--__->__>>>>>;&;{>%&%###$$#%%#%&&&&&;;;&&&;;>_->>>>_-->>{-;;>&&#%&;&&&&;&&>;>;-*)..++=a=-&>;>;;>;;>_____>>>>;&;;&&;;>>>>;;>_>>>_>>>>>;;&&&;&#%&#%%#$....$@@%#@%####%#$#-;;;;##&;>_>;;;>%#&>>>>>__>_-_{^>;>>_>-_>>>;>__---__>_-___-_>---->>--_>;>_>>>>>>__>--_______------{-_-_>;>>>_---]]{{{{{{{{{-{{-----_--{]]{{{{_;-{{->_______--_______-_>{,,+.@@+*{^^{^^{]]]{]{{^^^]{--------{-{-]^]^^^]^]]^]{{]]]]]]^{]^{{{{{{{]]--{{-{{{{{-_---]]{]]^^]]^]--]^{-_-{---->>&;>%;>__&->&;>#@#>&",
"---{---{{-{]-_____-_>>>_>>>{{_>>>>>>>_-_>>>>>_--__>>->>>;;;;>;&&%%#$#$#%%#>-#%&&&&&&&&;;;>>>>>>>>_->->>>;>;%%%%&&&&&&;&;;>&-*,.++ =2.-&>>>;>>;>>>__>>;>>>;;>;&;;>>>>>>>>>__>;;>_>>>>&&&;;%###%##@@@..@#$##.@%###%%##>%%__##%;>;>;&;#%&&;>>__>-__-_]<>>>>>>_>_>>>>>___-_>>_>_---____{->_>>->>>>>>>__>_-__--___--__------_-_>;>>__----{{{{{{{{{{{{{{--__-^<--]^{{{{]>;_-_>________-______-__>-)'..@. '_^]]]]]{]]]]{{]{{{-------{{]{-{]]^^^^]]^^^]^^^]^^]{{]]{{{-{{{{{{{{--{{{{{---__--{]]{{]]^]{]<]-{--{{{{-->&_-;%%&&%#__;;##@#>%",
"__--------{--_____--_>>_>>;_-_>>>__>>-__>>>>>________>>>;;>;&%&&%%##$@####>>#&&&&;;&&;>&;>;;>>&>>>-___;>;&>&%%&&&&&>&;&;>;;-=,+++  :${&;>>;&;>____>;;;>>>>;;;;>;>>>>>>>>>;>>>>>>>>>;>__>;&#&###$@...@@$@@#@@$#&%$&&$%$%-_$$&>;>>;;;##%>>>>-_--___-->-____>>;>>>>;>>>>___;>___-{->_-_-__-___>>;___>-_--->___---____-__-__>>>>>>>_--{{{{{{{{{{{{{]{{{--^{^[^{]]{{{-^1>&__-_>______--____-____{))++.+*'_^]^]{]^]]]{]^{{{----------{]{]]]<^]]^^^^^^^^^^^^]{]{{{{{{{{{{{{{-{{{]{{{{--_-----{{{{]]]{{]{-{{{{{{]{_;>-_>&#%$###;>-#+.%>#",
"____--{{{{]]{__----____>>>>>-->>___>>-_>>>>>_>____>__>_>;>;;&&%&&%%#$$###%#$#%&&%%&&&&>>>>>>;_{;>>;>>>>;;&%&;%;;&;&&;>;;;>&_='.+ +'2%]&>_>;;;>_>>>;&&;;>>>>;;>;;;;;;>>&;&&>>>>_>>>;;;{{>&&&##&#$$@..@@.@%$@$#$%%%%##$.#>>##&>;>;;;;&#$>->>>-{>_--__>_>>>>>>>>>>>>>>>_>__>__>__----_>-__>_>>>;-->>>__>_--_>>--__----_>_-_>>_->>__---{-]]{{]{{{{]{{{-{{{{-{^^]]{{{-_}|>>__-____>-->_-_>__-__>-!,   + '-]]^^]{]]]]]]]{{{--{--{{-{{]^{{^<^{]]^^<^^<<]^^]]{-{{{{{{{{]{{{{{{{{-{--{{{-_{{{{{{{{{]]^{_-{]^-{{{]{{-_->>>;#$&%$#>>>>&&&#%",
"{{-{{]]{]]]{{----{-_--__>_>_->>>__>>>>__>>>>>>>_>_>>>_>>>;&;&#-_%%####$##%%##%&&&%&>&&;>;&>>>_-;;;;>__>&&;;&&%&&&&&&&&;&&>&_ ,.++ ,0.^;_-_>>;__;>>>>;;;;;;>;>>>;;;>&&;;;;>>&;__>_>;;;>_;&&&###$$$@..@$$##@@@#%##&%$##@@%&%%&;>;;>>;&&&&>>>>__>>-_>>>>>>_>>_->>_____-_>>>>--__-->--________>&>->>_-_-___-->>>---{-___----__-___-----{]{{{{]{]^{{{{{{{{{{{--{{]]]]{_[}>>__-----__>>_---_____>-)'+   =);^^]]]^{^]{]]{{{{-----{{{-]]{{]^^-]^]^^^^]^]^^{]]{{{{{{{{]{]{{{{{{-----]{-{--{{{{{{{{{]^^{--]{{--{]]{{{-_>;>;;->#@#>;#;-_&%%",
"--{]]^]-{]{{{{---{-_-_-_>>;-_>>>__->>>_>>>;;>____>;{]>;;;__&%&{;&#$##$$###%###&%&&%&&&&&;&>->;;>&;;;--;%&&;&&%&&&&&%#&&&&>&>*,    '0 ^;__>>>>>>>>>>;>>>>>;&>>>>>;;>&;;;&>_;&>>>>;>;>;;>;&;&&#%#$@@.@$@@@$@.$%%#%&&%$#$@#%#%;>>>;&;;&%%;;;>-_>_->>________>>_>_-_>_--->_-_-__>__-__--_>---_->;;--__-_-->__>-__--{{{___--_-----__-----{{{{{{]]<{{{{{{{{{{{]{{{{{]{{-{{;>>--___-_>-______-___>-))  *  ~@[]]]]^]{]{{{]{{----{{{-{]]{{]^{-{{^^{{]^^{]^{{^]{{{{{]]{{{{{{{{----{{{{{-----{{{]{{]^^]]{--{{{{{]{{]]{_>>>>;__&;$@#&&%%>&&&",
"-_{]]{{--]^{{{{{----____>;;_>>>_____>____>;;>___>>>[]>>;;-_%&;#&&###$$###%##&%%&&%%%&;;;;;;>_>>;&&&;>-_;%;&%&;%&&&&%%&;>&;&;!,+    :){;>_>;>>>_>>>;;>>>_>&&;>>>>;;&;;;;;;>;>_;>>>;;_>;>>>{>&&%##$@.@@@..@#$@%%%%#&&$##$$#%;;>>;;;&&&;%&;;>-_____-_>>>_>__>>>___>_-->-{-__>--_>_--_>_-_-__>_->_--->______>>{->_---->---__---------------{{{{{{{]]{{{{{{{]]{{{_-{{{{_;_-___>>_-__--__>>_--___{!).+*  ~$[]]^]{{-{{{{{{{---{-{---]{-]]]{-{{{]{]^]]]^{{{]]]{--{]{]]{{{{{-{{{--{{{{{---{{{]{{]]^]]]{-{{-{-{]{{]{-_;>->>&#$%&#&&&%&&&&;",
"-_{{{_-]{{{{{{{{{{--___>>>>;;>>___>____-_>>;;>_>>__>>_>;;;&;>&%&&%#######%##&&%&&%%&&;;;;;&>_>;&&&;;;>_>&&;%&&#%%&%%%%&>&&&>~,.+  =:*{&>_>;>___-->;;>>>>>>>>;>>&;>&;;;>>;&>>>>>__>>__>;>>>;&&&#$@@+@$@@@@@$#%%&;&&#######&>&>>>&;>&&&&&;>>>>__>>-_>___>>>_->>__-->{----___-{-___-_-__-_>>__>;_-__>___>>_-_>-_-^-_>__--{-___-----{{---]{-{]{{{{]]]{{--{{{---{--{{{->_-___>___>__>>_>_>__->__^),.++ *~%[]]]]{{{{{{{{{{--{------{]]]{{]^{-]{{]^{{<^^^{{{{{-{{{{{{{{{{{{{{{{{-{{{-{--{-{]{-{{]{]]-_{]]]{{{{]]{{_;--_>&#$$&>{;%&;;;;-",
"-[]{_{]-{--]]]{{{{____->>>>;;>>>____--_>>>>;>__>>>>>>>>;&;;;&%%&%%##$$$$#####%%&%%%%&;;>;;;;>>>&%&&;;&;;;%&;%%##%&%%%&&&&>>;~,++**'0={&>_>;>>>_-_>>;>>_->__>>>;{>&&&>>>>>>>;>;>__>_>;>>&&&;;%##@$@+@@$@.@$##%%&&&&&###%##%&;;>>;>_>&%%&;;;>_>>>>>>>_>>>>___>>>_-_{^->-__-->___{___>_-_-_;__;;__>_-_;>>__{-_--_-_-_---{]{--------{{---{--{{{{{{]{-------{-{--__{{-__>__>_->>>>___>>>__--___-]!) .. =,_^{]]{{]]{{{{{{{{{--{{{{{]^^-{{{^]{]{^]^]^^[^^^{{]{-{{{{{{]{{---{]--{---{--->_----{{{]]]]{--]^]]]]]{{]->;--_;&#@%>>-_>{;#-{_",
"|[--^1-_{--{]{----_>_-_>>>>;>>>__>_--___>>>;>_>_>;>>;;;&&&;&&%%&#$$$$@$%#####%%%%#%%&;;>>>;&>>;&&;&&>&&&&&#&&%%##%%%%&&&&>>;~=. *=,c*{&>>>>>;;>_>>>;;>>->>_>>>&^-#&>>>>;>_;;;;;;>__>_^^-{{-&###.@+.@.@$@.$%#%%%%&&%######&#&;;;;>_>&&&;&%&;_>>>>>>>>_>_-_>>>>_>__--_-->__>-->_-_--_>__-_;>>>>>>_-->____>>>>>__>>_---------_------{-{->-]{-{-{----____-{---_________>>>___>>>>>__>>>__>____>]!) ++*',{]{{{{{{{{{{{{-{{---{{]]{]]{{]{{{{{{]^^^^^^<^]]{]^]{--{{{]{{-_--{{{{{{--{{___----{{{{{]^{{]]]{]]]^{]]{-_;>__>&####@;[-;@@{;@",
"]_{]}{>-{-----{----_--->>>&&>>>>>_>-{_-__>;>>___;>;;>;;&%&;&&&%%#@.@$$#%##%%%%&%##%#&;;>>;;&;>&;>&%;&&&&%%%;&#%##%%%%%&&&>>>!'.*+ !0+]&>>;>>>>>>>_-_>>>>-->>>__;;&;>>>>;>;&&;;;>>>>]{_{[1}^%###@..@.@..#&##%&%%&&&&##%%&&%;&&>>>;>;;;%&&&&;>>>>>>_>_-_>___->>_>>_>>>{->>>>_->______{__--[-&>>>-_>>>___>>>>_>_->>_--{-----_--------{{---]{{{{{__-____>>_{{-_>>---___>>__>>>>>>__>>_>_>>_--_>>/=++ *',-{]{{{{{{{{{]{-----{{{{]^^^]]{-]{-{^^^^^<^^]]]]{]{{]{{{-{]]{{{--{{{{{---{--__{---{--]^]]{{-{]]]]]{{^]{-->>__;&%##@@;]&+.##..",
">--]]_-{{{----{-{{-_-{_>_>]>>>_--__-{{{__>>>>___>;;;>;;&>>;>;&##&{-##$$####&&##%&%%%;;&;>;>;&;%;>&>;%%&&&&;&&%%&%%&&%#;;;>>;!'+==+*a~-;;;;;;>-_>__>>_>>>{{>>>_>;>;;>>>>;;&&;>>__>__-_;;_18-#%$@@.@@.$$@$#&&%&&;;&;&%#%%&&&;&&>>-_>>>;&&;&;&>>_>;>___>_>_-___-__>_-->>_-_-->_->--__--__--{______--___>>>>>-_>_____--------_---_--_-{{{{{-{{{{-_-___-_>>_{]{_>_--->>_>___>_>>>>-->__>>__-_>>_$3=+ * *,-]{]]{{{{{{]{{{-{{{{{{]^]^^^]]]^]]]^<^[<^[[{{^]{]{--{]{-{{]{{]--{------{{--{{{{-{{]{{]]]^^]{{{]]^]]^{]{_;;-->&%&%%#@.$%@$@@$",
"_{{{-{{----{--]{-{--{-_>>_}|>__--__---__-__>>_>__;>>;&;%&>;&;&#$;19^@$##%%%#%%%%#%%&%&;;>>>_;>>&%&;&>_%%&&&%&%#&&%%&%#&;;;;$~'*++.@((-;;;>>>--___>>>>>>_>>>>>>>_>;;;;;>>;>>>>____->>>>>;{^>&&$@@@@.@#$$$$%&;;;>>;;>;&%&%^]#&;>>-_>>;;>;>;;;>>>>>>>_-__>>----_-______------_____>__--_->>>>>_____--_>_>>>___-__>_--{--{{-___-__--__-{{---{{]{____-----_{]{>_--_>___-__>>>__>-_______>____->-@:,  ..=~&^{{{]]{{{{{{{{-{{-{]{{]^^^^^^]]^^]^<^^^^[<]^{]]]{{]]{{--{{{{-{{{{---{{----]{----{]]-{]]<^]^]{{]^]^]]]{->>_->&#&##%$..$&%@@@",
"--{]{---{{{---{{{-_-----_{{^_>_-_---->>-_-->>>>>;>>;&&&%&_;&&&%$;^|_$$##%%#%%%%%##%&&;>>;>>>;>_;&%%%>&$%&&%%%##%&&%&##&;&&>+3= &%@*:!-&&;;>>>>>>>>;]{&;>>;;>>>>;&&;;&;>>>>>>>____->>>>>>;>_&#%$..@.@$$$%%%&&;>>>>>;&;&&&->;>;;_;;>>;>;;;;&&;__>>>_>__-___--_>__>>__---_____>_---_-__-->>___;>_>>_>>__>>>>__->>>>_----___>_>>>>>>>>>>___---{-___---___---{-_--__>___-->_>>_>__>__-____>>_>;{+0' .$$.)&^-{{{{{-{{-{{-{----{{{{]{]^^]]]^^^^^<^^^{{^]{]]^{{{^{---{{{{{{{{--------{_-----{-----]^{{^^^]-{]]]]]{{->>__;&####$$@.#%@@@@",
"_{{{{---{]]{{{{]{{---{{{]{>>__-_-{---______>>_>;;;;;;;&%>>;&%&%#&>&@$$##$##%&%%#@$%%&;_;;>;&&&;&&&&#$$#%&&###$##%%%%#%&&&%_*a .$$ ,2~{&%%&&&&;>>;&%;;&%&>;%&;;&&;;&_-&&&;&;>>>--_>&&;>>>_-_&#@..@....@#%#%&%%;>;>;;%%;;&&&&>;&;>>>>;;>>>;%&>>>>>>>>>;>-__________>-_>>>___>---{____>>>__>--;>;&;&;&&;>;>;&;;>>>>>_---_>>_-_>>;&;>;>_>>_>-__>>______--->_-{{---->_>>-_;>__>>;;>>>>>>>>>>>;#{ 0*.@@.@)&^_-{{---{{--{]--------{{]{]]]^^]{]]^<^^^]]]]]]]^^]]]{{{{{{{{{-{{{{{-_--{-_____---{{{{{{{^<]{]{{]{{{{{{->>>_>%#@$#@.+#>$.@..",
"_-{-{{--{{{{--{]--___{]__>>_>>>__->>_-{{_>_>;>>>-_;;;;&#%;-_>>&###@#%#####$#####&_->&&>_>>>>;&%%;;####%>>;&%%;_;>>&%&&&;&>{~d'** *'(c _>;;&;>>__-_&%&&&&;;;>_->_-_>>--]-;>------_&&&&%%&;>;%$%%%;>>>&&%&&;&>__>&>>>>>>_____-_>>>>_>;&&_-;>>_->;&;>_-_>_-{{{--__---__{{-__>_--{{->>_-------_;&>-__--------_->&;;&&;>>;>;;%@@&>>&;>>#%>&&;%>>>>>>_;;>>--_-{{{---{{----__---{---_>;_--;;>>;;-]00'*+ *'3 <]{{{{-{-___-{--{{{---{]]]^^^^^]^^^]]]{---{^<<]{{{{-{^^]{-___{{]{{{{-_>_>_--{]{----{--{]]]{_-->>_-{]{->_-->&;;;&%%%%&>;##%%",
"{{--{{___---->_{-_>>_>;-{<<^{->>>>>>&$.&__>>_&#$. ,,'',,),+++@;-{{^]{{]^[[^]-__>&#.#%>&$$$###>>>_>>;>>%.@#%#$@+*+#&;%$$#&$,03*.==.*(d0!=,'',=  + =,,,'*',,*= +@&>-<{-;;>&$++..+=,3/~~~///)!/()'**'==+*),*,) @$.'),*=..+.$@+.$###&%%---; =@ *+=)/,*++  + .@   +  . * @.@#%>&###%###$##@@.++.=), .@@@%.===.$@=*')!)!/(~!!~~((~~)~(),(:/)!)~!)==++,~!~)*+++.$.=..  +.+.%%$= @+.+'!~,*#-{{{{]>)b:)  =*=~3=>>&>;&>{]{^_%&;&$#;&;#$&>>>>>_-{{{^]]->_;&&%$..  .= #$&;--_-&#&&%%%>-_>-&##@@%%;>#%%%#;{--][[<[<{_>-{{>@+,,  +#&&#&_&%&#%%",
"@$@. +@ *.. .+ +.+  . =@;{]%.@.= = =,!) + *  *'!!))~~!~)~(3~!,=+@@$+= $#;--&@.= ,!!)= ',,,),=**= ++==*')!,*',~~,!,***=)' )(~)+. .@=~~!~~~!!!)===,!/((~~~/~,~/(/)+$@+=(3~~!/!,),!/((/(/~!,)~!!3/))/~~)~~(((!//),,~~!!,!/)=,//''!, =,* *'~,)33/~~),)!//~)~~~/(/)(3/((/~!!)= ')~/!~~~/~!!),~~)~~((/!,'')!//~!~),)~/)!~!)/!)!!)')~!~),))/~!!,,)),==~)!~!~/~!)),,,~((())/!!!~(~~~/(~!//)    * ~3,= +=*.*,,'='' ==*@@$@+=  ===* ==''**  +...+@&%$.* * =))= ,''*,),==.@+*))  ,',=. * *,)!!,,= =,*=, + @#_]{--#**+@. )~,=~3/,'=), *),,,'",
"##%#..@.+.+++@@....$@.@$@@#.* .+ **  +@#..@@+ * $$@+* +. **+  ++ == ..+  ..*    +.. + *+.+ .@.   ..+ = .+...@+ +@$@+.@+$$@..+  *@....@+  +..$&%%##@+   =*+.@@.+.&;%#.+').. $#$.    *++..@.. +.++++.. . =  .+ +....+@@.+..$@ +..%#$.=..  .*  +.++  + +@@.+. =+.+*** .+. .##@ ='= ='  +. +..*+@.+ .%#@@.++.@.@.+.++@+++ ..+..@.++....#$ * @$..@@.@.+.@. @@..+@%. + +. ..+++.@++  . +@.+.+ +@.+@.  @.' ##++.@+.$@.@@@@@@$$..$@@..@@@@#%%####;#@.+ .@+@$.++ @.+@..@+    $$+.. .+   +     +.. @@..+..++..+.@.@@@...+@@ **..++.@.. *  ",
"%%&>&##$###$@#%$###%#@$&#%;#@%#..@.@#$@$#%&%@..@&&$@....@..@@#$$$@#%#$##%%###@@.@@@$.+..@$$$##$@.$%#@+##@@#$@@@@%&$#$@@#%##%#..@+.$###@@@$@#;;&&_-;&%#$+.@#&&%%%;-_;%# =+.$%>;#. .##&%#$$@#@.$@.$#@$$#$.$@.@@.@#$#$$$#$@.%$++@#&&##@$$@@@+@@+.@$#.++@&#@#@..@.@@+.%&#$@#%#&#..@$.+@.#%+.$###%#$$#&&####%%#$$@@@@@#@+@%$@@##@$@$#@.#>_&@.#%@$##&;$##$@.#$@@@#&&#.@$@##...$$$$@.@@@@@$$$@.##@@@@@. *+##$$@$@@$#@$##@#&##%#@$$$.@$#$%&#>_;&#&%$@$@+@$$#$.@@.@@$;%$$..@@@$@%#@.@@@.....@@@$$%#$#$@@&#$%&;&#$@#%%$@#@.$@.@#$.$#$@++++",
"$$%;;%#$.@#$$$@$%%$.+@@@$###@@@.+.#$.@.$#$#$.+##.#@@.++.+++@@$#$@$@@@.%%$@@#$#. @@..+....@@@##@+@%%.+##@@.@@.@$@#$.@$...$#$$$.@#.+.@@.#$.@.#_&%%%%&&&&@@..###$##&-;#$@@.=+@$%&%. .%%$@@.+$%.+...@$.@$.%%@@.@@.@#..@@.#$@@@+.@@.@$@##..##.+++....@...+.@.@$..$@ + @#%#@.@@+$#%&>#.+  @+ ..@##$@.@#$#$.$%$$..@..@@@.@+.%%.@$$$$@.@. .>>#..$$.@$%>$@@$#$@....@@@&#.@#$%#.+....$@@@@.  +$#$.@.@@@#@.++...##@@@@#&#@$.@$$$.#_# .@.$$#####&&>>&$$@#@.+.##@@@.@...@%%###@@#@.$&&@@@+@@+.@$.+.$@#$.@@@@#%##&;@.@@.$&#@@.@%#.+@@.@$$@ *.+",
"@@$@@$@*'= ..@ =+.*=**=='==========='+ *   *=* *,,''====',)* **'=*,,''=*=,,'=  ='='**====  *  =*+. ' . =*+*='=***=',= ** == *==,=='=*= =,'= + .+  + +.+  = *==**====,)=* **$.===*  . * ,=**'',= ,'===' . =*=,* **,'==    ,=*.+)'*.*, *'====*.+'''*  ===* **'= .$@=*  .*=**,*+#&@ ',,)~,,,'=* ='=+ ,,' *'=*=''*=*=,,'' .* =*  ===','*  ,,'== +++ *''*=,,)!'=*=====* *'==',,,''=*==,))'+.'))***==',''==+ **   ++ == ='***+ ==,'** +**@@+$$@+='  '*= . =*** *=* ++++..  ==..==='==,,=*='''= ..+ *  ++  *,'  *'=**==*+++*'* ='  ) . ",
"##.'~)')!)!)),'))',, +*.%&&&.=  ),),')))*.+* =,)====='!,=)===',' #% @&%%%%#*,~((:3//!~(/((/(((:/(((~==',,=,)= ++=** =!!))= * *  *,)=++.=,),  $>;..@@#@$$@.++   $###%&##%-]{|^-;%.+.@*,=)*+= ,)=*== .  +.+..*,)'..***,''''!= *=!(~,,) $'~(:3((333~~(//(3/!:3:)++. ,=,(2/~3)3:). *=,'=,)'''**     .+='* * =.+*=!,+* @@,)===.++',,)= ***+*'=*+..+ + =    =' =),))')))=+*..,//~~),)'+ +@ *)' $.   + ,!) .+..=''' .;&>%  =,='),),   +.;%&;.+* *)!~)))===* ,))',~'* = *++='','',,,,',)+ ' ',))=+.*,,=+@.@.  ..=''=@&;&%;{-_%.#&%*3:=..",
".#.~~%;%#;&#@%-->_>;-]--^^<^{___;;>__#%>>_-_--_>>_>>&;&&;&>>;>;>>-{_{]]{]]]-_%@@.@@$$$@$$@@@ * ...$%>;>>>>>;>___>>_-_%%%>-->----{_>---__>___-{{{__-]]{]]{----_-{{]^^[<<<]{{{^[|^--{-_;;_____>_->>>_--------__>>{-___>>>>>>_->>>#$$>--^-;@+@ ** +$$## ')*..~c/,''==)2c)$@@##.%{>>>>>>>>>>>>_____-_>>>->>{____->_->_]-;;;>_--_>>>;>_______>__---__>>_-{-;_]>>>>--_{-{{--->&>>&&>;;__-{{{{{-]{_----->>_{{--___>-{]]]-__>>>>>;;>-----|[<[^^]_>>>&#&>>>>>-&%#;&%_-{-{---___->;>>>>-_>--_{_;&>_---->_-^^<]{{{--_--{^^^^^]^[<<<<^{~:'==",
" @+)>[{-{-{-{{-__-->_--_>___-_>>-{__>{{>&>;;;>__;;;>>>>;&;;;>>>;&&&;;;;&&&&;>--___>__>>>>>>;>_--{{_>&>>__>>_>;>>>>;>_{^^-_-_>_>__--_>>>>_---_>&&>>>>>_____-_>>>>;>>>>>>>;&%;>_>>__>>>{--_;>>_-_>>;>_>>>>_>>_--_>;;;;>___---____{{]->>;&;>_-->>;_>>>----____/a)=*.+,d']>;>_-_;&>>_>>>>;&;;>>>>>>>>>>>>>>>>>__>--_>>>>___>-_>>>__->;>>>_->>>>_>>_>;;&;>;>->$#$#&&;_&#@.#@@%%###$##$###&;>>____----------------__>>>>>>_-_-__-------{{{{^^{----]]{_>-{-]^^]----{{{-----__-_>>_------------_-{]]]]{-{{{------{{{{--------{{{--]&~),*",
".$  ]->>>;_>_->>_-_>_>>---_-__>>{->>>->&{^&&%&>>>;>>>>>>>>>>>>>>>_>>>>>>>>>>;;&&&;>;;&&&&%%&&&&&&;&&&>>>>;;>_>>>>>>>>>_--_>_-_->>_>_>;>>>>>--;>_>>;&>>__>---->>>-->>>>>>_>;___>___>>&]<>>>>;>>>>>>>>;>>>_-_>__-->;>>>>>___>>>__>>_>;{->;&&&&&%%&&&&&&&&&%$- :+@@$@*~;&#%&%&;&;>>>>>_>;&;>>;>>;>>>>>>;;;;>_-_>>>__>>;>>>>_>_>&>_>_>_>>-__-__>;>>__;&&&-]]>$$@@#$$@.  .#@.$@@@@@#@@#%####&>_>--_--___--_---____--_-_>>_>>>>>__{{-{-{{{]^{_-----__>>-{-{]]{------{------->>>>>___-----_------{{-{{-{{{----{---{{{{{{{---{{{{{--', +",
"$$*+^{-_;___{->>_-->____--_->___>>>>>>&&--&%%;&&>>>>>>>>;>>>>;>;>>>___>>;;>>>>>;>>>>>;;>>>>_>;>>;;;;>;;>;;>>>>;>>>>>>_>>{_>_>{->>>_>;>>>_>>>>>>__>;>__>>__---_>>_-_>;;>>>>>_>>>;>>>>>;>_>;>^>;>;>>>>>;;;;>>_-_>__--_->_-_>>>___>>>>>-{--_-__>&&;;>;&;;;;&%_ :.$@ + ._%&&&;;;>>>>>>>_>>&>>&;;&;;>>;;;;&;;;_->>>>>>_>;>>>>>>>;&>>>_>>_>_;{]_>>>>>>_>>;%_]^;@&%@#$@@. .+.@@#@@@$%@@$#%%%##;>>->__----___--__-_>__>___>>_>>>>_---{{--{^^^^{-_-----_>>>_--{{{{--{--_-----___;>>_>___----_-----___-{{---{{-{--------{{----_--{-{--,'+*",
"@#+.^{-_>_>--_>------{-_-______>__>>>;>&>>&&%&&&&;>>->>;>>>>;>;_>>>>>>_>>>>>>>___>>_>>>>_>_-___>;;>>_>>;;&;__>;>>>;>>>__--_>>{-_>___>>>>_>>_>>;>>___->>__---_>>>_>>>>;;;;>>>>>>>>>>>>;;>>>_]_>>>>>>>>;>>>>>_-__>-{-----_>>--_>___>>_>-]]{----_>___>>>>>>;&-+:=    =.-;;;>;;>>>>__;>->_>>>>>;&;>;;>;&;;;;>>__>>-_>>>>;>>>>>;;>>>>__-->___--->>;>>>>>;%&{^>.#&@%&.#.+@@..$#@$@%&$$#%%%%%#&>>->____-----_-_-______-_>>_-_>>>>---{[---{<^{{---------____{{^{{{-----__-{-___>>>>_-_------_--{{-__]]{{-{]]]]-----{{--{-{--{--{{{{&!'**",
"#$ ={{-->_>-_>>_-_>-{{--___--__>>___>>>;>;&%%&%&>>>>_>>>>>;>>>>>>>>>>>>__>>>__>_>>-_>>>>>__--->_>>>>>>>>>;;>>>>;>;;>>>___--_-_-->_>_>;>>;>>>>>;;>>-__>------>>_>>>>;>>;;;>>>>>>>;>>;;>>>>>>;>>>__>_>>>>>>_->>-->-{-__-->_-_-_>____-->_-^^]]{------>>>>>>>;{+3= +  ''>_>;;>>;;>>_-;>_->>_>>>>;;>>>>>>-_&>>&>-_>>>>>>>>>>>>>>>>>>_>_->_-_{{_--;;>>>>>;;&_^_@$@$#$##.+..#@@@@@$&$$$#&&%%#%&>>;__--------_------_----_>__->>____--^]-_-{]{--__--^{_-___>]^]]]]{-{{---_{-_--_>_>>_--------_-{---{]{{{]{{{]]-{-{{{{]-{----{-{{{{^%~= *",
"$.* ]{--_-_-_;>>{--{{-->>_>___-_>_-_-->>&&&#%&&&;>_>>_>>>>>>>>>;>>>>>__>>>__>___-->_>;>>>__-____>>>>>;>>;>;;;;>>>>;;>>>>----_-__-_>;>;>_>>>>__>>_>>----_---->>_>>>>>>;>>>>__>>>>;;>>;>>>>_>>>>_>_____--__--_---{--_-->>>-->-___>-----_>-^^]]]]^{--__>>>>>>-@/= .  =~&->&>>>>>>>>_>>__>_>>>>;>;>>_____{_;;>__>_;>_>>>>>_>>>>>>>>____>--_{--_>__>__>>>>&;]-@$@$$ >&+..+#$@@@$%#@###&%%&&%&>_>---------_------___-__->>__>>___-{-{{-{-{^^-_----{->>>_--{{-]^{{{----------_-_>_;>--_-_-----{{--{]{{{{-{{{]{{{{---{{----{_{{--^^#!=*.",
"@@=+^{->>_-_>>>>-_{{--_>;;>>_>--__-_-_->&%%#%&;&&>>>>>>>;>->>>>>>>>>>_>;{_>>>--_-->>_>>>_-_>__-_>>_>>;>>>&;;;>>_>>>>>;>{{--__-____>>>>>>>>>___>>___>_-_---_>>__>>>;>>>>>>-->>>>;>>>>>>>>>>>>>__>_____-{---_{--{{{-_--;>_>;>>__>_>>_____>_{^^<[[<]{{->>__>>_#!=== =, _>;>>;>_>>_>;>_>>_>>_>>>>>__-___>_-;>__>>_>>>>>_>>>>>>>_>>>>_--___----_>{->-_>>>;&&{-@%#+@#>#+.@.@#@@@$#@$#$$#%&&&%&>__----__-------{------___>>>___>>---{{-{]^^]]]--]-->>____-{]--{]{{{{-----{-__>>__;;>____{{_--{-----{{]]-_-{{{--{{{-{{{-------^--{]%), .",
"$$=*{{->>__>___>>>-{--->>_>>>--__-{->;;&%#%&&&;&&>>>>>;>>_>>>;__>>_>>>;^]>>>>__-__-_>__--____--->;_>>;&>;;;>;>__>;>_>>-[|->_---__---->>_>>>>__>>_____>-]--_>__-->>;>>;;&>{->>>>>>>>_>>>>>>_>>_>>_____---{-----{{--{-__->;>>>__>__>>>>>__>;-[|1111[^{-___>>>@)=**= )*->>>>>>;_>_>>>_>>_>_>;>->>_----__>>>__>>_>>>;>_>>_>>>>>___>>__-_>----->__>>_>_>>&%&--@#$.$#@...$@.@@@$@@#$@@$#&&%%%&>>__----------{--------___>>____->-----{-{^]^]^]--{-_-_-->_{]]{{-{-{{-^^____>_>>-_>>>>_-_]{_>-{_---{---{---{{{----{{{{---{----{]{{{#)'  ",
"@$ .]-_>>_>;__-__--{--____->--__>>>>>>%&%##&&&&%;;;;&&>>_>;;>>>>__>>>_<];_>>>______>>_>_-_-->_-_>>>__>>;&&;;;;__>>{-__{<}[___------{__--_-->_>>>_>>--__---_>_-____>>>;&;;>__->>_>>_>>>_>__>>>____-->__-->_-_---]{--{-_>>>__>_>___-__>_-__>;{[1}8}11[^]]]_;_$~=.+  ),->>>>>;;>>>>_>>>>>>>_->>>;_{-_->>__>>-->_>>>__>;>_>>_->>>_>>>>__>_--{-__-_>>__>>&&%_>@..##+.$.@@..@@@@@$##$$##;&&&&&;__>_--------{{------_-____>{___-->_--{----^<^^{{----___-_>-{{]{--]{----__>__>_--_-_>>_-->-->-{-__>-{-_----{----{-{{-{{--------{{]]#,* *",
"%# >|-_;;>;>>>_->>---->>>>->____>>>>_>;;%#%#&%#&;;;;&&;___;>>_>;__>>_[{;>>>>;>_>_>>>>>_>--__---->>_>>>>>;;;;;>>>>^^___-{^<->-{-{{>--_--_;[};;>>>____-----_>>>>__>_>_-_>;>___--_-_____>____>_->-{-{--_>_>>_-__-{{-----__->___-_>____>_>>__-_;_]^<[1}}[]{-_>_#3'+$+*),___>>>;>>>>>_>>>>>>;_->>>_>_-_>>>>>>_--_>>>>_>>>>>>>>>>;>>__>>>>>__----___>>__>>>##->.@.@.+@@@@...@@.@$$@$#$##%&&%&&&>>_>_----___----__>_-_>_>>>>__>>___---{-_-{]]{-----__-__-_-{{{]----{{___---_>>__->;;_-_>___---_-_;>-{-_--__----{--^^-----{{-_-{{]]$(=. ",
"%% _[--;>>>_>>>>>^<{_->>>_-_>>>-;>-_>&;&##%&%%&&&&&&&&;>>>_>>_;>>_>><{;>->>>;>_>-_;>>-___>>>_->___>__>>;>_>&>>>>-]_--_-{__--_-_{-_____--__{>&>>>____-__-__>;>__>__>_-->>>____-___>____>>>>_->_--{{{{___>_--___----__--___->>>>________>>_--->___-{^^->>>->-$('.#. )'__>>>;>_____;;__>>;>;;>>>>>_-_>>-_>>_>>>__>>>>>>>>>_>>_>>>>>>>>;--_---_>____>>;;>%#_%.#..@......@..@@#$@$$###%&%&&&;;&>_>_---___-----__>>__>__>>>>>;>__>_-->---_------_-_---__-_-{-{---_{-_-__-->>_>_>>>{-__>>--_>_>>>;>__-{---___----{{]{{---{]------]$(' +",
"##+><_>;_>_>;>>-1}[^]{{---->>>;>;>>>>%;>%%&&%%&#%&;;&;>>>;>>>;>>>&>[-&>>>>>;;>__>>>>_>>_>__>__>_->__>>>>>__>;>___>_--_--___->>-->-___>___>;>>>>>>>_-->>_--_>>__>>>_>>>>>_-_____>>__>>_>>_-___-_-{{{-__>----_-->---__-____--__>>>>---_-__----{-_-_>>>>>_-->-$( .  .),-_>>>;>____>>___>_;>>>;>>_---->>_->>>>>>>>>>_>>>>_>>->;>>>>;>>>_-__-_>]->--__>;&;&#;@@$@.@......@..@@@@#$###%&%&%&&&;;;>___--_-_----__->>__-_-_>>>>^{>>>-->>_{{---------__--_____------______>>>>__>__>&-_>-->->>_>>>;&>___{-_---__{{-{{{{{{{{{{{{{{{-{#~   ",
"%%.><-_>-->>>>>^[]{]]^{--_____;;>>;;;;>;%#%#%####&;&&&;>>>>>>>__&>[-&;;;;;;>;;>_>>-_>>__{-__-----_>>_>>>>__>;_-_>__--__-_->>-_-_-----___>>___>;>_>>_>>>__->>>>__>__>>>>>_-__-__>>-->__>____>--_-{-{{-____-----_---{-__-->>_>>>>__-__--_---_-----___>-__{-_-#)  *++,'__>;>_____>>-_>>-{>>>>>>>----____-_>>>>_>>_>>>>>>>__>>>__>>>>>>>>_-->>->>_-->;>;%#_;@@$%#@...@@@@@@@@$@@#%#$%%%&&%&&;>;>>>_--_----{-_-->>-----_>>>>^->>_->_->-{------{{__----__>>-{{-{{-__-_>>>>>_>>>>>&&>__-_>>_>>>>>&>_--_--__-->^<--{{{{{]{]{{---{{{%~ ++",
"&% ;[-_>-{->_-_>;;;>-_>__-__--_;>_>;>>;&&%%&%#%#%&%&;&;>>>>>>>>&{<>&;;;;;>>>;>;;>____>_-{-_--{-__>>>>>___>>>>>-->--_--_---_>_--_----_----_>_>_>>_>>>>>_______>_>>-_>__>>>_______>>>{]_--_>>----{{{{]--_-_--------{]-_---_>_;>>>__>__-_------_--]^__>-------#!* .+ ,=->>>_>_--_>__>_>_->>_-_>--__-->>__>>_>>___>>>>_>>>>>>>>>->;>>>{->>__>>;>----_;;&%%&@.$&&>#..@@@$@@$@@##@##$&%#%%&&&&;>>>>;<]>-_------------_{{>>>__>>--__>_>__------{-----_---->>-{]{{{-----_>>>>>>>>&>>>__>___>_>>>>>&>>-------_--{{{--{{{{{]]{{----{^#~= .",
";&.;<--_---_>__;;>>_-_---{_>-_>__>>>;;&&&%%&%##%%&%&&&&>>>_>>>>{^;&>;;>;>>;>>>;;;>>>>>____-----_>>>__>__>>>>>>>----_------_>_-__-->---->>_>>>>>>>>>>_>____>>>>____-____>_-_>>__>>___-_{-__-__---{]{^--____-_--_--{{--{{--____>>>__>_---__-------]---______-&/,+...,=__>_-_>--__->>__>-->>__---_-_-___>_>>__-->>>_>>>>>>>_>>>_>>>__-->>>_>__;>--_>;;;&%$@@@$##@.@%@@@@@@$@$#$$##&%###&&%>>&;->>{]_{-_-{------------>]^>___>--_-____----{----{--_------_-{{{{{]{-_-_>>>__>>;;;_>_>__>>>__>>;;>>--_---_{{-{]{{]{]{{{{{{-----{^#~ .@",
"&;.><_-__-_-_>_>>>_--___---__>>-_;>>_>>;&&%&&##%%&&&&&>;>>>>>>_-&&>;&;>>;>>;>>;;;;;>>>_______---__>>_>_->>__>_>>-__----_---____>____-__>>>__>>>>>>>>>>>>__>>_>;>_>>_>>--_-___>>>_____>_-__--{--{{]{]--____---__-{{---{-{_>___-->>_>___-___----{-_-{-___-___#!=+.@.)'->______-_-_>_>__-{____-___-__-__>_>;__>>>>>_->>>>>>>>>>>>;;_-;>>___>;>>>-_>>;&&&###$@##;#+$#@@@@$$$@@@###%$##%#&&%;_;;>>->_----{{-------{-{-__{]>>>_-_------_-{----------_---_-->_---{{{{{___>___>;>>>&>_>_>>;_>>_-_>;>>_-{-----_-{{-{^^{{{{]]{---{-{]>)=..",
"#%.>[_____--->>>>>---__{--->>___>_>>->>&&&&%##%%%%%&&>>;;>>>>>;&;>>;;>>>&;;;;;;;;;>;_-_>--__--{---_-_>>>__>--__>>____--_----->__>_-->>>>_____;;>>__>>_>>>__>___-_>_->>_{>>>-_>_______>>__->-{{---{-{{______-___--{{_-{{---___-__>__>_----__---{-{--__>____>_,=+.. ,'->_____---_____---__---_--__>>>__>>>>>>>>_-_-->>_>>>>>_&;>>>>>>>>>>>>;>>>_>>>;&%%&%#$@&>__@+.@@.@&$$@@@######%%#&&%&>>;;--_--__--{{-----___-_{_>>__>-->---_--__-{------------__>>____-_--{--_>___>>>;;;>&;>>_>>_>____>&>>_-----{----{{{]{{{-{]{{--{--{{{*,.@",
"$#._[-_>_-__>__>>----__---->>____>>__>;&&#%###%%##&&;>>;;>>>;;&;>;;;>;;;;;;>>;;;;;;>----_-_---__--_->>>_>-___>>;>__>___------_>_-_-_>____>__>>_>>_>>>_>>_>>>__>_>_--_>>_______>_>__>>>___--_-{-_-{-{{{__--_____---{---{---____>>>>__-{-_-{_---------____>>>{),.$.+'=___---__--_____-_-->-{__-->>>>;>>>;>____-{{-->;>>>>>>>&--;>>;>_>;>>>>>>>_--_;>&>;&&##$#$#>&&@@@.$%@$@@$$##%####{>#&&;>>&-__----_-{{----{-___-->>_>_-->--_----__------____---_-_>____-_>-{---_-__>>>>;;;;;&>;>_>>__->_>>>>__-{{{-----]{{{-{{{{-{{---{---{+'@#",
"%#+#^-___-----__-__-__>_-_;>>>___>__>>>&%#%%%&&##%&&&;>>>>;;>;;;>>;;>>>;>>>>>>;;;>>>__|^;__----_{-_>__>>_->>>>>>>___>___--_>__>_-_>>>>>>>>_>____>>>>_>_>>>>>>>_>>>__-->>___>>______-->_-_---_---_----{-------_---{--_---_-{-_>>>___-{-_{{-{------_--__-_>>>^',@. .=)>--____-__>>>___--{_-->_->>>_>;>>__>_-__{{->>>__>>>>>;-[_;>;>>>>>>>>>>;>_--_>;&>>&&%##$%%#;>@@@@#@@@$$$$#######_>%&&;>;;>__---__--{----{{-_--_>__>-{-------_----------__---{--_>_->__>_-{---____>>&>;;>&&;&;&>_>>__--_>>>_--{{----{{]{{--{{-{{-{---{---{@*%%",
"%#. ^{>__--_-_-->>_>__>-_>>;&_>>___;>__;%&;%%%&%%&&;>>>>_>;;;;;;>>;>>_>>>>>>_>>>>;>>>-]-_>--____{-__>_>>>>_->>>_>>_->_-_>>>_>__>_>>>>>;;>_>>_>>>>>__>>_____>>>>>____--_____>>>>>-->>_--_---{-_------{__--{--_---{-----_{---{_>_-----]-{----------_--______-_)'$. +*/&]_>-____>>>>>__---_>>>>_>___>__--_>>>>_-__;;>__>;>>;-[>&;;>>>;>>>>;;>>>>>>>>;;&%&&%$#;&##%@@@@@#@@$@@@$########%&&;;;;&>_>___^{_-{-{{------__>-__--_------_--_--------_--_--->>>-__>___-____>___;>>>&&;;&&;&;>;___-_>>>_>_--------]{{]{{{]--{{{{{-----^. %%",
"%%.=^]_-{-_---->>>__-__->>_>&;_>_->>->>>;%%&&&%&;&&&;>>>>>;&&;;>>>-_>>>;>>>>>>_-___>_->_-__>>--_-{_>>___>_____->>>_--_--_>___-->>_>>;>>>>>_>__>>>>___->_______>_>-_>>___>_-_>>>__>___--_{-_--__{{----{__-{-_-------{{-{]---{---{{-_--{{--------{----______-.( %#. +~.^__->>>>>__>>_-_--_>>>;>-_--___-_>>>>;>>>_>&>>>>>>>>{-&;;>;;>_>>>>;;;>>>;>_>;&%%&&#####$#&;$@@@@@$$$@@####$##$#&&&&&>;_>>_-_>^]_{{-{-----{{__>__--_-__-_>_----_----_--_------_<]>_>>--_-__->>_>_>>;&;&>>&&&;;&;__>>>>>>__-_-{----_{{]{^]{----{---{--{-]+=.@",
"&&+=]]{{-_->>>>__>>_-_>>>;>;&>>>__>>_>>>&#&&&&&&&&;;&&;>&&;;;;>>>_-_>>>>;>>>>____>_>>>>_{->{^_---_->>____-_>>>_>;_-->>_--_-_-->_-__>>>>>>__>>_>>>_->{{>>>>>__>__>___>_____>_______----_--__----------{-_----{_---{{-{-<^_-{{{{--{__---{{--{-----{---_______#!*$#.+=~&{___>>>;>__>__-_>____>__>_--_>_-_>-->;>>>;>;;>>>>>>->;>;;>>>>_>>_>>;;;>>;>>>>&&&%%%#$&&$%###@@@@@@#%#$$$#$@#_;#%;&&&;;>>>_-{->>------_---{--___------__-_--_--------_>_--{-_>-|<{-->--_---_>>__>_>;#;;&&;%#;;&;;>__>>;>>-{_--------{]{{]{>-{{{{---{-{-].)+@",
"#$.@]-{{_-{>>____>>_-_>>>>;>_>>>>>>>>>>&%%;&&;&&&%&;&&&;;&&;;>>_>>_>__>>>>>>_>____>___>_--|9^>>-->-_>_____->>_-_---_>___-_-{-_--_>___>>>_-_>>>>>>>>>_>>>>>_-_--____>>__--__>>_____--__-->>-----{-----{-------{{---]--{{----{{---_]{-----{--{{---{----_--_---==@.+.,'->-->>>>>;__>_-___>>>>__>>---->_-__---__>>_>>>>>>>>___>>>;;;>>>__>>;&&&>>>>>>>;%&%&###&%%%$$%$$$@@@#####%$@@@_[-#%&;;;;&;;>_---_------__-----_>-------------_--_----_>>_----__{-{]{]{->>{--->>-_;>>;&#;&&&%%%&&;>-->>;&>>--------{-{{{]]{]^--{{----{-{-].).@",
"##@${------>;____>>--{_>>>>>>>;&&;&;>>>;&%&&&&&;%%&&&&%;>&;;>>;>>>_>>-_;>>>->>>______>>>_[9^>-{---_>>_____-_>__-----_>>>>__->>-_>__>>____--_>>>__>_>>____>>_>-__-___>_--_-_>________-_--____-->--{--{--------{--------------{{-{-{]{--{-]{_---{----{-----__#)+.+@.,=_;>-_>>>>>__>>---->;>>-_>>-->>>_>>_-_-->>>>>>>>-_;_>_-_>;>>>>>>>__>;;&&;>>_>_>&#&&&###@@#####$@@@$$$$@@$#$$$$${}{&&&;;>;;>>----{{--------{--___-------_--_---__-{---_>>--_--_>-]{{]]^]-_-_>>_>__>>>;&%&;;&&%%&&&>__;;-_;>---{------{{{{]-^7[_-{-{-{--{{-==..",
"##..^]-____>>_-_>_-{--->>>_>;>>&>>>>;>;;&%%&&&;;%%#%&&;;;&;>>;>>>>>>>>->;>-_>>>;_>>>>-_>-]_>_-]--_--_>___-___>>----_>>>____>>>>>>>>>___>>-->;>_>>__>__>>>>>>>>__-__>_____-___--__>_-_-__-___>_->--_---{-{--]---__-------{-_-{------{--------_----{{{---{---@)+.@@.,'>;____>>>>___>>___>_--___-_--_>>>>>_>>_>>>>>>>>-_;>>>_>>>>>;>>>>>>;>>&&>>>_>>>>&&&%%%#%@$#&$###@@$$@@@@@$#$$#@#[1>#&&&>>;>_----{---_^^_--{{-_>_-__----_------->{]__-_-_--_--___-{{^]^{{{_>>;>>;__->&;;%;;&%&&&&&;>>;;__>>__--{----{{{{{{--97]>-{{{{{{{{{)'$$",
"%%..^{_--__>>__-{--]{{--->>>__;;;>>>>>;&&%%%&%#&&##&%%;;;;&;>>_>>>>>>>>_>>__>>;>>;>>>___->>__--_-___>____>_-_>__>>>>>>>>___>__>>-_>>__>>>___>>__-->>>_>>>___-____-___>_-{---_-_>->>--_-__>__>-->_->>_----{-{----_------{----{--------------___>_-{-{-----{{#! .#@+*=->_>_>>>>>___>>-__----__--_--__>>>>>_>;>>>>>>>>;>>>>>>>__>;>>>>>>;;>&&;>>>>>>;;&%;&%#%_%#####$#$@$@$$$$@$$$$##$&];%&;;;;>>_---------]{-------___--------_--_--___-->_--------___-{{{]--]-_>;;>>>_>;;;>>%&%#&&%&&;;;;;&;>_-_-----_{{{{-{]--{}}{_-{{{{^]{^',$&",
"##+.^{-{---_>-]]----{{-{->>>_>>>>;;;>;&&##%%%#%&&%&&%&&;>>;>;_>>__>>>_>>>___>>>>_>>>>____>_>>--__-->--__>>>____>>;>_>>>>>__>>___>>>-_>>___>__>___--_--_>>_{-________>_--{----__->][-____-_--_-_>____-__-----_--{_--{------{-_-----{---{{-_>----____{{_---]{$/*$$@+==->>__>>>>>>__>_>_>{^----___->>>>>-_>>;>>>>>>_>>>>>>>>>>_>>>>>>>>>>>>&&;>>>>>>>;&%&&###&#&&####$#@@@##@$@@$$@@#%##%;&;>;>>>>----__---{----{---->---{--_---__---___-__->_--__->--_--_-{-_---_>&;_>;&;;&&>&&&&$%%%%&&;;;;>>-{-------{{--{{{-{--[|]---{]{{{^,'.@",
"##..{{]{-_--_-{-_{{_{{{{-____;;_>>_>;&%%$#%&#%&%&%#&&>_;;>>>_>>>;>>>>>>>_>>>>>>>_>>>____>-_>_-->---_--_>_>_______>>__>>_-__>___>>>>_>>>--_>>>_>>__----_>>_-_>_-_>_->_--->----_-{><[>_-__--_-_>______-_-----__--_^-_-{{------___-{-{---{{]{___-____-{{-{{{-{%! @.@.,=_>>>>>>>_>>_>_____{]_____-__>>>>>__>>>_>>>>>>>>>>>>___>_>>>;>->>>>;;;&&;>>>_>>>&%%%####$#&;$#%@@#@@##.@@@#$$@$###&&&>>>>_->___--__--{{{{-{{__{--_-{---__--_>_-_-->__-___-__>>_--___---_>-_>>;&&>;;&&&&&&&;&#$%&%;&&>>;>>---------{---|[------{]--{-{-{{^='+.",
"&# .{{{------_>_---{{{---_--_>;>>>_>&%%%#####%&&%%%&&;>>;>;>>>->>>>-_>>>>>>>>>>__>>->>>>>>__-____-__>--_>____>__>>_>>___-_____->>_>>>>_--__>___--_>---_____-->______---___--__-__>>_----__>>_>__>__>>--__-{|<_>-5<>--{-{-_--__--{--{-{{{--->>-_-_-{{-{{{{---,=@@.+)'-_>;>_>>>>-->_____>>_>>>__>__>_>>>>>>>>>>>_>>>>>>>>-_____>>>>__>>>&>;&;;>>>_->>&%%&##&#$%;>&$$@&##$$#$$$#$@#####%%&;;>>>___-_-1]>----{{{{---_------__--_--_>_--__{-__>>_-{->-_---______>_>;>;>_;&&&;>;&&&>####&%&%&>>>>>-----_---__-{{{{--------{{---{_<.,.#",
"&# +^{{-_---{------{{{-___-_>;>;>>>>;&%%&#%##&&%%&%&;;>_>>;;>>>>>>>_>>->;>>>>>;>>_-_>>>>>>_>_>>___>_>>_>__>_________>___-_>_>_-_>>>_>>--_--_____>_>_-_--____--__-_>_-_-->---{_-_>>>_---__>>_>>>>>_>___>___{[^>-{-------{--{-_-{{----{{{-{{--_-{-_-{{{------_,=@@ +',-_____>>>>____>__>>>-____>>-__>;>_>>>>>>>>>_>>>>>>______-_>>__>>>>>>;&>>;>>>__;&&&%#$#&@@%>%###&#$##$$#$#$@##$#%%%&;>>;>-__---]--_-----{{--{_>_-_-------_-_-_>-__{-_>>_----_-___-_->_-___;>_;&;_>&&;;&;;%&##$%;#&&&>>__;------------{-{]{--{---{{{{{{-_<.,@@",
">% ={^{---__{-{----{{{__-{-_>->;__>>>;&&%&&&&&&&%&%&&>>_>>;>>>>>>>>>_>>>>;>_;_>>;>>>>>>___>>__>>_-_>_>>>>_-____{-_-_--_-->__-_>-___>>>----__>_____>>>_-___--___-____-{_-_-__--___>_-_-____-->>>;__-__->>_-->--{{__-----------{{--{--{{{-{--{{----_{-{-]{--->, @.+ *,&->>-__>>>>>->>>__>_--__>>_{-_>;>_>>>>>>_>>>>>>_>>_-_->>__>____>_>;&>>&>>>>>>_;&&#####.##.&#$$$@@$$$#@#$$$#$$###%%&;>>;>--__-_>--_--_----{{-_>-{_--_1]>--__-___-_>-____---___>>__---{-__>>_>>;&;___>;&;&#$#%$%;#%&&;>>>>-_--_-{------{-{{--------{{{--_[@'@@",
";&$,;[]]-__>--{{{{{{{->_------__-_>&&%&;&;&&;&;;&%%&;>__>>>>>>>;>>___>;__;_>>_>;;;&;>;>_>>>>__>___>>>>>_>__>>_--__---_-->>_>_>>__>_>>___--___>{->>>>_>>>--____>>-_-__-_-_>>>_-__-__-_-_-__->_>;>>>->_-_>_--_-{{---{-----_-{{{{{-----{{-----{{-__-__{{{{{{-_-**@..#+~.{>>___>>>>>;>>____>>>__>-_-_>>>_>;>>_>>__>>__>>>;>--_>>>__-_>_>>>;>_;>;>___>>;&&#$$;;+#%$#$@$$@$$@@#$$@###$$###%&&&;>>>_--__---------__{]--_-]---_-]]__--_>_--_-_---_>__--_>>__--__-___>___>>>&>--;>;&&%#$@#%&##&;;>>;>___-{----------{------{---{{{_>[@,@$",
";%$)$1^^{_>>_-{{{{{-{-__--_--___;;>&;&&>;>>;;&>>&&&;;;__>;&>_>;>>>->_-_>>-__>;>>;;;>>_->__>>>__>>____>_>_>>__>___--_>_->>_-_>_->>>>>>-----_>>_-__-_>>>_>>__>>>__-_____-_>>-_--__--____>--_>__>>_>>____-_-----{------__-->-{]]]]{-{]-----{{--{{---__-{{-{---{.=$@@%+(.]>_>->;>>;>>>>_>-]&>_>__>_>>>>>_>;>>>_--__-_>>>>>>__>>>__>>_>>_>>-_;>_;>>-_>>&&%%$##$$$@##$$$#$$$$.%#@$#$####%%%%&;>>>>___>_-_------___{{-_><<;-{-----_---__-------{->_---_-__-_______>>_>>>_->_->>>>;&&###$%&#%&;;;>>;__--{{-----_---{----{{--{{{{{_>^='.#",
";#.)&1^]]{_---{{--{---_->-____>_>>&;>;;;;>_>>&;>;;;;>>_>;;&>>>_>>-_>--_>>_>_>>>;;&;>-____>>>>>_>>-___>>>_>_-_>>__-_>>_;>__>-_>___>>>>>-_--_>>>;>>__>>>>_>>_>>>-->_>>___>>__>>____-_>__---__->>_>-_--__-_-------{{-----{-_{]]^^]--]]{{{-{]{{----{-----------{ ,$$@. (#{_>;_>;;>>__>__>>>>>_>__>_>>>>>>>;>>>_-_--___>>>>;>>>_>>_>>___>_>>>;>>>>>-->>&&#####@#&#$$##$##@#@@$%###$#&#$#%%&&&>>>___-__-_-{-_____--_--_{{_-{___>-_>>_-_--------_>---_-_>_______>-_>____-->_--->>>&&#&&$$%;&&;>;;>___-{_------_---------------{{>-^!=%%",
"#@+=_^^{{{-_--{------__-__--_>>>-_;&&;>_>_>>;;;;;&;>>__>;&;>>;>_>_>_>_>_>>>>>>;&;;;>______>>___>>_->>>_>>>>>>_>>>>__>>>__-_>______>>;^-;__>>;;>>>>_>;>;;>>>>>>>-^-->_____>>>>>___>____-____>-{>>-{_>--____-----------{---]^]]]{---{{{{{{{{{--{-_-{---{{---_{*'+@$.''--_>>>;;>___>>_>_&>_>_>_-_>>>>>;>>>>-___--_>>__>>&&;>___>>;_--_>>>>;>>>>__>_>;>&####$$##$$$#$#@@@.$$$#$@###$#####%&;>>_______--_-{-__>_------>_--_^{>>>>>>>___------->_---_-____>___>>__--_->-->;>_->&&&%###%%%&%;>;;;_-_------{--_>_-__-------{-{---><>! $#",
"#. .{{{{----_----->_-----_-->>_>>;>>;>>>>_>;>>>;&&>>>>>>;;;>>>>>>>_>>>>_>>>>>>;>;;>>_---___>___>>>>>>>>>>>;>>__>>>->>>__--____>>___&-^;;;;;;;>_>__>;;>;&>>>_>>>-[_____>>>>>>;>>__>_____-_>____>>>{__---_>>---_---{->^]_{]{]]{{^^{-{--{{]{{----_-----{{{----{=*@&#+)$^>_>>;&___>->_->;;>>>_>>>__>>>_>;>_>>>_-_;-]&>>>>&&&&>_>>>;>_>>>;>>>>_&_1-;>>>;&###$$$@$#$##@$$$@$$@@@%&$$$@@###%&&&;>>;__>___-__---->>--{-__-____[->>;>;;;>__------___---->_>>>>__>_>>>-{-_>____>>>_>&&;##$%>&%%&>;;>__--_-------__-->_---------]{-->|$(+.$",
"&$ *{^]{{--->-{{---------___-_>>>>;>;;>>__>>;>__>>>>>>>;;;>__>_>;>_>;>>;;_>__>>;>;>_-_-{-_>___-_>>>;>;;>>>;>_>-_>>_>;_--{--_>____-_>>&&>>>;;>>>>__>>>;&&;>-_____>-___>>>>__;;>>____>>>>>_>>>>>>;>;___-_>__>_-__-_-->^{-{{{{]]]{^^{{-----{{-_----_--------_-^'*>#. !#^;>>>>^_>-_>>>_>>>>;>>>_>>>>_>>>>>>;>>>__>>->>>;;&&;;>_>>>;>>>>>;>;>>__>->>>_>&&%##$#@@$##$$###$$@@@$.%[%@$@@@$##&;%&;&&__>>___--_--___----->---_-_>_;;>>>;;>___----___---_-_>>_>___->>>-{{___>--___>__&&%#%#&;&%&&__>>___--_---{----{-___--{{---_--->[.3+@@",
"&&.+]]^]{{---{]---_-{--__->_-_>;__>&;>>>__>>;>_-_-_>>>_;;;;>>>;>&>>>;>;;>>>>>>>;;>_---_{->>_____>_>;>>>>>>;_>>-__>>>--{--{___;>__>>_>;;>>>;;>>>>_>>>>;&&;_-->__>_____>>>__;&;;>__>_>;;;>>_>>>>>;>;>_>_>_--_>->>-_>_-;_-_-{-]^^-{^]{--___---_--_>_____-{----[ ,$#.+).]>_>;{]&>>>>>>>>>>;;>>>>>>;;;>_>;;>;;>;>>>;&>>>&%&&&>>>>>>>;;>>>>>>>;;_;&>>>>>;%%#$###&#$$@#%###$#@$#@@#&#$$$@##$$$%&&&;>>>>>>_>_-__>__-----_>---->_>>-_>>;&&--_-_-____{{--_>>_->>____-_--__>>_--_____>;&%#%>&&%&&&;_>>__------{-----{--_-{--{---{-->;]@/.$@",
";;*;|{]{{{-_{]{---__------__>>>;;-{>&;>>>>_>>____>__>>>;>>;>>>&;;>;>;&>_>;;>>>;;;>_>----_>____>>;;>__>>>;>>__-_>_>;---{--->>_>>>__>_>>>>;>>;;>>>>>>;>>&&;>----__->___>_>>>>;>;;>>>_>;;>>;;>>>>>;>>;>>>_-_>_---_>_____---{-{]^{-{^<^{-__-__--____>___------_^#,+$#.)+]-_>>_&;>;;>_>>>>>>>>;>>&&&&>>__&;;;>>>&;;;;>>&&&&;;;>>>>_;&>_>>>_>>>&&>;>>>>>&&&%$$#$#$$##%%##$##@#$#$.$##%$$#$@$###%%;>_->>_______>>_----___-_-_>---->>>>>>_-__-___>_---->>--_>____-{__-_->;--___>_>>>&&&%&&;%%&&&>___----{-----------_-{{-------_>&_&! @@",
"&&=>}{-----_-]{]{----__-___>>;;;>__>>&>>>>_>_____>->>_>;>>>>;;;;>>>>;;&&&>;>>;>>>;>_>_-{-_>-___;;>>_>>_>>_>>>____>>-----___>>>>>;___>>>>>>;;>>>>>>>;&>;&>>>_--_>____>>>>>_>;>;;>>>;;>;>>&&>_;;>&>>;>__--__----->_--__-{-{{]]]-{]]^^-_{-_----_--__>>_------>[_,..@.)#^_>;__&;;;>>>__>>;;;;&>>;;&>>>>>>;&&;;>;&;>;>;&;;&;&;>>>__;;>_>>-__>>>;>>>_>>>&&&%#%##$$$##%#####@@.$#@$@###$@$$.#%###%;>>__>>_-_>>>>-_---___----_---_--_>>>>&>_>__>_--__-___>>>_>------___>>>__>__>>>>;&&&&#%&%#&&;>>>----------{{-----_>{{-------_>&-;! @.",
"%%=&|-{-------]{{{---_---____;;>>>;;>>_>>_>>_>>_>-____>__>_>>>;>>>>>;;&%&>>>>>>;;>_>>>--{-___>_>;>______-_>>___-_>----___>_->;>>>>>_>>__->;;;>>>>;>>&;;>>>>>>>>>>>_>>>;;;-->>;;>>;>>>>;;>>>>>>;;>>;_>__--__-___-_-{--{{-{{]]]{]^]^^{-{{--{--__-->>_{------_[&*%@.@+*-->>_>>>;>>>___>>;;>&&;;;;;>>>;;>;;&&&&&&;&&>>>;;;>;>>>>>_>;>>>>_>>>>>_>;>>_>;&&&########$$#@%%%#@@@$@.$$$$$$@#$@$#%#%&;>>_-_>___>>>__----___----_------_>;;_-->__>_-__-___>_>>___---{--_>>>>>>-_>__>>;&>%##%%#%#%&&;>>-{{{----{----{---_>--]{-----_>&-@3 @.",
"@@'&<-{---{---{{{{{___--_>>>;;-_&;;;;>>>>___>;>__-_____-_>_>__;;>>>>;&&&;;;>>>>;;_->_>_{__-_{_>>;________>_>-_-->----->>-__-_>>>>>>>__>-_-_;;->>>;>>;;;>>>>>_>>_>>>;;>_>;>>__>;>>>_>;>>;>__>>>;>>->>>_>--_____-{{-{-----{1^]{]{^]{-]]-]]---]-_-___-{----{{>[&*>#@$ *-_>>-->>__>>_>>>;;;;;&;&&&;;>>&&;;&;&&&&&;;;>>>>;;>>>>;>__>>__>__>>>;>>>;>>>>&;&%##$##$#%$$$%###$@.@..@@#$@$#@@$@$#%&&;&;_>_-_>>>>>_>>---{->>----_---->>_>&;^11[-;>-__--_>>>>-__>-----{-{->>;>>-_>>;>>;&;%#######%;&>>_--{----{{--_--{{--_--{----{-_>&-.(+@@",
"#$';|-]-_-{{{--{-____>>__>>&>_->;>;;>__>___-_>>>__>_-__>>>>>>>>;>__>;;&&;>>>>>>;>>_>->_->>-{____>>____>>>>>_>>_>--_-->>>>____>>>;>>_-____-_>>____>>;;;>>>>;___>>__>>>>_-_;;>_>>>_-_>>>>____>>>>>>-->>_>_-------{{{----{{][]{]^]{]{-{]^{{{{{{{------{------_<%'$%#@'*-____-___>_>;>>;;;;;;;;&&;&&&&&;>&;>;;;&&;;>>>>;;>>>>>>>__>___>>_>>>;>>;;>>>;&&&%###%#####%#&#$##;>@.@@$$##$$$@@%#%&&;&;>>>__>>>>>_>>___--->>--_-_-_>>>>>>>_-^|1^>>_>--;>>>__>_____-{{{{-_>>>>>>>>_>>;>&&&%%##&%$%&&_>>-{-----{---_-------------]{-_>%_./+#@",
"%&=>1]{{-{{{{_----___>__>>>;>_;;;>>>>>____-->>>>>>>_>_>;>>>>&;>>____>;&%&>_>>>>;;>>_-___>____>__>>>>_>___>>_>>_>-__-_>>>>>_-_>&>>>>_>_-___>>_>>>_>>>&>>>>;>_-->;>_>>&>_->>>;>>>_-_--_>_____>>>_>>_-_>>__------{{-{{__-{]]-]]]]]{^]^]{^{{{{{--{{]-_--_-----_{+*$%#+,'->_--->>>>>>>;>;;>>;&;&;;;&&&;;>>;>>>>>;;;;>>>>>_>>>_--_>_____>>__>>>;;>;;;;;&%&&##%%##%$##%%#$#&_^#.@@#$##$$@@##%&&;;&>>;--_>>_>>_>>>>_--_______--____--_-{-{{]{{---->;>>;>>>>_{_>_{{--->>>>>>>>>>_;;;;>;%&%%&%##%&>>_-----------{-----_--------{{>;%-.(.&$",
"#%*.[<^]--{{--__--__--_>_>>_-_;>>>_>>>_-__--_;>>>>>>>>>>;>_;;>>__>_>>;&&&;>_-_>>>>_--_--__-__-__>>>_>>___>>_>>>>----_>>>>>>__;-_>_>>__--<^;>>_>>>>>>>>>>>>>---->>>_>>>>>>;_>;;_--_---_>>_>>_>>->>---__---{-{{-----{->-{]{]]]]]]^]]^]]]]{{{----{]{-___---{-_{'=$@.+,'_;>-_-_;>>>>>;;>>>>>&;&;;&;;;;>>>>>>>>>>>;>>>>>>______-_>____-_>>>>>>>>>;>>;&&&%&%%########%%##$$$$@$$@@#####$@###&&;>&;>>---_>>>>>>>>___---__--_>>>___-->----------->>>>>;>>>_--_-__---_>>>;>_>_>>;;>;>_&#&&#$&&#%%&>>_____------{------_----{__---;%-=/.;#",
"##  ^<<^{-{-{----_>_-{-_->>>>>>>_>>>__-_>__->;>>_>>>>;>>>>_;>_>_>__>>&&&&;>>_-->___-__-----__--_>___>-___>>_>;>__--_;>-_>>_>;18>;_>>_-_-{__->>>__>>>>>>>>_>__--_>_---_>>>;-_&{{>__----_>_>_->_->>--__--{{-{{----{{]{{{{]{^^]{{]^{]]]]^]]]{-{]{{{^{___-{{{--^'=....,=_;>---_>_;>>>>;;;>>>>;&>>&;>&;;>>>>>>>_>;>>>>>&>]^{{->____>--__>;>>>>>>&;;&&&%&&%%####&#%%%&%##$@#%@@##$####$#####%&>>>;>__---__>>_>>>__-_->_{-__>>>>>>>>>>__-____>>>>_>>>;;_-_--_--__-{-;>->>_>>_>>>>>>>>&&&#%;&&%&;;>___-__-_-{-{-------{{--{---_->&>!~+$$",
"#$@#^^^^]{-_{{-{-______-_>__;>>>>>>>___>__>-_>_->>_>>_>>-__>__>_>____>&&>&>____-__--_>_----__-_>>>_>_-_____>>___>_>>>_-->_-;[5->>;>>>-____>>>;>>>>_>>>;>>>>___--{{_-_>__>-_>_{->>>--{-__-_>--___--_-_--{{-{{{-{]-{{-{^^^]]]]{{{]]{]]{{]{{]]{{{{{]{----{{-{]_~=...@,=__----_>_>>>>>>;;;;>>;;>>&;;;;;>>>>>>>>>>>>;;>;;[}<{-__>>>>_-__>;;;>>>&&&&&&&&&&%#######%%&%&&$$@#$$@%#$&###$###$#&&>>>>>_-__>>>>___-____{->>__>_>>>>>>___-_>-___-___>_>_>;>_----_-{->-{-_>__>>>_>_>>>-_;&%&&%%##%%&;;>__---_----------_-------{-{_>_;>/( ##",
"##@$<^{{]----{{{_--{-__>____>>>>>>>_>>>>>__>_--_>>>>>_>>>__>_>>>>>_>_;;>;&;___->>>>_->>_-_____>_>___-_-______-_>____--->{^>_[;%>>>_>>_____>>_>>>>>>>_>>>>>;>>_--{{_____>___-_>->;>_-->>>_-_-{->>___-_-{--{{{]{{{{-{]-{^]^]{]]]]]]]]]{{{{-{]{{{{{]{----{{--]%3'.@.+'*--{--->_>>>;>>>>>>>>>>;>>;>;;;;>>;;__>>_>_>;&>>>-1[]->_>>;;_--_>>>;>;&&&&;;&&&%%%##%#$$&%#%%%##$##@%%@@@####$$@$#%&;>;;;>_____>>;>__>_---]-_>>>>>-_>-__>_-_--__--_>__-]_>__>__-_------_-{_>>>-_>-_>>>>__;%&%%%###%%&;>_-_------------___--__---{{{->>;_~3*%#",
"&&..^^{{{{----{{--{--______>>>>__>>>___->-_>-__-__>_>;>>>_>_>;>______>>&&;__>_{_>;>_>_>>----___-_>-__---_>-->__>_>___-__-->_;&;;;_>>_>__>__>__>>>>>-_>>>>>>>>_----->__>>-___-___>>__>-_>>-{>]<;>>_>>----{{{{{{{{-{{]]]]]{{]]]]^{]^]]]{-{--{{-{{{]{{-{{_-{{]#/*$#+. *--{{-_>__>>>;;>&;>>>>>;>>>>;;>>>>>__-_;>>_>;>>>->---__>>>>>>____>>_&&&;>;&&;;&&&&%#%##%&%##%&####$#&#$@$@#%$#$@##%;&>;&>>;>____>>>-_-----__>-->__-__---_-{---_-_______<->-__>>___-{-_--{-__->>>_-_>__>;>;&&%%%%###%&>>>----_--_-------__>_-------{{->>#(/ .@",
"%&..]]{{{{{--{{{{{---_>-__->>->_--_>_->--->_{__-_>>_>>>>>_>_>>>__->___&&;>_----_;;-->_>_----__-______-__-_-_>_>___->>--_>>_>;;>>>>>>>_____>_->>>____>_>>->__>____-_>>>>>>-___---_>_>>{->___>9[&>_>;_------{{-{{{-{{-{]^{{]]]{{--]]]]^-{{-{]{{{{{{--{---{{-^.(*$.=. =--{{-_>>>>>>>>;;;>>_>&>>>>;>>>>>>>__->;>>&;>____>>>>{->>;>;;_>>_>>;>>;;>>&>&&&;&%##%##%&%%&%###%##&#@##$##%$$$#$#%;;>;&>_;>>>__>--__---__-_>-_-->>__---_-------_____->---_->>>_>_--_--{--_-->>_-__>>>>>;;&;&%%###&%&>>>---_-_>---_--_-___>_-_{-----{>_@/)=+.",
"%&+.^]{]{-{{-{{{{-_-->--___-_>>>{{->>>>_{_>--______>-_->>_>>_>;_>__>>;&&;;>-_---_>____>>_____>>-__-_---_-->___>>_-_____>>>>_>>>>_>>>___-____>;>>-->_>>>_-_>__>______>;>>____>_--__>>>--_>>>{1->_;_>>_---{--{----{---{]]{{^{]{->-]]]^^{]{-]^]{]]-{---_-----{=3*.++ '*---___>>>>_;>>;;>__>>>;;;&>;>>>>>>>___>>>>&;___>>>>_-_>;;;;>>-_>;;>>>>>;_>;&&&&&%%##%%#&&&&%##&##&%$$$$$$$$#$#%#&&&;;>>;;;>>>__>-_>>>_-__->_>__>____----__--{_>___>>-___-->;>>>>>>>_-----_>>_>_____;&>;>>%&&%#%##%%>_>_--__>>---___-->__>_>_>{{----{-_#~)' +",
"## .^^]{{--{---{-__--__-__>__>>>----__--------__-->>_--_>;>__>;;>__>>&&&&&>_>>-->_>__>->>____>>-_-__>_---_-_>-_______>>--;>_>;>>>___>>_---_>;>______;;__>_--___>>___;;>__>>-_>--__>>_>>_>__-;>-&;->_----{--{{----__-{-{^{{]{-_--{]^^^^{{]^^]{{{-{{{--------)(*+@@ '=--____>_-__>>>>>>____>>&__&>;>>>>>__>_>;>>;>>________>>>;&>>>__;>>;;;;;&>>;;&;&&&%##%;&%&&##%%%#%%###@$$@$$#$@&%$%&;>_>>>;>>_>>_>>>>>___>>>>>_;>>>>-__-_>>--__>>>>>>_---_>>;;>>>;>__-__--_____>_->>;&&;>>%##%###&&&>>>--_>_-_----_____________->------#/~=+ ",
"$@+.^^^{-{{{__-{-----_>--_-___-_>>-{---->-{-----_____>>>>>__>;>>>>_>>&#%&&>>>>__>>_>;__>_->__>_>-->_>__-_-{_->_-_>>>>;_]>&;>>;>>>_>>>;>_>>>>;___>_>>>>>____-__>>_>_;&&>_>_-----________>>_-{>-_>>_----{-]{_----{--->_--]{--_>_{{]]^^^^{{^^]{{{{--]{-__-{--{*/=+ @.,={{-___>>-_>>>>_>;>__>;>>--;>>_>>_>>>>>>>&>>_____---_>__>>>>;>>>>>>>&;>&;&;;&&;&%&%#&&%&%%%&#%%#%%%###$$$$$$$$$$%$#;>>__>>>__>_-_>;>__-__>>>>>__>>>>__>-_>___>-_>>_-_>_-_>>_>>>_-_-->->>___>>>>->>;;>&&>_>&&####$%&%&>>>-_>_{-_---_->>-_>--__->_{_----->!~=+ ",
"##+.^]{{{{{{-----{->-___-____-__>>_--{-_-{{{{----___->_>>>>>;;>>>>_>;&%&&;>>;>_>>_>>]-&>>>_>>>>>__>;>_>---__-_-__-_>;;_>;;>>>>___>_>&;>>>>>;>>__>>>>>>>_-__-->>___;&&;>__>---->>>__-->>>___---_>>-{{{{{-{^__>_--{->;>_--{-_>>-_-{]]^^^]-{]{]{{{---->>------,/+.*+$=={{-_-_>>_>>>>>;>>>>>>>>;;>>>>>>>>>>>>>;;;>_>____-->>>__>>_>>>;;>;;;&&;&;;>>;>&;&%%%&&&&%#&;%%%%%#%%##$$$@##@$$@$#&>>-__;>>>_>-_>>>>__-___>>>>>>>>>_>>_>__>-_---___>___>>;>>>>>____>>-_>_>__>>>]-;;;&>>>>;;%$%&#$#&##&;>-_>>>_----__>>->>_-__>_>-------_)/'  ",
"@.*+^]{--{{{{{-----_>_-___-_--___>>>{{{--__----__->;;_>>>;;;;>>;;>>>>;&&%;>;>;;___>-{;>>;>______>>>>>>___-_-__-___->>_>&;__>____>__>;>>>>;;>>;>>__>_>>_>--_>_-_>>>&&;;>_>>>--->_>__--_>___>>_-->->_---{-{<-__-__->>>>___--_>>-_>-{{^^]]{--{{]]{-->-->_-_---'/@$. .='{-_____>>_>>>;&;>;>__>>>;>>>>>>>>>>->;;>_>_>>-_____-__>>>>>>;;;>>;&;;&>;&;>;;;>;%&&%&;&%%&&%&&%##%%%#$$$$####$@#%&>_-_>>_>>__->>>>>>>_-_>>>__>>>>>>->_____--{---->>>__>>>>>;>>_-->___-__-___>_->>;&&;>>>>;#$#%;##%##%;_>>>>>------>>>___>____>--_--{---=/  +",
"%$ .^]{-{]{{]{{{{-_____--______-_>>;_{{--_>_-___>_>;;;;>>>>>_>>>>>>>>&&%&>>>_>___>__>>;>>>-_---_->__>>__-_---__-_>>_>_>>__>>>>_--->>__>>>_>>>_>;>--__>__-{-__-->>>&;>&>-_>>_-____>>---_>>__>__>_-__----{]{----_--_>>>_->>>>>>_->_{{]^{-{--{{]]]-__----_-{>{@:'@@* = {-_>___>___>>>;>>>__>>>>;>>;>>_>>>___;>>_____----_--->_>>;;>&;>>;>>;;&>>&>_;__;;>;%&;&&&%##%%&###&&%####%#####$#%%>__-_>>_>>-__->>>_>-{>__---_>>>>>>--___{------___>__>>>>>>>_--_-_____-__>>__>>>>>;;&;>>&&&%#>%$&&$&&_>;>___-{---_>_--___>__>--_-----{ /   ",
"$&.+^]{{-{{{{]]]{-{{-_{--_____--___>>---{----->____>;&;>>>>>_>>>_>>>;&%&>>__>_-______>>>>>-------_--->_{{------__-___>>___-_>___--__>--->__>>_>>_-->-__------_-_>>;__>>>-_>---_>>___---__>_---__--___---{---__---_;;>>__>>>>_>>_-{]{----{{{{^{{--___--{{{_{.:=+ *  @{-_>__>____>>>>>>>__>>>>>>;>>>_>>-->>_>___>>_--------->_>;>;;>>>>>>;>&;>;>_>>>>;;;&&&&&&%##%&%%%&&&##%&##%%####%%&>--_-_>>___-->>>__--------_-____>>{{>----------_-___>>__>___--_--_----__>_____-;;;&&;;;;&;&%###%&&&&__>>_>_------_>_--->>>__>>-_----{ (   ",
".# ={]{{->-{{]]{--{->1|>_-------_----_-]{----{----_>>_>>>>>_>>>>>_>;;;&;>-->_--_____--_-->_--{{{_--{{---------__-_-_--_------__->>___>-_-__>__;>--_--__--------->>>-___>>_>--{-______--_>>>_--_>--_>_>---{-----__>>>>__;;>_>_>>_--{->_{]]{{]{{{{_--__-{]{-{+(  +.+=*-->>>_>>__>>>>>>>>>_--;>>>_>_>>-__-__-______-----_----^->>>;__>-_>_;>>>>;;;>>>;>;;&%&&&%&&&%&%%%&&%%;&###%&%###&&;>--_-_>__---______----------_--->_>-____-----_______>_-____-_--__----_-->>_-_>->;>&&;_>;;;&&%%%##&;&>_>>>>-------____-_>>>>_____----{%~*..",
".@ ,-^{-___-{]]{{--_-1{__----__-{---{-{{{{-{-{{{{->;>>>_>>>_-->>>_>>;;>_---__-__--_-{{--->_{-{{{-__{{----{-----{_>-->-__--_---_____-____--_>____----->_--------_>_>_---_>__-{-----_-_-_>>>>_---__-___<{_--{{]]---_>>_--;;>>__>>>>-_>>-]^<{]]{]]{{-_-{{{]{_].3*+@@@+);{__>>_______>>__>>>>_>_>>_>-__-_>______-__---_-{---{-[-;>;-___-{>>>>>>>>>>>>>__>;;&&&%&&&##&&&##&&&&%#&&%%##%%%;>_---->>----_>_---_-{--{{{{_----]{_;_-_>_----_----__>_-_____-__-_---{--_-_>_____>&>;&&^{&>;;&&&%%%&;;>>>>>>---_---_>_--_>_>>>____{{-{{$~= $",
".$.'{^{_____-]]--->_->_------_-{{----{{{{{{{{--{-->>_;-_>>__-->__>>_>>_-___{__-_-_-{--{---{{{{---__--__---------_>>-____-----_-__-----_---_--_{{-----_-----{{_-___>_----_-->-_-----____-->__------_>]}-__--_{]]{-_-----_>>>>___>>>>>_{]^^^^]{^]{]-_{{{-{{-- ( @++$+'_{-----_-___>>_>>__>>>>_>_>_>_--_>>>____-__---_--{---{-_>>--{----->>>>>>>>>>____>;;&&&&&&&&%&&%&%%&&%&%%&&%&%&%&>>>-{-------_-_>_--_---{{{{--{---{^^->>;>>>__--------_{_>>>>__--_-{--{-___--__>_>>;&&;&>>;;;;;&&&%%&;;>>_>_-_------_>_-__-_>>__---{{-{] ( ++",
"@#+.^]-______-----_-->-_-{----{{-----{]{{{{{-{{---_-___>___-_>>__>>__>__--{]-_--_--{{-{-{]{{{{{-____>>_---__----_>{{>>>__-----__--__-__--_-__{------__-{{-----_-_>___-_---->_------___----_--{{----_]{_----_--{{>>-{--_-____---_>-->-]{{]^^^^^^{{{{{{{--{{-',..$$+,*{--_>-__-_>_-_>>>_>>_>>>_____-___>_-_>-___-->_----{]---__-{{{{---__>__>--;>____;;;&&&;&&%&&&&&%&&&%&&###&&&%%&&&>_>_--__-{--{{->__>---{----_{]{-_-]^^]{-_>___--_----_^];>>>>>_--_---{--___-__--__>;&&&&&>>;;;;;;&#%&;;>>>__--------___-___->>------{{-^@~ + ",
"@@+@]-_-_____>_-{--_-_-_-----{{-{{---{{{{{]]--{--__--_>>-_-____>>>_>>__--{{---____----{{{{{{{{{{->>__>_--------_;][>>_>>-_----->--___-----_-----_----_-{-{--->>>>_--_----_--_--{-{{-_---{----{---{{-__-----__-{]->-{---_>-----------{{{{]^{^^]]{{{{]]-{{{{-=, ...+,*{-__>>>_>_______>>>__>>>__-_____>>>--______>>__-{--{{-___-{{{{{--_>--_>>->_->>>;>;&&&&&&&%%&&&&&%%&&%%%%%&&%%&&%;;>--{---{-{]-_>>>>_---{-{{---{---{{{^<^^^]{->>_-_-_>{_>>>>>>_>_--_----->_____->>>;&&&&>>>>>;;;;&&&>;;>>>>_-----_--__>>_>>_-------{---^$/'  ",
"@@ .{----{--{__-{-___-_-{--{----{-----{{{{{{--_-_--{{_>__-----_>_-_>>_---{-----_---{{-{]{{{{{{{{-_>_-___----__->{1->__>_-_---____----_-_--_-{-----------{{-{__>>_-------___-__-{--{->_---_---{--{{{---{{----_{{{{{{]{{-___---__-{-{-{]{{{]]^^^]{{{]]{-_---- ~.+.$@.+-{->>>>__-__>___>>>_>>>____-___>>>_-_>>_--_>>__--{{-{-___-]{{{----_>>__;&-->>>;>>>;&%;&&&%%&&%%&&_;&%%&%%&&&%#%&&;>-{-{{{{{-{{___>>>---{{{{--{{{---{{]{]<[||[^{---->->>>>>>>_--------{-_____--->;>;&;&&__&>>>;;;;;;>>&;>____------{-___>->>---{{{---{{-;,*  ",
"@@ '----{]{{{__-____---{]__--_-{-{-_--{{--{{--____---___>>-->>_>__>>>_-----{--_----{{{-{{{--{{{{__>>>>___--__>>{|-;_>>__>_>--____-_-_>-{__-----{--{---------__-__-_>_>_>>>;>_>>_-__>>;>>;>_-----{{---{{{{{------{{{]--_>>>_--__-{{{{-{{{{{^^^^]^^^{-->>__>] ~.@$@$+ ]-->>_>>__>>_>>>;>>>>>>>__--___>>>_->>>>--__>_--{--{_>->>---_--__--__->>>>__>;;;;&&##&&&%%%&&%#$_-#%##%##%%####%%;_-{{-_-]{-{{__>>;{{---{{{--{{--_-{{{{]^<||11|^{_>>_>>>>>>>__{]-{-_____-_>>>__>;;&%>;%&&%&;;&%&&&&&&&;>>__>_------->>>>>>>>--{---{{{{_{, .+",
"%@*~&^--{]{{-_>>;>__>>--{-;;>>_------{{-{{{{->>>____>_>>&>--_>>_-_>>>_--_-------]^^{___-{{--{]{_>>>;>_{{--{-->>^--{-_>>>>_>_-{{-]->>>_<^--{{{{{{-{{^]{{-___>___>>>-{]^^{{{{{---_{{{------{]]{{^^]]{-{]]]{{{]{^^^{]]]{---{{-{{{{{{]]{{^^^^]^<^<[[[]---]]--];(/ $.  *'_^---->>>>>>_>____>;;;&>__-->>>>__--_--_>___>_---{{-_>-{----_>>>>_-->>>>>___>_->&%#&;>;;&&%%%%##%&;;&%##%&&&>-_;&&>----_-{^]{_>>;>-<--{{{^^{-{^]{--__--{{{]^^]^^^{>_{-{->>>_--{{{{--{]{^]]]{----_->;>->>>>-{{]^{---{]{-{-{---]]{{^^]{_;>__-{{-{]{-{]]-][))  ",
"@..~/&{--{]^<^]]--{{-{^{{^{-{]^^^{{{]-&{>%{{{{{]--->;>>&;&$@#>>>>_>>>__>&>>_-_&&;@.&__-{->>&#&&>>>>>>%.+####@#_@@@@#;>>___>>;$+*.%>_-;##&#$#####%@.@..#&_{]^{_--->%$$@.@@@#&&%;;$@$@@@@$.==  +$$&;%%%&&&&%%$.#&%+  @#%%&@&&%%&&&%%%;&$$$&&-_-;#.='   #%##+(:~' * @$,~#>&%#&>>>__&#@.##&_>;;&>---]{{{]{&##@%_--------_--___>&;_-->;>;>>>>>>>>&##$$##&>>>#$#$$#@%>-----{]]{_>_>>>#@ @&-]]{{]->-_%-^]->>#@@##%>>%&&%%%&;{{{>$@$$#@.$#+=' '+@@@&---;##$$#&&&$@$$.@$%&%;;&#&;&&&&;;&;%%>{-_->#&_;&####..@$#@$;{]_%&$@ * .##%#%{<>,=+*",
"+@.!3! @++#&%%&-&$@. $&&%#%%&&>>;$+*=',*,'*.@###$. '''',)~(3~),'*  ,, *='''='))=)~/)*' .='''',, *,*=!!//!!)!~~!((3/~~'=),,''!/~~(/),',~))(/)~/!,)!~::~),==.$ '==,)!/(::(/!!~),,,~~),/~!//(/),~//)',!)==',))!!,)~,~(~,,)~(~))!)*,))!==//)),'==)!~~)=,!/) *!,),* @$#.)/!*'=,'''  '')~~)~)='==,=  .%#.=''))!/'+....++.@ =.+='))=**='*,''  )= ',,~~/(((!,',/(/~~/~,=@$...'===))')),(2:(~ @$...=)='))*$ ',!!~~,,,,))'*')),==  )~!!~))~~/3:(//(~/)==,)!~~/~))!/(~~~(/!,,))!!'',,',',~!!),===,,!,')!~!)!//)!!/('=',~~~~~~~((~,!~,')=##.",
".$.+ ... ***') #@..   ..'' , ..+ ..  .+ .@@.. = .+=*+ =+*,,)''= .. =*  ....*=  *=*... .#$. $$  .+  *'= +     ','==*==**'*==*=** ==='=  *=***  *  + '*+  +* +    *'=  ==*+@ *+..*= .. .. =* .+ * ..+  ..+   +@.** *=+@@ * =*.  @ +.+@@*+.+++. .@. +@@  $$ ...+ .@@$$+.$ ..+ ** +  * + *  ***=='===**+*=.@=*+..+  +  ..+%$ *'=+..  +* *.+= @+      ====***===*==*  + *== *='==',''''=*. ***''== +*+ ==* *'=    .+++..+*.. ..=======* *''=== .*=.='**',==* ===*+**  + *=* ++.@@.+ +...@$.+...+   *++*=**  =  ','*.   + ''* ,)*$#&%#",
"@$#>#$%$;#@$ =@;>>>%#&;#.++ @$#$@$&###$&>#$#&##%&%#$$$$$@$. *@#@$$@...@%&#$$#%#$@@#%%###%&$##$$#&#.$%$.@.@#%$$$..@......@@@@$@......@.$@@@.@#%.+&&#.@%#$#@@#####@@@@@#@.%#+.$$#$@@$$##@@#.$#$$$#$#%#$@@$$#$##@@@..@@$#@@$..@##@$#&&#@#$@$$$$@$##$####%%#$$@#@+.@@#%##&#$$$@$#@$###@$$#;@.@@.@@$#@##%@.$##%#$&$@#%&&%&;#$$@@#&%@@$$%$@@@#@##$@#$@##@@$##@@@.@..@#$#%%@@$$@@@..++++.@@##@@$@.@$#@$#@..@@++$@##@&&#@@@@.$$%#@%@ +@.$#@.++ @.@$.@#$@@.+....##@..@@..@$$@@@$@@#%##$$%%##&&##@#%#@@#$@...$@..@@$$+.@@#$$$.@@@@+ @&-_&#"};
