/* XPM */
static char * bricks_xpm[] = {
"512 512 243 2",
"  	c #B6B6B6",
". 	c #B4B4B4",
"+ 	c #B1B1B1",
"@ 	c #B0B0B0",
"# 	c #B3B3B3",
"$ 	c #B2B2B2",
"% 	c #AFAFAF",
"& 	c #B5B5B5",
"* 	c #ADADAD",
"= 	c #B9B9B9",
"- 	c #ACACAC",
"; 	c #B7B7B7",
"> 	c #B8B8B8",
", 	c #AEAEAE",
"' 	c #BABABA",
") 	c #6C6C6C",
"! 	c #6A6A6A",
"~ 	c #676767",
"{ 	c #646464",
"] 	c #626262",
"^ 	c #606060",
"/ 	c #636363",
"( 	c #656565",
"_ 	c #545454",
": 	c #1E1E1E",
"< 	c #565656",
"[ 	c #616161",
"} 	c #343434",
"| 	c #3A3A3A",
"1 	c #5F5F5F",
"2 	c #5E5E5E",
"3 	c #5D5D5D",
"4 	c #686868",
"5 	c #323232",
"6 	c #5A5A5A",
"7 	c #666666",
"8 	c #222222",
"9 	c #4C4C4C",
"0 	c #5C5C5C",
"a 	c #E5E5E5",
"b 	c #E7E7E7",
"c 	c #EBEBEB",
"d 	c #ECECEC",
"e 	c #EDEDED",
"f 	c #EFEFEF",
"g 	c #EEEEEE",
"h 	c #F0F0F0",
"i 	c #A8A8A8",
"j 	c #252525",
"k 	c #C2C2C2",
"l 	c #F5F5F5",
"m 	c #E6E6E6",
"n 	c #EAEAEA",
"o 	c #464646",
"p 	c #6D6D6D",
"q 	c #E8E8E8",
"r 	c #E9E9E9",
"s 	c #E4E4E4",
"t 	c #696969",
"u 	c #454545",
"v 	c #DEDEDE",
"w 	c #E2E2E2",
"x 	c #DFDFDF",
"y 	c #E1E1E1",
"z 	c #DADADA",
"A 	c #181818",
"B 	c #929292",
"C 	c #E0E0E0",
"D 	c #E3E3E3",
"E 	c #F1F1F1",
"F 	c #FAFAFA",
"G 	c #FDFDFD",
"H 	c #FFFFFF",
"I 	c #FEFEFE",
"J 	c #C9C9C9",
"K 	c #F6F6F6",
"L 	c #FCFCFC",
"M 	c #F8F8F8",
"N 	c #F9F9F9",
"O 	c #FBFBFB",
"P 	c #F2F2F2",
"Q 	c #474747",
"R 	c #F7F7F7",
"S 	c #191919",
"T 	c #A2A2A2",
"U 	c #242424",
"V 	c #CBCBCB",
"W 	c #444444",
"X 	c #494949",
"Y 	c #F3F3F3",
"Z 	c #121212",
"` 	c #9B9B9B",
" .	c #ABABAB",
"..	c #282828",
"+.	c #CACACA",
"@.	c #F4F4F4",
"#.	c #4F4F4F",
"$.	c #161616",
"%.	c #9E9E9E",
"&.	c #262626",
"*.	c #C6C6C6",
"=.	c #DDDDDD",
"-.	c #424242",
";.	c #6E6E6E",
">.	c #434343",
",.	c #141414",
"'.	c #969696",
").	c #C1C1C1",
"!.	c #414141",
"~.	c #151515",
"{.	c #999999",
"].	c #BFBFBF",
"^.	c #404040",
"/.	c #DBDBDB",
"(.	c #989898",
"_.	c #BEBEBE",
":.	c #131313",
"<.	c #979797",
"[.	c #BDBDBD",
"}.	c #BCBCBC",
"|.	c #D9D9D9",
"1.	c #9A9A9A",
"2.	c #3F3F3F",
"3.	c #232323",
"4.	c #C0C0C0",
"5.	c #3E3E3E",
"6.	c #DCDCDC",
"7.	c #BBBBBB",
"8.	c #D8D8D8",
"9.	c #D7D7D7",
"0.	c #D6D6D6",
"a.	c #111111",
"b.	c #959595",
"c.	c #A9A9A9",
"d.	c #0F0F0F",
"e.	c #919191",
"f.	c #D2D2D2",
"g.	c #D5D5D5",
"h.	c #5B5B5B",
"i.	c #D4D4D4",
"j.	c #595959",
"k.	c #D3D3D3",
"l.	c #D0D0D0",
"m.	c #171717",
"n.	c #A4A4A4",
"o.	c #CECECE",
"p.	c #CCCCCC",
"q.	c #D1D1D1",
"r.	c #CFCFCF",
"s.	c #CDCDCD",
"t.	c #1B1B1B",
"u.	c #8B8B8B",
"v.	c #727272",
"w.	c #6F6F6F",
"x.	c #6B6B6B",
"y.	c #555555",
"z.	c #333333",
"A.	c #3D3D3D",
"B.	c #717171",
"C.	c #707070",
"D.	c #525252",
"E.	c #515151",
"F.	c #757575",
"G.	c #777777",
"H.	c #A0A0A0",
"I.	c #535353",
"J.	c #505050",
"K.	c #4E4E4E",
"L.	c #4D4D4D",
"M.	c #101010",
"N.	c #949494",
"O.	c #9C9C9C",
"P.	c #1A1A1A",
"Q.	c #909090",
"R.	c #4A4A4A",
"S.	c #8D8D8D",
"T.	c #9F9F9F",
"U.	c #4B4B4B",
"V.	c #2E2E2E",
"W.	c #AAAAAA",
"X.	c #7A7A7A",
"Y.	c #A6A6A6",
"Z.	c #0E0E0E",
"`.	c #1D1D1D",
" +	c #2D2D2D",
".+	c #575757",
"++	c #272727",
"@+	c #212121",
"#+	c #838383",
"$+	c #2B2B2B",
"%+	c #898989",
"&+	c #484848",
"*+	c #8C8C8C",
"=+	c #8F8F8F",
"-+	c #C7C7C7",
";+	c #828282",
">+	c #C8C8C8",
",+	c #A5A5A5",
"'+	c #202020",
")+	c #A7A7A7",
"!+	c #848484",
"~+	c #C5C5C5",
"{+	c #C3C3C3",
"]+	c #818181",
"^+	c #868686",
"/+	c #858585",
"(+	c #808080",
"_+	c #7E7E7E",
":+	c #7F7F7F",
"<+	c #1F1F1F",
"[+	c #585858",
"}+	c #383838",
"|+	c #393939",
"1+	c #8A8A8A",
"2+	c #2F2F2F",
"3+	c #313131",
"4+	c #373737",
"5+	c #303030",
"6+	c #A1A1A1",
"7+	c #A3A3A3",
"8+	c #353535",
"9+	c #363636",
"0+	c #292929",
"a+	c #737373",
"b+	c #2A2A2A",
"c+	c #7D7D7D",
"d+	c #9D9D9D",
"e+	c #939393",
"f+	c #888888",
"g+	c #878787",
"h+	c #3C3C3C",
"i+	c #2C2C2C",
"j+	c #797979",
"k+	c #8E8E8E",
"l+	c #7C7C7C",
"m+	c #C4C4C4",
"n+	c #7B7B7B",
"o+	c #787878",
"p+	c #747474",
"q+	c #3B3B3B",
"r+	c #767676",
"s+	c #090909",
"t+	c #0B0B0B",
"  . + @ + # . + + + + + + + + + + + + + + + + + + + + $ $ + + + + $ $ $ $ $ $ $ $ + + + + + + + + + + + + + $ # + @ @ + # + # . % @ & $ @ + + + + + + + + + + + + + + + + + + + + + + + + + + $ $ + + + + $ + + + + + + + + + + + + + + + + + + + + + @ + .   & + % + + + + + + $ $ $ $ $ $ $ $ $ $ $ $ $ $ $ $ $ $ $ $ $ + + + + + + + + + + + + + + + + + + + + + + + + + + + # * @ + + $ $ . + + = - % . + $ $ $ $ $ # # # # # # # # $ $ $ $ $ $ + + + + + + + + + + + + + + + + $ $ $ # # $ $ $ $ $ $ $ + + + + + + + + $ ; ; # $ # . . . . . . $ $ $ $ $ $ $ # # # # # # # & & & & & & . $ $ $ $ $ $ # . . . . . . & & & & & & & & & & & & & & & %   . $ > #   , ' ;   + ; # # # # # # # # # # # # # # # # # # # # # # # # # # # . . . # # $ # # # # # # # # $ $ $ $ $ $ # . . . . . . @ # ' ; $ + & $ $ $ $ # . . . . . . . . . . . . . . . . . . . . . . & & & & & & & & & & & & & & & & & & & & & . . . . . . . # .     &   .   ;   . # # &     & & . . & & & & & & & . . & & &                   ; ; ;   & & &             ; ; ;     & & & & & & & & & ",
") ! ~ { ] ^ ^ { { { { { { / ] ] ] ] ] ] ] ] ] ] ] ] ] / / ] ] ] / / / / / / / / / ] ] ] ] ] ] ] ] ] ] ] ] ] ] / ] ] / ( ~ _ : < ] / { ] / ] ] ] ] ] ] ] ] ] ] ] ] ] { { { { { { / ] ] ] ] ] ] / / ] ] ] / / / { { { { { { { { { { { { { { { { { { { / ] / { ( ( ] [ ] ] ] ] ] ] ] ] ] ] ] ] ] ] ] ] ] ] ] ] ] ] ] ] ] ] ] / { { { { { / ] ] ] ] ] ] ] ] ] ] ] ] ] ] ] ] ] ] ] ] / { { ~ / ( } | { ^ ^ ^ { [ ^ ^ ^ [ [ [ [ [ [ [ [ [ [ [ [ [ [ [ [ [ ] / / / / / / / / / / / / / 1 ^ ^ ^ ^ [ [ ^ ^ ^ ^ ^ ^ ^ [ [ [ [ [ [ ] ] ] { { 1 2 ^ ^ ^ ^ ^ ^ ^ [ ] ] ] ] ] ] ^ ^ ^ ^ ^ ^ ^ 1 1 1 1 1 1 ^ ] ] ] ] ] ] [ ^ ^ ^ ^ ^ ^ ^ 1 1 1 1 1 1 1 1 1 1 1 1 1 [ ^ / ^ 3 4 | 5 1 3 6 { ] [ [ [ [ [ [ [ [ [ [ [ [ [ [ [ [ [ [ [ [ [ [ [ [ [ [ [ [ ^ 1 1 1 1 ^ ^ ] ] ] ] ] ] ] ] ] ] ] ] ] [ ^ ^ ^ ^ ^ ^ 1 ] 7 ( ] ^ ] ^ ^ ^ 1 ^ ^ ^ ^ ^ ^ ^ ^ ^ ^ [ [ [ [ [ [ [ [ [ [ [ [ [ ^ 1 1 1 1 1 1 1 1 1 1 1 1 1 ^ ^ ^ ^ ^ ^ ^ 1 1 1 1 1 1 1 ^ ^ 3 ^ 8 9 ^ 0 2 1 3 3 2 3 0 0 3 3 3 3 3 3 3 3 3 3 3 3 3 2 2 2 2 2 2 2 2 2 2 2 3 3 3 2 2 3 3 2 1 1 1 1 1 1 2 3 2 2 2 3 3 3 3 3 3 3 3 3 ",
"a b c d e e e f f f f f f g e e e e e e e e e e e e e g g e e e g g e e e e e e e e e e e e e e e e e e e e g g g e g f h i j k l m d n e e e e e e e e e e e e e e f f f f f f g e e e e e e g g e e e g g f f f f f f f f f f f f f f f f f f f f f g e e g f g e e e e e e e e g g g g g g g g g g g g g g g g g g g g f f f f f f f e e e e e e e e e e e e e e e e e e e e c h n c h m o p q e r b r q r r r r n n n c c c c c c n r r r r r r q b b b b b b b b b b b b b n n c c c d d c c c c c c d e e e e e e g g e g e r r b m m m m m m m m m m m m m m m m m m m m b b b b b b b m m m m m m b b b b b b b b b b b b b b b b b b b b b b a s q m b t u v d s w m b a a a a a a a a a a a a a a a a a a a a a a a a a a a m m m b b b b m m m m m m m m m m m m m m m m m m m m a m b b m a m a a a s s s s s s s s s s s s s s s s s s s s s s s s s a a a a a a s s s s s s s s s s s s s s s s s s s s s x y e z A B n C w D D D s D w w D D s s D D D D D D D D D D D D s s D D D D D D D w D D s s s s a a a a a a D w D D s s s D D D D D D D ",
"E l F G H I I I I I I I I I H H H H H H H H H H H H H H H H I I H H I I I I I I I H H H H H H H H H H H H H H H H I G G I + j J K L M N H H H H H H H H H H H H H H I I I I I I I H H H H H H H H H I I H H H I I I I I I I I I I I I I I I I I I I I H I G I H H H H H H H H H H H H H H H H H H H H H H H H H H H H H H I I I I I I I H H H H H H H H H H H H H H H H H H H H O I H F l P Q 7 M K N I G H G G G G G G I I I I I I I I G G G G G G I I I I I I I I I I I I I I G G I I I I I I I I I I I I H H H H H H H H I H I L G G G G G G G G H H H H H H H I I I I I I I G G G G G G G H H H H H H I G G G G G G G G G G G G G G G G G G G G O I L O M I 7 Q K R O I L O I I I I I I I I I I I I I I I I I I I I I I I I I I I O L L G G I I I I I I I I I G G G G G G G G G G G G G I I G I H H I H H I I I G G G G G G G G G G G G G G G G G G G G G G I I I I I I I I G G G G G G I I I I I I I I I I I I I L N L R E S T O M F O F N F F F O O O O O O O O O O O O F F F F O O O O O O O O O F F F O O O O O L L L L L L F F F O O O L O O O O O O O ",
"N L I H I L O G G G G G G I I I I I I I I I I I I I I H I I G I I H I I I I I I I I I I I I I I I I I I I I I G G G G G G $ U V O I G M L I I I I I I I I I I I I I G G G G G G I I I I I I I H H I G G I H I G G G G G G G G G G G G G G G G G G G G H G L G I I I I I I I I I I I I I I I I I I I I I I I I I I I I I I G G G G G G G I I I I I I I I I I I I I I I I I I I I H K G G F f W t L N L H I H I H H H H H H I I I I I I I I I I I I I I I I I I I I I I I I I I I G G G I I I I I I I I I I I I I I I I I H I G I H G I H I I I I I I H H H H H H H H I I I I I I I I I I I I I H H H H H H H I I I I I I I I I I I I I I I I I I I I F I L L F I 4 X N L I L G G I I I I I I I I I I I I I I I I I I I I I I I I I I I I I I I I I H H H H H H H H I I I I I I I I I I I I I H H I H H H I H H H H H I I I I I I I I I I I I I I I I I I I I I I H H H H H H H I G G G G G G I I I I I I I I I I I I I I G O K Y Z ` G I H H H I I H H H H H I I H H H H H H H H H H H H H H I I I I I I I G I H H H H I I I I I I I I I I I H H H H H H H H H H ",
"I I H H H H I H H H H H H H H H H H H H H H H H H H H H H H H H H H H H H H H H H H H H H H H H H H H H H H I I H H H H H  ...+.l G M F I H H H H H H H H H H H H H H H H H H H H H H H H H H H H H H H H H H H H H H H H H H H H H H H H H H H H H H H I I H H H H H H H H H H H H H H H H H H H H H H H H H H H H H H H H H H H H H H H H H H H H H H H H H H H H H H H H H H G G G P @.c u 0 I L I F R L I I I I H H H H H H H H H I L L L L L L I H H H H H H H H H H H H H H H H H H H H H H H H H H H H H H H H H H I I H H H H H H H H H H H I I I I I I I H H H H H H H G G G G G G I I I I I I I G L L L L L L G G G G G G G G G G G G G G I O F H H N ] #.l N N O N I I I I I I I I I I I I I I I I I I I I I I I I I I I I L L L O O O L H H H H H H H H H H H H H H H H H H H H I I I G G I H I I I H H H H H H H H H H H I I I I I I I I I I I I I H H H H H H H H H H H H H H I I I I I I I H H H H H H G F F @.q $.%.G L I H I I H H H H H H I I H H H H H H H H H H H H H H I I I I I I I I I H I I G I I I I I I I I I I I I I G H H H H H H H ",
"H H H H H H H H H H H H H H I I I I I I I I I I I I I I I I G I I I H H H H H H H I I I I I I I I I I I I I I H H I I L F & &.*.G R L O G I I I I I I I I I I I I I H H H H H H H I I I I I I I I I G G I I H H H H H H H H H H H H H H H H H H H H H G L G I I G L I I I I I I I H H H H H H H H H H H H H H H H H H H H H H H H H H H I I I I I I I I I I I G G G G G I I I G I O O @.P =.-.7 G Y F G H I I I H H H H H I I I I I I I H H H H H H H H H H H H H H H H H H H H I I I H H H H H H H H H H H H H H H H H H I I H H I I H H H H H H H H H H H H H H I I I I I I I H H H H H H H H H H H H H H H H H H H H H H H H H H H H H H H H H H H L O L F l ;.>.e O G H G I H H H H H H H H H H H H H H H H H H H H H H H H H H H H H H H H H H H H H H H H H I I I I I I H H H H H H H I H H H G I H I I I H H H H H H H H H H H H H H H H H H H H H H H H H H H H H H H H H H H H H H H H H I I I H I I I I I I I I l P C ,.'.O N L I I I H I I H H H H H H H H H H H H I I I H H H H H H H H H H H H H H H I G I H H H H H H H H H H I I I H H H H H H H ",
"H I I G G I I G G G G G G G G G G G G G I I I I I I I I G G I I I I I I I I I I G I I I I I I I I I G G I I I G I L H L N @ &.).M M O L I I I I I I I I I H H H I G G G G G G G G G G G G G G G L L L L L L G I I I I I I G G G G G G G G G G G G G G G G G G G G G L L G G I I I G G G G G G G L L L L L L G G G G G G G L L L L L L L L L L L L L L L L O O F F N N F O O F F O L @.@.e y !.[ L h O I I G I I I I I I I H H I I I I I I I I I I I I I I I I I I I I I I I I I I I I I I G G I I I I I I G G G G G G G G G G I I I I I I I I I I I I I I I I G G G G G G G G G I I I I I I I G G I I I I H H H H H H H I I I I I I I I I I I H H H I G I H F G / >.e R L H G H I I I I I I I H I I I I H I I I I I I I I I I I I I I G G G G G G G I I I I I I I I I I I I I I I I I I I I I I I I I I I G G G G G G G H H I I I I I I I I I I I I I I I I I I I G G G G G G G G G G G G G G G G O F O L L L G G L L F R Y d =.~.{.R K G L H I I H I I I H H H H I G I H I I H H H H I I I I I I I I I I H H H H H H H H H H H H H I I I I I I I I I I I I I I ",
"G L O O O O O O O O O O O O O O O O O O O L L L L L L O O O L L L L O O L L L O O L L L L L L L O O O O L L G L G L H L N @ j ].K R F O G G G G G G G G I I I G O O O O O O O O O O O O O O O O F F F F F F F F F F F F F N N N N N N N N N N N N N N O O O O O O F M N N N F F F F F F F F F F F F F F F F N N N N N N N N N N N N N N N N N N N N N N N M M R R K l K R R R K R M E P c x ^.^ L f F G L G G G G G G G G G G L L L L L O O O O O O O L L L L L L F F F F F F F L L L L O O O F F F F F F N N N N N N N N N N F F F O O O O O O O O L L L L O O O O O O O O O O L L L L L L O O O O L L L G G G G G G G L L L L L L L L L L L G G G I G I H F G / >.d l N I L I I I I I I I I G L L L L L L L L L L L L L L L L L L L O O O O O O O O O O O O O O L L L L L L L L L L L L L L L L L L L L O O O O O O O L L L O O O O O O O O O O O O O O O O O O O O O O O O N N N N N N N F F F M R R M R M M N M M K @.E n /.,.(.K @.F F H I I H H H H H H H G O O O L L O G G G G L L L L L L L L L L G G G G G G G G G G G G G L L L L L L L L L L L L L L ",
"F F N N M N N M M M M M M M M M M M M M N N N N N N N N M N N N F F N N F F F N M N N N N N N N N N M N N F O L G O H L N @ U _.@.l M F O O O O O O O L L L O F N M M M M M M M M N N N N N N N M M M M M M N N N N N N N N N N N N N N N N N N N N N M M M M M M M M M M N N N M R R R R R R M M M M M M M N N N N N N N R R R R R R R R R R R R R R M M R R K K l l l R R K K @.l f h n x ^.1 O e M F F O O O O O O O L L O F N N N N F F F F F F N N N N N N N N N N N N N N F F N N N M M M M M M M M M N N N N N N N N N N N F F N N N N N N N F F N N N N M M M M M M M M N N N N N N N M N N N N F F O O O O O O F N N N N N N N N N F F F F G L G I F G / >.n P K O O G O O O O O O L L O N N N N N N N N N N N N N N N N N N M M M M M M M M M M M M M M N N N N N N N N N N N N N N N N N N N N N N N N N N N N N N M M M M M M M M M M M M M M M M M M M M M M M M M M M M M M M R R K l @.@.K l K R R K K @.E g q z :.<.l E M N I G G G L L L L L L F N M N F F N L O O O O F F N N N N N N F O O O O O O O O O O O O O F N N N N N N N N N N N N N ",
"F N N M M M M M M M M M M M M M M M M M M M M M M M M M M M M N N N M M N N N M M M M M M M M M M M M M N N O O L O H L N @ U [.Y Y R N F F F F F F F O O F N M R K M M M M M M M N N N N N N M M M M M M M N N N N N N N N N N N N N N N N N N N N N M M M M M M M N N N N N N M R R R R R R M M M M M M M N N N N N N N R R R R R R R R R R R R R R R R K K l l l l R R R R R @.l f h n x ^.2 O e K M M O F F F F F F O L O N M M M M N N N N N N M R R R R R R N N N N N N N N N N N M M M M M M M M M M N N N N N N N N N N F F F N N N N N N N N N N N M M M M M M M M M M R R R R R R R M M M N N N N N N N N N N N M M M M M M M N N N F F F L O G I F G / >.r h @.N N L F F F F F F O O F N M M M R R R R R R R R R R R R R R M M M M M M M M M M M M M M R R R R R R M M M M M M M M R R R R R R R R R R R R R M M M R R R R R R R R R R R R R R R R R M M M M M M M M M M M M M M K K K @.Y Y l K K R R R K @.E g q z ,.{.l f K R L L L O F F F N N N N M R M N N M N N N N M M M M M M M M M N N N N N N N N N N N N N N N M M M M M M R R R R R R R ",
"F N M R M M M R R R R R R R R R R R R R M M M M M M M R M M M M N N M M M N M M M M M M M M M M M M R M M N F F L F I O N @ U [.P P K M F F F F F F F F F M R K R R R R R R R R M N N N N N N N M M M M M M M M M M M M M R R R R R R R R R R R R R R R R R R R R R M M R R R K R M M M M M M M M M M M M M R R R R R R R l l l l l l l l l l l l l l l @.@.Y P P Y @.l K K K K @.K f E n C !.2 O e @.l R O F F F F F F F O F N M M M R K K K K K K R M M M M M M M M M M M M M N N N M M M R K K K K K K K R R R R R R R R R M M M M M R R R R R R N N N M M M R R R R R R R R M M M M M M M R M M M N N N M M M M M M M M M M M M M M M N N N F F O F L G F G / -.r h Y M M O O O O O O O O F N N M M M M M M M M M M M M M M M M M R R R R R R R M M M M M M M M M M M M M M M M M M M M M M M M M M M K K K K K K K M M M M R R R R R R R R R R R R R R R R R R R R R R R K K K K K K K K K K @.Y @.l @.l K K l l @.P f r /.~.{.l f K K O O F L L L O F F N N M R M N M R N M M M R R R M M M M M M M M M M M M M M M M M M M M M M M M M M M M M M M M M M ",
"M M R K K R R K K K K K K K K K K K K K K R R R R R R K R R R R M M R R R M R R R R R R R R R R R R K R R M N N O F I O N + j _.P P K N O O O O O O O F N R K R R M K K K K K K K M M M M M M R R R R R R R R R R R R R R K K K K K K K K K K K K K K K K K K K K K R R K K K l K M M M M M M R R R R R R R K K K K K K K @.@.@.@.@.@.@.@.@.@.@.@.@.@.@.@.@.Y P P Y @.l l K l l @.K f h r x ^.1 L e @.l R O O O O O O O O M M R R M M R K K K K K K R M M M M M M R R R R R R R M M R R R R K K K K K K K K K K K K K K K K R R R R M R K K K K K K R M M R R R K K K K K K K K M M M M M M R K R R R M M M M M M M M M R R R R R R R R R M M M M N O F L G F G / -.r E @.N M O L L L L L L F M M R R M M M M M M M M M M M M M M M M K K K K K K K M M M M M M M M M M M M M R R R R R R R M M M M M M M K K K K K K K M M M R R R R R R R R R R R R R R R R R K K K K K K K l l l l l l l K K K @.P Y l l l K K K l @.P f q /.,.(.l h R R O F F L L L O F N N M R K R M R K M M M M R R R R R R R R R R M M M M M M M M M M M M M R R R R R R R M M M M M M M ",
"R R K K K K K l l l l l l l K K K K K K K K K K K K K K K K K K R R K K R R R K K K K K K K K K K K l K K R M N F O L O M + &.[.E P K M F F O O O O O N N R K K R M l l l l l l K R R R R R R K K K K K K K R R R R R R R R R R R R R R R R R R R R K l l l l l l K R R R R K K K R R R R R R K K K K K K K R R R R K K K l l l l l l l l l l l l l l l l @.l @.@.Y @.l l K K K l l h h r v ^.1 O e @.@.M F L O O O O O F R R K K R R R M M M M M M R R R R R R R R R R R R R R R R K K K K l R R R R R R R R R R R R R R R R M M M M M R R R R R R R R R K K K l K K K K K K K R R R R R R R K K K K R R R M M M M M M R K K K K K K K K R R R R M F N O G F G / -.r E @.M R F F F F F F F M R R R K R M R R R R R R R R R R R R R R K K K K K K K R R R R R R R R R R R R R K K K K K K K K R R R R R R K K K K K K K R R R R R R K K K K K K K K K K K K K K l l l l l l l l l l l l l l l K l @.Y Y @.K K R R R K l P g r z ,.(.@.h K R F F F O O F F N M M R K K R R R K M M M M R R R K K K K K K K R R R R R R R M M M M M M R K K K K K K R R R R R R R ",
"R R R R R R R K K K K K K K R R R R R R K K K K K K K K K K K K K K R R R R R R R K K K K K K K R K K K K R R N N G F O K + j }.E Y l l M N F O O O F N N M R K K R K K K K K K K K K K K K K K K K K K K K K K K K K K K R R R R R R R K K K K K K K K K K K K K K K K K K K K K K K K K K K K K K K K K K K K K K l l l l l l l l l l @.@.@.@.@.@.@.Y Y Y @.@.@.Y P Y @.l l K l @.Y f r =.^.[ M d @.@.N M L L L O F F F M R K K K K K R R R R R R K K K K K K K K K K K K K K K K K K K K K K K K K K K K K K K K K K K R R R R R R R R R R R R R K K K K K K K R R R R R R R R R R R R R K K K K R R R R R R R R R R K K K K K K K R R R R M M M F N O G F I { >.q E @.R K O F F F F N N M M M R R R R K K K K K K K K K K K K K K R R R R R R R K K K K K K K K K K K K K K K K K K K K K K K K K K K K K K K K K K K K K K K K K K K K K K K K K K K K l l l l l l l l l l l l l l l l l l l @.@.@.@.l l K R R K l E e n |.,.1.@.e @.R M F O L O O F N M M R R R R R R R R R R R R R R K K K K K K K K K K K K K K R R R R R R K K K K K K K R R R R R R R ",
"R R R R R R R K K K K K K K R R R R R R K l l l l l l K K K K K K K R R R R R R R K K K K K K K R K K K K R R N N G F O K + j }.P P l l M N F O O O F N N M R K K R K K K K K K K K K K K K K K K K K K K K K K K K K K K R R R R R R R K K K K K K K K K K K K K K K K K K K K K K K K K K K K K K K K K K K K K K l l l l l l l l l l @.@.@.@.@.@.@.@.@.@.Y Y Y P P Y @.l l K l @.Y f r =.^.[ M d @.@.N M L L L O F F N M R K K K K K R R R R R R K K K K K K K K K K K K K K K K K K K K K K K K K K K K K K K K K K K R R R R R R R R R R R R R K K K K K K K R R R R R R R K K K K K K K K K K K R R R R R R R R R K K K K K K K K K R R R M M N N O G F I { -.q h @.K K O F F F F N N M M R R R R K K K K K K K K K K K K K K K R R R R R R R K K K K K K K K K K K K K K K K K K K K K K K K K K K K K K K K K K K K K K K K K K K K K K K K K K K K l l l l l l l l l l l l l l l l l l @.@.@.Y Y @.l K K K K l E e n |.,.1.@.e @.R M F O O O F F N M R R R R R R R R R R R R R R R K K K K K K K K K K K K K K R R R R R R K K K K K K K R R R R R R R ",
"R R R R R R R K K K K K K K R R R R R R K l l l l l l K K K K K K K K K K K K K K K K K K K K K R K K K K R R N N G F O K + j [.P P l K M N F O O O F N N M R K K R K K K K K K K K K K K K K K K K K K K K K K K K K K K R R R R R R R K K K K K K K K K K K K K K K K K K K K K K K K K K K K K K K K K K K K K K l l l l l l l l l l @.@.@.@.@.@.@.l l @.Y P P P P Y @.l l K l @.Y f r =.^.[ M d @.@.N M L L O F F N N M R K K K K K R R R R R R K K K K K K K K K K K K K K K K K K K K K K K K K K K K K K K K K K K R R R R R R R R R R R R R K K K K K K K R R R R R R R K K K K K K K l K K K K K R K K K K K K K K K K K K K K K K R R R R N M O G F I { -.b h @.K l F F F F F N N M R R R R K K K K K K K K K K K K K K K K R R R R R R R K K K K K K K K K K K K K K K K K K K K K K K K K K K K K K K K K K K K K K K K K K K K K K K K K K K K l l l l l l l l l @.@.@.@.@.@.@.@.@.@.@.Y Y Y @.l K K K l l E e n |.,.1.@.e @.R M F O O O F N M M R R R R R R R R R R R R R R R K K K K K K K K K K K K K K K K K K K K K K K K K K K K K K K K K K ",
"K K K K K K K K K K K K K K K K K K K K K l l l l l l K K K K K K K K K K K K K K K K K K K K K R K K K K R R N N G F O K @ U _.P E @.K N N F O O O F N N M R K K R K K K K K K K K K K K K K K K K K K K K K K K K K K K K K K K K K K K K K K K K K K K K K K K K K K K K K K K K K K K K K K K K K K K K K K K K l l l l l l l l l l @.@.@.@.@.@.@.l l @.Y P P P P Y @.l l K l @.Y f r =.^.[ M d @.@.M M O O O F N N N M R K K K K K K K K K K K K K K K K K K K K K K K K K K K K K K K K K K K K K K K K K K K K K K K K K K K K K K K K K K K K K K K K K K K K K K K K K K K K K K K K l l l K K K K K K K K K K K K K K K K K K K K K R R R N M F L N G / !.b h Y K l F F F F F N N M R R K K K K K K K K K K K K K K K K K K K K K K K K K K K K K K K K K K K K K K K K K K K K K K K K K K K K K K K K K K K K K K K K K K K K K K K K K K K K K l l l l l l l l l @.@.@.@.@.@.@.@.@.@.Y Y Y Y Y @.l K l l @.E e n |.,.1.@.e @.R M F O O F F N M R K K K K K K K K K K K K K K K K K K K K K K K K K K K K K K K K K K K K K K K K K K K K K K K K K ",
"K K K K K K K K K K K K K K K K K K K K l l l l l l l K K K K K K K R R R R R R R K K K K K K K R K K K K R R N N G F O K % U _.P h Y K N N F O O O F N N M R K K R K K K K K K K K K K K K K K K K K K K K K K K K K K K K K K K K K K K K K K K K K K K K K K K K K K K K K K K K K K K K K K K K K K K K K K K K l l l l l l l l l l @.@.@.@.@.@.@.@.@.@.Y Y Y P P Y @.l l K l @.Y f r =.^.[ M d @.@.N M O O F N N N M M R K K K K K K K K K K K K K K K K K K K K K K K K K K K K K K K K K K K K K K K K K K K K K K K K K K K K K K K K K K K K K K K K K K K K K K K K K l l l l l l l l l l l K K K R R R R R R K K K K K K K l l K K K R R M M F L N G / !.b f Y K l F F F F F N N R R K K K l l K K K K K K K K K K K K K K K K K K K K K K K K K K K K K K K K K K K K K K K K K K K K K K K K K K K K K K K K K K K K K K K K K K K K K K K K K l l l l l l l l l @.@.@.@.@.@.@.@.@.Y Y Y P P Y @.l l l l @.E e n |.,.1.@.e @.R M F O F F N N M R K K K K K K K K K K K K K K K K K K K K K K K K K K K K K R R R R R R K K K K K K K R R R R R R R ",
"K K K K K K K K K K K K K K K K K K K K l @.@.@.@.@.@.l K K K K K K R R R R R R R K K K K K K K R K K K K R R N N G F O K % j ].Y h Y R N N F O O O F N N M R K K R K K K K K K K K K K K K K K K K K K K K K K K K K K K K K K K K K K K K K K K K K K K K K K K K K K K K K K K K K K K K K K K K K K K K K K K K l l l l l l l l l l @.@.@.@.@.@.@.@.@.@.Y Y Y Y P Y @.l l K l @.Y f r =.^.[ M d @.@.N M O O F N N M M M R K K K K K K K K K K K K K K K K K K K K K K K K K K K K K K K K K K K K K K K K K K K K K K K K K K K K K K K K K K K K K K K K K K K K K K K K K l l l l l l l @.@.l l l K K R R R R R R K K K K K K K l l l K K K K M R F L N G / !.m f Y l @.N F F F F N N R K K K K l l K K K K K K K K K K K K K K K K K K K K K K K K K K K K K K K K K K K K K K K K K K K K K K K K K K K K K K K K K K K K K K K K K K K K K K K K K l l l l l l l l l @.@.@.@.@.@.@.Y Y Y Y P P P Y Y l l l l @.E e n |.,.1.@.e @.R M F O F F N M R R K K K K K K K K K K K K K K K K K K K K K K K K K K K K K R R R R R R K K K K K K K R R R R R R R ",
"R R R R R R K l l l l l l l l l l l l l l l l l l @.@.l K K K K K K K K K K K K K R R R R R R K l l l l K K R M N O O N R % U ].P h Y K N F O O O O F N M R K l l K l l l l l l l l l l l l l l l l l l l l l l l l l l l K K K K K K K K K K K K K K l l l l l l l l l l l l l l l l l l l l l l l l l l l l l l l l l l @.@.@.@.@.@.@.@.@.@.Y Y Y Y Y Y Y Y Y Y P P Y @.l K K l Y P f n v ^.] N d @.l N M O O O F N M M R K K l l l K R R R R R R K l l l l l l l l l l l l l l l l l l l l l l l l l l l l l l l l l l l l l l l l l l l l l l l l l l l l l l l l l l l l l K l l l l @.l l l l K K K K K K K K K K K R R R R R R l l l l l K K R R N O M L / -.m h Y l K N F F F F N N R K K K K l l l l l l l l l l l l l l l l l l l l l l l l l l l l l K K K K K K K K K K K K K K K l l l l l l l l l l l l l l l l l l l l l l l l l l K K K l l l @.@.@.@.@.@.@.@.Y Y Y Y @.@.@.@.Y Y Y P P P Y Y l l K @.Y E e n |.,.{.@.e @.K R F F F F N M R R K K K K l K K K K R R R R R K l l l l l l l l l l l l l K K K K K K K R R R R R R R K K K K K K K ",
"K K K K K K K l l l l l l l l l l l l l l K l l l l @.l K K K K K K l l l l l l l K K K K K K K @.l l l l K K M M N L R M % U _.P h Y K N F O O O F F M R K l l l l l l l l l l l l l l l l l l l l l l l l l l l l l l l K K K K K K K K K K K K K K l l l l l l l l l l l l l l l l l l l l l l l l l l l l l l l l l l @.@.@.@.@.@.@.l @.Y Y Y Y Y Y Y Y Y P P P P Y @.l K K l Y E f c x ^.] N d @.l N M F O O F N M R K K l l l @.l K K K K K K l l l l l l l l l l l l l l l l l l l l l l l l l l l l l l l l l l l l l l l l l l l l l l l l l l l l l l l l l l l l l l K K l l l @.l K K K K K K K l l l l l l K K K K K K K @.@.l l l K K R R N O M L / >.m E P l R N F F F F N N R K K K K l l l l l l l l l l l l l l l l l l l l l l l l l l l l l l K K K K K K K K K K K K K l l l l l l l l l l l l l l l l l l l l l l l l l l l l K l l l l @.@.@.@.@.@.@.@.Y Y Y Y @.@.l Y Y Y Y P P P P Y l K K l Y h d n |.,.{.@.e @.K R N F N N N N M R l K K l l l K K K K K K K K K l l l l l l l l l l l l l l l l K K K K K K K K K K K l l l l l l l ",
"l l l l l l l l l l l l l l l l l l l l K K l l l l @.l l l l l l l l l l l l l l K K K K K K K @.l l l l K K M M N L R M % U _.P h Y K N F F O O F N M R K l l l l l l l l l l l l l l l l l l l l l l l l l l l l l l l K K K K K K K K K K K K K K l l l l l l l l l l l l l l l l l l l l l l l l l l l l l l l l l l @.@.@.@.@.@.@.l @.Y Y Y Y Y Y Y Y P P P P P Y @.@.l K l Y E f c x ^.[ M c Y @.M R F F F F N M R K K l l l @.l K K K K K K l l l l l l l l l l l l l l l l l l l l l l l l l l l l l l l l l l l l l l l l l l l l l l l l l l l l l l l l l l l l l l K K l l l @.@.l l l l l l l l l l l l l K K K K K K K @.@.l l l K K R R N O M L / >.m E P l R N F F F F N M R K K K K l l l l l l l l l l l l l l l l l l l l l l l l l l l l l l K K K K K K K K K K K K K l l l l l l l l l l l l l l l l l l l l l l l l l l l l K l l l l @.@.@.@.@.@.@.@.Y Y Y Y @.@.@.Y Y Y Y P P P E Y l K l l Y h d n |.,.{.@.e @.K R N F N N N N M R l K K l l l K K K K K K K K K l l l l l l l l l l l l l l l l K K K K K K K K K K K l l l l l l l ",
"l l l l l l l l l l l l l l K K K K K K K K l l l l @.l l l l l l l l l l l l l l K K K K K K K @.l l l l K K R M N L R M % U _.P h Y K N N F F F N N M R K l l l l l l l l l l l K K K K K K K l l l l l l l l l l l l l K K K K K K K K K K K K K K l l l l l l l l l l l l l l l l l l l l l l l l l l l l l l l l l l Y Y Y Y Y Y Y l @.Y Y Y Y Y Y Y P P P P E P P Y @.l l l Y E f c x ^.] M c Y @.M R F F F N M R R K K l l l @.l K K K K K K K K K K K K K l l l l l l l l l l l l l l K K K K K K K l l l l l l l l l l l l l l l l l l l l l l l l l l l K K K K K K K K K l l l @.@.l l l l l l l l l l l l l K K K K K K K @.@.l l l K K R R N O M L ] -.a h E l R N N F F N N M R K K K K l l l l l l l l l l l l l l l l l l l l l l l l l l l l l l K K K K K K K K K K K K K l l l l l l l l l l l l l l l l l l l l l l l l l l l l K l l l l @.@.@.@.@.@.@.@.Y Y Y Y @.@.@.Y Y Y P P P E E P @.l l @.Y h d n |.,.{.@.e @.K R N F N N N N M R l K K l l l K K K K K K K K K l l l l l l l l l l l l l l l l K K K K K K K K K K K l l l l l l l ",
"l l l l l l l l l l l l l l K K K K K K K K l l l l @.l l l l l l l l l l l l l l K K K K K K l @.l l l l K K R M N L R M % U _.P h Y K N N F F F N N M R K l l l l l l l l l l l K K K K K K l l l l l l l l l l l l l l K K K K K K K K K K K K K K l l l l l l l l l l l l l l l l l l l l l l l l l l l l l l l l l l Y Y Y Y Y Y @.l @.Y Y Y Y Y P P P P E E E E P Y @.@.l l Y E f c x ^.] N d @.K N M N N N N M R R K K l l l @.l K K K K K K K K K K K K K l l l l l l l l l l l l l l K K K K K K K l l l l l l l l l l l l l l l l l l l l l l l l l l l K K K K K K K K K l l l @.@.l l l l l l l l l l l l l l K K K K K K @.@.l l l K K R R N O M L ] -.a h E @.K M N N N N M R R K K K K l l l l l l l l l l l l l l l l l l l l l l l l l l l l l l K K K K K K K K K K K K K l l l l l l l l l l l l l l l l l l l l l l l l l l l l K l l l l @.@.@.@.@.@.@.@.@.@.@.@.Y Y Y Y P P P E E E E P @.l l @.P h d n |.,.{.@.e @.K R N F N N N N M R l K K l l l K K K K K K K K K l l l l l l l l l l l l l l l l K K K K K K K K K K K l l l l l l l ",
"l l l l l l l l l l l l l l l l l l l l K K l l l l @.@.l l l l l l l l l l l l l l l l l l l l @.l l l l K K M M N L R M % U _.P h Y K M N N F N N M M R K l l l l l l l l l l l l l l l l l l l l l l l l l l l l l l l K K K K K K K K K K K K K K l l l l l l l l l l l l l l l l l l l l l l l l l l l l l l l l l l @.@.@.@.@.@.@.l @.Y Y Y Y Y P P P E E E E E P Y Y @.l l Y E f c x ^.] F e @.K N M N N N N M R K K K l l l @.@.l l l l l l l l l l l l l l l l l l l l l l l l l l l l l l l l l l l l l l l l l l l l l l l l l l l l l l l l l l l l l l l l l l l l K K l l l @.@.l l l l l l l l l l l l l l l l l l l l @.@.l l l K K R R N O M L ] !.a h h @.K M M N N N M R R K K K K l l l l l l l l l l l l l l l l l l l l l l l l l l l l l l K K K K K K K K K K K K K l l l l l l l l l l l l l l l l l l l l l l l l l l l l K l l l l @.@.@.@.@.@.@.@.@.@.@.@.Y Y Y P P P E E E E h P @.@.@.@.P h d n |.,.{.@.e @.K R N F N N N N M R l K K l l l K K l l l l l l l l l l l l l l l l l l l l l l l K K K K l l l l l l l l l l l l l l ",
"R R R R R R K l l l l l l l @.@.@.@.@.@.l K l l l l @.@.@.@.@.@.@.@.l l l l l l l l l l l l l l @.l l l l K K M M N L R M % U _.P h Y K M M N N N M M M R K l l l l l l l l l l l @.@.@.@.@.@.l l l l l l l l l l l l l l K K K K K K K K K K K K K K l l l l l l l l l l l l l l l l l l l l l l l l l l l l l l l l l l @.@.@.@.@.@.@.l @.Y Y Y Y Y P P E E E E E E E P Y @.l l Y E f c x ^.] N c Y @.M R N N N M M R K K K l l l @.@.l l l l l l l @.@.@.@.@.@.l l l l l l l l l l l l l l @.@.@.@.@.@.l l l l l l l l l l l l l l l l l l l l l l l l l l l l @.@.@.@.@.@.l K K l l l @.@.@.@.@.@.@.@.@.l l l l l l l l l l l l l @.@.l l l K K R R N O M L ] !.s f h @.K M M N N M M R R K K K K l l l l l l l l l l l l l l l l l l l l l l l l l l l l l l K K K K K K K K K K K K K l l l l l l l l l l l l l l l l l l l l l l l l l l l l K l l l l @.@.@.@.@.@.@.@.l l @.@.Y Y P P P P E E E h h P Y @.@.Y P h d n |.,.{.@.e @.K R N F N N N N M R l K K l l l K K l l l l l l l l l l l l l l l l l l l l l l l K K K K l l l l l l l l l l l l l l ",
"K K K K K K K K K K K K K l l l l l l l l l l l l l l @.@.@.@.@.@.@.@.@.@.@.@.@.@.l l @.@.@.l l @.@.@.@.@.l l l M R O M M % U _.f g Y l R R M M M M R R R K l l K K l l l l l l l l l l l l l l K K K K K K K K K K K K K l l l l l l l l l l l l l l K K K K K K l l l l l l l l l l l l l l l l l l l l l l l l l l l l Y Y Y Y Y Y Y @.Y Y Y P P P E E E E E E h h E P Y @.@.@.P E d r x ^.2 M n Y l K R F F F N M R R K K K K K l l l l l l l l l l l l l l l l K K K K K K K K K K K K K l l l l l l l l l l l l l l K K K K K K K K K K K K K K K K K K K K l l l l l l l l l l l l l @.@.@.@.@.@.@.@.@.@.@.@.@.@.l l @.@.@.l l @.@.@.@.@.l l K K N F M L ] -.a h P P N M N N F N M M R l l l l l l l l l l l l l l l l l l l l K K K K K K K K K K K K K K l l l l l l l l l l l l l K K K K K K K l l l l l l l l l l l l l l l l l l l l l l l l @.@.@.@.@.@.@.@.@.@.@.@.Y Y Y P P P P P E E E E E E P @.l @.P h e q |.,.(.@.e @.K K N N N N N M R K l l l l l l K K l l l l l l l l l l l l l l K K K K K K l l l l l l l K K K K K K K l l l l l l l ",
"K K K K K K K K K K K K K K l l l l l l l K K K K K K l @.@.@.@.@.@.@.@.@.@.@.@.@.l l @.@.@.l l @.@.@.@.@.@.@.@.M R O N R % U _.f g Y @.R R M M M R R R R K l l l K l l l l l l l l l l l l l l K K K K K K K K K K K K K l l l l l l l l l l l l l l K K K K K K K l l l l l l l l l l l l l l l l l l l l l l l l l l l Y Y Y Y Y Y Y Y Y Y Y P P P E E E E E E h h E P P Y @.Y P h c q x 2.2 N r Y l K R N F F N M R R K K K K K K K l l l l l l l l l l l l l K K K K K K K K K K K K K K l l l l l l l l l l l l l l K K K K K K K K K K K K K K K K K K K K l l l l l l l l l l l l l l @.@.@.@.@.@.@.@.@.@.@.@.@.l l @.@.@.l l @.@.@.@.@.@.@.K l M F R L ] >.m h P E N R N N F N N M K l l l l l l l l l l l l l l l l l l l l K K K K K K K K K K K K K K l l l l l l l l l l l l l K K K K K K K l l l l l l l l l l l l l l l l l l l l l l l @.@.@.@.@.Y Y Y Y Y Y Y Y Y Y Y P P P P P E E E E E E P @.l @.E f e b |.:.<.Y e @.K K M N N N M M R K l @.@.l l l K K l l l l l l l l l l l l l l K K K K K K K l l l l l l l l l l l l l l l l l l l l ",
"l l l l l l l l l l l l l l l l l l l l l l l l l l l @.@.@.@.@.@.@.@.@.@.@.@.@.@.l l @.@.@.l l @.@.@.@.@.@.@.@.M R O N R , U ].E f Y Y K R M M M R R R K K l l l l l l l l l l l l l l l l l l l l l l l l l l l l l l l l l l l l l l l l l l l l l l l l l l l l l l l l l l l l l l l l l l l l l l l l l l l l l l l Y Y Y Y Y Y Y Y Y Y P P P P E E E E E E h h E P P Y @.Y P h c q x 2.^ F r E @.l R N N N N M R K l l l l l l l l l l l l l l l l l l l l l l l l l l l l l l l l l l l l l l l l l l l l l l l l l l l l l l l l l l l l l l l l l l l l l l l l l l l l l l l l l l @.@.@.@.@.@.@.@.@.@.@.@.@.l l @.@.@.l l @.@.@.@.@.@.@.K l M F R L / W b h Y E R K N N N N M M K l l l l l l l l l l l l l l l l l l l l l l l l l l l l l l l l l l l l l l l l l l l l l l l l l l l l l l l l l l l l l l l l l l l l l l l l l l l l @.@.@.@.Y Y Y Y Y Y Y Y Y Y Y Y P P P P P P E E E E E E P @.l @.E f e b |.:.<.Y d Y l K M N N N M R R l l @.@.l l l K K l l l l l l l l l l l l l l l l l l l l l l l l l l l l l l l l l l l l l l l l l ",
"l l l l l l l l l l l l l l l l l l l l @.@.@.@.@.@.@.Y Y Y Y Y Y Y @.@.@.@.@.@.@.l l @.@.@.l l @.@.@.@.@.@.@.@.M R O N R * 3.].E h Y Y K R M M M R R R K l @.@.l l l l l l l l l l l l l l l l l l l l l l l l l l l l l l l l l l l l l l l l l l l l l l l l l l @.@.@.@.@.@.@.@.@.@.@.@.@.@.@.@.@.@.@.@.@.@.@.@.@.@.@.Y Y Y Y Y Y Y Y Y P P P P E E E E E E E h h E P P Y @.Y P h c q x 2.[ O r E Y @.R N N N N M R K l l l l l l l l l l l l l l l l l l l l l l l l l l l l l l l l l l l l l l l l l @.@.@.@.@.@.@.l l l l l l l l l l l l l l l l l l l l l l l l l l l l l l l l l @.Y Y Y Y Y Y Y @.@.@.@.@.@.l l @.@.@.l l @.@.@.@.@.@.@.K l M F R L / W b E Y E R K M M N N M R l @.@.@.@.@.@.l l l l l l l l l l l l l l l l l l l l l l l l l l l l l l l l l l l l l l l l l l l l l l l l @.@.@.@.@.@.@.@.@.@.@.@.@.@.@.@.@.@.@.@.@.@.@.@.@.Y Y Y Y Y Y Y Y Y Y Y Y P P P E P P P E E E E E E P @.l @.E f e b |.:.<.Y d Y l l M M M M M R K l l @.@.l l l K K l l l l l l l l l l l l l l l l l l l l l l l l l l l @.@.@.@.@.@.@.@.@.@.@.@.@.@.",
"l l l l l l l l l l l l l l l l l l l l @.Y Y Y Y Y Y Y Y Y Y Y Y Y @.@.@.@.@.@.@.l l @.@.@.l l @.@.@.@.@.@.@.@.M R O N R , U ].E f Y Y K R M M M R R K l l @.@.@.l l l l l l l l l l l l l l l l l l l l l l l l l l l l l l l l l l l l l l l l l l l l l l l l l @.@.@.@.@.@.@.@.@.@.@.@.@.@.@.@.@.@.@.@.@.@.@.@.@.@.@.Y Y Y Y Y Y Y P P P P E E E E E E E E E h h E P P Y @.Y P h c q x 2.[ F r E Y l R N N N M R K l l l l l l l l l l l l l l l l l l l l l l l l l l l l l l l l l l l l l l l l l l @.@.@.@.@.@.@.l l l l l l l l l l l l l l l l l l l l l l l l l l l l l l l l l l Y Y Y Y Y Y @.@.@.@.@.@.@.l l @.@.@.l l @.@.@.@.@.@.@.K l M F R L / W b E Y E R K M M M M R R l @.@.@.@.@.@.l l l l l l l l l l l l l l l l l l l l l l l l l l l l l l l l l l l l l l l l l l l l l l l l @.@.@.@.@.@.@.@.@.@.@.@.@.@.@.@.@.@.@.@.@.@.@.Y Y Y Y Y Y Y Y Y Y Y Y P P P E E E P P P E E E E E E P @.l @.E f e b |.:.<.Y c Y l l R M M M R K K l @.@.@.l l l K K l l l l l l l l l l l l l l l l l l l l l l l l l l l l @.@.@.@.@.@.@.@.@.@.@.@.@.",
"@.@.@.@.@.@.@.@.@.@.@.@.@.l l l l l l l @.Y Y Y Y Y Y @.@.@.@.@.@.@.@.@.@.@.@.@.@.l l @.@.@.l l @.@.@.@.@.@.@.@.M R O N R , U ].h g Y @.K R M M M R R K l @.@.@.@.@.l l l l l l l l l l l l l l @.@.@.@.@.@.@.@.@.@.@.@.@.l l l l l l l l l l l l l l @.@.@.@.@.@.@.@.@.@.@.@.@.@.@.@.@.@.@.@.@.@.@.@.@.@.@.@.@.@.@.@.@.@.Y Y Y Y Y Y Y P P P E E E E E E E E E E h h E P P Y @.Y P h c q x 2.1 N r P l l R M M M M R K l @.@.@.@.@.@.l l l l l l l l l l l l l l l @.@.@.@.@.@.@.@.@.@.@.@.@.l l l l l l l @.@.@.@.@.@.@.@.@.@.@.@.@.@.@.@.@.@.@.@.@.@.@.@.@.@.@.l l l l l l l l l l l l l l @.@.@.@.@.@.@.@.@.@.@.@.@.l l @.@.@.l l @.@.@.@.@.@.@.K l M F R L ] W b h P E M K M M M M R K l @.@.@.@.@.@.l l l l l l l l l l l l l l @.@.@.@.@.@.@.@.@.@.@.@.@.l l l l l l l l l l l l l l l @.@.@.@.@.@.@.@.@.@.@.@.@.@.@.@.@.@.@.@.@.@.@.@.@.@.@.Y Y Y Y P P P P P P P P P P P P E E E E P P P E E E E E E P @.l @.E f e b |.:.<.Y c P @.l R M M M R K l l @.@.@.l l l K K l l l l l l l l l l l l l l @.@.@.@.@.@.l l l l l l l l l l l l l l @.@.@.@.@.@.@.",
"@.@.@.@.@.@.@.@.@.@.@.@.@.@.l l l l l l l l l l l l l @.@.@.@.@.@.@.@.@.@.@.@.@.@.l l @.@.@.l l @.@.@.@.@.@.@.@.M R O N R % j _.f g Y l R R M M M R R l l @.@.Y @.@.l l l l l l l l l l l l l l @.@.@.@.@.@.@.@.@.@.@.@.@.l l l l l l l l l l l l l l @.@.@.@.@.@.@.Y Y Y Y Y Y Y Y Y Y Y Y Y Y Y Y Y Y Y Y Y Y Y Y Y Y Y Y Y Y Y Y Y Y P P E E E E E E E E E E E h h E P P Y @.Y P h c q x 2.3 M n Y K K R M M M M R K l @.@.@.@.@.@.@.l l l l l l l l l l l l l @.@.@.@.@.@.@.@.@.@.@.@.@.@.l l l l l l l Y Y Y Y Y Y @.@.@.@.@.@.@.@.@.@.@.@.@.@.@.@.@.@.@.@.@.l l l l l l l l l l l l l l @.@.@.@.@.@.@.@.@.@.@.@.@.l l @.@.@.l l @.@.@.@.@.@.@.K l M F R L ] -.m h P E N R R M M M R K l Y Y Y Y Y Y @.l l l l l l l l l l l l l @.@.@.@.@.@.@.@.@.@.@.@.@.@.l l l l l l l l l l l l l @.@.@.@.@.@.@.Y Y Y Y Y Y Y Y Y Y Y Y Y Y Y Y Y Y Y Y Y Y Y Y Y P P P P P P P P P P P P E E E h P P P E E E E E E P @.l @.E f e b |.:.<.Y c P @.@.R M M R R K l @.@.@.@.l l l K K l l l l l l l l l l l l l l @.@.@.@.@.@.@.l l l l l l l K K K K K K @.Y Y Y Y Y Y ",
"@.@.@.@.@.@.@.@.@.@.@.@.@.@.@.@.@.@.@.@.@.@.@.@.@.@.@.l @.@.Y Y Y Y Y Y Y Y Y Y Y @.@.@.@.@.@.@.Y Y Y @.@.@.Y K l M K R R @ 8 4.h d P P l K R M M R K K l l @.@.@.@.@.@.@.@.@.@.@.@.@.@.@.@.@.@.@.@.@.@.@.@.@.@.@.@.@.@.@.@.@.@.@.@.@.@.@.@.@.@.@.@.@.@.@.@.@.@.@.@.@.@.@.@.@.@.@.@.@.@.@.@.@.@.@.@.@.@.@.@.@.@.@.Y Y P P Y Y Y P P P E E E E E E E E E E E E E E h h h h E Y @.P l g d q x ^.[ K d h @.@.l R M M M R R l @.@.@.@.@.@.@.@.@.@.@.@.@.@.@.@.@.@.@.@.@.@.@.@.@.@.@.@.@.@.@.@.@.@.@.@.@.@.@.@.@.@.@.@.@.@.@.@.@.@.@.@.@.@.@.@.@.@.@.@.@.@.@.@.@.@.@.@.@.@.@.@.@.@.@.@.@.@.@.@.@.@.@.@.Y Y Y Y @.Y Y Y Y Y Y @.@.@.@.@.@.@.Y Y Y Y @.@.@.l K R M R G ] -.m f f P l l R R R R R K l @.Y Y Y Y @.@.@.@.@.@.@.@.@.@.@.@.@.@.@.@.@.@.@.@.@.@.@.@.@.@.@.@.@.@.@.@.@.@.@.@.@.@.@.@.@.@.@.@.@.@.@.@.@.@.@.@.@.@.@.@.@.@.@.@.@.@.@.@.@.@.@.@.@.@.@.Y P P P Y P E E E E E E E E E E E E E E E E E h h h E h P Y @.Y E g d m |.:.(.@.e Y @.@.R M M M R K l @.@.@.@.@.@.@.@.@.@.@.@.@.@.@.@.@.@.@.@.@.@.@.@.@.@.@.@.@.@.@.@.@.@.@.@.@.@.@.@.@.@.@.@.@.@.@.@.@.@.",
"@.@.@.@.@.@.@.@.@.@.@.@.@.@.@.@.@.@.@.@.@.@.@.@.@.@.@.l @.@.Y Y Y Y Y Y Y Y Y Y Y Y Y Y Y Y Y Y Y Y Y @.@.@.Y K @.N l K K @ 8 4.E d P P @.l R M M R K K l @.Y @.@.@.@.@.@.@.@.@.@.@.@.@.@.@.@.@.@.@.@.@.@.@.@.@.@.@.@.@.@.@.@.@.@.@.@.@.@.@.@.@.@.@.@.@.@.@.@.@.@.@.@.@.@.@.@.@.@.@.@.@.@.@.@.Y Y Y Y Y Y Y @.@.@.Y P P E Y Y P P P E E E E E E E E E E E E E E E h h h h E P @.P @.e e q x ^.] l d h Y @.l R M M M R K l Y Y Y Y Y Y Y @.@.@.@.@.@.@.@.@.@.@.@.@.@.@.@.@.@.@.@.@.@.@.@.@.@.@.@.@.@.@.@.@.@.@.@.@.@.@.@.@.@.@.@.@.@.@.@.@.@.@.@.@.@.@.@.@.@.@.@.@.@.@.@.@.@.@.@.@.@.@.@.@.@.@.l @.Y Y Y Y Y Y Y Y Y Y Y @.@.@.@.@.@.@.Y Y Y Y @.@.@.l K R R R G [ -.m f g Y l l R R R R K K l @.Y Y Y Y @.@.@.@.@.@.@.@.@.@.@.@.@.@.@.@.@.@.@.@.@.@.@.@.@.@.@.@.@.@.@.@.@.@.@.@.@.@.@.@.@.@.@.@.@.@.@.@.@.@.@.@.@.@.@.@.@.@.@.@.@.@.@.Y Y Y Y Y Y Y @.Y P P P P P E E E E E E E E E E E E E E E E h h h h E h E Y @.Y E g d m |.,.(.l e Y @.@.R M M R R K l @.@.@.@.@.@.@.@.@.@.@.@.@.@.@.@.@.@.@.@.@.@.@.@.@.@.@.@.@.@.@.@.@.@.@.@.@.@.@.@.@.@.@.@.@.@.@.@.@.@.",
"@.@.@.@.@.@.@.@.@.@.@.@.@.@.@.@.@.@.@.@.@.@.@.@.@.@.@.l @.@.Y Y Y Y Y Y Y Y Y Y Y Y Y Y Y Y Y Y Y Y Y @.@.@.Y K @.N l K K @ 8 4.E d P P @.l K R R K K l l @.Y Y @.@.@.@.@.@.@.@.@.@.@.@.@.@.@.@.@.@.@.@.@.@.@.@.@.@.@.@.@.@.@.@.@.@.@.@.@.@.@.@.@.@.@.@.@.@.@.@.@.@.@.@.@.@.@.@.@.@.@.@.@.@.@.Y P P P P P P @.@.Y P P E E P P P P E E E E E E E E E E E E E E E E h f h h E P Y P @.e e q x ^.] l d h Y @.l R R M R R K l P P P P P P Y @.@.@.@.@.@.@.@.@.@.@.@.@.@.@.@.@.@.@.@.@.@.@.@.@.@.@.@.@.@.@.@.@.@.@.@.@.@.@.@.@.@.@.@.@.@.@.@.@.@.@.@.@.@.@.@.@.@.@.@.@.@.@.@.@.@.@.@.@.@.@.@.@.@.@.@.Y Y P Y Y Y Y Y Y Y Y Y Y @.@.@.@.@.@.Y Y Y Y @.@.@.l K R R R G [ -.m f g Y l l K R R R K l l @.Y Y Y Y @.@.@.@.@.@.@.@.@.@.@.@.@.@.@.@.@.@.@.@.@.@.@.@.@.@.@.@.@.@.@.@.@.@.@.@.@.@.@.@.@.@.@.@.@.@.@.@.@.@.@.@.@.@.@.@.@.@.@.@.@.@.@.P P P P P P Y Y Y P P P P E E E E E E E E E E E E E E E E E h h h h E h E Y @.Y E g d m |.,.(.l d Y @.@.R M R R R K l @.Y @.@.@.@.@.@.@.@.@.@.@.@.@.@.@.@.@.@.@.@.@.@.@.@.@.@.@.@.@.@.@.@.@.@.@.@.@.@.@.@.@.@.@.@.@.@.@.@.",
"@.@.@.@.@.@.@.@.@.@.@.@.@.@.@.@.@.@.@.@.@.@.@.@.@.@.@.l @.@.Y Y Y Y Y Y Y Y Y Y Y Y Y Y Y Y Y Y Y Y Y @.@.@.Y l @.N l K K @ 8 4.E d E P @.l K R R K l l @.Y Y Y Y Y Y Y Y Y Y Y Y @.@.@.@.@.@.@.@.@.@.@.@.@.@.@.@.@.@.@.@.@.@.@.@.@.@.@.@.@.@.@.@.@.@.@.@.@.@.@.@.@.@.@.@.@.@.@.@.@.@.@.@.@.@.Y Y Y Y Y Y Y @.Y Y P E E E P P P E E E h h h h h h h h h h h h h h f f f h h P Y P @.e e q x ^.] l d h Y @.l R R R R R K l Y Y Y Y Y Y Y @.@.@.@.@.@.@.@.@.@.@.@.@.@.@.@.@.@.@.@.@.@.@.@.@.@.@.@.@.@.@.@.@.@.@.@.@.@.@.@.@.@.@.@.@.@.@.@.@.@.@.@.@.@.@.@.@.@.@.@.@.@.@.@.@.@.@.@.@.@.@.@.@.@.@.@.Y P P P Y Y Y Y Y Y Y Y Y Y Y Y Y Y Y Y Y Y Y @.@.@.l K R R R G [ -.m f g Y @.l K K R K l l @.@.Y Y Y Y @.@.@.@.@.@.@.@.@.@.@.@.@.@.@.@.@.@.@.@.@.@.@.@.@.@.@.@.@.@.@.@.@.@.@.@.@.@.@.@.@.@.@.@.@.@.@.@.@.@.@.@.@.@.@.@.@.@.@.@.@.@.@.Y Y Y Y Y Y Y Y P P E E P E E E E E E E h h h h h h h E E E h h h h h h E P Y P h g d m |.,.(.@.d Y @.@.K R R R K l @.@.Y Y @.@.@.@.@.@.@.@.@.@.@.@.@.@.@.@.@.@.@.@.@.@.@.@.@.@.@.@.@.@.@.@.@.@.@.@.@.@.@.@.@.@.@.@.@.@.@.",
"Y Y Y Y Y Y Y Y Y Y Y Y Y Y Y Y Y Y Y Y Y Y Y Y Y Y Y @.@.@.Y Y Y Y Y Y Y Y Y Y Y P P P P P P Y Y Y Y @.@.@.Y K @.N l K K @ 8 4.E d P P @.@.K R R K l @.@.Y Y P Y Y @.@.@.@.@.@.Y Y Y Y Y Y Y Y Y Y Y Y Y Y Y Y Y Y Y Y Y Y Y Y Y Y Y Y Y Y Y Y Y Y Y Y Y Y Y Y Y Y Y Y Y Y Y Y Y Y Y Y Y Y Y @.l l l l l l Y Y P P E E h E E E E E h h E E E E E E E E E E E E E h f f f h E Y P @.e e q x ^.] l d h Y @.l K R R R K l l l l l l l l @.Y Y Y Y Y Y Y Y Y Y Y Y Y Y Y Y Y Y Y Y Y Y Y Y Y Y Y Y Y Y Y Y Y Y Y Y Y Y Y Y Y Y Y Y Y Y Y Y Y Y Y Y Y Y Y Y Y Y Y Y Y Y Y Y Y Y Y Y Y Y Y Y Y Y Y @.Y P E P P Y Y Y Y Y Y Y Y @.@.@.@.@.@.Y Y Y Y @.@.@.l K R R R G [ -.m f g Y @.@.K K K K l @.@.@.Y Y Y Y @.Y Y Y Y Y Y Y Y Y Y Y Y Y Y Y Y Y Y Y Y Y Y Y Y Y Y Y Y Y Y Y Y Y Y Y Y Y Y Y Y Y Y Y Y Y Y Y Y Y Y Y Y Y Y Y Y Y Y Y Y Y Y l l l l l l @.Y P E E E E E E E E E E E E E E E E E E E E E h h h h h f h P Y P h g d m |.,.(.@.d P Y Y K R R R K l @.Y Y Y Y Y Y Y Y Y Y Y Y Y Y Y Y Y Y Y Y Y Y Y Y Y Y Y Y Y Y Y Y Y Y Y Y Y Y Y Y Y Y Y Y Y Y Y Y Y Y ",
"Y Y Y Y Y Y Y Y Y Y Y Y Y Y Y Y Y Y Y Y Y Y Y Y Y Y Y @.@.@.Y Y Y Y Y Y Y Y Y Y Y P P P P P P P Y Y Y @.@.@.Y K @.N l K K @ 8 4.E d P P Y @.l K K l @.@.@.Y P P P Y @.@.@.@.@.@.@.Y Y Y Y Y Y Y Y Y Y Y Y Y Y Y Y Y Y Y Y Y Y Y Y Y Y Y Y Y Y Y Y Y Y Y Y Y Y Y Y Y Y Y Y Y Y Y Y Y Y Y Y Y Y @.@.@.@.@.@.@.Y P P P E h h E E E E h h h E E E E E E E E E E E E E h g g f h E P E @.e e q x ^.] l d h Y @.l K K R R K l @.@.@.@.@.@.@.@.Y Y Y Y Y Y Y Y Y Y Y Y Y Y Y Y Y Y Y Y Y Y Y Y Y Y Y Y Y Y Y Y Y Y Y Y Y Y Y Y Y Y Y Y Y Y Y Y Y Y Y Y Y Y Y Y Y Y Y Y Y Y Y Y Y Y Y Y Y Y Y Y Y Y Y Y P P E E P P Y Y Y Y Y Y @.@.@.@.@.@.@.Y Y Y Y @.@.@.l K R R R G [ -.m f g Y l @.l K K K l @.@.@.Y Y Y Y @.Y Y Y Y Y Y Y Y Y Y Y Y Y Y Y Y Y Y Y Y Y Y Y Y Y Y Y Y Y Y Y Y Y Y Y Y Y Y Y Y Y Y Y Y Y Y Y Y Y Y Y Y Y Y Y Y Y Y Y Y Y Y @.@.@.@.@.@.@.P E E h E E E E E E E E E E E E E E E E E E E h h h h f f h E Y P h g d m |.,.(.@.c P Y Y K R K K l l @.Y P Y Y Y Y Y Y Y Y Y Y Y Y Y Y Y Y Y Y Y Y Y Y Y Y Y Y Y Y Y Y Y Y Y Y Y Y Y Y Y Y Y Y Y Y Y Y Y Y ",
"Y Y Y Y Y Y Y Y Y Y Y Y Y Y Y Y Y Y Y Y Y Y Y Y Y Y Y @.@.@.Y Y Y Y Y Y Y Y Y Y Y P P P P P P P Y Y Y @.@.@.Y K @.M K K K @ 8 4.E d P P Y @.l K K l @.@.Y Y P P P Y @.@.@.@.@.@.@.Y Y Y Y Y Y Y Y Y Y Y Y Y Y Y Y Y Y Y Y Y Y Y Y Y Y Y Y Y Y Y Y Y Y Y Y Y Y Y Y Y Y Y Y Y Y Y Y Y Y Y Y Y Y Y Y Y Y Y Y Y Y P P E E h h E E E h h h h E E E E E E E E E E E E E f g g f h E P E @.e e q x ^.] l d h Y Y l K K K K K l @.Y Y Y Y Y Y Y Y Y Y Y Y Y Y Y Y Y Y Y Y Y Y Y Y Y Y Y Y Y Y Y Y Y Y Y Y Y Y Y Y Y Y Y Y Y Y Y Y Y Y Y Y Y Y Y Y Y Y Y Y Y Y Y Y Y Y Y Y Y Y Y Y Y Y Y Y Y Y Y Y Y Y Y P E E E P P Y Y Y Y Y Y @.@.@.@.@.@.@.Y Y Y Y @.@.@.l K R R K G [ -.m f f P l @.l K K l l @.@.@.Y Y Y Y @.Y Y Y Y Y Y Y Y Y Y Y Y Y Y Y Y Y Y Y Y Y Y Y Y Y Y Y Y Y Y Y Y Y Y Y Y Y Y Y Y Y Y Y Y Y Y Y Y Y Y Y Y Y Y Y Y Y Y Y Y Y Y Y Y Y Y Y Y Y P E E h h E E E E E E E E E E E E E E E E E E h h h h f f h E P P f g d m |.,.(.@.c P Y Y K K K K l l @.Y P Y Y Y Y Y Y Y Y Y Y Y Y Y Y Y Y Y Y Y Y Y Y Y Y Y Y Y Y Y Y Y Y Y Y Y Y Y Y Y Y Y Y Y Y Y Y Y Y ",
"@.@.@.@.@.@.@.@.@.@.@.@.@.@.@.@.@.@.@.@.@.@.@.@.@.@.@.Y P E E h E E P P P P P P P P P P P P P P Y Y @.@.@.@.@.Y K @.R l K % U [.h g h P @.@.l K K l l @.@.@.@.@.@.@.@.@.@.@.@.@.@.@.@.@.@.@.@.@.@.@.@.@.@.@.@.@.@.@.@.@.@.@.@.@.@.@.@.@.@.@.@.@.@.@.@.@.@.@.@.@.@.@.@.@.@.@.@.@.@.@.@.@.@.@.@.@.@.@.@.@.@.@.Y Y Y P P P E E E E E E E E h h h h h h h h f f f f g f f f f f h P P h f d q =.^.2 F r E P P l K K K l l @.Y @.@.@.@.@.@.@.@.@.@.@.@.@.@.@.@.@.@.@.@.@.@.@.@.@.@.@.@.@.@.@.@.@.@.@.@.@.@.@.@.@.@.@.@.@.@.@.@.@.@.@.@.@.@.@.@.@.@.@.@.@.@.@.@.@.@.@.@.@.@.@.@.@.@.@.@.@.@.@.@.@.@.Y E E h E E E P P P P P P Y Y Y Y Y Y Y Y Y Y @.@.@.@.Y R l R Y G [ >.m e P E @.@.@.l l l @.Y Y @.@.@.@.@.@.@.@.@.@.@.@.@.@.@.@.@.@.@.@.@.@.@.@.@.@.@.@.@.@.@.@.@.@.@.@.@.@.@.@.@.@.@.@.@.@.@.@.@.@.@.@.@.@.@.@.@.@.@.@.@.@.@.@.@.@.@.@.@.@.@.@.@.@.Y P E E h E E E E E E E E E h h h h h h h h h f f f g g h f h E P E f e c m |.:.<.P c E h @.@.l K l l l @.Y Y @.@.@.@.@.@.@.@.@.@.@.@.@.@.@.@.@.@.@.@.@.@.@.@.@.@.@.@.@.@.@.@.@.@.@.@.@.@.@.@.@.@.@.@.@.@.@.@.",
"Y Y Y Y Y Y Y Y Y Y Y Y Y Y Y Y Y Y Y Y Y Y Y Y Y Y Y Y P E E h E E P P P P P P P P P P P P P P Y Y Y @.@.@.@.Y K @.R l K % U [.h g h P @.@.l K K l l Y Y Y Y Y Y Y Y Y Y Y Y Y Y Y Y Y Y Y Y Y Y Y Y Y Y Y Y Y Y Y Y Y Y Y Y Y Y Y Y Y Y Y Y Y Y Y Y Y Y Y Y Y Y Y Y Y Y Y Y Y Y Y Y Y Y Y Y Y Y Y Y Y Y Y Y Y P P P E E E E E E E E E h h h h h h h h f f f f g f f f f f h P P h f d q =.^.2 F r E P P l K K K l @.@.Y Y Y Y Y Y Y Y Y Y Y Y Y Y Y Y Y Y Y Y Y Y Y Y Y Y Y Y Y Y Y Y Y Y Y Y Y Y Y Y Y Y Y Y Y Y Y Y Y Y Y Y Y Y Y Y Y Y Y Y Y Y Y Y Y Y Y Y Y Y Y Y Y Y Y Y Y Y Y Y Y Y Y Y E E h E E E P P P P P P P Y Y Y Y Y Y Y Y Y Y @.@.@.Y R l R Y G [ >.m e P E @.@.@.l l l @.Y Y Y Y Y Y Y Y Y Y Y Y Y Y Y Y Y Y Y Y Y Y Y Y Y Y Y Y Y Y Y Y Y Y Y Y Y Y Y Y Y Y Y Y Y Y Y Y Y Y Y Y Y Y Y Y Y Y Y Y Y Y Y Y Y Y Y Y Y Y Y Y Y Y Y Y Y P E E h E E E E E E E E E h h h h h h h h h f f f g g h f h E P E f e c m |.:.<.P c E h @.@.l K l l l @.Y Y Y Y Y Y Y Y Y Y Y Y Y Y Y Y Y Y Y Y Y Y Y Y Y Y Y Y Y Y Y Y Y Y Y Y Y Y Y Y Y Y Y Y Y Y Y Y Y Y ",
"Y Y Y Y Y Y Y Y Y Y Y Y Y Y Y Y Y Y Y Y Y Y Y Y Y Y Y Y P E E h E E E P P P P P E E E E E E E E Y Y Y Y Y @.@.Y K @.R l K % U [.h g h P @.@.l K K l l Y Y Y Y Y Y Y Y Y Y Y Y Y Y Y Y Y Y Y Y Y Y Y Y Y Y Y Y Y Y Y Y Y Y Y Y Y Y Y Y Y Y Y Y Y Y Y Y Y Y Y Y Y Y Y Y Y Y Y Y Y Y Y Y Y Y Y Y Y Y Y Y Y Y Y P P P P E E E E E E E E E E h h h h h h h h f f f f g f f f f f h P P h f d q =.^.2 F r E P P l K K K l @.@.Y Y Y Y Y Y Y Y Y Y Y Y Y Y Y Y Y Y Y Y Y Y Y Y Y Y Y Y Y Y Y Y Y Y Y Y Y Y Y Y Y Y Y Y Y Y Y Y Y Y Y Y Y Y Y Y Y Y Y Y Y Y Y Y Y Y Y Y Y Y Y Y Y Y Y Y Y Y Y Y Y Y Y Y E E h E E E P P P P P P P P P P P P P P Y Y Y Y @.@.Y R l R Y G [ -.m d P h @.@.@.l l l @.Y Y Y Y Y Y Y Y Y Y Y Y Y Y Y Y Y Y Y Y Y Y Y Y Y Y Y Y Y Y Y Y Y Y Y Y Y Y Y Y Y Y Y Y Y Y Y Y Y Y Y Y Y Y Y Y Y Y Y Y Y Y Y Y Y Y Y Y Y Y Y Y Y Y Y Y Y P E E h E E E E E E E E E h h h h h h h h h f f f g g h f h E P E f e c m |.:.<.P c E h @.@.l K l l l @.Y Y Y Y Y Y Y Y Y Y Y Y Y Y Y Y Y Y Y Y Y Y Y Y Y Y Y Y Y Y Y Y Y Y Y Y Y Y Y Y Y Y Y Y Y Y Y Y Y Y ",
"Y Y Y Y Y Y Y Y Y Y Y Y Y Y Y Y Y Y Y Y Y Y Y Y Y Y Y Y P E E h E E E E E E E E E h h h h h h h P P P Y Y Y @.Y K @.R l K % U [.h g h P @.@.l l K l l Y Y Y Y Y Y Y Y Y Y Y Y Y Y Y Y Y Y Y Y Y Y Y Y Y Y Y Y Y Y Y Y Y Y Y Y Y Y Y Y Y Y Y Y Y Y Y Y Y Y Y Y Y Y Y Y Y Y Y Y Y Y Y Y Y Y Y Y Y Y Y Y Y Y Y P P E E E E h h h h h h h h h h h h h h h h f f f f g f f f f f h P P h f d q =.^.2 F r E P P l K K K l @.@.Y Y Y Y Y Y Y Y Y Y Y Y Y Y Y Y Y Y Y Y Y Y Y Y Y Y Y Y Y Y Y Y Y Y Y Y Y Y Y Y Y Y Y Y Y Y Y Y Y Y Y Y Y Y Y Y Y Y Y Y Y Y Y Y Y Y Y Y Y Y Y Y Y Y Y Y Y Y Y Y Y Y Y Y E E h E E E E E E E E E P P P P P P P P P P Y Y Y Y Y R l R Y G [ -.a d E h Y @.@.l l l @.Y Y Y Y Y Y Y Y Y Y Y Y Y Y Y Y Y Y Y Y Y Y Y Y Y Y Y Y Y Y Y Y Y Y Y Y Y Y Y Y Y Y Y Y Y Y Y Y Y Y Y Y Y Y Y Y Y Y Y Y Y Y Y Y Y Y Y Y Y Y Y Y Y Y Y Y Y P E E h E E E h h h h h h h h h h h h h h h f f f g g h f h E P E f e c m |.:.<.P c E h @.@.l K l l l @.Y Y Y Y Y Y Y Y Y Y Y Y Y Y Y Y Y Y Y Y Y Y Y Y Y Y Y Y Y Y Y Y Y Y Y Y Y Y Y Y Y Y Y Y Y Y Y Y Y Y ",
"P P P P P P P P P P P P P P P P P P P P P P P P P P P Y P E E h E E E E E E E E E E E E E E E E P P P P Y Y Y Y K @.R l K % U [.h g h P @.@.l K K l l P P P P P P P P P P P P P P P P P P P P P P P P P P P P P P P P P P P P P P P P P P P P P P P P P P P P P P P P P P P P P P P P P P P P P P P P P P P E E E E E h h h h h h h h h h h h h h h h h f f f f g f f f f f h P P h f d q =.^.2 F r E P P l K K K l @.@.Y P P P P P P P P P P P P P P P P P P P P P P P P P P P P P P P P P P P P P P P P P P P P P P P P P P P P P P P P P P P P P P P P P P P P P P P P P P P P P P P P P P Y E E h E E E E E E E E E P P P P P P P P P P P Y Y Y Y R l R Y G [ -.a d E h Y Y @.l l l @.Y Y P P P P P P P P P P P P P P P P P P P P P P P P P P P P P P P P P P P P P P P P P P P P P P P P P P P P P P P P P P P P P P P P P P P P P P P P P P Y P E E h E E h h h h h h h h h h h h h h h h f f f g g h f h E P E f e c m |.:.<.P c E h @.@.l K l l l @.Y Y P P P P P P P P P P P P P P P P P P P P P P P P P P P P P P P P P P P P P P P P P P P P P P P P ",
"P P P P P P P P P P P P P P P P P P P P P P P P P P P Y P E E h E E E E E E E E E P P P P P P P E P P P P Y Y Y K @.R l K % U [.h g h P @.@.l K K l l P P P P P P P P P P P P P P P P P P P P P P P P P P P P P P P P P P P P P P P P P P P P P P P P P P P P P P P P P P P P P P P P P P P P P P P P P P P E E E E h h h h h h h h h h h h h h h h h h f f f f g f f f f f h P P h f d q =.^.2 F r E P P l K K K l @.@.Y P P P P P P P P P P P P P P P P P P P P P P P P P P P P P P P P P P P P P P P P P P P P P P P P P P P P P P P P P P P P P P P P P P P P P P P P P P P P P P P P P P Y E E h E E E E E E E E E E E E E E E E E E P P P Y Y Y R l R Y G [ -.a c E h P Y @.l l l @.Y Y P P P P P P P P P P P P P P P P P P P P P P P P P P P P P P P P P P P P P P P P P P P P P P P P P P P P P P P P P P P P P P P P P P P P P P P P P P P P E E h E E h h h h h h h h h h h h h h h h f f f g g h f h E P E f e c m |.:.<.P c E h @.@.l K l l l @.Y Y P P P P P P P P P P P P P P P P P P P P P P P P P P P P P P P P P P P P P P P P P P P P P P P P ",
"P P P P P P P P P P P P P P P P P P P P P P P P P P P P P E E h E E h h h h h h h P P P P P P E E E E P P P Y Y K l K l l % U [.h g h P @.@.l K K l l Y P P P P P P P P P P P P P P P P P P P P P P P P P P P P P P P P P P P P P P P P P P P P P P P P P P P P P P P P P P P P P P P P P P P P P P P P P P E E E E h h h h h h h h h h h h h h h h h h f f f f g g f f f f E E P h g c b =.^.1 N r h P P l K K K l @.@.Y P P P P P P P P P P P P P P P P P P P P P P P P P P P P P P P P P P P P P P P P P P P P P P P P P P P P P P P P P P P P P P P P P P P P P P P P P P P P P P P P P P Y P E E E E E E E E E E E E E E E E E E E E E P P P Y Y K l R @.G [ -.a c h f P Y l l l l @.Y Y P P P P P P P P P P P P P P P P P P P P P P P P P P P P P P P P P P P P P P P P P P P P P P P P P P P P P P P P P P P P P P P P P P P P P P P P P P P P E E h E E E h h h h h h h h h h h h h h h f f f g g h f h E P E f e c m |.:.<.Y c E h @.@.l K l l l @.Y Y P P P P P P P P P P P P P P P P P P P P P P P P P P P P P P P P P P P P P P P P P P P P P P P P ",
"P P P P P P P P P P P P P P P P P P P P Y Y Y Y Y Y Y E h h h h h h E E E E E E E P P P P P E h h h E E E P Y Y Y M @.l Y , 3._.h e h h @.l l l l l l @.@.Y P P P Y P P P P P P P P P P P P P P P P P P P P P P P P P P P Y Y Y Y Y Y Y P P P P P P P P P P P P P P P P P P P P P P P P P P P Y @.@.@.@.@.@.E E E E E E E E E E E E E E h h h h h h h h f f f f g g f f h h E E h g d n b =.5.[ M n f Y E l l l l l l l l Y Y P E E P P P P P P P P Y Y P P P P E P P P P P P P P P P P P P P Y Y Y Y P P P Y Y Y Y Y Y P E P P P P Y P P P P P P P P P P P P P P P P P P P P P Y Y Y Y Y Y Y Y Y P P E E P Y Y Y Y Y Y Y Y Y Y Y Y Y P E P P P P P K Y l N M O ^ !.b d g E h Y l l l l l l l @.Y P P P Y Y Y Y Y Y Y Y Y Y P P P E E Y Y Y Y Y Y Y P P P P P P P P Y Y Y Y P P P P P P P P P P P P P P P Y Y Y Y Y Y Y Y Y Y Y Y Y Y Y Y Y Y Y Y Y P P E E E E E P P E E E h h h h h h f f h h h f g g g f h E E E E h g r m /.Z <.@.n f h P l l l l l @.@.@.@.P P P P P P P P P P P P P P Y Y P P P E E E P P P P Y Y P P P P P P Y Y P P P E E P P P P P P P ",
"P P P P P P P P P P P P P P P P P P P P Y Y Y Y Y Y Y P P P P P P P P Y Y Y Y Y Y Y @.@.@.Y P P P P P P Y Y Y @.@.M l K @., 3._.f e h h @.l l l l l l @.@.Y P P P Y P P P P P P P P P P P P P P P P P P P P P P P P P P P Y Y Y Y Y Y Y P P P P P P P P P P P P P P P P P P P P P P P P P P P P P P P P P P P P P P P P P P P P P P P E E E E E E E E h h f f f f g f f f h E E h g d n b 6.5.[ R n g Y P K l l l l l l l Y Y P E P P P P P P P P P Y Y P P P P E P P P P P P P P P P P P P P Y Y Y Y P P P Y Y Y Y Y Y P E P P P P Y P P P P P P P P P P P P P P P P P P P P P Y Y Y Y Y Y Y Y Y P P P P P Y Y Y Y Y Y Y Y Y Y Y Y Y Y Y Y Y Y @.@.K Y l N R O ^ !.b e f P P l l l l l l l l @.Y P P P Y Y Y Y Y Y Y Y Y Y P P P E E E E E E E E P P P P P P P P P Y Y Y Y P P P P P P P P P P P P P P P P E E E E E E E E E E E E P Y Y Y Y Y Y Y P P P E E E E E E h h h f h h h h h f f h h h f g g g h E E E E h f e r a /.Z <.@.c h P Y K K l l l @.@.@.@.P P P P P P P P P P P P P P Y Y P P P E E E P P P P Y Y P P P P P P Y Y P P P E E P P P P P P P ",
"Y Y Y Y Y Y Y Y Y Y Y Y Y Y Y Y Y Y Y Y Y Y Y Y Y Y Y Y Y Y Y Y Y Y @.@.@.@.@.@.@.@.l l l @.Y Y Y Y @.@.@.l l l l F K K @., 3._.f e E E @.l l l l l l l @.Y Y Y Y Y Y Y Y Y Y Y Y Y Y Y Y Y Y P P P P P P P P Y Y Y Y Y Y Y Y Y Y Y Y Y P P P P P P P P P P P P P P P P P P P P P Y Y Y Y Y Y P P P P P P P P P P P P P P P P P P P P P E E E E E E E h h h f f f g f f f h E E h g d n b 6.5.^ K r g @.P K l l l l l l l @.Y P P P P Y Y Y Y Y Y Y Y Y P P P P E P Y Y Y Y Y Y Y Y Y Y Y Y Y Y Y Y Y P P P Y Y Y Y Y Y P E P P P P Y Y Y Y Y Y Y Y Y Y Y Y Y Y Y Y Y Y Y Y Y Y Y Y Y Y Y Y Y Y Y Y Y P P P Y Y Y Y Y Y Y Y Y Y Y Y Y @.@.@.@.@.l l K @.l M K O [ !.b e f Y Y K l l l l l l l @.Y P P P Y Y Y Y Y Y Y Y Y Y P P P E E E E E E E E E Y Y Y Y Y Y P P Y Y Y Y P P P P P P P P P E E E E E E P P P P P P P P P P P P P P Y Y Y Y Y Y Y P P P P E E E P E E E h h E E E h h h h h h h f g g g E E E E h f f e r a /.Z <.@.d E P @.K K l l l @.@.@.@.Y Y Y Y Y Y Y Y Y Y Y Y Y Y Y Y P P P E E E P P P P Y Y Y Y Y Y Y Y Y Y P P P E E P P P P P P P ",
"Y Y Y Y Y Y Y Y Y Y Y Y Y Y Y Y Y Y Y Y Y Y Y Y Y Y Y @.@.@.@.@.@.@.l l l l l l l l l l l l @.Y @.@.l l l l l l l F K R @., U _.g d E E @.l l l l l l l l @.Y Y Y @.Y Y Y Y Y Y Y Y Y Y Y Y Y Y P P P P P P Y Y Y Y Y Y Y Y Y Y Y Y Y Y P P P P P P P P P P P P P P P P P P P P P Y Y Y Y Y Y P P P P P P P P P P P P P P P P P P P P P E E E E E E E h h h h h f g f f f h E E h g d n b 6.5.^ K r g @.P K l l l l l l l @.Y P P P Y Y Y Y Y Y Y Y Y Y P P P P E P Y Y Y Y Y Y Y Y Y Y Y Y Y Y Y Y Y P P P Y Y Y Y Y Y P E P P P P Y Y Y Y Y Y Y Y Y Y Y Y Y Y Y Y Y Y Y Y Y Y Y Y Y Y Y Y Y Y Y Y Y Y Y Y @.@.@.@.@.@.@.@.@.@.@.@.@.@.@.@.l l l l K @.K R l O ] !.b e f @.@.K l l l l l l l @.Y P P P Y Y Y Y Y Y Y Y Y Y P P P E E Y Y Y Y Y Y Y Y Y Y Y Y Y Y P Y Y Y Y P P P P P P P P P P P P P P P Y @.@.@.@.@.@.@.@.@.@.@.@.Y Y Y Y Y Y Y Y Y Y P P P E P @.Y Y Y P P E E E E h h h h h h f g g g E E E E h f f e r a /.Z <.@.d E P @.K K l l l @.@.@.@.Y Y Y Y Y Y Y Y Y Y Y Y Y Y Y Y P P P E E E P P P P Y Y Y Y Y Y Y Y Y Y P P P E E P P P P P P P ",
"Y Y Y Y Y Y Y Y Y Y Y Y Y Y Y Y Y Y Y Y Y Y Y Y Y Y Y @.@.@.@.@.@.@.l l l l l l l @.l l l @.@.Y @.@.l l l l l l @.N K K @.% U [.e d E P @.l l l l l l l l @.Y Y @.@.Y Y Y Y Y Y Y Y Y Y Y Y Y Y P P P P P P Y Y Y Y Y Y Y Y Y Y Y Y Y Y P P P P P P P P P P P P P P P P P P P P P Y Y Y Y Y Y P P P P P P P Y Y Y Y Y Y Y Y Y Y Y Y Y Y P P P P P P P E E h h h h f f f f h E E h g d n b 6.5.^ R n g @.P K l l l l l l l l @.Y P Y Y Y Y Y Y Y Y Y Y Y P P P P E P Y Y Y Y Y Y Y Y Y Y Y Y Y Y Y Y Y P P P Y Y Y Y Y Y P E P P P P Y Y Y Y Y Y Y Y Y Y Y Y Y Y Y Y Y Y Y Y Y Y Y Y Y Y Y Y Y Y Y Y Y @.@.@.@.@.@.@.@.@.@.@.@.@.@.@.@.@.@.@.@.l l l l l K R @.O { !.b e f Y P l l l l l l l l @.Y P P P Y Y Y Y Y Y Y Y Y Y P P P E E Y Y Y Y Y Y Y Y Y Y Y Y Y Y P Y Y Y Y P P P P P P P P Y @.@.@.@.@.@.@.@.@.@.@.@.@.@.@.@.@.@.@.@.Y Y Y Y Y Y Y Y Y Y P P P @.l @.@.@.Y Y P P E E E h h h h h f g g g h E E E E h f e r a /.Z <.@.c E P Y K K l l l @.@.@.@.Y Y Y Y Y Y Y Y Y Y Y Y Y Y Y Y P P P E E E P P P P Y Y Y Y Y Y Y Y Y Y P P P E E P P P P P P P ",
"Y Y Y Y Y Y Y Y Y Y Y Y Y Y Y Y Y Y Y Y Y Y Y Y Y Y Y @.@.@.@.@.@.@.l l l l l l l @.@.@.@.@.Y P @.@.@.l l l l @.Y M @.l Y % U [.e c h P @.l l l l l l K l @.@.@.@.@.Y Y Y Y Y Y Y Y Y Y Y Y Y Y P P P P P P Y Y Y Y Y Y Y Y Y Y Y Y Y Y P P P P P P P P P P P P P P P P P P P P Y Y Y Y Y Y Y Y Y Y Y Y Y Y Y Y Y Y Y Y Y Y Y Y Y Y Y Y P P P P P P P E E E h h h f f f f h E E h g d n b 6.5.[ M n f Y E l l l l l l l l l @.Y Y Y Y Y Y Y Y Y Y Y Y Y P P P P E Y Y Y Y Y Y Y Y Y Y Y Y Y Y Y Y Y Y P P P Y Y Y Y Y Y P E P P P P Y Y Y Y Y Y Y Y Y Y Y Y Y Y Y Y Y Y Y Y Y Y Y Y Y Y Y Y Y P Y Y @.@.@.l @.@.@.@.@.@.@.@.@.@.@.@.@.Y Y Y @.@.@.l l l R K Y O { !.b e g E h @.l l l l l l l @.Y P P P Y Y Y Y Y Y Y Y Y Y P P P E E P P P P P P P Y Y Y Y Y Y Y P Y Y Y Y P P P P P P P P P P P P P P P @.@.@.@.@.@.@.@.@.@.@.@.@.@.Y Y Y Y Y Y Y Y Y Y Y P P Y @.@.@.Y Y Y P P P E E E E h h h f g g g f h E E E E h e r a /.Z <.Y n h E P l l l l l @.@.@.@.Y Y Y Y Y Y Y Y Y Y Y Y Y Y Y Y P P P E E E P P P P Y Y Y Y Y Y Y Y Y Y P P P E E P P P P P P P ",
"Y Y @.@.@.@.@.@.@.@.@.@.@.@.Y Y Y Y Y P P P Y Y Y Y Y Y Y Y Y Y @.@.@.@.@.@.@.@.@.@.@.@.@.@.Y Y @.@.@.@.@.@.@.@.@.N @.l Y % j }.e d E E Y @.l l l l @.l l Y Y Y Y Y Y Y @.@.@.@.@.Y Y Y Y Y Y Y P P P P P P Y @.@.@.Y Y Y P P P P P P P P P P P P P P P P P P P P P E E E E E E P Y Y Y Y Y Y Y Y Y Y Y @.@.Y Y Y Y Y Y Y Y Y Y Y Y Y P P P P P E E E E E E h h h g e g f h h E h f c c m 6.2.^ K r g P h Y @.@.@.@.l l l @.@.Y Y Y Y Y @.@.@.@.@.@.Y Y Y Y Y Y P Y Y Y Y Y Y Y @.@.@.@.@.@.@.Y Y Y Y P P P P P P P P P P E E P P P P Y @.@.@.@.@.@.@.@.@.@.@.@.@.Y Y Y Y Y Y Y Y Y Y Y Y Y Y Y Y Y @.@.@.@.@.@.@.@.@.@.@.@.@.@.@.@.@.Y Y Y Y @.@.@.l l R K Y F { -.a e g h h P @.@.@.@.@.l l l Y P P P Y Y Y Y Y Y Y Y Y Y P P P P P E E E E E E E Y Y Y Y Y @.Y P P Y Y P P P P P P P P P h h h h h h h P P P P P P P Y Y Y Y Y Y Y P P P P Y Y Y Y Y Y P P P Y Y Y Y P P P P P E E E h h h h h f g e e g f E E E h f e r a z :.<.Y n f h h Y @.@.l l l @.Y Y @.@.Y Y P P P Y Y Y Y Y Y Y Y P P P P E E E P P P P Y Y Y Y Y Y Y Y Y Y P P P P P P P P P P P P ",
"P P P Y Y Y Y P P P P P P P P P Y P E E E P P Y Y Y Y P P Y Y Y Y @.Y @.@.@.@.l l @.@.@.@.@.@.@.Y Y Y Y Y Y Y l l F l l @.@ j 7.e g P h h P @.l l @.P Y Y P h h h h P P P Y Y Y Y E E E E E E E h h h h h h P P P P E E h E E E E E E E E E E E E E E E E E E E E E E E E E E E E E E E E E E E h h E E E E P P P P E E E E E E E E E E P P P E E E E E E h h f f e d g f f f E h E c d a 6.^.^ @.r g E f E P E E P Y @.@.Y Y Y Y P P P E E E E E E P P P P P P P E h h h h h h P P P P P P P E E E E E E E h h h h h h E E E E E E E P P P P P P P P P P P P P P P P P P P P P Y Y Y Y Y Y Y P P P P P P Y Y Y Y @.@.@.@.@.@.@.@.@.@.Y P P P P P P K l R R Y F / >.s g g h h E P P P P Y @.@.@.P h h h E E h E E E P P E E E E E E E P P E E E E E E E E P P P P E E E E E E P P P P P P P E E E E E E E E E E E E E E P P E E E h E E E E P P P P P P P E E E E E E E E h h h h h h f f f h h h f g e e e f h E E h g e n a |.:.<.P n f f f E P P Y Y @.Y E h Y Y P E h h E P P P P P P P E E E E E E E E E E E E E E E E E E E E E E E E E E E E E E E E E E ",
"@.P E P Y P E E E E E E E E P P P P E h E P P P Y P P P E P P P Y Y P Y Y Y Y @.@.Y Y Y Y Y Y Y P P P P P P P @.@.M Y @.Y @ j }.e d E f f h E E P P E P P E E h h h E E E P P P E E E E E E E E E E E E E E P P P E E E h E E E E E E E E E E E E E E E E E E E E E h h h h h h E E E E E E E E h h h E E E E P P E E E E h h h h h h h E E E E h h h h f f f g g e e f f g g f h P c d m 6.^.^ K n h P f h P E E E P P Y E E P E E E E E E E E E E E E E E E E E E E E E E E E h h h h h h h E E E E E E E E E E E E E E h h h h h h h h h h h h h h h h h h h h E E E E E E E P P P P P P P E E E E E E E E P P P Y Y P P P P P P P E E E E E E E @.Y l l Y N / >.a f f h f f P E E E E E P P E h h h E h h h E E E E E E E E E E E E E E E h h h h h h E E E E P P P P P P E E E E E E E P P P P P P P E E E E E E E E E E E h h h E E E E E E E E E E h h h h h f f f g g h h f f f f g f f f f f f g g e g f h h f d r s 8.:.<.P n h h f E E E P P Y P E h E P E h h E E E E E E E E E E E E E E E E E E E E E E E E E E E E E E E E E E E E P P P P P P P ",
"l E f h Y E f P P P P P P E E E E E h f h E h h h h h h f h h h E E h h h h h E E h h h h h h h h h h h h h h E E l h E E % 3.7.e d h h E E h f f h h h E E E P P P f f h h h E E P P P P P P P E E E E E E P Y Y P P P P E E E E E E E P P P P P P P P P P P P P P E E E E E E E E E E E E E P E E E E E E E E E E E h h f f f f f f f f f f f g g g e e d d d d e g h f g d e f E c c a 6.2.^ K c E Y E E Y Y E E E P P f f h h E E E P P P P P P P P P P P P P E E E E E E E E E E E E E E P P P P P P P E E E E E E E h h h h h h h E E E E E E E E E E E E E E E E E E E E h h h h h h f g g g g g g g g f f f h h h h h h h h h E E E E E E E E h E P h M ] -.s f h P h h P E h f f h E P E E P P P P P P P P Y Y Y Y Y Y Y Y Y h h h h f f f h h E E E E E E E E E E E E E E E E E E E h h h h h h h h h h h h h Y Y P P P P P E E h h h h h h h f f f g f h h f f f g f h f f f g g e g g f f f f f g e d d g e n b D 8.:.<.Y c E E h E E E P P P P P P h h h f h E E E E E E E E E P P P P P P P P P P P P P P P P P P P P P P P P P P P P P P P P P P ",
"@.P P Y l Y E h h h h h h E P Y Y P P E P E h f f f h f f f h h h h f f f h h h h h h h h h h h h h h h h h h h h Y f E P % U [.f g @.@.R K @.P E E E g f h E E E E P P P P Y Y Y P P P P P P P P P P P P P P P P P P P P Y Y Y Y Y Y Y Y P P P P P P P P P P P P Y @.@.@.@.@.@.@.Y Y Y Y Y Y P E E h h h f f g g g e e e f f f f f f f f f g g g g g e e e e e g f E P E f e e e f q r s /.2.[ R d P l l K P E E h h E E E P P Y Y Y Y E E E E E E P P P P P P P E E E E E E E E E E E E E E E E E E E E E E E E E E E P Y Y Y Y Y Y P E E E E E E E E E E E E E Y Y Y Y Y Y Y h h f f g g g f f f f f f f f f f f h h E E E E E E E E E E E E E E h f h h f M / W m E Y K K K l Y P P P P E h E E E E E P P P Y Y Y Y Y Y Y Y Y Y Y @.@.@.Y Y Y Y Y @.@.@.@.l @.P P P P P P @.l l l l l l @.Y Y Y Y Y Y Y Y Y Y Y Y Y Y Y Y Y P P P P P P E E E E h h h h f f f h h h f f f f f f g g g g g g f f h h E @.P g d c d d q m w 9.:.<.@.g l l @.@.@.E h h h E P P Y P P P P Y @.Y Y Y Y Y Y Y P P P P P P P E E E E E E E E E E E E E P P P P P P P P P P P P P P ",
"h P @.l l l l Y Y Y Y Y Y Y @.l l l @.Y Y P h g e f f f f f f h h h h f h h h h h h h h h h h h h h h h h h h h h @.f P Y % j 4.E f @.K R K l Y P E E E P @.l @.Y Y @.@.@.@.l l K K K K K K K K K K K K K K l @.l l l l K K l l l l l l K K K K K K K K K K K K K K l l l l l l l l l l l l l l @.@.Y P P P h h f f f g g e e e e e e e g g g g e e e e e e e g g f E P E g e e n d m q D /.2.[ R n h Y @.R Y Y Y Y Y @.@.@.l l @.@.@.@.@.@.@.@.@.@.l K K K K K K l l l l l l l l @.@.@.@.@.@.@.@.@.@.@.@.@.l l l l l l l @.@.@.@.@.@.@.@.@.@.@.@.@.@.@.@.@.@.@.@.@.@.@.@.@.@.Y f f f g e e e g g g g g g g g g g f f f f f f f f f f f g g g g g g h f f h h N ( u m h E @.K l Y Y P P P Y Y @.@.l @.Y Y @.@.@.@.l l l l l l l l l l R K K K K l l @.@.@.l l l l l l l l l l l l l l l l l l l l l l l l K K K K K K K l l l @.@.@.@.P P E E h h f f f f g g g g g e e e d d d d d c c c n d e e g g g f Y E g d n n n b s y 0.:.<.@.e @.l @.l @.P P P P Y @.K l @.@.Y Y @.@.@.@.@.@.@.@.l K K K K K K l @.@.@.@.@.@.@.@.@.@.@.@.@.l l l l l l l K K K K K K K ",
"b e Y Y E P l Y Y Y Y Y Y Y Y Y @.Y Y P h f e n n c d d c c d d d d e e e e g g g e e e e e e e g g g g g g g g e h d f E , U _.e n g h h f f g g g g f E Y @.Y P E E E E E P P P P P P P P P P P P P P P P E E E E P P Y P P P P P P P P P P P P P P P P P P P P P P P P P P P P P P P P P P E E h h f g g e d d d c c c n n n n n n n c c n n n r r q q q r r n n d e d r q q b r s m w /.2.^ @.a r d e f f f g f h E E P P P E E E E h h h h h h E P P P P P P E E E E E E E h h h h h h h E E E E E E E E E E E E E E h h h h h h h h h h h h h h h h h h h h f f f f f f f d d c n n r r r r r r r r r r r r n n n n c c c c c c d d d d d d d e c d e e R / -.w r r c g g d c c d e g f E E P E f g g g f f f h h E E E E E E E E h h h f f f g g g f f f f f f f f f f f h h h h h h h h h h h h h h h h h h h h h h f f f g g e e d d c n n n r r r q q q q q q b b b q q q b b b b b b q q q q q c n q b m m m a D C 0.:.<.E a e g g f g e g e g f E Y Y E E h f f f E E E E E E E P P P P P P P E E E E E E E E E E E E E E P P P P P P P P P P P P P ",
"y m d e d d e e e e e e e e e e e d c n n r q b b b q b b b b b b b q q q q q q q q q q q q q r n n n n n n c d d r d c e + 3.4.a y r r b b q q q q r n c c d c c n c c c c c c c n n n n n n n n n n n n n r r n n n n n n n n n n n n n n n n n n n n n q c q b r d d d c c c n n n n n n n r r r q b b b a a a a s s s m m m m m m m b b b b b m m a a a a m m a a a a s D D m s C s x 6.^.[ f x m a b m b b b b b q r c c c c n n r q q q r r r r r r r r r r r r r r r r r q q q q q q q r r r r r r r r r r r r r r q a d q r n q q q q q q q q q q q q r r q r r n r r q m a a a s s s s s s s s s s a a a a a a b b b b b b b b b b b b b b n m a n n M 2 !.w m s m w r b b b b b q q q r r q b b b b b q q q r q q r r r q q q q b b b b q b b b q q q b m m m a a a b r r r r r r q a n q n r b b q q q q q q q b b b b m m m a s s s s s s s D D D D s s s s s s s s s s s D D D y y y y y y y s D D w w w D m C v 8.a.b.g C a q b b b b b b b q r n c c n n r r r n n n n n n n n n n n n n r q q r r r n r q q r r q q r r r r r r r n n n n n n n ",
"/.x s b q b m q q q q q q q r q q b m a a s s s s s s D D D D D D D D D D D D D D a a a a a a s D D D D D D D a m x b D q c.8 }.r a w y y y w w w D D w w w w w w w D D D D D D D D D D D D D D D D D D D D D D D D D D D D D D D D D D D D D D D D s s w D q y w a D D D w w w D a a a a a a D w w w y y y D D D D D D D s s s s s s D y y y y y y y C C C C C C y w w w w w w C x D m 6.8.!.2 f v w C a s s s s s s s s D D D D D D w y y w w D D D D D D D D D D D D D D D D w w w w w w w w w w w w w w w w w w w w x b a D D w w D y y y y y y y y y w w w w x C y w y C x y y y y y y y y y y y y y w w w w w w w y C C C C C C w w w w w w w C D D w y K ^ u 6.z C w D D x x x x x x C y y y y y y C C C C C y y y y w w w y y w y C C y y y C C C C C C y D w w w y y y y y y y y y y w w C 6.D D y y y y y y y y y C C C x C w y C C y w y C C C C C C C x x x x x x x v v v v v v y y y y y y y x x x x x x x C =.x 6.d.e.r =.C w y C y w w w w w w w D D D D D D D D D D D D D D w w w w w w D D D w w D D w w w D D w w w w w w w w w D D D D D D D ",
"f.g.|./.6././.6.6.6.6.6.6.6.=.=.6.6.6.6././././././././././././././././././././././././././././.=.=.=.=.=.=.v C y 6.w x s - 3.& n f.=.x |.8.|.|.|.|.|.6.6.6.6.6.6.6.6.6.6.6.6.6.6.=.=.=.=.=.=.=.=.=.=.=.=.=.=.=.=.=.=.=.=.v v v v v v v =.=.=.=.=.=.6.z =.|.8.z C 6.6.6.6.6././.z z z z z z z /.6.6.6././././././././././.z z z z z z z 6.6.6.6.6.6.6././././././.z |.|.|.|.|.|.z /.0.g.z 9.5.h.f x 9.8.z 8.z z z z z z z /./././././.6.=.6.6.6.6.6.6.=.=.=.=.=.=.6././././././.6.6.6.6.6.6.6.z z z z z z z 6.6.6.6.6.6.z v 0.i.9.6.6././././././././././.z z z z z z /.6./.z z 6.6.6.6.6.6./.|.|.|.|.|.|.z 6.6.6.6.6.6.6././././././.z |.|.|.|.|.|./.v z z x c j.!.v x =.g.C 9.=.=.=.=.=.=.6././././././.|.|.|.|.|.|.|.z z /././.z z /.z |.|.z z /.|.|.|.|.|.|.|.|.8.8.8.9.9.8.z z z z z z |.0.x C 6.y |.|.z z z z z z /./.z z z z |.8.9.9.9.9.8.|././././././.z z z z z z z z z z z z z z 9.9.9.9.9.9.9.z z z z z z |.|.|.k.l.m.<.a |./.=.6.6.6.6.6.6.6.6.6.6././././././././././././././.6.6.6.6.6.6.6.=.=.6.6./././.6.=.=.=.6.6.6.6.6.6.6.6.6./././././././.",
"C x 6./.z z z z z z z z z z z /./.6.6.=.6.6.6.6.6.6.6.=.=.=.=.=.=.=.=.=.=.=.=.=.=./././././././.z z z z z z z 6.6.z v /.C n...% /.o.v g.9.z z z /././.8.9.9.9.9.9.9.8.8.8.8.8.8.9.9.9.9.9.9.9.9.8.8.8.8.8.8.9.9.9.9.9.9.9.8.|.|.|.|.|.|.8.8.8.8.8.8.8.9.8.z v z k.0.8.8.8.8.9.9.8.|.|.|.|.|.|.|.|.|.8.8.8.8.|.|.|.|.|.|.|.|.|.|.|.|.|.|.8.8.8.8.8.8.8.9.9.9.9.9.9.8.8.8.8.8.8.8.8.=.9.i./.p.5.{ z q.f.6.z |.8.8.8.8.8.8.9.0.0.0.0.0.0.9.8.9.9.0.0.g.g.0.0.0.0.0.0.0.0.0.0.0.0.0.9.9.9.9.9.9.9.g.g.g.g.g.g.g.0.0.0.0.0.0.|.q.r.D i.q.|.i.0.0.0.0.0.0.0.0.0.g.g.i.i.9.9.9.9.9.9.9.0.0.0.0.0.0.9.|.|.|.|.|.|.9.g.g.g.g.g.g.0.0.0.0.0.0.0.|.|.|.|.|.|.|.z 9.0.9.8.8.4 5.s.0.p.o.z f.k.k.k.k.k.k.g.9.9.9.9.9.9.9.9.9.0.0.g.g.g.0.0.0.0.0.g.0.g.g.i.g.g.0.g.g.g.g.g.g.0.8.8.8.9.9.9.9.0.0.0.0.0.0.6.s.v q.f.q.0.g.g.g.g.g.g.g.9.9.0.0.0.g.0.8.9.9.9.9.9.9.g.g.g.g.g.g.0.0.0.0.0.0.0.9.9.9.9.9.9.9.0.0.0.0.0.0.g.i.i.i.i.i.i.0.8.f.6.*.t.u.x g.9.8.9.9.9.9.9.9.9.9.9.9.0.0.0.0.0.0.0.0.0.0.0.0.0.0.g.g.g.g.g.g.g.0.0.g.g.g.i.g.0.0.9.9.0.g.g.g.g.g.g.g.g.g.g.g.g.g.g.g.",
"v.w.! ~ 7 4 4 ~ ~ ~ ~ ~ ~ ~ ~ 4 4 t t ! 4 7 7 7 7 7 7 ~ ~ ~ ~ ~ ~ ~ ~ ~ ~ ~ ~ ~ ~ 4 4 4 4 4 4 4 ~ ~ ~ ~ ~ ~ 7 ~ 7 ~ 4 7 x.y.z.1 [ p ~ ( 7 7 ~ ~ ~ ~ 4 7 7 7 7 7 7 7 ~ ~ ~ ~ ~ ~ ~ 7 7 7 7 7 7 ~ ~ ~ ~ ~ ~ ~ ~ 7 7 7 7 7 7 4 4 4 4 4 4 4 4 4 4 4 4 4 t p 7 _ 6 p / ;.4 ~ ~ ~ ~ 7 7 ~ ~ ~ ~ ~ ~ 4 t t 4 4 4 ~ ~ ~ ~ ~ ~ ~ ~ 4 4 4 4 4 4 ~ 7 7 7 7 7 7 7 7 7 7 7 7 7 7 ~ ~ ~ ~ ~ ~ 7 { 7 4 ] ~ A.-.B.{ 7 ) / 7 ~ ~ ~ ~ ~ ~ ~ ~ ~ ~ ~ ~ ~ ~ ~ ~ ~ 7 7 7 7 7 7 7 7 7 7 ~ ~ ~ ~ ~ ~ ~ 4 4 4 4 4 4 4 ~ ~ ~ ~ ~ ~ ~ 7 7 7 7 7 7 ~ t 1 X p / t ~ 7 7 7 7 7 7 ~ ~ ~ ~ 7 7 7 ( ( ( ( ( ( 7 ~ ~ ~ ~ ~ ~ 7 ( ( ( ( ( ( ( 7 7 7 7 7 7 ( ( ( ( ( ( ( ( ( ( ( ( ( ( ~ 7 x.~ [ ~ W 2.x.~ t w.7 x.t t t t t t t 4 4 4 4 4 4 4 4 4 ~ ~ ~ 7 ~ 4 4 4 4 4 ~ 4 ~ ~ 7 ~ ~ 4 t t t t t t t 4 4 4 ~ ~ ~ 4 t t t t t t ! ) Q { C.( t ~ ~ ~ ~ ~ ~ ~ 4 4 4 4 ~ ~ 4 4 4 4 4 4 4 4 4 4 4 4 4 4 4 4 4 4 4 4 4 4 4 4 4 4 4 4 ! x.x.x.x.x.! ~ ~ ~ ~ ~ ~ 7 t t 4 4 z.D.4 7 4 4 ~ 7 4 4 4 4 4 4 4 4 4 ~ ~ ~ ~ ~ ~ ~ ~ ~ ~ ~ ~ ~ ~ ~ ~ ~ ~ ~ ~ 7 7 ~ ~ 4 4 4 ~ 4 t t 4 ~ ~ ~ ~ ~ ~ ~ ~ 4 4 4 4 4 4 4 ",
"# + % % % @ + @ @ @ @ @ @ @ % @ @ @ @ + @ % % % % % % @ @ @ @ @ @ @ @ @ @ @ @ @ @ + + + + + + + + + + + + + @ + % $ + % # ; _.& % @ * @ % @ @ @ @ + + $ $ $ $ $ $ $ @ @ @ @ @ @ @ + + + + + + + $ $ $ $ $ $ + + + + + + + + $ $ $ $ $ $ $ # # # # # $ @ % E.^.i # + + + @ @ @ % % @ @ @ @ @ @ + + + + @ @ @ @ @ @ @ @ @ @ + + + + + + + $ $ $ $ $ $ $ + + + + + + + + + + + + + # c., . * + 7.; ; % % @  .% + + + + + + + $ $ $ $ $ $ $ $ $ $ + + + $ $ $ $ $ $ $ $ $ $ $ $ $ $ $ # # # # # $ $ $ $ $ $ $ $ # # # # # # @ . F.a.c.$ + $ + + + + + + + $ $ + + + + + + @ @ @ + + $ $ $ $ $ $ + @ @ @ @ @ @ + + + + + + + + + + + + + + @ @ @ @ @ @ @ .  .* , @   . ; + % . @ T % % % % % % % + # # # # # # $ $ + + + + + $ # # # # # $ # $ $ + $ $ # # # # # # # # $ $ + + + + $ . . . . . . + . d.G.& . $ $ $ $ $ $ $ $ # # # $ $ $ + + + $ $ $ + $ . . . . . . # # # # # # # # # # # # # # # # # # # # # # # # # # # + . $ - & = ' $ $ $ $ @ @ + $ # # # # # # $ $ $ $ $ $ $ $ $ $ $ $ $ $ # # # # # # # $ $ # # . . # # # . . # # # # # # # # # # . . . . . . ",
"N O I H I G L I I I I I I G G G G G G G I I I I I I I G G G G G G G G G G G G G G I I I I I I I L L L L L L L I L I G F L O O L M G R R L G G G G I I G G G G G G G G G G G G G G G G G G G G G I I I I I I G G G G G G G G G G G G G G L L L L L L L O N w.y.n O N I I G G G G G G G G G G G I I I G G G G I I I I I I I G G G G G G G G G G G G G G L L L L L L G G G G G G G L F G N N O L I @.L O O L I I I I I I I I I I I I I I G G G I I I I I I I I I I I I I I I I I I G G G G G G G G G G G G G G G G G G G G L F H.S c F O I G G G G G G L L L G G G I I G L L L G I G G G G G G G G G G G G G G G G G G G G G G G G G G G L L L L L L L G O O F G F L O L O G O O F I I I I I I I G G G G G G G G G G I I I I I H H H I I I G G G G I I L L L L L L G G G G G G G G G G G G G G G F Z {.N M L I I I I I I I G G G G L L L G I I I I G G G G G G G G I I I I I I I G G G G G G G G G G G G G G L L L L L L L L G L G K N F I I I L L G G G G G G G G G I I I I I I I I I I I I I G G G G G G I I I I G G G L L G G G L L G G G G G G G G G G G G G G ",
"O G I I G G I I I I I I I I I I I I I I I I I I I I I I I I I I I I I I I I I I I I I I I I I I I I I I I I I H I H H I I I I H L H G G I I I I I I I I I I I I I I H H H H H H H H H H H H H H H H H H H H H H H H H H H I I G G I I I I I I I I I I I F x.I.n O G I G G G I H I I I I I I I H H H H H H H H I I I I I I I I I I I I I I I I I I I I I I I I I I I I I I I I I G I I L G H H H L H I I I I I I I I I I H H H H H H H I I I I I I I H H H H H H H H H H H H H H I I I I I I I G G I I I I I I I I I I I I G 1.:.s R O I H H I G I H I I I I I I I H H I I I H H I I I I I I I I I I I I I I I I I I I I I I I I I I I I I I I I I I I H H I I G I I H I I I I G H H H H H H H I I I I I I I I I I I I I H H H H H H H H H I I I H H I I I I I I I G G G G G I I I I I I I I I M :.<.L N G H H H I I G G G G G G I G I I I H H I G I I I I I I I H H H H H H H H I I I I I I I I I I I I I I I I I I I I I H I H H I G H H H I I H H I I I I I I I I I I I I I I I I I I I I I I I I I I H H H H I I I I I I I I I I I I I I I I I I G G I I I L ",
"G I H I I H H I I I I I I I H H H H H H H H H H H H H H H H H H H H H H H H H H H H H H H H H H H H H H H H H H H H H H H H I I I I I I H H H H H H H H H H H H H H I I I I I I I H H H H H H H H H H H H H I I I I I I I H H H I H H H H H I I I I I I N x.D.q F I I G I I H H H H H H H H H H H H H H H H I I I I I I I H H H H H H H H H H H H H H H H H H H H H H H H H H H I I I I I I I H H H H H H H H H H H H H H I I I I I I I H H H H H H H H H H H H H H H H H H H H H H H H H H H L G I I I I I I I H H H I G G 1.a.x @.N G H H H I I H H H H H H H H H H H I I I I H H H H H H H H H H H H H H H H H H H I H H H H H H H H H H H H H H H H H H H H H I I I I I I I H H H H H H H I I I I I I H H H H H H H I I I I I I I H H H H H H H H H H H H H H H H I H H H H H I I I I I I K :.'.F M I H H H H I I I I I I H H H H H H H H H H H H H H H H H H H H H H H H H H H I I I G H H H H H H H H H H H H H H I I I I I I H H H H H H H H H H H H H H H H H H H H H H H H H H H H H H H H H H H H H H H H H H H H H H H H H H H H H H H I G L I I L M ",
"L G H H H H H H H H H H H I G I I H H H H H H H H H H H H H H H H H H H H H H H H H H H H H H H H H H H H H H H H H H H H H I I I I I I H H H H H H H H H H H H H H I I I I I I I H H H H H H H H H H H H H H H H H H H H H H H H H H H H H H I I I I L K 4 J.b l O I I H H H H H H H H H H H H H H H H H H H H H H H H H H H H H H H H H H H H H H H H H H H H H H H H H H H H I I I I I I I H H H H H H H H H H H H H H I I I I I I I H H H H H H H H H H H H H H H H H H H H H H H H H H H G I I H H H H I I H H I I O O 1.Z 6.g @.O I H H H H H H H H H H H H H H H H H H H H H H H H H H H H H H H H H H H H H I I I H H H H H H H H H H H H H H H H H H H H I I I I I I I H H H H H H H I I I I I I H H H H H H H H H H H H H H H H H H H H H H H H H H H H H H H H H H H H H I I I I G P :.b.K @.O G I I I H H H H H H H H H I G I I H H H H H H H H H H H H H H H H H H H I I I I G H H H H H H H H H H H H H H I I I I I I H H H H H H H H H H H H H H H H H H H H H H H H H H H H H H H H H H H H H H H H H H H H H H H H H H H H H H H I G G I G N @.",
"M F L G G G I I I I I I I G O L G G I I I I I I I I I I H H H H H H H H H H H H H H H H H H H H H H H H H H H H H H H H H H H H H H H H H H H H H H H H H H H H H H H H H H H H I I I I I I I I I I I I I I I I I I I I I I G G G I I H H H H H H H I F P ~ K.m h R O L G G G G G L G G G L O L L L G G I I I I I I I I I H H H H H H H I I I I I I I I I I I I I I H H H H H H H H H H H H H I I I I I I I H H H H H H H H H H H H H I I I I I I I I I I I I I I I I I I I I I G G G G G G G I G G I I I H H H H H I I F N ` Z |.r E M O G G G G I I I I G G G G I I I I I I I I I I I I I I H H H H H H H I I I I G G G I I I I I I I H H H H H H H H H H H H H H H H H H H H H H H H H H H H H H H H H I I I I I I I I I I I I I I I I I I I I I G G G G G G I I G G G I I H H H H H H H G g Z b.E h K N F O L L G G G G G L L L L O O L G I H I I I I I I I I H H H H H H H H H H H I I I I I I I I I H H H H H H H H H H H H H H H H H H H H H H H H H H H I I I I I I I I I I I I I I I I I I I I I G G G G G G G G G G G G G G G G I I I I H I I H G M P ",
"P l N F F F O F F F F F F F F F F O L L L L L L L L L G G G G G G G G G G G G G G G G G G G G G G G G G G G G G G G G G G G L L L L L L G G G G G G G G G G G G G G L L L L L L L L L L L L L L L L L L L L O F F F F F F O O F F O L L G G I I I L O M g ( K.m d @.R M F O F F F F F F F N M N F F O O L L O O O O O O O G G G G G G G L L L L L L L L L L L L L G G G G G G G L L L L L L L L L L L L L L I I I I I I G L L L L L L L O O O O O O O O O O O O O L L L L L L L O O O O O O O O F N N F O L G G G L L O R R 1.Z 8.b e @.R N O F F F O O F F F F F N N F F O O O L L L L L L L G G G G G G G G L L L O O L L L L L L L G G G G G G G G G G G G G G L L L L L L L G G G G G G G L L L L L L O O O O O O O O O O O O O O O O O O O O O O O O O O O O O O F O O L G G I I I G L O r Z '.g e Y K R R N F F O F F F N N N M M N F O L G G L L L L L L G I I I I I I G G L L L O O L L L L L L L I I I I I I G L L L L L L G I I I I I I I I I I I I I L O O O O O O O O O O O O O O O O O O O O O O O O O O O O O O O O O F F O O O L L I G L L F l f ",
"f P K M M M N R R R R R R M M M M N N N N F F F F F F F O O O O O O O O O O O O O F F F F F F F O O O O O O O O O O O O O F N N N N N N F O O O O O O O O O O O O O N N N N N N N F F F F F F F F F F F F F M R R R R R R N N M M N F F F O L L O N M K c ( L.b r Y l R M N M R M N N N M R K K R M M N F F N M M M M M M O O O O O O O F F F F F F F F F F F F F O O O O O O O F N N N N N N F F F F F F F O O O O O O F N N N N N N N N N N N N N N M M M M M M N F F F F F F N N N N N N N M R K K R N F F F F N N M @.l {.Z |.b d E Y K M M R M M M M M M R R K K R R M M N F F F F F F F O O O O O O O O F F F F N N F F F F F F O O O O O O O O O O O O O F N N N N N N N O O O O O O F N N N N N N N N N N N N N N M M M M M M M M M M M M M N N N N N N N N N M M F F F F O L L F M F m Z (.e d E l K K R M M M M M M R K K K R R M N F F F F F F F F F F O O O O O O F F N N N N M F F F F F F F O O O O O O F N N N N N N F O O O O O O O O O O O O O F N N N N N N N N N N N N N M M M M M M N N N N N N N N N N N N N N M M M N F F O G F N N R Y g ",
"e E l M M M M M M M M M M R R R R R K K R M M M M M M N N N N N N N N N N N N N N R R R R R R M F F F F F F F N N N N N N N N N N N N N N N N N N N N F F F F F F F N N N N N N N M M M M M M M M M M M M M M M M M M M M N N M M N F F N F L L O N R @.r { K.q r Y @.K M N M R M F F N M R K K l K K M M M N F F F F F F N N N N N N N M M M M M M M M M M M M M N F F F F F F N N N N N N N M M M M M M M M M M M M M N N N N N N N N N N N N N N M M M M M M M M M M M M M M R K K K K K R N M R R M F O F F F N M R @.l <.a.z q c f P K M M R R M M M R R R R K R R M N N N M M M M M M N N N N N N N N N N M M M R M M M M M M M F F F F F F F N N N N N N N N N N N N N N N N N N N N N N N N N N N N N N N N N N N F F F F F F N N N N N N M K K K K K K R N M M M N F N F O G O F M N D :.{.c d E K R R R M M M M M M K l l l l K K R M M M M M M M M M M M M M M M M N F N N N M M M M M M M M M M M M M M M N N N N N N N N M M M M M M M M M M M M M N N N N N N N N N N N N N N M M M M M M M K K K K K K K K K K K K K R R M N N F O G O N M R @.h ",
"d E l R R R M R M N N N M R K l l l K R R M M M N N N M M M M M N N F O F F F N N M M M M M M M M M M M M M M M M M M M M F O O F F N N F O F F F N N M M M M M M M M M M R R R R R R R R R R R R R R R R R R R R R R R R R R R R R R R N F O L O F M @.c { K.D q E @.K R R M R R R M N M K @.@.l l K K K R M M M M M M M M M M M M M M N N M M M M M R R R R R R R R R R R R R M N F F F F O M M M M M M M F F F F F F N M M M M M M M R R R R R R R R R R R R R R R R R R R R R R R R R R R M M R M M N F O F O O F R P l 1.a.|.b n h P K R R R M M M M M R K l l l K K K K R M M M M M M M M M M M N N N M M M R R R R R R R R R R R R R R R R R F F F F F F F M M M M M M M R R R R R R M M M M M M M M M M M R R R R R R R R R R R R R R R R R R R R R R R R M R R M M N F O O O F N M R m M.'.g c P @.K R M R R R N N M R K K l l K K R R K R M M M M M M M M M M M M M N N N M M M M M M M M M M M R R R R R R M F F F F F F N R R R M M M N F F F F F F M M M M M M M R R R R R R R R R R R R R R R R R R R R R R R R R R R R R R R M F F F L O N M @.e ",
"d h l R R R R R R M N M M R l l l l K R K K K R R R R K K R R R R M M N M M M M R R R R R R R R M M M M M M R R R R R R R M M M M M M M M N M M M M R M M M M M M M M M R R R R R R R R R R R R R R R R R R R R R R R R R R R R R R R R N F O L O F N @.c { K.w q h @.K R R M R R R M N R K @.@.l l K K K K R R R R R R R M M M M M M M M R R R R K K R R R R R R R R R R R R R R R M M M N N M M M M M M M M M M M M M M M M M M M M M R R R R R R R R R R R R R R R R R R R R R R R R R R R M M R R M N N F F F O F R P K ` a.|.b n h P K R R R M M M M M R K l l l l K K K K K K K K K K K K K R R R M M M M R R R R R R R R R R R R R R R R R R M M M M M M M M M M M M M M R R R R R R R M M M M M M M M M R R R R R R R R R R R R R R R R R R R R R R R R R M R R R M N F O O F F N R R q M.'.g n E @.K R M K R R N N M R K l l @.l K R K K K K K K K K K K R R R R R R M M R R R K K M M M M M M M R R R R R R R M M M M M M R R R R R M M M M M M M M M M M M M M M M R R R R R R R R R R R R R R R R R R R R R R R R R R R R R R R M N F F L O F M Y e ",
"d h @.R R R R R M M M M R K l l l l K K l @.@.l l l l l l K K K R R R R K K K K K K K K K K K K R R R R R R K K K K K K K K K K K K R R R R R K K K K R M M M M M M M R R R R K K R R R R R R R R R R R R R R R R R R R R R R R R R R R N N O O O N M @.c { K.w q h @.K R R M R R R R M R l @.@.l l l K K K K K K K K K K R R R R R R R R R K K K l K R R R R R R R R R R R R R K K K K K R R M M M M M M M K K K K K K K M M M M M M R R R R R R R R R R R R R R R R R R R R R R R R R R R R M R R R M N N F F F O F R P K ` a.|.b n h P K R R R M M M M M R K l l l l l K K K l l l l l l l l K K K K R R M R R R K K R R R R R R R R R R R R R R K K K K K K K M M M M M M R R R R R R R R M M M M M M M M R R R K K R R R R R R R R R R R R R R R R R R R R R R R R R M N N F F F N N R M r M.'.g r h @.K R M K R R N M M R K l l @.l K K K K l l l l l l l K K K K K K K R R K K K l l R R R R R R R R R R R R R R K K K K K K K K K R R R M R K K K K K K R M M M M M M R R R R R R R R R R R R R R R R R R R R R R R R R R R R R R R R N N F L O N R Y d ",
"d h @.K K K R R M M M R K l l @.@.l l K l @.@.@.l l l l l K K K R R R K K K K l K K K K K K K K K K K K K K K K K K K K K K l l K K R R R R K K K l l R R R R R R R R R R R K K K R R R R R R R R R R R R R R R R R R R R R R R R R R R M N F O F N M @.c { K.w q h @.K R R M R R R R R K l @.@.@.l l l K K K K K K K K K K K K K K K K R R K K K l K R R R R R R R R R R R R R K l K K K K R R R R R R R R K K K K K K R R R R R R R R R R R R R R R R R R R R R R R R R R R R R R R R R R R R R R R R M N F N F F N K E K ` a.|.b n h P K R R R M R R M R R l l @.l l l l K K l l l l l l l l K K K R R R R R R K K K K R R R R R R R R R R R R R K K K K K K R R R R R R R R R R R R R R R R R R R R R R R R R K K K K R R R R R R R R R R R R R R R R R R R R R R R R M M N N N N N N R M r M.'.g r h @.K R M K R R M M R K l l @.@.l l K l l l l l l l l l K K K K K K K R R K K K K l K K K K K K K R R R R R R R K K K K K K K K K K R R R R K K K K K K R R R R R R R R R R R R R R R R R R R R R R R R R R R R R R R R R R R R K K R N N N O O N R Y d ",
"c f @.K K K K R M M M K l l @.@.@.@.l K l l K K K K K K K R R R R M M M M R R R R R R R R R R R K K K K K K K R R R R R R R R R R M M M M M M R R R R R R R R R R R R R K K K l K K K K K K K K K K K K K K K K K K K K K K K K K K K K M N F F F N M @.c { K.w q h @.K R R M R R R K l l @.@.@.@.@.l l l l R R R R R R R K K K K K K K M R R R R K K K K K K K K K K K K K K K K R R R M M M R R R R R R R R R R R R R R R R R R R R R K K K K K K K K K K K K K K K K K K K K K K K K K K K R K K K R M M N N N F N K E K ` a.|.b n h P K R R R M R R R R K l @.@.@.@.l l l l K K K K K K K K R R R R M M R R K K K l K K K K K K K K K K K K K K R R R R R R R R R R R R R R K K K K K K K R R R R R R R R K K K K l K K K K K K K K K K K K K K K K K K K K K R K K K R M M M N N N N M M r M.'.g r h @.K R M K R R M M R K l @.@.Y @.l l l l l K K K K K K R R R R R R R M M R R R K K K K K K K K K K K K K K K K R R R R R R K l K K K R R R R R R R R R R R R R R R R K K K K K K K K K K K K K K K K K K K K K K K K K K K K K K K R M N N O F M R P c ",
"c f Y K K K K M M M R K l @.@.@.Y @.@.l l l l K K K K K l K K K R R M M M R R R K K K K K K K K K K K K K K K K K K K K K R M R R R R R M M M R R R K R R R R R R R K K K K l l l K K K K K K K K K K K K K K K K K K K K K K K K K K K R M F F N M R @.c { K.w q h @.K R R M R R K K l @.@.@.@.@.@.@.l l l K K K K K K K K K K K K K K R R K K K l l K K K K K K K K K K K K K K R R R M M M R R R R R R R R R R R R R R R R R R R R R K K K K K K K K K K K K K K K K K K K K K K K K K K K K K K K R R M N M N F N K E K ` a.|.b n h P K R R R M R R R R K l @.@.@.@.@.l l l l l l l l l l l K K K K R R K K K K l l K K K K K K K K K K K K K K R R R R R R R R R R R R R R K K K K K K K R R R R R R K K K K K l l K K K K K K K K K K K K K K K K K K K K K K K K K R M M R M N N M M R q M.'.g n E @.K R M K R R M M R l l @.@.Y @.l l l l l l l l l l l K K K K K K K R R K K K K l K K K K K K K K K K K K K K R R R R R R K l l K K K K R R R R R R R R R R R R R R K K K K K K K K K K K K K K K K K K K K K K K K K K K K K l K K M N M O F M K P c ",
"c f Y K l l K M M R R K l @.@.Y Y @.@.l l @.l l l l K l @.@.l l l l R R R R K K K l l l l l l l R R R R R R K l l l l l l R R R R K K K R R R R K K K K K K K K K K K K K K l l l K K K K K K K K K K K K K K K K K K K K K K K K K K K R M N F N M R @.c { K.w q h @.K R R M R R K l @.@.@.@.Y @.@.@.@.l l l l l l l l l R R R R R R R l l l l @.@.l K K K K K K K K K K K K K K K K K R R R K K K K K K K K K K K K K K K K K K K K K K K K K K K K K K K K K K K K K K K K K K K K K K K K K K K K R R M N M N F N K E l 1.a.z b n h P K R R R R K R R R l @.@.Y @.@.@.l l l @.@.@.@.@.@.@.@.@.l l l l K K K K K l l K K K K K K K K K K K K K K K K K K K K K K K K K K K K K K K K K K K K K K K K K K K K K K l l K K K K K K K K K K K K K K K K K K K K K K K K K R R R R M M N M M R b M.b.f c P @.K R R K R R M R K l @.@.@.Y @.l l l @.@.@.@.@.@.@.@.l l l l l l l l l l l l @.@.R R R R R R R K K K K K K K K K K K K K K l l K K K K K K K K K K K K K K K K K K K K K K K K K K K K K K K K K K K K K K K K K K K K K K l l l K R M M O F M K P c ",
"c f Y K K K K K K R K K l @.l @.@.@.@.l l l l l l l l l l l l l l l R R R R R R R l l l l l l l l l l l l l K R R R R R R R R R R R R R R R R R R R R R R R R R R R R R R R R R R R R R R R R R R R R R R R R R R R R R R R R R R R R R K R M N N M R P n { K.w q f @.l R K K R R K K l l @.@.@.@.@.@.@.l l l l l l l l l l l l l l l l R R R R R R K l l l l l l l l l l l l l K R R R R R R @.@.l l l K K R R R R R R R R R R R R R R R R R R R R R R R R R R R l l @.@.l K K R R R R R R R l l K K K K K M F N N F R h l b.M.=.m n g P K l l K K K K K K l @.Y @.l l l K K K l l l l l l l @.l l l l K K R R R R R R K l l l l l l l l l l l l l R R R R R R R R R R R R R R R R R R R R R R R R R R R K K K R R R R R R R R R R R R R R R R R R R R R R R R K K K l l K K R R N N N M R R q a.<.f r h @.l K K K K K K K K l @.@.@.Y @.l l l l @.l l l l l l K R R R R R R R R R R R R R l l l l l l l l l l l l l l R R R R R R R R R R R R R R R R R R R R R R R R R R R R R R R R R R R R R R R R R R R R R R R R R R R R R R K l l l l R M N F M R R Y d ",
"c f Y K K K K K K R K K l @.l @.@.@.@.l l l l l l l l l l l l l l l K K K K K K K l l l l l l l l l l l l l l K K K K K K K K K K K K K K K K K K K K K K K K K K K K K K K K K K K K K K K K K K K K K K K K K K K K K K K K K K K K K K R M N N M R P n { K.w q f Y l K K K K R K K l l @.@.@.@.@.@.@.l l l l l l l l l l l l l l l l K K K K K K K l l l l l l l l l l l l l K K K K K K K @.@.l l l K K K K K K K K K K K K K K K K K K K K K K K K K K K K K l l @.@.@.K K K K K K K K K l l K K K K K M F N N F K f l '.a.6.a r e P K @.l K K K K K K l @.Y @.@.l l l K K l l l l l l l @.l l l l K K K K K K K K l l l l l l l l l l l l l l K K K K K K K K K K K K K K K K K K K K K K K K K K K K K K K R R R K K K K K K K K K K K K K K K K K K K K K K l l l l K R R N N N M R R q M.'.g r h @.l K K K K K K K K l @.@.@.Y @.l l l l @.l l l l l l K K K K K K K K K K K K K K l l l l l l l l l l l l l l K K K K K K K K K K K K K K K K K K K K K K K K K K K K K K K K K K K K K K K K K K K K K K K K K K K K K K l l l l l R M N F M R R Y d ",
"c f Y K K K K K K R K K l @.l @.@.@.@.l l l l l l l l l l l l l l l K K K K K K K l l l l l l l l l l l l l l K K K K K K K K K K K K K K K K K K K K K K K K K K K K K K K K K K K K K K K K K K K K K K K K K K K K K K K K K K K K K K R M N N M R P n { K.w q f Y l K K K K R K K l l @.@.@.@.@.@.@.l l l l l l l l l l l l l l l l K K K K K K K l l l l l l l l l l l l l K K K K K K K @.@.l l l K K K K K K K K K K K K K K K K K K K K K K K K K K K K K l l @.@.@.K K K K K K K K K l l K K K K K R N M M F K f K <.a.6.s q e P K @.l K K K K K K l @.Y @.@.@.l l l l l l l l l l l @.l l l l K K K K K K K K l l l l l l l l l l l l l l K K K K K K K l l l l l l l K K K K K K K K K K K K K K l K K K K R K K K K K K K K K K K K K K K K K K K K K K l l l l K R R N N N M R R q M.'.g r f @.l K K K K K K K K l @.@.@.Y @.l l l l @.l l l l l l K K K K K K K K K K K K K K l l l l l l l l l l l l l l K K K K K K K K K K K K K K K K K K K K K K K K K K K K K K K K K K K K K K K K K K K K K K K K K K K K K K l l l l l R M N F M R R Y d ",
"c f Y K K K K K K R K K l @.l @.@.@.@.l l l l l l l l l l l l l l l K K K K K K K l l l l l l l l l l l l l l K K K K K K K K K K K K K K K K K K K K K K K K K K K K K K K K K K K K K K K K K K K K K K K K K K K K K K K K K K K K K K R M N N M R P n { K.w q f Y l K l l K K K K l l @.@.@.@.@.@.@.l l l l l l l l l l l l l l l l K K K K K K K l l l l l l l l l l l l l K K K K K K K @.@.l l l K K K K K K K K K K K K K K K K K K K K K K K K K K K K K l l @.@.@.K K K K K K K K K l l K K K K K R N M M N K f K (.Z /.D q e P K @.l K K K K K K l @.Y Y Y @.@.@.l l l l l l l l l @.l l l l K K K K K K K K l l l l l l l l l l l l l l K K K K K K K l l l l l l l K K K K K K K K K K K K K l l l K K K K K K K K K K K K K K K K K K K K K K K K K K l l l l K R R N N N M R R q M.'.g q f @.l K K K K K K K K l @.@.@.Y @.l l l l @.l l l l l l K K K K K K K K K K K K K K l l l l l l l l l l l l l l K K K K K K K K K K K K K K K K K K K K K K K K K K K K K K K K K K K K K K K K K K K K K K K K K K K K K K l l l l l R M N F M R R Y d ",
"c f Y K K K K K K R K K l @.l @.@.@.@.l l l l l l l l l l l l l l l l l l l l l l l l l l l l l l l l l l l l l l l l l l l l l l l l l l l l l l l l l l l l l l l l l l l l l l l l l l l l l l l l l l l l l l l l l l l l l l l l l K R M N N M R P n { K.w q f Y @.l l l l K K K l l @.@.@.@.@.@.@.l l l l l l l l l l l l l l l l l l l l l l l l l l l l l l l l l l l l l l l l l l l @.@.l l l K K l l l l l l l l l l l l l l l l l l l l l l l l l l l l l @.@.@.K K l l l l l l l l l K K K K K R N M M N l g l (.Z z w r g P K @.l K K K K K K l @.Y Y Y Y @.@.@.@.l l l l l l l @.l l l l K K l l l l l l l l l l l l l l l l l l l l l l l l l l l l l l l l l l l l l l l l l l l l l l l l l l l K K K l l l l l l l l l l l l l l l l l l l l l K l l l l K R R N N N M R K b M.b.e q f @.l K K K K K K K K l @.@.@.Y @.l l l l @.l l l l l l l l l l l l l l l l l l l l l l l l l l l l l l l l l l l l l l l l l l l l l l l l l l l l l l l l l l l l l l l l l l l l l l l l l l l l l l l l l l l l l l l l l l l l l R M N F M R R Y d ",
"c f Y K K K K K K R K K l @.l @.@.@.@.l l l l l l l l l l l l l l l l l l l l l l l l l l l l l l l l l l l l l l l l l l l l l l l l l l l l l l l l l l l l l l l l l l l l l l l l l l l l l l l l l l l l l l l l l l l l l l l l l K R M N N M R P n { K.w q f P @.l l @.l K K K l l @.@.@.@.@.@.@.l l l l l l l l l l l l l l l l l l l l l l l l l l l l l l l l l l l l l l l l l l l @.@.l l l K K l l l l l l l l l l l l l l l l l l l l l l l l l l l l l @.@.@.K K l l l l l l l l l K K K K K R M R M N l e @.(.:.z D n f P K @.l K K K K K K l @.Y Y Y Y @.@.@.@.l l l l l l l @.l l l l K K l l l l l l l l l l l l l l l l l l l l l l l l l l l K K K K K K K l l l l l l l l l l l l l @.@.l l l K K l l l l l l l l l l l l l l l l l l l l l K l l l l K R R N N N M R K b M.b.e q g Y l K K K K K K K K l @.@.@.Y @.l l l l @.l l l l l l l l l l l l l l l l l l l l l l l l l l l l l l l l l l l l l l l l l l l l l l l l l l l l l l l l l l l l l l l l l l l l l l l l l l l l l l l l l l l l l l l l l l l l l R M N F M R R Y d ",
"c f Y l K K K K K K K K l @.@.@.@.@.@.l l l l l l l l l l l l l l l l l l l l l l l l l l l l l l l l l l l l l l l l l l l l l l l l l l l l l l l l l l l l l l l l l l l l l l l l l l l l l l l l l l l l l l l l l l l l l l l l l K R M N N M K Y n { K.w q f P @.l @.@.l K K K l l @.@.Y @.@.@.@.l l l l l l l l l l l l l l l l l l l l l l l l l l l l l l l l l l l l l l l l l l l @.@.l l l K K l l l l l l l l l l l l l l l l l l l l l l l l l l l l l @.@.@.l l l l l l l l l l l l K K K K K M M M M l g @.(.Z z D c g P K @.l R K K K K l l @.Y Y Y Y @.@.@.@.l l l l l l l @.l l l l K l l l l l l l l l l l l l l l l l l l l l l l l l l l l K K K K K K K l l l l l l l l l l l l l l l l l l l K l l l l l l l l l l l l l l l l l l l l K K K l l l K K R M N N M R K b M.b.e q g Y l K K K K K K K l l @.@.Y Y Y @.@.@.@.@.l l l l l l l l l l l l l l l l l l l l l l l l l l l l l l l l l l l l l l l l l l l l l l l l l l l l l l l l l l l l l l l l l l l l l l l l l l l l l l l l l l l l l l l l l l l l l R M M F M R R Y d ",
"n g P l l l l l l K K l @.@.Y Y Y @.@.@.@.@.@.@.@.@.@.l l l l l l l K K K K K K K l l l l l l l l l l l l l l l l l l l l l l l l l l l K K K K K K K K K K K K K K K K K K K K K @.@.@.@.@.@.@.@.@.@.@.@.@.l K K K K K K K K K K K K K K K R N N M K Y n { K.w b g P @.l l l l l K K l @.Y P P Y @.@.@.@.@.@.@.@.@.@.@.@.@.@.@.@.@.@.@.@.@.@.@.@.@.@.@.@.@.@.@.@.@.@.@.@.@.@.@.l l l l l l l l l l l l l l K K K K K K K K K K K K K K K K K K K K l @.@.@.@.@.@.@.@.@.@.@.@.@.K K K K K K K l l l l l l l R M N N R K h l (.M.|.s r d E K l K R K K K K l l @.@.P P Y @.@.l l @.@.@.@.@.@.@.l l l l l l l @.l l l l @.l l l l l l l l l l l l l l l l l l l l l l l l l l l l K K K K K K K K K K K K K K K K K K K K l @.@.@.@.@.@.@.@.@.@.@.@.l K K K K K K K K K K K K K K R M N N M K l b a.<.g q f Y Y @.l l l @.R K l Y Y Y Y E Y Y P P Y @.@.@.@.@.@.@.l l l l l l l @.@.@.@.@.@.@.l l l l l l l l l l l l l l l l l l l l l K K K K K K K K K K K K K K K K K K K K K K K K K K K @.@.@.@.@.@.@.@.@.@.@.@.@.l K K K K K K K K l l l R R K N M R l E n ",
"n g P l l l l l l K l l @.Y Y Y Y Y @.@.@.@.@.@.@.@.@.l l l l l l l l l l l l l l l l l l l l l l l l l l l l l l l l l l l l l l l l l l l l l l l l l l l l l l l l l l l l l l l l l l l l l l l l l l l l l l l l l l l l l l l l l K K R N N R l Y n { K.w b g P @.l l l l l K l @.@.Y P P P Y @.@.@.@.@.@.@.@.@.@.@.@.@.@.@.@.@.@.@.@.@.@.@.@.@.@.@.@.@.@.@.@.@.@.@.@.@.@.l l l l l l l l l l l l l l l l l l l l l l l l l l l l l l l l l l l l l l l l l l l l l l l l l l l l l l l l l l l l l l R M M M R K h l (.M.|.s r d E K l K R K K K K l @.@.@.P P Y @.@.@.l @.@.@.@.@.@.@.l l l l l l l @.l l l l @.l l l l l l l l l l l l l l l l l l l l l l l l l l l l l l l l l l l l l l l l l l l l l l l l l l l l l l l l l l l l l l l l l l l l l l l l l l l K K M M M R K l b a.<.g q f Y Y @.l l l @.R K l Y Y Y Y E Y Y P P Y @.@.@.@.@.@.@.l l l l l l l @.@.@.@.@.@.@.l l l l l l l l l l l l l l l l l l l l l l l l l l l l l l l l l l l l l l l l l l l l l l l l l l l l l l l l l l l l l l l l l l l l l l l l l K R K N M R l E n ",
"n g P l l l l l l l l @.@.Y P Y Y Y Y @.@.@.@.@.@.@.@.@.@.@.@.@.@.@.l l l l l l l @.@.@.@.@.@.@.@.@.@.@.@.@.@.@.@.@.@.@.@.@.@.@.@.@.@.@.l l l l l l l l l l l l l l l l l l l l l K K K K K K K K K K K K K l l l l l l l l l l l l l l K l R M N R l Y n { K.w b g P @.l l l l l K l @.Y P P P P Y Y @.@.Y @.@.@.@.@.@.@.@.@.@.@.@.@.@.@.@.@.@.@.@.@.@.@.@.@.@.@.@.@.@.@.@.@.@.@.@.@.@.@.@.@.@.@.@.@.@.@.@.l l l l l l l l l l l l l l l l l l l l l K K K K K K K K K K K K K l l l l l l l l l l l l l l K M M M R K h l (.M.|.s r d E K l K R K K K l l @.@.Y P P P Y @.@.@.@.@.@.@.@.@.@.@.@.@.@.@.@.@.@.l l l l @.@.@.@.@.@.@.@.@.@.@.@.@.@.@.@.@.@.@.@.@.@.@.@.@.@.@.@.l l l l l l l l l l l l l l l l l l l l l K K K K K K K K K K K K K K l l l l l l l l l l l l l l K R M M R K l b a.<.g q f Y Y @.l l l @.K K @.Y P P P E Y Y P P Y @.@.@.@.@.@.@.@.@.@.@.@.@.@.@.@.@.@.@.@.@.@.@.@.@.@.@.@.@.@.@.@.@.@.@.@.@.@.@.@.@.l l l l l l l l l l l l l l l l l l l l l l l l l l l l K K K K K K K K K K K K K l l l l l l l l l @.@.l K R K N M R l E n ",
"n g P l l l l @.l l l @.Y Y P P P Y Y Y @.@.@.@.@.@.@.@.@.@.@.@.@.@.l l l l l l l @.@.@.@.@.@.@.@.@.@.@.@.@.@.@.@.@.@.@.@.@.@.@.@.@.@.@.l l l l l l l l l l l l l l l l l l l l l K K K K K K K K K K K K K l l l l l l l l l l l l l l l l K M M R l Y n { K.w b g P @.l l l l l l @.@.Y P P E P P Y Y Y Y @.@.@.@.@.@.@.@.@.@.@.@.@.@.@.@.@.@.@.@.@.@.@.@.@.@.@.@.@.@.@.@.@.@.@.@.@.@.@.@.@.@.@.@.@.@.@.@.l l l l l l l l l l l l l l l l l l l l K K K K K K K K K K K K K K l l l l l l l l l l l l l l K R M R K l f @.(.M.z s q d E K l K R K l l l @.@.Y Y E E P Y Y @.@.@.@.@.@.@.@.@.@.@.@.@.@.@.@.@.l l l l @.@.@.@.@.@.@.@.@.@.@.@.@.@.@.@.@.@.@.@.@.@.@.@.@.@.@.@.@.l l l l l l l l l l l l l l l l l l l l K K K K K K K K K K K K K K l l l l l l l l l l l l l l K R M M R l l b a.<.g q f Y Y @.l l l @.K l @.P P P P E Y Y P P Y @.@.@.@.@.@.@.@.@.@.@.@.@.@.@.@.@.@.@.@.@.@.@.@.@.@.@.@.@.@.@.@.@.@.@.@.@.@.@.@.@.@.l l l l l l l l l l l l l l l l l l l l l l l l l l l K K K K K K K K K K K K K K l l l l l l l @.@.@.@.K K K N M R l E n ",
"n g P l l l l @.@.l @.@.Y P P P P P Y Y @.@.@.@.@.@.@.@.@.@.@.@.@.@.l l l l l l l @.@.@.@.@.@.@.@.@.@.@.@.@.@.@.@.@.@.@.@.@.@.@.@.@.@.@.l l l l l l l l l l l l l l l l l l l l l l l l l l l l l l l l l l l l l l l l l l l l l l l l l l K R M K l Y n { K.w b g P @.l l l l l l @.Y Y P E E E P Y Y Y P @.@.@.@.@.@.@.@.@.@.@.@.@.@.@.@.@.@.@.@.@.@.@.@.@.@.@.@.@.@.@.@.@.@.@.@.@.@.@.@.@.@.@.@.@.@.@.@.l l l l l l l l l l l l l l l l l l l l l l l l l l l l l l l l l l l l l l l l l l l l l l l l l R R R K l f @.(.M.z s q c E K l K R K l l l @.Y Y P E E E P Y Y @.@.@.@.@.@.@.@.@.@.@.@.@.@.@.@.l l l l @.@.@.@.@.@.@.@.@.@.@.@.@.@.@.@.@.@.@.@.@.@.@.@.@.@.@.@.@.l l l l l l l l l l l l l l l l l l l l l l l l l l l l l l l l l l l l l l l l l l l l l l l l l R R R K l l b a.<.g q f Y Y @.l l l @.K l @.P P P P E Y Y P P Y @.@.@.@.@.@.@.@.@.@.@.@.@.@.@.@.@.@.@.@.@.@.@.@.@.@.@.@.@.@.@.@.@.@.@.@.@.@.@.@.@.@.l l l l l l l l l l l l l l l l l l l l l l l l l l l l l l l l l l l l l l l l l l l l l l l @.@.@.@.@.l K K N M R l E n ",
"n g P l l l l @.@.@.@.Y Y P E E P P P Y @.@.@.@.@.@.@.@.@.@.@.@.@.@.@.@.@.@.@.@.@.@.@.@.@.@.@.@.@.@.@.@.@.@.@.@.@.@.@.@.@.@.@.@.@.@.@.@.@.@.@.@.@.@.@.@.@.@.@.@.@.@.@.@.@.@.@.@.@.l l l l l l l l l l l l l @.@.@.@.@.@.@.@.@.@.@.@.@.@.l @.l R M K @.Y n { K.w b g P @.l l l l l l @.Y P E E E E P Y Y P P @.@.@.@.@.@.@.@.@.@.@.@.@.@.@.@.@.@.@.@.@.@.@.@.@.@.@.@.@.@.@.@.@.@.@.@.@.@.@.@.@.@.@.@.@.@.@.@.@.@.@.@.@.@.@.@.@.@.@.@.@.@.@.@.@.@.@.@.@.l l l l l l l l l l l l l @.@.@.@.@.@.@.l l l l l l l l R R R K l f @.(.a./.s q c E K l K R K l l @.@.Y P P E E E P Y Y Y @.@.@.@.@.@.@.@.@.@.@.@.@.@.@.l l l l @.@.@.@.@.@.@.@.@.@.@.@.@.@.@.@.@.@.@.@.@.@.@.@.@.@.@.@.@.@.@.@.@.@.@.@.@.@.@.@.@.@.@.@.@.@.@.@.@.l l l l l l l l l l l l l l @.@.@.@.@.@.@.@.@.@.@.@.@.@.l K R R K @.l b a.<.g q f Y Y @.l l l @.l l Y P E E E E Y Y P P Y @.@.@.@.@.@.@.@.@.@.@.@.@.@.@.@.@.@.@.@.@.@.@.@.@.@.@.@.@.@.@.@.@.@.@.@.@.@.@.@.@.@.@.@.@.@.@.@.@.@.@.@.@.@.@.@.@.@.@.@.@.@.@.@.@.@.@.@.@.l l l l l l l l l l l l l @.@.@.@.@.@.@.@.@.@.Y @.l l K N M R l E n ",
"n g E @.@.l @.@.l l @.Y Y P E E E P P P Y @.@.@.@.@.@.@.Y Y @.@.@.@.@.@.@.@.@.@.@.Y Y Y Y Y Y Y Y Y Y Y Y Y Y Y Y Y Y Y Y Y Y Y Y Y Y Y Y @.@.@.@.@.@.@.@.@.@.@.@.@.@.@.@.@.@.@.@.@.@.@.@.@.@.@.@.@.@.@.@.@.@.@.@.@.@.@.@.@.@.@.@.@.@.@.l l K R M R l P n / K.w m g P Y @.@.@.@.@.@.@.Y P E E E E P P Y Y P @.@.@.@.@.@.@.@.@.@.@.@.@.@.Y @.@.@.@.Y Y @.@.@.@.@.@.@.@.@.@.@.@.@.Y Y Y @.@.@.@.Y Y Y Y Y Y Y @.@.@.@.@.@.@.@.@.@.@.@.@.@.@.@.@.@.@.@.@.@.@.@.@.@.@.@.@.@.@.@.@.@.@.@.@.@.@.@.@.l l l l l l l l R R R K @.f @.(.a./.s q d E @.l l l l l l @.@.Y P P E E E P P Y Y @.@.@.@.@.@.@.Y Y Y Y Y Y Y Y @.@.@.@.Y Y Y Y Y Y Y Y Y Y Y Y Y Y Y Y Y Y Y Y Y Y Y Y Y Y Y Y Y @.@.@.@.@.@.@.@.@.@.@.@.@.@.@.@.@.@.@.@.@.@.@.@.@.@.@.@.@.@.@.@.@.@.@.@.@.@.@.@.@.@.@.@.@.@.@.@.l K R R K l l b a.'.e q f P Y @.l @.@.@.l @.Y P E E E P P Y Y P Y @.@.@.@.@.@.@.Y Y Y Y Y Y Y Y @.@.@.@.@.Y Y Y Y Y Y Y Y Y Y Y Y Y Y Y Y Y Y Y Y Y Y @.@.@.@.@.@.@.@.@.@.@.@.@.@.@.@.@.@.@.@.@.@.@.@.@.@.@.@.@.@.@.@.@.@.@.@.@.@.@.@.@.@.@.@.@.@.@.@.@.Y Y @.l l K M M R l E n ",
"n e h P @.@.Y l l l l Y P P E E E E P P Y Y Y Y Y Y Y @.@.@.@.l l l @.@.l l l @.@.Y Y Y Y Y Y @.@.@.@.@.@.@.@.Y Y Y Y Y Y Y @.@.@.@.@.@.Y Y Y Y @.@.@.@.@.@.@.@.@.@.@.@.@.@.@.@.@.@.@.@.@.@.@.@.@.@.@.@.@.@.@.@.@.@.@.@.@.@.@.@.@.@.@.@.l K R R R R K E r / L.y a d E Y @.Y Y Y @.@.l @.P E E E E P P P Y Y Y Y Y Y Y Y Y @.@.@.@.@.@.@.P Y Y Y Y P P Y Y Y Y Y Y Y Y Y Y Y Y Y @.@.@.@.l l l @.@.@.@.@.@.@.@.@.@.@.@.@.@.@.@.@.@.@.@.@.@.@.@.@.@.@.@.@.@.@.@.@.@.@.@.@.@.@.@.@.@.@.@.@.@.@.@.l l l l l l l l R M M K @.f @.<.Z /.D q e h Y @.@.Y @.l l @.@.Y P E E E E E P P P Y Y Y Y Y Y @.@.@.@.@.@.@.Y P Y Y Y Y P Y Y Y Y Y Y Y Y Y Y Y Y Y Y @.@.@.@.@.@.@.@.@.@.@.@.@.@.Y Y Y @.@.@.@.@.@.@.@.@.@.@.@.@.@.@.@.@.@.@.@.@.@.@.@.@.@.@.@.@.@.@.@.@.@.@.@.@.@.@.@.@.@.@.@.l K l R M M K @.m M.'.e b f E Y @.l Y @.@.l @.Y E E E E P P Y Y Y Y Y Y Y Y Y Y Y Y P Y Y Y Y P P P Y Y Y Y P Y Y Y @.@.@.@.Y Y Y Y Y Y Y @.@.@.@.@.@.Y Y Y Y Y Y Y @.@.@.@.@.@.@.Y Y Y Y @.@.@.@.@.@.@.@.@.@.@.@.@.@.@.@.@.@.@.@.@.@.@.@.@.@.@.@.@.@.@.@.@.Y @.l K R K K R l h c ",
"n e h P @.@.Y @.@.@.@.Y P E E E E E P P Y Y Y Y Y Y Y Y Y @.@.@.l l @.@.l l l @.Y Y Y Y Y Y Y Y @.@.@.@.@.@.@.Y Y Y Y Y Y @.@.@.@.@.@.@.Y Y Y Y @.@.@.@.@.@.@.@.@.@.@.@.@.@.@.@.@.@.@.@.@.@.@.@.@.@.@.@.@.@.@.@.@.@.@.@.@.@.@.@.@.@.@.@.l l K R R R K E r / L.y a d E Y @.Y Y Y @.@.l @.P E E E E E P P P P Y Y Y Y Y Y Y @.@.@.@.@.@.@.P P Y Y Y P P Y Y Y Y Y Y Y Y Y Y Y Y Y Y Y @.@.@.l l @.@.@.@.@.@.@.@.@.@.@.@.@.@.@.@.@.@.@.@.@.@.@.@.@.@.@.@.@.@.@.@.@.@.@.@.@.@.@.@.@.@.@.@.@.@.@.@.l l l l l l l l R M M K @.f @.<.Z /.D q e h Y @.@.Y @.@.@.@.Y P E h E E E E P P P Y Y Y Y Y Y Y @.@.@.@.@.@.Y P Y Y Y Y P Y Y Y Y Y Y Y Y Y Y Y Y Y Y @.@.@.@.@.@.@.@.@.@.@.@.@.@.Y Y Y @.@.@.@.@.@.@.@.@.@.@.@.@.@.@.@.@.@.@.@.@.@.@.@.@.@.@.@.@.@.@.@.@.@.@.@.@.@.@.@.@.@.@.@.l l @.l R R K @.m M.'.e b f E Y @.l Y @.@.l @.Y E E E E P P P Y Y Y Y Y Y Y Y Y Y P P Y Y Y Y P P P Y Y Y P P Y Y Y Y @.@.@.Y Y Y Y Y Y Y @.@.@.@.@.@.@.Y Y Y Y Y Y @.@.@.@.@.@.@.Y Y Y Y @.@.@.@.@.@.@.@.@.@.@.@.@.@.@.@.@.@.@.@.@.@.@.@.@.@.@.@.@.@.@.@.@.Y @.l K R K K R l h c ",
"n e h P @.@.Y Y @.Y Y P E h E E E E P P Y Y Y Y Y Y Y Y Y Y @.@.@.@.Y Y @.@.@.Y Y Y Y Y Y Y Y Y @.@.@.@.@.@.@.Y Y Y Y Y Y @.l l l l l l Y Y Y Y @.@.@.@.@.@.@.@.@.@.@.@.@.@.@.@.@.@.@.@.@.@.@.@.@.@.@.@.@.@.@.@.@.@.@.@.@.@.@.@.@.@.@.@.l l K R R K K E r / L.y a d h P @.Y Y Y @.@.l @.P E E E E E E P P P Y Y Y Y Y Y Y Y Y Y Y Y Y Y P P Y Y Y P P Y Y Y Y Y Y Y Y Y Y Y Y Y Y Y Y @.@.@.@.l l l l l l l @.@.@.@.@.@.@.@.@.@.@.@.@.@.@.@.@.@.@.@.@.@.@.@.@.@.@.@.@.@.@.@.@.@.Y Y Y Y Y Y Y @.@.@.@.@.@.@.l R M M K @.f @.<.Z /.D q e h Y @.@.Y @.@.@.Y P E h h E E E E P P P Y Y Y Y Y Y Y @.@.@.@.@.@.Y P Y Y Y Y P Y Y Y Y Y Y Y Y Y Y Y Y Y Y Y Y Y Y Y Y Y @.@.@.@.@.@.@.Y Y Y @.@.@.@.@.@.@.@.@.@.Y Y Y Y Y Y Y @.@.@.@.@.@.@.@.@.@.@.@.@.@.@.@.@.@.@.@.@.@.@.@.@.@.@.@.@.@.l K K l @.m M.'.e b f E Y @.l Y @.@.l @.Y E E h E E P P P Y Y Y Y Y Y Y Y Y P P Y Y Y Y P P P Y Y Y P P P P Y Y Y Y @.Y Y Y Y Y Y Y l l l l l l @.Y Y Y Y Y Y @.@.@.@.@.@.@.Y Y Y Y @.@.@.Y Y Y Y Y Y Y @.@.@.@.@.@.@.@.@.@.@.@.@.@.@.@.@.@.@.@.@.@.@.Y @.l K R K K R l h c ",
"n e h P @.@.Y Y @.Y Y P E h E E E E P P P Y Y Y Y Y Y Y Y Y Y Y @.@.Y Y @.@.@.Y Y Y Y Y Y Y Y Y Y Y Y Y Y Y Y Y Y Y Y Y Y Y @.@.@.@.@.@.Y Y Y Y @.@.@.Y Y Y Y Y Y Y @.@.@.@.@.@.@.@.@.@.@.@.@.@.Y Y Y Y Y Y @.@.@.@.@.@.@.@.@.@.@.@.@.@.@.l l K K K l E r / L.y a d E P @.Y Y Y @.@.l @.P E E E h E E E E P Y Y Y Y Y Y Y Y Y Y Y Y Y Y P P Y Y Y P P Y Y Y Y Y Y Y Y Y Y Y Y Y Y Y Y Y Y @.@.@.@.@.@.@.@.@.Y Y Y Y Y Y Y Y Y Y Y Y Y Y @.@.@.@.@.@.@.@.@.@.@.@.@.Y Y Y Y Y Y Y Y Y Y Y Y Y Y @.@.@.@.@.@.@.l R M M K @.f @.<.Z /.D q e h Y @.@.Y @.@.@.Y P E h h E E E E P P P Y Y Y Y Y Y Y Y Y Y Y Y Y Y P Y Y Y Y P Y Y Y Y Y Y Y Y Y Y Y Y Y Y Y Y Y Y Y Y Y Y Y Y Y Y Y Y Y Y Y @.@.@.@.Y Y Y Y Y Y Y Y Y Y Y Y Y @.@.@.@.@.@.@.Y Y Y Y Y Y Y @.@.@.@.@.@.@.@.@.@.@.@.@.@.@.@.l K K l @.m M.'.e b f E Y @.l Y @.@.l @.Y E E h E E E P P P P Y Y Y Y Y Y Y P P Y Y Y Y P P P Y Y Y P P P P P P Y Y Y Y Y Y Y Y Y Y @.@.@.@.@.@.Y Y Y Y Y Y Y Y Y Y Y Y Y Y Y Y Y Y @.@.@.Y Y Y Y Y Y Y @.@.@.@.@.@.@.@.@.@.@.@.@.@.@.@.@.@.@.@.@.@.@.Y @.l K R K K R l h c ",
"n e h P @.@.Y @.@.@.@.Y P E E E E E P P P P P P P P P P P Y Y Y Y @.P Y Y @.Y Y P P P P P P P P Y Y Y Y Y Y Y Y Y Y Y Y Y Y Y Y Y Y Y Y Y Y Y Y @.@.@.Y Y Y Y Y Y Y @.@.@.@.@.@.@.@.@.@.@.@.@.@.Y Y Y Y Y Y @.@.@.@.@.@.@.@.@.@.@.@.@.@.@.@.l K K K l E r / L.y a d E Y @.Y Y Y @.@.l @.P E E E h h E E E E P P P P P P P @.@.@.@.@.@.@.P P Y Y Y P P P P P P P P Y Y Y Y Y Y Y P P Y Y Y Y @.Y Y Y Y Y Y Y Y Y Y Y Y Y Y Y Y Y Y Y Y Y @.@.@.@.@.@.@.@.@.@.@.@.@.Y Y Y Y Y Y Y @.@.@.@.@.@.@.@.@.@.@.@.@.@.l R M M K @.f @.<.Z /.D q e h Y @.@.Y @.@.@.@.Y P E h E E E E P P P P P P P P P P Y Y Y Y Y Y Y P Y Y Y Y P P P P P P P P Y Y Y Y Y Y Y @.@.@.@.@.@.@.Y Y Y Y Y Y Y Y Y Y @.@.@.@.Y Y Y Y Y Y @.@.@.@.@.@.@.@.@.@.@.@.@.@.Y Y Y Y Y Y Y @.@.@.@.@.@.@.@.@.@.@.@.@.l l @.K R R K @.m M.'.e b f E Y @.l Y @.@.l @.Y E E E E E E E P P P P P P P P P P P P Y Y Y Y P P P Y Y Y P P P P P P P Y Y Y Y Y Y Y Y Y Y Y Y Y Y Y Y Y Y Y Y Y Y Y Y Y Y Y Y Y Y Y Y Y @.@.@.@.@.@.@.@.@.@.@.@.@.@.@.@.@.@.@.@.@.@.@.@.@.@.@.@.@.@.@.@.@.Y @.l K R K K R l h c ",
"n e h P @.@.Y l l l l Y P P E E E E P P P P P P P P P P P P Y Y Y Y P P Y Y Y P P P P P P P P P Y Y Y Y Y Y Y Y Y Y Y Y Y P P P P P P P Y Y Y Y @.@.@.Y Y Y Y Y Y Y @.@.@.@.@.@.@.@.@.@.@.@.@.@.Y Y Y Y Y Y @.@.@.@.@.@.@.@.@.@.@.@.@.@.@.@.l K K l l E r / L.y a d E Y @.Y Y Y @.@.l @.P E E E h h h E E E P P P P P P P @.@.@.@.@.@.@.P P Y Y Y P P P P P P P P Y Y Y Y Y Y Y P P P Y Y Y Y P P P P P P P Y Y Y Y Y Y Y Y Y Y Y Y Y Y @.@.@.@.@.@.@.@.@.@.@.@.@.Y Y Y Y Y Y Y @.@.@.@.@.@.@.@.@.@.@.@.@.@.l R M M K @.f @.<.Z /.D q e h Y @.@.Y @.l l @.@.Y P E E E E E P P P P P P P P P P Y Y Y Y Y Y Y P Y Y Y Y P P P P P P P P Y Y Y Y Y Y Y @.@.@.@.@.@.@.Y Y Y Y Y Y Y Y Y Y @.@.@.@.Y Y Y Y Y Y @.@.@.@.@.@.@.@.@.@.@.@.@.@.Y Y Y Y Y Y Y @.@.@.@.@.@.@.@.@.@.@.@.@.l K l R M M K @.m M.'.e b f E Y @.l Y @.@.l @.Y E E E E E E E E P P P P P P P P P P P Y Y Y Y P P P Y Y Y P P E E P P P P Y Y Y Y Y Y Y Y P P P P P P P Y Y Y Y Y Y Y Y Y Y Y Y Y Y Y Y Y @.@.@.@.@.@.@.@.@.@.@.@.@.@.@.@.@.@.@.@.@.@.@.@.@.@.@.@.@.@.@.@.@.Y @.l K R K K R l h c ",
"r d h P Y Y @.@.l l @.Y P E h h h E E E P P P P P P P Y Y Y @.@.@.@.P Y Y @.Y Y P P P P P P Y Y @.@.@.@.@.@.@.@.@.Y Y @.@.Y Y Y Y Y Y Y P P Y Y Y Y @.Y Y Y Y Y Y Y Y Y @.@.@.@.@.Y Y Y Y Y Y Y Y Y Y Y Y Y Y Y Y Y Y Y Y Y Y Y Y Y Y Y @.@.l K K l l E q ] K.w a d h P Y @.Y Y Y Y Y P E h E E E E E E E E P P P P P P P Y Y Y Y Y Y Y Y Y Y Y P E E P P P P Y Y P P P P P P P P P P P P P P Y Y Y Y Y Y Y Y Y Y Y Y Y Y Y Y Y Y Y Y Y Y Y Y Y Y Y Y Y Y Y Y Y Y Y Y Y Y Y Y Y @.@.@.@.@.@.@.Y Y Y Y Y Y Y @.K K K K @.e P (.a./.a q d f P Y Y Y Y @.@.Y P P E h h h h E E E E P P P P P P P @.@.@.@.@.@.Y Y Y @.Y Y P P P P P P P P Y @.@.@.@.@.@.@.@.@.@.@.@.@.Y Y Y Y Y Y Y Y Y Y Y Y Y Y Y Y Y Y Y Y @.l @.@.Y Y Y Y Y Y Y Y Y Y Y Y Y Y Y Y Y Y Y Y Y Y Y Y Y Y Y Y Y Y @.l l K R R K l a a.'.c b e E Y @.l @.@.l l @.Y E E h h E E E E E E E P P P P Y Y Y Y Y Y Y Y Y Y Y Y Y P P E P P P Y Y Y @.@.@.@.@.@.@.Y Y Y Y Y Y Y Y Y Y Y Y Y Y Y Y Y Y Y Y Y Y Y Y Y Y Y Y Y Y Y Y Y Y Y Y Y Y Y Y Y Y Y Y Y Y Y Y @.@.@.@.@.@.@.@.@.@.@.@.@.l l K K K @.f r ",
"q d h P P Y @.Y @.@.Y P E E h h h E E E P P P P P P P Y Y Y Y Y Y Y P P Y Y Y P P E P P P P Y Y Y Y Y Y Y Y @.@.Y P P Y @.@.Y Y Y Y Y Y P P P Y Y Y Y Y Y Y Y Y Y Y Y Y Y @.@.@.@.Y Y Y Y Y Y Y Y Y Y Y Y Y Y Y Y Y Y Y Y Y Y Y Y Y Y Y @.@.l K K l l h q ] K.w m c f E Y @.Y Y Y Y P E h h h E E E E E E E P P P P P P P P P P P P P P @.Y Y P E E h E P P P P Y P P P P P P P P P P P P P P Y Y Y Y Y Y Y Y Y Y Y Y Y Y Y Y Y Y Y Y Y P P Y Y Y Y Y Y Y Y Y Y Y Y Y Y Y Y Y Y Y Y Y Y Y Y Y Y Y Y Y Y Y Y @.l @.l R @.d E (.M.|.a m c e P Y Y Y Y Y Y P P E h f h h h E E E E P P P P P P P Y Y Y Y Y Y Y Y Y @.Y Y P P P P P P P P Y Y Y Y Y Y Y Y Y Y Y Y Y Y Y Y Y Y Y Y Y Y Y Y Y Y Y Y Y Y Y Y Y Y @.@.@.@.Y Y P Y Y Y Y Y Y Y Y Y Y Y Y Y Y Y Y Y Y Y Y Y Y Y Y Y Y Y @.@.@.l K R l l s a.<.n b d h P @.@.@.@.l K @.Y E h h h E E E E E E E E P P P P Y Y Y Y Y Y Y Y @.Y Y P P E h P P P Y Y Y Y Y Y Y Y Y Y Y Y Y Y Y Y Y Y Y Y Y Y Y Y Y Y Y Y Y Y Y Y Y Y Y Y Y Y Y Y Y Y Y Y Y Y Y Y Y Y Y Y Y Y Y Y Y Y Y Y Y Y Y Y Y @.@.@.@.@.@.@.@.K K l Y f q ",
"q d h P P Y @.Y @.@.Y P E E h h h E E E E P P P P P P P P P P P P P P P Y Y Y P P E E P P P P P P P P P P P P Y P E E P P Y P P P P P P P P P P Y Y Y P P P P P P P Y Y Y Y @.@.@.Y Y Y Y Y Y Y Y Y Y Y Y Y Y Y Y Y Y Y Y Y Y Y Y Y Y Y Y @.l K l l @.h q ] K.w m c f E Y @.Y Y Y Y P E h h h E E E E E E E P P P P P P P P P P P P P P Y Y P E E E h E E P P P P P P P P P P P P P P P P P P P P P P P P P P P P P P P P P P P P P P P P P Y Y Y Y Y Y Y Y Y Y Y Y Y Y Y Y Y Y Y Y Y Y Y Y Y Y Y Y Y Y Y Y @.l @.@.K Y e P {.a.|.a m c e P Y Y Y Y Y Y P P E f f h h h E E E E P P P P P P P P P P P P P P Y Y Y Y P E P P P P P P P P P P P P P P P P P P P P P P P P P P P P P P P P P P P P P P P P P Y @.@.Y Y Y Y Y Y Y Y Y Y Y Y Y Y Y Y Y Y Y Y Y Y Y Y Y Y Y Y Y Y Y @.@.@.l K K @.l s a.<.n b d h P @.@.Y @.l l @.P E h h h E E E E E E E E E P P P P P P P P P P P Y Y Y P E E h P P P Y Y Y Y P P P P P P P P P P P P P P P P P P P P P P P P P P P P P P P P P P Y Y Y Y Y Y Y Y Y Y Y Y Y Y Y Y Y Y Y Y Y Y Y Y Y Y Y @.@.@.@.@.@.@.@.K K l Y f q ",
"q d h P P Y @.Y @.@.Y P E E h h h E E E E E E E E E E E E E E E E E P P P Y P P P E E E P P P P E E E E E E E E E E E E E P P P P P P P E P P P P Y Y P P P P P P P P P Y Y Y Y @.Y Y Y Y Y Y Y Y Y Y Y Y Y Y Y Y Y Y Y Y Y Y Y Y Y Y Y Y @.@.l l l @.h q ] K.w m c f E Y @.Y Y Y Y P E h h h E E E E E E E E E E E E E E E E E E E E E P P P E E E h E E E P P P E E E E E E E E E E E E E E P P P P P P P P P P P P P P P P P P P P P P P Y Y Y Y Y Y Y Y Y Y Y Y Y Y Y Y Y Y Y Y Y Y Y Y Y Y Y Y Y Y Y Y @.l @.@.K Y e Y {.a.|.s a n e P Y Y Y Y Y Y P P E f f h h h E E E E E E E E E E E E E E E E E E P Y Y Y P E E E E E E E E E E E E E E E E E E E E E E P P P P P P P P P P P P P P P P P P P P Y Y Y Y Y Y Y Y Y Y Y Y Y Y Y Y Y Y Y Y Y Y Y Y Y Y Y Y Y Y Y Y Y Y @.Y Y @.K K @.l s a.<.n b d h P Y @.Y @.l @.Y P h h h h E E E E E E E E E E P P P P P P P P P P P P P P E E h E P P P Y Y Y E E E E E E E E E E E E E E P P P P P P P P P P P P P P P P P P P P Y Y Y Y Y Y Y Y Y Y Y Y Y Y Y Y Y Y Y Y Y Y Y Y Y Y Y Y Y Y Y Y Y Y @.K K @.P g q ",
"q d h P P Y @.Y @.@.Y P E E h h h E E E E E E E E E E E E E E E E E E P P P P P E h h E E E P P E E E E E E E E E h h E E P P P P P P P E E E P P P Y P P P P P P P P P P P Y Y Y Y Y Y Y Y Y Y Y Y Y Y Y Y Y Y Y Y Y Y Y Y Y Y Y Y Y Y Y Y @.l l @.@.h q ] K.w m c f E Y @.Y Y Y Y P E h h h E E E E E E E E E E E E E E E E E E E E E E E E E E E E h h E E E P E E E E E E E E E E E E E E P P P P P P P P P P P P P P P P P P P P P P P Y Y Y Y Y Y Y Y Y Y Y Y Y Y Y Y Y Y Y Y Y Y Y Y Y Y Y Y Y Y Y Y Y @.Y @.l P d P {.a.|.s a n e P Y Y Y Y Y Y P P E f f h h h E E E E E E E E E E E E E E E E E E P P Y P E E E E E E E E E E E E E E E E E E E E E E E P P P P P P P P P P P P P P P P P P P P P P P Y Y Y Y Y Y Y Y Y Y Y Y Y Y Y Y Y Y Y Y Y Y Y Y Y Y Y Y Y Y Y Y Y Y @.l l @.@.s a.<.n b d f E Y Y Y Y @.Y P E h h h h E E E E E E E h h E E E P P P P P P P P P E E E E E E E E E P P P P E E E E E E E E E E E E E E P P P P P P P P P P P P P P P P P P P P Y Y Y Y Y Y Y Y Y Y Y Y Y Y Y Y Y Y Y Y Y Y Y Y Y Y Y Y Y Y Y Y Y Y @.K K @.Y f q ",
"q d h P P Y @.Y @.@.Y P E E h h h E E E E E E E E E E E E E E E E E E E P P P E E h h h E E E E E E E E E E P P E E E E P P P P P P P P E E E E P P P P P P P P P P P P P P P Y Y Y Y Y Y Y Y Y Y Y Y Y Y Y Y Y Y Y Y Y Y Y Y Y Y Y Y Y P Y @.@.@.@.@.h q ] K.w m c f E Y @.Y Y Y Y P E h h h E E E E E E E E E E E E E E E E E E E E E E E E E E E E h h h E E E E E E E E E E E E E E E E E E P P P P P P P P P P P P P P P P P P P P P P Y Y Y Y Y Y Y Y Y Y Y Y Y Y Y Y Y Y P P P P P P P Y Y Y Y Y Y Y Y @.Y Y l P d P {.a.|.a m c e P Y Y Y Y Y Y P P E f f h h h E E E E E E E E E E E E E E E E E E P P P P E h E E E E E E E E E E E E E E E E E E E E E P P P P P P P P P P P P P P P P P P P P P P P P P Y Y Y Y Y Y Y Y Y Y Y Y Y Y Y Y Y Y Y Y Y Y Y Y Y Y Y Y Y Y Y Y @.l l Y @.s a.<.n b d f E Y Y P Y @.P P E h h h h E E E E E E E h h h E E E E P P P P P P E E E E E E E E E E E P P P E E E E E E E E E E E E E E P P P P P P P P P P P P P P P P P P P P Y Y Y Y Y Y Y Y Y Y Y Y Y Y Y Y Y Y Y Y Y P P P P P P Y @.@.@.@.@.@.@.K K l Y f q ",
"q d h P P Y @.Y @.@.Y P E E h h h E E E E h h h h h h P P P P P P P E E P P P E h h h h E E E E P P P P P P P P P E E P P P E E E E E E E E E E E P P E E E E E E E E E P P P P Y Y Y Y Y Y Y Y Y Y Y Y Y Y Y Y Y Y Y Y Y Y Y Y Y Y Y Y P Y Y @.@.@.Y h q ] K.w m c f E Y @.Y Y Y Y P E h h h E E E E E E E h h h h h h h h h h h h h h h h h h E E E h h h E E E E h h h h h h h h h h h h h E E E E E E E E E E E E E E E E E E E E E P P Y Y Y Y Y Y Y Y Y Y Y Y Y Y Y Y Y Y P P P P P P P Y Y Y Y Y Y Y Y @.Y Y l P c E (.M.z a b c e P Y Y Y Y Y Y P P E f f h h h E E E E h h h h h h E P P P P P P P E P P P E h h h h h h h h P P P P P P P P P P P P P P E E E E E E E E E E E E E E E E E E E E E E E P P Y Y Y Y Y Y Y Y Y Y Y Y Y Y Y Y Y Y Y Y Y Y Y Y Y Y Y Y Y Y P P Y l l Y @.s a.<.n b d f E Y Y P Y @.P E E h h h h E E E E E E E h h h E E E E E E E E E E h h h h E E E h E E E P P P P P P P P P P P P P P P P P E E E E E E E E E E E E E E E E E E E E Y Y Y Y Y Y Y Y Y Y Y Y Y Y Y Y Y Y Y Y Y P P P P P P Y @.@.@.@.@.@.@.K K l Y f q ",
"q d h E E P Y Y Y Y P h f f E E E P P P E h h h h E E E h h h h h h h E E E P P P P P P P P P E h h h h h h E P P P P P P E h h h h h h E E E E E E E P P E E E h h P P P P P P P P P P P P P Y Y Y Y Y Y Y Y P P P P P P P P P Y Y P P Y @.@.@.Y Y P h q ] L.y a c g h P P E E Y Y P h h h E h h h E P Y Y P P P P P P P h h h h h h h P P E E E E E P P P P P P P P P P P P P P P P P P P P h h h h h h h P P P Y Y Y Y P E E E E h E P P P P P P P P P P P P P Y Y Y Y Y Y Y P P P P P P P @.Y Y Y Y @.@.@.@.@.l @.P d Y (.M.|.D b c e E P P P P Y Y Y P E f f E E E E P P P E E E E E E E P P P P P P P Y Y Y Y P P P P P P P P P P P P P P P P P P P P P P P h h h h h h E P P P Y Y Y Y P E E E E h E P P P P P P @.@.@.@.@.@.@.Y Y Y Y Y Y Y P P P P P P Y Y P P P Y @.Y Y @.l K l Y P s M.'.d m d h P P P P Y Y Y P E h h E E E E E E P P E E E E E E E E E E E E E E E P E E E E h E P P P P P P P P P P P P P P P P P P P P P P P P P P E E E E E E E h h h h h h h Y Y Y P Y Y Y Y Y P P P E P P P P P P P P P P P P P P Y Y P P Y @.@.Y l K l Y g q ",
"q d f E E P P Y Y P E h f f h E E E E P E E E E P P P E E E E E E E E E E E P P P P P P P P P P E E E E E E E P P P P P P E E E E E E E P Y Y Y Y Y Y P P P E E E E P P P P P P P P P P P P P P P P P P P P P P P P P P P E P P Y P P E Y @.@.@.@.Y P f q ] L.y a c g h P E E E P Y P h h h E h h h E E P P P P P P P P P E E E E E E E P P E E E E E P P P P P P P P P P P P P P P P P P P P E E E E E E E P P P Y Y Y Y P P E E E E E P P P P P P P P P P P P P P P P P P P P P P P P P P P @.Y Y Y Y Y @.@.@.@.l @.E d Y (.M.8.w b c e E P P E P Y Y Y P E f f h h E E E P P E E E E E E E P P P P P P P P P P P P P P P P P P P P P P P P P P P P P P P P P P E E E E E E E P P P Y Y Y Y P P E E E E P P P P P P P Y Y Y Y Y Y Y P P P P P P P P P P P P P P P P P P Y Y Y Y l l K l Y P s M.'.d m d h h E E E P P @.Y E h h E E E E E E P P P E E E E E E E E E E E E E P P P E E E E P P P P P P P P P P P P P P P P P P P P P P P P P P P E E E E E E E E E E E E E E Y Y P P P Y Y Y Y P P P E E P P P P P P P P P P P P P Y P P P P @.@.Y @.l l Y e r ",
"q d f E E P P Y Y P P h f f h h h h E E P P P P Y Y Y P E E E E E E E E E P P P P E E E E E E E E E E E E E E E E E E E E E E E E E E E E P P P P P P P P P P E E E P P P P P P P P P P P P P P P P P P P P P P P P P P P P P P P P P P P Y @.@.@.@.Y f q ] L.y a c g h P E E E P Y P E h h h h h h h h h h E E E E E E E E E E E E E E P P P E E E E E E E E E E E E E E E E E E E E E E E E E E E E E E E E E E P P P Y P P P P E E P P P P P P P P P P P P P P P P P P P P P P P P P P P P Y P P P P Y Y @.@.@.l @.E d Y (.M.8.w b c e E P P E P Y Y P P E f f h h h h E E E h h h h h h h E E E E E E E P P P P P P E E E E E E E E E E E E E E E E E E E E E E E E E E E E E E P P P P Y P P P P E E P P P P P P P P P P P P P P P P P P P P P P P P P P P P E E E E P P Y @.l K K @.Y P s M.'.d m d h h h h E E E Y Y P h h h E E E E E P P E h h h h h h E P P P P P P P P P P E E E E E E E E E E E E E E E E E E E E E E E E E E E E E E P P P P P P P E E E E E E E Y Y P P P Y Y Y Y P P P E E P P P P P P P P P P P P P Y P P P P @.@.@.@.@.@.P e r ",
"q d f E E E P P P P P E h f h h h h E E E P P P Y Y Y P P P P P P P E E P P P P Y E E E E E E E P P P P P P P E E E E E E P P P P P P P E h h h h h h Y Y Y Y P P P Y Y Y Y Y Y Y P P P P P P P E E E E E E P P P P P P P P P P P P P P P P Y @.@.@.@.f q ] L.y a c g h P E E E P Y P E E h h h h h h f f f E E E E E E E P P P P P P P Y P P P E E E E E E E E E E E E E E E E E E E E E E E P P P P P P P E E E P P P Y Y Y Y P P P P P P P P P P P P P P P P P E E E E E E E P P P P P P P P P E E E P P @.@.@.l @.E d Y (.M.8.w b c e E P P E P P Y P E E h h f h h h h E E h h h h h h h E E E E E E E P P P P P P E E E E E E E E E E E E E E E E E E E E E P P P P P P P E E E P P P Y Y Y Y P P P Y Y Y Y Y Y Y P P P P P P P E E E E E E E P P P P P P P E h h E E P Y @.l K l @.P E s M.'.d m d h h E E E E P Y P P E h h h E E E E P P E h h h h h h E P P P P P P Y P P P P E E E E E E E E E E E E E E E E E E E E E E E E E E E E E P P P P P P P P P P P P P P Y Y P P P Y Y Y Y P P P E E P P P P P P P P P P P P P Y P P P P @.@.@.@.@.@.P e r ",
"q d f E E E P P P P P E h h E E E E P P E E E E P P P P Y Y Y Y Y Y P P P P Y Y Y P P P P P P P Y Y Y Y Y Y P P P P P P P P Y Y Y Y Y Y P P P P P P P @.@.@.@.Y Y Y Y Y Y Y Y Y Y P P P P P P P P P P P P P P P P P P P P Y P E E E P Y P Y @.@.@.@.Y f q ] L.y a c g h P E E E E P P P E E h h h h h h h h E P P P P P P P Y Y Y Y Y Y Y Y Y P P P P P P P P P P P P P P P P P P P P P P P P P Y Y Y Y Y P P P P Y Y Y @.@.@.@.@.Y Y P P P P P P P P P P P P P P P P P P P P P P P P P P P P Y P P P P P Y @.@.@.l @.E d Y (.M.8.w b c e E P P E P P P P E E E E E E E E E P E E E E E E E E P P P P P P P Y Y Y Y Y Y P P P P P P P P P P P P P P P P P P P P P Y Y Y Y Y Y P P P P Y Y Y @.@.@.@.Y Y Y Y Y Y Y Y Y Y P P P P P P P P P P P P P P P P P P P P P E E E E P P Y @.l K l @.P E s M.'.d m d E P P P P Y Y P P P P E h h E E E E P P E E E E E E E P Y Y Y Y Y Y Y Y Y P P P P P P P P P P P P P P P P P P P P P P P P P P P P P P P P Y Y Y Y Y Y Y Y Y Y Y Y Y Y Y P P P Y Y Y Y P P P E E P P P P P P P P P P P P P Y P P P P @.@.l @.@.Y E g n ",
"q d f E E P P E P P P E E E P P P P Y Y P P P P Y Y Y Y Y Y Y Y Y Y P P P Y Y Y Y Y Y Y Y Y Y Y Y Y Y Y Y Y Y Y Y Y Y Y Y Y Y Y Y Y Y Y Y @.@.@.@.@.@.l l @.@.@.@.@.Y Y Y Y Y Y Y P P P P P P P P P P P P P P P P P P P P Y Y E h E P @.Y @.@.@.@.Y P f q ] L.y a c g h P E E E E P P Y P E h h h h E E E E P Y Y Y Y Y Y Y Y Y Y Y Y Y Y Y Y Y P P P Y Y Y Y Y Y Y Y Y Y Y Y Y Y Y Y Y Y Y Y Y Y Y Y Y Y Y Y Y Y @.@.@.l l l @.@.@.@.Y P P P P P P P P P P P P P P P P P P P P P P P P P P P @.Y Y Y Y Y @.@.@.@.l @.E d Y (.M.8.w b c e E P P E P P P E E E E E P P P P Y Y Y P P P P P P P Y Y Y Y Y Y Y @.@.@.@.@.@.Y Y Y Y Y Y Y Y Y Y Y Y Y Y Y Y Y Y Y Y Y Y Y Y Y Y Y Y Y Y Y @.@.@.l l l @.@.@.@.Y Y Y Y Y Y Y Y Y Y Y Y Y Y P P P P P P P P P P P P P P P P P P Y Y @.l K K l Y P E s M.'.d m d E E E P P P P E P Y P E h f E E E E P P P P P P P P P P Y Y Y Y Y Y Y Y Y Y P P P Y Y Y Y Y Y Y Y Y Y Y Y Y Y Y Y Y Y Y Y Y Y Y Y Y Y Y Y Y Y Y Y Y Y Y Y Y Y Y Y Y Y Y P P P Y Y Y Y P P P E E P P P P P P P P P P P P P Y P P P P @.@.l l @.Y E g n ",
"q d f E E P P E E P P E E E P Y Y Y Y @.Y Y Y @.@.@.@.@.@.@.@.@.@.@.P P P Y Y Y @.@.@.@.@.@.@.@.@.@.@.@.@.@.@.@.@.@.@.@.@.@.@.@.@.@.@.@.Y Y Y Y Y Y Y l l l @.@.@.@.@.@.@.@.@.@.Y P P P P P P P Y Y Y Y Y Y P P P P P P P @.Y E h E P @.@.@.@.@.Y P P f q ] L.y a c g h P E E E E P Y Y P E h h h h E P Y Y @.@.@.@.@.@.@.@.@.@.@.@.@.@.@.Y Y Y P P Y @.@.@.@.@.@.@.@.@.@.@.@.@.@.@.@.@.@.@.@.@.@.@.@.@.@.@.@.@.@.@.l l l l l l @.@.@.Y P P P P P P P P P P P P P Y Y Y Y Y Y Y P P P P P P P @.@.Y Y Y @.@.@.@.@.l @.E d Y (.M.8.w b c e E P P E P E E E E E E E P Y Y Y Y @.@.Y Y Y Y Y Y Y @.@.@.@.@.@.@.l l l l l l @.@.@.@.@.@.@.@.@.@.@.@.@.@.@.@.@.@.@.@.@.@.@.@.@.@.@.@.@.@.@.l l l l l l l @.@.@.@.@.@.@.@.@.@.@.@.@.@.@.@.@.Y Y Y Y Y Y Y P P P P P P P Y P P P Y @.l l K K l Y E E s M.'.d m d h h h h E E E E P Y P E h f E E E E P P P Y Y Y Y Y Y Y Y Y Y Y Y Y @.Y Y Y Y P P @.@.@.@.@.@.@.@.@.@.@.@.@.@.@.@.@.@.@.@.@.@.@.@.@.@.@.Y Y Y Y Y Y Y @.@.@.@.@.@.@.Y Y P P P Y Y Y Y P P P E E P P P P P P P P P P P P P Y P P P P @.@.K l Y Y E g n ",
"m c h E E Y @.P P P P P P P P Y Y Y Y @.Y Y Y Y Y Y Y @.@.@.@.@.@.@.l l l l l l l @.@.@.@.@.@.@.Y Y Y @.@.l l l l l l l l @.@.@.@.@.@.@.@.@.@.@.@.@.@.P P P P P P P Y Y Y Y Y Y Y @.@.@.@.@.@.Y P P P P P P P P P P P P P Y Y P P P @.@.Y Y @.@.Y P E g m { J.x D d g h P Y P h h E Y @.Y P E h E P Y @.Y P Y Y Y Y Y Y Y @.@.@.@.@.@.@.l l l @.@.@.@.Y Y Y Y Y Y Y Y @.@.l K K l @.@.@.@.@.@.l l l l l l l @.@.@.@.@.@.@.l l l l l l @.@.@.@.@.@.@.Y Y Y Y Y Y Y Y Y Y Y Y Y Y Y Y Y Y Y Y Y Y Y P P Y @.l K l l K l E g l b.d./.a m n f E Y Y P h P P P E P Y @.l l l l l l l Y Y Y Y Y Y Y @.@.@.@.@.@.@.Y Y Y Y P P Y @.@.@.@.@.@.Y Y Y @.@.@.@.l l l l l l l @.@.@.@.@.@.@.l l l l l l l l l l l l l @.@.@.@.@.@.@.@.@.@.@.@.@.@.P P P P P P P Y Y Y Y Y Y P E P P P P Y l l @.Y Y Y Y P s M.N.c a n f h E h h P Y P Y Y @.Y E E Y Y Y Y Y Y Y @.@.@.@.@.@.@.@.@.@.@.@.@.Y Y Y Y Y P P @.@.@.@.@.@.@.l l l l l l @.Y Y Y Y Y Y @.l l l l l l l l l l l l l l l l l l l l Y Y Y Y Y Y Y @.@.@.@.@.@.@.@.@.@.@.@.@.Y Y Y Y Y Y Y P P P P Y @.l @.@.l l Y f n ",
"q c g h E P P P P P P P P P P P Y Y Y Y Y Y Y Y Y Y Y @.@.@.@.@.@.@.l l l l l l l @.@.@.@.@.@.@.Y @.@.@.@.@.@.@.@.@.@.@.@.@.l l l l l l l l l l l l l Y Y Y Y Y Y Y Y Y Y Y Y Y Y Y Y Y Y Y Y Y Y Y Y Y Y Y P P Y Y Y Y Y Y P P P Y Y @.@.@.l l @.Y Y f m / J.y D c g h P Y P E h h h h h f f h E Y @.@.@.Y @.@.@.@.@.@.@.@.@.@.@.@.@.@.l l @.@.@.@.@.Y Y Y Y Y Y Y Y @.@.@.l l @.Y Y Y Y Y Y @.@.@.@.@.@.@.l l l l l l l @.@.@.@.@.@.@.Y Y Y Y Y Y P P P P P P P P P P P P P P Y Y Y Y Y Y Y Y Y Y Y Y @.l @.@.l K @.h c Y (.M.|.D m c e h P Y P E E P E E E P Y @.@.@.@.@.@.@.@.@.@.@.@.@.@.@.@.@.@.@.@.l l @.@.@.@.Y @.@.@.@.@.@.@.Y Y Y @.@.@.@.@.@.@.@.@.@.@.l l l l l l l @.@.@.@.@.@.@.@.@.@.@.@.@.Y Y Y Y Y Y Y Y Y Y Y Y Y Y Y Y Y Y Y Y Y Y Y Y Y Y Y Y P Y Y Y Y @.l K l l @.@.Y Y m a.<.g m n g h E E E P Y P P P E h h h P P P Y Y Y @.@.@.@.@.@.@.l l l l l l l l l @.@.@.@.Y @.@.@.@.@.@.@.@.@.@.@.@.@.@.Y Y Y Y Y Y Y @.@.@.@.@.@.l l l l l l l @.@.@.@.@.@.@.Y Y Y Y Y Y Y Y Y Y Y Y Y Y Y Y Y Y Y Y Y Y Y Y Y Y Y Y P P Y @.l K @.Y Y Y E d q ",
"c c e h P E h E E E E E E E P P P P Y Y Y Y Y Y Y Y Y Y @.@.@.@.@.@.@.l l l l l l @.@.@.@.@.@.@.@.@.@.@.@.Y Y Y Y Y Y Y Y @.l l l l l l l l l l l l l @.@.@.@.@.@.@.P P P P P P P P P P P P P P Y Y Y Y Y Y P P Y Y @.@.l Y P P P P Y @.l l K l l @.Y h m [ J.s s n g h E Y Y P P E h f g g f h E P Y @.@.@.@.l l l l l l @.@.@.@.@.@.@.@.@.@.Y Y Y Y Y Y Y Y Y Y Y Y Y Y Y Y Y Y Y Y Y Y Y Y Y Y Y Y Y Y Y l l l l l l @.@.@.@.@.@.@.Y P P P P P P P P P P P P P P P P P P P P Y Y Y Y Y Y Y Y P P P Y @.@.@.l K K l h n P {.Z /.s q c d g E P P P E E E E E P P Y Y Y Y Y Y Y l l l l l l @.@.@.@.@.@.@.l K l l l @.@.@.@.@.@.@.@.@.Y Y Y @.@.@.l Y Y Y Y Y Y Y l l l l l l @.Y Y Y Y Y Y Y @.@.@.@.@.@.P P P P P P P P P P P P P P Y Y Y Y Y Y Y Y Y Y Y Y Y Y Y Y Y @.@.@.@.@.l K l Y P E a a.{.f b n e h P Y P P P Y P E h f f f h h E P Y @.@.@.@.@.@.@.@.@.l l l l l l l K l l l @.@.@.@.@.@.@.@.@.Y Y Y Y Y Y Y Y Y Y Y Y Y Y Y Y Y Y Y Y @.l l l l l l @.@.@.@.@.@.@.P P P P P P P P P P P P P P P P P P P P P P P P P P P Y Y Y Y @.@.l @.@.Y Y E d q ",
"g d e h Y P f h h h h h h h h h E E E P Y Y Y Y Y Y Y Y P P P P P P Y Y Y Y Y Y Y P P P P P P Y @.Y Y Y P P P P P P P P P Y Y Y Y Y Y Y Y Y Y Y Y Y Y Y Y Y Y Y Y Y P P P P P P P E E E E E E E E E E E E E E E E P P Y Y P E E E P Y Y Y Y @.@.Y P P g a [ E.b b n g f h E P Y Y P h f g f f h f h E P P Y Y Y Y Y Y Y Y P P P P P P P P P P P E E P P P P P P P P P P P E E E P P P P P P P P P P P P P P Y Y Y Y Y Y Y P P P P P P P E E E E E E E E E E E E E E E E E E E E E E E E E E E E h h h E P Y Y Y l l Y f r E <.Z C n d c d e f E E E E h f h h E E P P P P P P P Y Y Y Y Y Y Y P P P P P P Y @.Y Y Y P P P P P P P P P P P P Y Y Y Y P P P P P P P Y Y Y Y Y Y Y P P P P P P P P P P P P P E E E E E E E E E E E E E E E E E E E E E E E E E E E E E E P P P P P P Y @.Y E f g w a.{.E q c d f P Y P E E Y E f g g g f f f h E Y Y Y P P P P P P Y Y Y Y Y Y Y @.Y Y Y Y P P P P P P P P P P P P P P P P Y Y Y Y Y Y Y P P P P P P Y Y Y Y Y Y Y Y P P P P P P P P P P P P P E E E E E E E E E E E E E E P P P P P P P P E E E P Y l @.Y Y E e r ",
"g e e h E E h h h h h h h h h h h h E E E P P P P P P E E E E E E E E E E E E E E E E E E E E E P P P E E E E E E E E E E P P P P P P P P P P P P P P E E E E E E E P P P P P P P E E E E E E E E E E E E E E E E E h E E E E E E P P Y E E P E E h f d a [ J.q n d e g f h E E E f g e e g f h f f f f h E E E E E E E E h h h h h h h E E E E h h h E E E E E E E E E E E E E E E E E E E E E E E E E E E P P P P P P P P P P P P P P E E E E E E E P P P P P P P P P P P P P h h h h h h h h h f h h E E E h E E h e n Y '.a.w e g d d e g f h E h f f f h h E E E E E E E E E E E E E E E E E E E E E E E E E h h h E E E E E E E E E E E P P P E E E E E E E P P P P P P P E E E E E E E P P P P P P E E E E E E E E E E E E E E E E E E E E E h h h h h h h h h h E E E E h E P E f g g w a.` Y c g d f E E h h h f g e d d e e g f h E E P P E E E E E E P P P P P P P P E E E h h h E E E E E E E E E E E E E E P P P P P P E E E E E E E E E E E E E E P P P P P P P P P P P P P P E E E E E E E E E E E E E E P P P P P P E h h f h h E Y P E h f c r ",
"c d e e g h E f f f f f f f f f h h h h h h h h h h h h f f f f f f h h h h h h h f f f f f f f f f f f h h h h h h h h h h h h h h h h h h h h h h h h h h h h h h E E E E E E E P P P P P P P P P P P P P P P P E E h h E E E h E P Y f h h h f g g d q / #.a r d e e e g f f g e g f f h h E E h f g f h f f f f f f f h h h h h h h h h h h f f f f f f f f f f f f h h h E E E E E E E E h h h h h h h h h h h h h E E E E E E E E P P P P P P P P P P P P P P P P P P P P E E E E E E E E E E E E P P E f f f g e c @.<.a.v n d d d d e e f h f f g g f h h h h h h h h h f f f f f f f f f f f f f h h h f f f f f f f f f f f f f f h h h h h h h h h h h h h h h h h h h h h h h h E E E E E E E P P P P P P P P P P P P P P P P P P P P P E E E E E E E h E E E E P E E h h f f g h a :.O.Y c f d e g g g f h d e e g g g g f f h h h E h f f f f f f h h h h h h h h h h f f f g f f f f f f f h h h h h h h h h h h h h h h h h h h h h h h h h h h E E E E E E E E E E E E E E P P P P P P P P P P P P P P E E E E E E E E h h h h E h f g g g c r ",
"b n d c c g E f f f f f f f f f f h h h f f f f f f f g g g g g g g h E E E E E E g g g g g g g e g g f f f f f f f f f f f f f f f f f f f f f f f f h h h h h h h E E E E E E P P P P P Y Y Y @.@.@.@.@.@.@.@.Y P P E h E E h E E P P h h h h f g g f c ( K.s m n e e d d e g e e f P P Y P P E h f f f h f f f f f f f h h h h h h h h h h f f f f g g g g g g g g g f h h E h h h h h h h f f f f f f g f f f f f f f E E E E E P P P P P P P P Y Y Y Y Y Y Y Y Y Y Y Y Y Y Y Y Y Y Y Y Y Y Y P P Y @.@.@.P E h h h e l 1.a.|.D q d e d d e g f f g g g g f h f f f f f f f f f f f f f f g g g g g g f h h f f f f g g g g g g g g g g f f f f f f f f f f f f f f f f f f f f f f f f h E E E E E E P P P P P P P P P P P P P P @.@.@.@.@.@.@.Y Y Y Y Y Y Y E P P P P Y Y P E h f f f P b ,.{.h b d c d e e e g f g f E P P P h f f f h h h f g g g g g g f f f f f f f h h h f f f f g g g g g g g f f f f f f f f f f f f f f f f f f f f h E E E E E E E E E E E E E E E E E E P P P P P P P P P P P P P P P P E E E E E E P P E E E E E E h f f f g d ",
"s b n n n d g e e e e e e e d d d d d d e e e e e e e e e e e e e e g f f f f f f e e e e e e e e e e e e e e e e e e e e f f c c e g e e g g g g g g f f f h h h E @.@.@.@.@.@.@.l l l l K K l @.@.@.@.@.@.l K l l @.@.Y P P P Y @.@.l P P E h f f f E q 7 K.y w b c c c c c c n c e E Y P f d c c c c c c c n c c c c c g g g g g g g g g g g g g e d d d d d d d d d d e e e e d d d d d d f e d g f e n g g g g g g g g g h E Y @.@.@.@.@.@.@.@.@.Y Y Y Y Y Y @.@.@.@.@.@.@.@.@.@.@.@.@.@.@.@.@.@.@.@.Y E E E E h h f l O.:.9.s a b r n d d e e d d d d d d d d e e e e g g e e g g g f f f f f f f f f g g g g g g e d d d d d d f f f f f f f d e g e d c d g d e g e d d e e e e e e e d e g f h E @.@.@.@.@.@.@.@.@.@.@.@.@.@.K K K K K K K l l l l l l @.Y Y @.@.@.@.@.Y E h h f e h m P.Q.d y d d d d d d d d c f P @.@.P h g g g g g g g e e g g g g g f f f f f f f f f f g g g g g g g g g g f f f f f f g e g f h h f f h h f f f f g g g g g g g g f h h E P P @.@.l l l K K l l l l l l l K K K K K K l @.@.Y Y Y P E P @.l @.P h E E h h h f f ",
"x w m b b q n r r r r r r r n n n n n n r r r r r r r n n n n n n n n n n n n n n c c c c c c c n n n n n n n r r r r r r r r r r q r c n r r r r r r r n c d e g g E E E E E E h f h h h h E E h h h h h h h h h h E E E E h E E P P P h h f f g e d b r ( E.k.s m m m m m m m b b q c e d n q q q q q q q q b q q q r r r r r r r r r r r r r r r r r r r r r r q q r r r n n r r r r r r r q a q c r q e r r r r r r r r r n c d e g f f f f f f f h h h h h h f g g g g g g h h h h h h h E E E E E E f c c c c n n q E b.~.k.b y y m m q r r q q q q q q q q q q q q r r r q q r r r n r r r r r r r r r r r r r r r r r r r r r r r r r r r r n n n r r n n r q q r n n n n n n n n n r r n c d d d f h h h h h h h E E E E E E E E E E E E E h h h h h h h h E E E P P E f e d d c n n x Z <.d y m q q q q q q q r c g f f e c r r r r r r r r n n n n c n n n n n n n c c c c n n n c c c c c c c c c c c c c n r r n c c d d d c c c n n c c c c c c c d e g g f h h E E P P P P P P P P P P P Y Y Y Y Y Y Y Y P P P P P P E E P Y Y E f h f g e d c c ",
"C w s a D w w m m m m m m m a a a a a a a m m m m m m a a a a a a a m m m m m m m s s s s s s s a a a a a a a m m m m m m s m n b y x D m m m m m m m s a a b b q q q q q q q q q q q r r r n n n n n n n n r r r r n n c n r r r r r r q q q b b m m m y ] L.C 8.a D D D D D D D D w D s s D w D D D D D D w w D D D s s s s s s s s s s s s s s s a a a a a a a s D D D s s s D D D D D D D w m q a x C m s s s s s s s s s a a m m m b b b b b b m m m m m m m q q q q q q q b m m m m m m b b b b b b b m m m a a a y g b.P.q.8.y D D s a m m a a a a a a a a s s s s a a a s s s a a a a a a a a a a s D D D D D D D D D D D D D s a a a a a a a s s s a m m a m a D s s s a a a a a a a a m m m m m m b b b b b b q q q q q q q r r r r r r r q q q q q q b m b b b b q r r b m b m a m v $.e.r x D m m m m m m m a a m m m a a b b b b b b m a a a m m m a a a a a a a m b m m m a a b b b b b b b q q q q q q q b m m m m b b m m m m a a m b b b b b b q r r r n n c r r r r n n n c c c c c c c n n n n n n c c c d d e e d c d d d c n r q b m a a s ",
"|./.v y w w w y y y y y y w w w w w w w w y y y y y y C x x x x x x y y y y y y y C C C C C C C x x x x x x C y y y y y y w C 6.v s D =.C y y y y y y C C C C C C C w w w w w w w C y y y y w y y y y y y y y y y y y C y D D w w w w w w y y y y y x z v ] R.z i.x v v v v v v C w x x C C C x x x x x x x x x C C C y y x x x x x x x x x x x x x x x x x x x x x x x C C C C C C C C C C C C y /.z D a z x x x x x x x x x x x x x C y y y y y y C C C C C C C y y y y y y y x x x x x x x C C C C C C C x x x x v v z b B ,./.k./.C C C y y y y C C C C C C C x x x x C C C x x x x C C C C C C C C C C C C C C C C C C C C C C C C C C C C C C C v v x y y C =.C x v y D y v v v v v v x C x x x v v C y y y y y y w w w w w w w y y y y y y y C C C C C C C C C C C y y y y C C C C v a o.:.S.6.C v x C C C C C C D D D w w w w y y y y y y y y y y w w w y y y y y y y w w w y y y y w w w w w w w y y y y y y y y x v v v x y w w y y y y w w w w w w w w w w w w D D D D D D s s s D D D D D D D s s s s s s D w D D s s s D D D D D w w w w w w w w w ",
"6.6.v y D D w y y y y y y y y y y y y y y y y y y y y y y y y y y y y y y y y y y w w w w w w y y y y y y y y y y y y y y C C C y y w w y C C C C C C w w y y C C x y y y y y y y y y y y w w y C C C C C C y w y y C x x y y y y y y y C C y C C C y a =.x.I.v 8.a x x x x x x C y x x C C C x x x x x x x x x x x C C C x x x x x x x x x x x x x x v v v v v v x x x C C C C C C C C C C C =.a C z C a v x x x x x x x v v v v x x x x x x x x x C C C C C C C C C C C C C C x x x x x x x C C C C C C C x x x v v v C d B M.z b x v C y y y C C C C C C C C C x x x x C C C v v x x x C C y y y y y y C C C C C C C C C C C C C C y y y y y y y C v v y D y v x a D x y y x C C C C C C C y C C C C C C y y y y y y y y y y y y y y y y y y y y C C C C C C C y y y w w w w y C C y C x y x ,.T.r z D D w w w w w w C C C C x x C w w w w w w w D D D D s s D D D D D D D D D D D w w w D D D D D D D w w w w w w y y C C y w D D s s D D D D D D D D D D D y y y y y y y w w w D D D D s s s s s s D y y y y y y w D s s s s s s s D D D D D v =.v x x C C ",
"; # + @ + @ % @ @ @ @ @ @ @ % % % % % % @ @ @ @ @ @ @ + + + + + + + $ $ $ $ $ $ + @ @ @ @ @ @ @ + + + + + + + @ @ @ @ @ @ % + # @  .- + @ % % % % % % + + + + @ @ @ % % % % % % % @ @ + + + $ $ + + + + + + + + + + + + + , % % % @ @ + % % % % @ @ @ $ - U.V., c. .@ @ @ @ @ @ % * - * , , * , , , , , , , * * * , , , , % % % % % % % % % % % % % @ @ @ @ @ @ @ % , , % % % % % % % % % % % , % @ , W.- # % % % % % % % , , % % @ @ % , , , , , , , % % % % % % % @ @ @ @ @ @ % % % % % % % % % % % % % % @ @ @ % % % % + X.8 %.% c.% @ + + + @ % % % % % % % % @ @ @ @ + + @ % % % @ @ @ @ @ @ @ @ @ @ % , , , , , , , % % % % % % @ @ @ @ @ @ @ @ , % $ # % W.- & # , @ % * @ @ @ @ @ @ @ @ @ @ @ @ @ % % % % % % % % % % % % % % @ @ @ @ @ @ @ % % % % % % % % % % @ @ @ + @ % % @ + % + Y.Z.;.' - $ # # # # # # # # . . & & . # # # # # # # $ + + $ $ $ $ $ $ $ $ $ $ $ $ $ + + + @ @ $ $ $ $ $ $ $ # # # # # # # # # # $ + % + # # # # $ $ $ $ $ $ $ $ $ + + + + + @ @ @ @ @ @ + + + # # # # # # . & & & & & & . # # # # # # # # $ $ $ $ $ . . . . . . . ",
"^ 2 2 ^ ] / ] 1 1 1 1 ^ [ [ [ [ [ [ [ [ ^ ^ ^ 1 1 1 1 ^ ^ ^ ^ ^ ^ ^ [ [ [ [ ] ] / [ ^ ^ [ ] ] [ ^ ^ 1 1 1 ^ [ ^ ^ [ ^ ^ ^ ] 0 `.A.t ~ 1 1 [ [ [ [ [ [ ^ ^ [ [ [ ] [ ^ ^ ^ ^ ^ [ ^ ^ ^ ^ [ [ [ [ [ [ [ [ [ [ [ [ [ [ ] / / [ ^ [ [ ] ] / [ [ [ [ [ [ [ 1 [ E.6 ^ 6 1 1 1 1 ^ ^ ^ 1 3 2 1 ^ [ ^ [ [ [ [ [ [ [ 1 2 2 1 1 ^ ^ ^ ^ ^ ^ ^ ^ ^ 1 1 ^ ^ ^ ^ [ ] ] ] ] ] / ] [ [ [ ] ] / ] ] / / ] [ [ !  +3.^ ( ^ 1 1 1 1 1 1 1 1 1 1 ^ ^ ^ ^ 1 1 1 1 ^ ^ ^ [ [ ^ ^ 1 2 2 1 1 1 1 1 1 1 [ [ [ [ [ [ ^ [ [ [ [ [ [ ^ 1 1 1 2 2 2 3 2 .+-.] 3 3 ] 1 ^ [ [ ^ ^ 1 2 1 1 ^ ^ ^ [ [ [ [ [ [ [ 1 1 2 1 1 1 ^ ^ ^ 1 1 1 1 ^ [ ^ ^ [ [ ^ [ [ ] ] ] ] ] ^ ^ ^ ^ [ [ [ ^ 1 ^ ] ] [ z.++2 [ ^ { { [ [ [ [ [ [ [ [ ^ ^ ^ ^ ^ ^ ^ [ [ [ ] / / ] [ [ ^ ^ 1 1 ^ ^ ^ ^ [ [ [ ^ ^ ^ 1 1 1 ^ ] ] [ [ [ [ ^ 1 1 1 ^ ^ 1 { h.y.] 2 ^ h.1 ^ ^ ^ ^ ^ ^ 1 ^ [ [ [ ^ 1 [ [ [ [ ^ ^ 1 2 1 ^ ^ ^ [ [ [ [ [ [ [ [ ^ ^ [ ] [ ^ 1 ] / / / / / ] 1 ^ [ ] ] / / / [ ^ ^ E.@+L.~ ~ ~ 7 ~ ( 7 7 7 7 7 7 7 ( ( ( ( { { { ( ( ( 7 7 ~ 7 ( ( { { { { { / / / / / / { 7 7 ( ( ( { 7 7 7 ( ( ( ( ( { { { / / / ",
"x w m n c d c b b b q r d d c c c c c c n q q b b b b q r r r r r r b b b r n c d r b b n e e c n n q a m n d c c d c c n n s ..#+@.n e d e e e e e e e e e e e e e c c d d e e e d d d d d d d d d d d d d d d d d d d d d d d d d d d d d c c c d d e e c n r b b m q r c c c r b q n c d e d d d d d d d r q q q r n n d d d d c c n n n c d d e d c c d e e g d n n c c d e d d g g e c n l ^ o r c n d c c c c c c c c c c c n r q q q r n c c d e d c n r q r r q q q r r n c c c n n r c c c c c c n q q q q q q q q q q q q q b b r c d d c r r r n c d d d d d d d d c n r q q q r c d c c c n r c d c c d d c n c d g e e d c n n c e e d e n e g r E / o b f g g d d e e e e e e e g g e d c c n c d e g h h f g e d c n n d d d d d e e e e e d d c e h f g e d c c d d d d d d d e e d c n r e e e e e e e d e g g g e d g g f g e c n n n c d e e e e e e e e e n c f h f d r g g g g g g g r c e f h h h f e g h *.&., @.l l P R Y Y @.@.@.@.@.@.@.@.Y Y P Y Y P Y Y @.@.l l l l l @.Y Y Y Y Y Y Y Y Y @.@.@.@.@.@.@.@.@.@.@.Y Y Y Y Y Y Y Y Y Y ",
"L L I I I G L G G G I I H H H H H H H H I G L L L G G G G G G G G G G L L G G I I G L L I I H I I I G L L I H H H H H H H I Y $+%+O F H H H H H H H H I I I I I I I H H H H H H H H H H H H H H H H H H H H I I I I I I I I I I I I I I H H H H H H H H H H H I I I I I I H H H I I I H H H H H H H H H H H I I I I I H H H H H H I I I I I H H H H H I I I I H H I I I I I I H I I H H I I G H ( &+P G I G H H H H H H H H H H H H I I H H H H H H H H H H H H H H H I I I I H H H H H H I I H H H H H H H I I I I I I I H H H H H H I G I H H H H I H H H H H H H H H H H H H H I I I I H H H H H H H H H H I I H H H I I H H H I I I I G I H H I I L I I M I x.X E H G G H H H H H H H H H H H I I I I I I I I H I I H H H I I I I I I I I I H H H H H H H H I I I I I I I I H H H H H H I I I I I I G H H H H H H H G I I H I I G G I I H G L G I I H H H H H H H H H H H I I I I I I G I I I I I I I G I I I I G G H I H I s.&., N O G G H I I I I I I I I I H I I I I I G G I I I I I I I I I I I I I I I I I I I I I I I I I I I I I I G G G G G G G G G ",
"G G I I I G L G G G G G G L G G G G G G G I G G I H H H H H H H H H H H I I I I H H I I I H I I H H H H H H I G G I I I I I l &.*+L O L G G G G G G G G I I I I I I I I I I I G G I I I I I I I I I I I I I I I I I I I I I I I I I I I I G G G G G G G G G I I I I L L G G G L G I I I G G G G I I I I I I I G G G G G I G G G G I I I G G G G G G G I I I I I I I H I I I I I I G G G I I G H ( W g O G F G G G G G G G L G G I G G G L G G I I I G L G G I I I I I G G G G I I I I I I G G G G G G G G G I I I I I I I I I I I I I G G G I G G L G G G G G G G G I I I I I I I G G G G I G G G G G G I I G L L I G L I H H H I I I H I I H H H I I G I I M G 7 >.g H I L I H I I I I I I I I I I I I I I I I G G G G G I I H H H H I I I I G G G L L G G G G L L L G I I H I I I I I I I G G I I H H H I I I I I I I I I I I I I I G G I I I I I I I G G G L L G G G G G G I I G G G I H G G G G G G G G I I I I I G I H H I V @+W.K N G G I G G I I I I I I I I G G G G G I I I I I I I H H H H H H H I I I I I I I H H H H H H I I I I I I I I I I I I I I ",
"H H H H H H H H H H H H H H H H H H H H H H I I H H H H H H H H H H H H H H H H H H H H H H H H H H H H H H H H H H H H H H @.&.=+I L L I H H H H H H H H H H H H H H H H H H H H H H H H H H H H H H H H H H H H H H H H H H H H H H H H H H H H H H H H H H H H H I H H H H I I H H H H H H H H H H H H H H H H H H H H G G I I I H H H H H H H H H H H H H H H H H H H H H H H I G G H I L I ( u c N G I H H H H H H H H H H H H H H H H H H H H H H H H H H H H H H H H H H H H H H H H H H H H H H H H H H H H H H H H H H H H H H H H H H H H H H H H H H H H H H H H H H H H H H H H H H H H H H H H H I I H H H H H H H H H H H H H H H H H H I H H L I 7 u e G I H H I H H H H H H H H H H H H H H H H H H H H H H H H H H H H H H H I I I I I H H H H H I H H H H H H H H H H H H H H H H H H H H H H H H H H H H H H H H H H H H H H H H H H H H H I H H H H H H H H H H H H H H H H H H H H H H H H H H H H H I H H s.j  .P @.O L I L I I I I I I I H H H H H H H H H H I I I I H H H H H H H H H H H H H H H H H H H H H H H H I I I H H H H H H H ",
"H H I I I G G I G G G G G I I I I I I I G G G G G G G G G G G G G G H I I G G G I G I I G L G I G L G I I G L G I I G G L O d 8 #+N l O G G G G G G G G G G G G G G G G G G G I I I I I I I I I I I I I I I I G G G G G G G G G G G G G I I I G I I I H I I G G G G I I I I G G G G G G I I H I I I I I I I H H I G G G I G G G G G I I L L G G G G I I I I I I I I I I G G I I I G L G G L N F / !.w g R L I I I I I I I I I H I I G I H I I G G L I H I I G G G I I I G I I I G I I I I G L I I I I I I I G G G G G G G G G G G G G I H I I I I I I I I I I G G I I I I I I I G I H H I G G I I I I I I I G L L G I G G I G G G G G I G G I H I G L L G L F I / !.s Y F H G L I I I I I I I G G G G G G G G G I I H H I G G G G G G I G G G G G I I I I G G G I I I I I G G I I I I I I I H H H I I G L L L L L L L L G L L L L L G I G G L L G I I G G L L L L G G G G G G L L I I I G L I I I I I I I H H G L L L L G O L N -+@+Y.n e K F G G I G G G G G G I I I I G I I I I H H H H H G G G G G G G I I I I I I G G G G G G G I H H H H H I I G G G G G G ",
"H H I H H H H H H I I H H H H H H H H H H I I I I I I I I I I I I I I I G G I I I L I I G L G I I G G I I I I H H H H G L F r 8 ;+N E N O L L L L L L G G G G G G G L L G G I I H I I I I I I I I I I I I I I I I I I I I I I I I I I I I I I G I I I H H H H H H H I I I H I I H H H H H H H I I I I I I I H I I G G G I G G G G G G L O L L G G I G G G G G I I I I G I I I H H I I H H G M I ~ !.C c @.M L L L L L L L G I I G O O O G G G G I I I I I I I I H I I I G G I I H H H H H I I I I I I I I I H H H H H H H I I I I I I H I I I I H H I I I I I I I I I I I I I I G I I I I I G I G G L O O L G L L G G L G G G G I I I I G G I H I I H H G G L I { -.s E K O O O G G G G G G G G G G L L O G I I I I I G G G G I I I I I I I I I H H H H H I I G G G G I I I I I I I I I I I I I I I I I G I I I I I I I H I I G I I H H I I G G I G G G L L L L L L L L L L L L L G L G G G G G G G G G G G G G G I H H I G G F >+@+,+q r P l M N O O O O O O O O F N N N N N O O L G G I I I I I G G G G G G G G G G G G G G G G G G G G L L L L G I I I I I I ",
"L L L L G I G G L L L G I G G G G G G G L O O F F F F O O O O O O O F F F F F F O N F F N N F O L O F O L L L G G I G O N K b 8 ;+K d Y R M N N N N N M M M M M R R F F O O L L L O O L L L L L L L L L L L L O L L L L L L L L L L L L L L L L L L G G G G G I I G L L L G L L G G G G G G I L L L L O O O L O F F F F F F F N N N N N N F F F O O F M M N N F F F F N F F O L G L L G G N @.G ] 2.v n E K M N N N N N N N F N N M K R N N F O L G L O O L L L L O F O F F O O G G G G G G L L O O O O O O G G G G G G G G G G G G G G L L L L G G L L L L G G G L L L L L L L F F O O O F F F F F N M M N F F F O F F F F N N F F O F N F O L G G G G O N R G [ !.w d h Y M R N N N N N N N N M M R R R N F F F F F F F F O O O L L L L L L L G G L L L L L O F F F F O O O O L L L L L L O O O O O O O L G L L L L L L L O O O L G G L O O O O O F F F F F F N N N N N N N N N M R M M N M N N N N N M F F F O L I G O F F R *.'+)+r r E P R R N N N N N N N N N M M M M M N N N F F O O O O F F F N N F F F F F F F F F F F F F O O O O O O O O O O O O O O ",
"F F N F F F F N F F F F O O F F F F F F F N N N N N N F F F F N N N N N N N N N N N N N N N N N F N N N F O L O O O L F R @.b @+!+@.d Y K R M N N M M N M M M R K K M M N F F N N N N N N F F F F N N N N F N N F F F F F F F F F F F F F F F F F F F F F F F F F F F F F F F F F F F F O O O F F F F N N N N N N N N N N N N N N N N N N N N N N N N M M M M M M N N M M M N F O F O O O R Y G [ !.x c g l R M M M M N N M M M M R K K M N N N F F F N N N N N N M M M N N N N F F F F F F F N N N N N M M F F F F F F F F F F F F F F F F F F F F F F F O O O O F F F F F F F N N N N N N N N N N N N N N N N N N N N N N N N N N N M M N N O O L F O F M K G ] -.w c E P F R M M M M M M M R R K K K K R R M M M N N F F F F F F F F F F F F F F N N F F F N N N N N N N N N N N N N N N N N N N N N N F F F F N N N F F F F F F F F F F F F F N N N N N N N N N N N N N N M M M M M M M R M N N N M R N N F F O O O F N M l ~+@+i q q E h R R M M M M M M M M R R K K K K R M M M M N N N N N N N N N N N F F F O O F F F F F F F N N N N N N N N N N N N N ",
"F N N M M R R N N N N M M N N N N N N N N M M M M M M N F N N N N M M M M M M M M M M M M M M M M M R R M N F O O O O F R @.b @+#+@.d P K R M M N M M M M M R K K K l K R R R R R R R M M M N N N M R R M N M R M N N N M N N N N N N N M M M M M M M M M M M M M N N N N N N N N M M M M M M N F N N N N M M M M M M M M M M M M M M M M M M M M M M M M M M M M M M M M M N F N N F F N K P G [ !.v n g @.R R M M M M M M M M R K K l K K K R R R M M M M M M M M M M M N N N M M M M M M M N N N M M M M M M M M M M M M M M M M M N N N N N N N M M M M M M M N N N N N N N M M M M M M M M M M M M M M M M M M M M M M M M M M M R R M N F O O F O F M K G ] !.w c h P N R M M M M M M M R K K l K K R R R R M M M N N N N N N N N N N N N N N M N F F N N M M M M M M M M M M M M M M N N N N N N N F F N N N M M N N N N N N N R R R R R R M M M M M M M M M M M M M M M M M M M M M R R M N M R R M N N F O O O F N M l ~+@+i q q E h K R M M M M M M M M R K K K K K R R R M M M M M M M M M M M M M M N N N N N N N N N N N M M M M M M M M M M M M M ",
"N N M M R R R M M M R R K R R R R R R R M M M M M M M N N N M M M M M M M M M M M M M M M M M M M R R R M N F O F O O N R Y b @+#+@.c P l R R M M M R M M R R K l l @.l K K K K l K K K R R R M N N N N N N M R M M N M M N N N N N N N M M M M M M M M M M M M M M R R R R R R M M R R R K K M N N M M M M M M M M M M M M M M M M M M M M M M M M M R R R R R R M M R R M M F N N F F N K P G [ !.v n e @.R R R M M M M R M M R K l l l l l l K K R R R R R R R R R R R M M M M M M M M M M M M M R R R R N N N N N N N M M M M M M M R R R R R R M M R R R K K R R R R R R R M M M M M M M M M M M M M M M M M M M M M M M M M M M K R R M N F F F O F M K G ] !.y n h E N K R R R R R R R R K l l l K K K K R R R M N N N N N N N R R R R R R R M M N N N M M R R R R R R R R R R R R R M M M M M M M N N M M M M M R R R R R R R K K K K K K R M M M M M M M M M M M M M R R R R R R R R R M M M R R M M N N F F F F N M l ~+@+i q b h f K R R R R R R R R R R K l l K K K K K R R R M R R R R R R R R R R R M M M N N N N N N M R R R R R R R R R R R R R ",
"R R M M N N N M R R K K K K R R R R R R M M M M M M M M M M M R R R R R R R R R R R R R R R R R M M R M M N F F F F O N K Y m @+#+Y c P l K R M M R R M R R K K l l @.l K R K K K l l K K K R M M M R R M M M R M N N N M R R R R R R R M M M M M M M M M M M M M R R R R R R R R M M R R R K R M M M M R R M M M M M M M R R R R R R R R R R R R R R R R R R R R R R R R R M N F F F O F R P G ^ ^.v n e @.K K R R R M M R R R R K l @.l l K K K K K K K K K K K K K K R R R M M M M M M M M M R R R K K R M M M M M M M M M M M M M R R R R R R R M M M R R K K R R R R R R R R R R R R R R R R R R R R R R R R R R R R R R R R R R K K K R M N F F O F M K G ] ^.y n h E M K R R R R R R R K K l l l l l K K K K R R R R R R R R R R R R R R R R R R M M M R R K K K K K K K K K K K K K R M M M M M M R R M M M M M R R R R R R R R R R R R R R M M M M M M R R R R R R R R R R R R R R R R R R R R R R R M M N F F F N M l ~+@+i b b h f K K R R R R R R R R K K l l l K l K K K R R R K K K K K K K K K R R R R R R R R R R R K K K K K K K K K K K K K K ",
"K R R M M M N R R R R K K R R R R R R R R M M M M M M M M R R R K K K K K K K K K K K K K K K K M R R R M N N F F F F M K Y m @+#+Y n E @.K R R R R R R R R K l l l l l K R R K K l l K K K R R K K l l K K K R M M N M M R R R R R R R K K K K K K K K K K K K K K R R R R R R R M M M M R R M M R R R K K R M M M M M M K K K K K K K K K K K K K K R R R R R R R R R R R M N N F F O F K Y G ^ ^.=.r e Y K K K R R R R R R R K K l @.l K K K R R K K K K K K K K K K K K R R M M M M M M M R R K K K K K K K K K K K K K K K K K K R R R R R R R R M M M R R R R R R R R R R K K K K K K K K K K K K K K K K K K K K K K K K K K K l l K R M M N F O F M K G ] ^.y n f E M K R R R R R R R K l l @.l l l l l l K K K R R R R R R R R R R R R R R K R R M R R K K K K K K K K K K K K K K R R R R R R R K K R R R R M R R R R R R R R R R R R R R M M M M M M R K K K K K K R R R R R R R M R K K K R M K R R M N N N F N M l ~+@+)+b b h f l K K R R R R R R R K l l @.l l l l l l K K K K K K K K K K K K K R R R R R R R R R R K K K K K K K K K K K K K K ",
"K K R K K K K K R R R R R R R R R R R R R R R R R R R R R R K K K K K K K K K K K K K K K K K K K K K K K R M F N F F M K P m @+;+Y n E @.K K R R R R R R K K l l @.@.l K K K K K K K K K R R R R K K K K R l l K R R R K K K K K K K K R R R R R R R R R R R R R R R R R R R R R K K R R R M R R R K K K K R R R R R R R K K K K K K K K K K K K K K R R R R R R R R R K R R M N N N F M l E G ^ ^.=.r d Y K K K R R R R K R R K l @.@.l l l K K K K K K K K K K l l l K K K K K K K K K K K K K K K l l l K K K K K K R R R R R R R R R R R R R R K K R R R R M R R R R R R R K K K K K K K K K K K K K K K K K K K K K K K K K K K @.l l K R M M F O F M K G ] ^.C r f h M l R R R R R R K K l @.@.@.l @.@.l l l l K K K K K K K K R R R R R R R K K R R R K K K K K K K K K K K K K K K K R R R R R R K K K K R R R R R R R R R R K K K K K K K R R R R R R K K K K K K K K R R R R R R M R K l K R M K K R R M M N F N M l ~+@+)+b m f g l K K R R R R R R K K l @.@.l l @.@.l l l l K K K K K K K K K R R R M M R K K K K K K K K K K K K K K K K K K K K ",
"R R R K K K K K K K K R R R K K R R R R R R R R K K K R R R R R R R R R R R R R R R R R R R R R K K K K K R M N F O M N K h m 8 ;+P n E @.K R R K R R K K K l l @.@.@.@.@.l l l l l l l K K K K R K K K K R K K K R R R K K K l l @.l l R R R R R R R R R R R R R R K K K K K K K K R R R R R R R R R R R R R R R R K K K R R R R R R R R R R R R R R R R R R R R K K K R R R R M M F N R K h L 2 !.v q e P l K R R R R R R R K l @.Y @.@.@.l l l K l l l l l K K K K K K R R R K K K K K K K K K l l @.l l R R R R R R R R R R R R R R R R R R R R K K R R R R R R R R R M M M R R R K K K K R R R R R R R R R R R R R R R R R R R R K K K K K R M N O M M @.G [ !.w r h E R K K K K K K K K K l @.@.@.@.@.@.l l l l K K K K K K K K K K R R R R R R R R R R R R R R R R R R R R R R R R R R R R R R R R K K K K K K K R R R R R R R R R R R R R R R R R K K K R R R R R R R R R R R R R R R R R K R R R R R R R M N F F N K K {+8 )+b m f g l K l K K K K K K K l @.@.@.@.@.l l l l l l l l l l l l K K R R R R R R R K K K K K K R R R R R R R R R R R R R R ",
"K K K K K K K K K K K K K K K K K R R R R R R R K K K K K K K K K K K K K K K K K K K K K K K K R K K K K R M M F O R N K f b 8 ;+P n h @.K R R K R M K K K l @.@.@.@.@.@.@.l l l l l l l l l l K K K K K K K K K K K K K K K l @.@.l l K K K K K K K K K K K K K K K K K K K K K R R R R R R R R R R R R R R R R R K K K K K K K K K K K K K K K K K K K K K K K K K K K R R R M R O F R R h L 3 !.v q e E l K R R R R R R R l l @.Y Y @.l l l l K l @.l l l l K K K K K K K K K K K K K K K K K l @.@.l l K K K K K K K K K K K K K K K K K K K K K K K K K K K R R R R M M M R R R K K K K K K K K K K K K K K K K K K K K K K K K K K R K K R N N O R M P G ^ !.D q h E K K K K K K K K K l @.@.Y @.@.@.@.l l l K K K K K K K K K K K K R R R R K K K K K K K K K K K K K K K K K K K K K K K K K K K K K K K K K K R R R R R R R R R R R R R R R R R K K K K K K K K K K K K K K K K K K K K K K K K R R R M N F O N N l K k 3.)+b m f g l K l l K K K K l K l @.@.@.@.@.l l l l l l l @.@.l l l K K K K K K K K K K K K K K K K K K K K K K K K K K K K K ",
"K K K K K K K K K K K K K K K K K K R R R R R R K K K K K K K K K K K K K K K K K K K K K K K K R K K K K R M M F O R N K f b 8 ;+P n h @.K R R K R M K K K l @.@.@.@.@.@.@.l l l l l l l l l l l l l l l l K K K K K K K K K l @.@.l l l l l l l l l K K K K K K K K K K K K K K R R R R R R R R R R R R R R R R R K K K K K K K K K K K K K K K K K K K K K K K K K K K K R R M R O F R R h L 3 !.v q e E l l K R R R K R R l l @.Y Y @.l l l l K l @.l l l l K K K K K K K K K K K K K K K K K @.@.@.l l l l l l l l l K K K K K K K K K K K K K l l l l l l l K K R R R M M R R R K K K K K K K K K K K K K K K K K K K K K K K K K K R K K R N N O R M P G ^ !.w q h E K K K K K K K K K l @.@.Y @.@.@.@.l l l K K K K K K K K K K K K K R R R K K K K K K K K K K K K K K l l l l l l K K K K K K K K K K K K K K R R R R R R R R R R R R R R R R R K K K K K K K K K K K K K K K K K K K K K K K K K K R R N F F N N l K k 3.)+b m f g l K l l K K K K l K l @.@.@.@.@.l l l l l l l @.@.l l l K K K K K K K K K K K K K K K K K K K K K K l l l l l l l ",
"K K K K K K K K K K K K K K l l K K K K R R R R K K K K K K K K K K K K K K K K K K K K K K K K K K l l K K M M F O R N K f b 8 ;+P n h Y K R K l K R K K K l @.@.@.@.@.@.@.l l l l l l l l l l l l l l l l K K K K K K K K K l @.@.l l l l l l l l l K K K K K K K K K K K K K K K K K K K K K K K K K K K R R R R K K K K K K K K K K K K K K K K K K K K K K K l l K K K K K M R O F R R h L 3 !.v q e E l l K K R K K R R l l @.Y Y @.l l l l K l @.l l l l K K K K K K K K K K K K K K K K K @.@.@.l l l l l l l l l K K K K K K K K K K K K K l l l l l l l K K K R R R R R R R K K K K K K K K K K K K K K K K K K K K K K K K K K R K K R N N O R M P G ^ !.w q h E K K K K K K K K K l @.@.Y @.@.@.@.l l l K K K K K K K K K l l K K K K R K K K K K K K K K K K K K l l l l l l l K K K K K K K K K K K K K K K K K K K K K K K K K K K K R R R K K K K K K K K K K K K K K K K K K K K K K K K K K K R M N F N N l K k 3.)+b m f g l K l l K K K K l K l @.@.@.@.@.l l l l l l l @.@.l l l K K K K K K K K K K K K K K K K K K K K K K l l l l l l l ",
"K K K K K K K K K K K K K K l l l K K K R R R R K K K K K K K K K K K K K K K K K K K K K K K K K l l l l K R M F O R N K f b 8 ;+P n h Y l K K l K R K K K l @.@.@.@.@.@.@.l l l l l l l l l l l l l l l l l K K K K K K K K l @.@.l l l l l l l l l K K K K K K K K K K K K K K K K K K K K K K K K K K K R R R R K K K K K K K K K K K K K K K K K K K K K K K l l l l K K K M R O F R R h L 3 !.v q e E @.l l K K K K R R l l @.Y Y @.l l l l K l @.l l l l K K K K K K K K K K K K K K K K K @.@.@.l l l l l l l l l K K K K K K K K K K K K K K K K K K K K K K K K K R R R R R K K K K K K K K K K K K K K K K K K K K K K K K K K R K K R N N O R M P G ^ !.w q h E K K K K K K K K K l @.@.Y @.@.@.@.l l l K K K K K K K K K l l l l K K K K K K K K K K K K K K K K l l l l l l l l K K K K K K K K K K K K K K K K K K K K K K K K K K R R R R K K K K K K K K K K K K K K K K K K K K K K K K K K K R M N F N N l K k 3.)+b m f g l K l l K K K K l K l @.@.@.@.@.l l l l l l l @.@.l l l K K K K K K K K K K K K K K K K K K K K K K l l l l l l l ",
"l l l l l l l K K K K K K l @.l l l K K R R R R K K K l l l l l l l l l l l l l l l l l l l l l K l l @.l K R M F O R N K f b 8 ;+P n h Y l K l l l R K K K l @.@.@.@.@.@.@.l l l l l l l l l l @.@.@.@.@.@.l l l l l l l K K l @.@.l l l K K K K K l l l l l l l l K K K K K K K R R R R R R R R R R R R R R R R R K K K l l l l l l l l l l l l l l l l l l l l l @.l l l K K M R O F R R h L 3 !.v q e E @.@.l K K K l R R l l @.Y Y @.l l l l K l @.l l l l K l l l l l l l l l l l l l l K K @.@.@.l l K K K K K K l l l l l l l l l l l l l l K K K K K K K l l K K K K R R R R K K K K l l l l l l l l l l l l l l l l l l l l K K R K K R N N O R M P G ^ !.D q h E K K K K K K K K K l @.@.Y @.@.@.@.l l l K K l l l l l l l @.l l l l K K l l l l l l l l l l l l l l K K K K K K l l l l l l l K K K K K K K R R R R R R R R R R R R R R R R R K K K l l l l l l l l l l l l l l l l l l l l l l l l K R N N N N l K k 3.)+b m f g l K l l K K K K l K l @.@.@.@.@.l l l l l l l @.@.l l l K K l l l l l l l l l l l l l l l l l l l l l K K K K K K ",
"l l l l l l l K K K K K K l @.@.l l l K R R R R K K K l l l l l l l l l l l l l l l l l l l l l K l @.@.l l R M F O R N K f b 8 ;+P n h P l K l @.l K K K K l @.@.@.@.@.@.@.l l l l l l l l l l @.@.@.@.@.@.l l l l l l l K K l @.@.l l R R R R R R K l l l l l l l K K K K K K K R R R R R R R R R R R R R R R R R K K K l l l l l l l l l l l l l l l l l l l l @.@.@.l l l K M R O F R R h L 3 !.v q e E @.@.l K K l l R R l l @.Y Y @.l l l l K l @.l l l l K l l l l l l l l l l l l l l K K @.@.@.l l R R R R R R K l l l l l l l l l l l l l l l l l l l l l l l K K K K R R R K K K K l l l l l l l l l l l l l l l l l l l l K K R K K R N N O R M P G ^ !.D q h E K K K K K K K K K l @.@.Y @.@.@.@.l l l K K l l l l l l l @.@.l l l l K l l l l l l l l l l l l l K R R R R R R l l l l l l l K K K K K K K R R R R R R R R R R R R R R R R R K K K l l l l l l l l l l l l l l l l l l l l l l l l K R M N N N l K k 3.)+b m f g l K l l K K K K l K l @.@.@.@.@.l l l l l l l @.@.l l l K K l l l l l l l l l l l l l l l l l l l l K R R R R R R ",
"K K K K K K K K K K K K K K l l l l l l l l l l l l l l l l l l l l l l l l l l l l l l l l l l @.l l l l K K M N N M N l h m @+;+E n h P l K l @.l K K l l l @.Y Y Y Y Y @.@.@.@.@.@.@.@.@.@.l K K K K K K l l l l l l l K K l l l @.@.l l l l l l l K K K K K K l @.l l l l K K R R R R R R K K l l l l l l l l l l l l l l l l l l l l l l l l l l l l l l l l @.@.l l l l K R R F N R R h L 3 !.v b e h Y l l l l l R K K l @.@.Y Y Y Y Y @.@.@.l l l l l l l @.@.@.@.@.@.@.l l l l l l l K K l l l @.@.l l l l l l K K K K K K K K K K K K K K K K K K K K K l l l l l l l l l l l l l l l l l l l l l l l l l l l l l l l l l l l l K K K K K N R R M E G [ ^.C r e P l K R R R R R R K l @.Y Y Y Y @.@.@.@.@.@.@.l l l l l l l @.@.l l l K K l l l l l l l l l l l l l K K K K K K K K K K K K K K K l @.@.l K R M M M R R R R K K l l l l l l l l l l l l l l l l l l l l l l l l l l l l l l l l K l l K R M N M l K @.k '+)+b m e f l l K l l l l l l l @.Y Y Y @.@.@.@.@.@.@.@.@.l l l l l l l K K K K K K l l l l l l l l l l l l l l l l l l l l l ",
"K K K K K K K K K K K K K K l l l l l l l l l l l l l l l l l l l l l l l l l l l l l l l l l l @.l l l l K K M N M M N l h m @+;+E n h P l K l l l R K l l l Y Y Y Y Y Y @.@.@.@.@.@.@.@.@.@.l K K K K K K l l l l l l l K K l l l @.@.l l l l l l l K K K K K K l @.l l l l K K R R R R R R K K l l l @.@.l l l l l l l l l l l l l l l l l l l l l l l l l l l @.@.l l l l K R K F N R R h L 3 ^.v b d h Y l K l @.l R K l l @.Y Y Y Y Y Y @.@.@.l l l l l l l l l l l l l l l l l l l l l K K l l l @.@.l l l l l l l K K K K K K K K K K K K K K K K K K K K l l l l l l l l l l l l l l l l l l l l l l l l l l l l l l l l l l l l l K K K K N K R M h G [ ^.C r e P @.l K K K K K K K @.@.Y Y Y Y @.@.@.@.@.@.@.l l l l l l l @.@.l l l K K l l l l l l l l l l l l l l K K K K K K K K K K K K K l l @.@.l K R M M R R R R R K l l l l @.@.l l l l l l l l l l l l l l l l l l l l l l l l l l l K K K K R M N M l K @.k '+)+b m d f @.l K l l l l l l @.@.Y Y Y @.@.@.@.@.@.@.@.@.l l l l l l l K K K K K K l l l l l l l l l l l l l l l l l l l l l ",
"l l l l l l l l l l l l l l l l l l l l l l l l l l l l l l l l l l l l l l l l l l l l l l l l @.l l l l K K R N R M M @.h m @+;+E n h P l K l l l R K l l l Y Y Y Y Y Y @.@.@.@.@.@.@.@.@.@.@.l l l l l l l l l l l l l K K l l l @.@.l l l l l l l l l l l l l l @.l l l l K K R R R R R R K K l l l @.@.l l l l l l l l l l l l l l l l l l l l l l l l l l l @.@.l l l l K R K F N R R h L 3 ^.=.b d h Y l K l @.l R l l @.@.Y Y Y Y Y Y @.@.@.@.l l l l l l l l l l l l l l l l l l l l K K l l l @.@.l l l l l l l l l l l l l l l l l l l l l l l l l l l l l l l l l l l l l l l l l l l l l l l l l l l l l l l l l l l l l l l l K K K K N K R M h G [ ^.C r e P @.l K K K K K K K @.@.Y Y Y Y @.@.@.@.@.@.@.l l l l l l l @.@.l l l K K l l l l l l l l l l l l l l l l l l l l l l l l l l l l l @.@.l K K M R R R R K K K l l l l @.@.l l l l l l l l l l l l l l l l l l l l l l l l l l l K K K K R M N M l K @.k '+)+b m d f @.l K l l l l l l @.@.Y Y Y @.@.@.@.@.@.@.@.@.l l l l l l l l l l l l l l l l l l l l l l l l l l l l l l l l l l ",
"l l l l l l l l l l l l l l l l l l l l l l l l l l l l l l l l l l l l l l l l l l l l l l l l @.l l l l K K R M R M M @.f m @+;+E n f P l K l l l R K l l l Y Y Y Y Y Y @.@.@.@.@.@.@.@.@.@.@.l l l l l l l l l l l l l K K l l l @.@.@.@.@.@.@.@.@.l l l l l l l @.l l l l K K R R R R R R K K l l l @.@.l l l l l l l l l l l l l l l l l l l l l l l l l l l @.@.l l l l K R K F N R R h L 3 ^.=.b d h Y l K l @.l R l @.@.Y Y P P Y Y Y @.@.@.@.@.@.@.@.@.@.l K K K K K K l l l l l l l K K l l l @.@.@.@.@.@.@.@.@.l l l l l l l l l l l l l l l l l l l l l l l l l l l l l l l l l l l l l l l l l l l l l l l l l l l l l l l l l K K K K N K R M h G [ ^.C r e P @.l K K K K K K K @.@.Y Y Y Y @.@.@.@.@.@.@.@.@.@.@.@.@.@.@.@.l l l K K l l l l l l l @.@.@.@.@.@.l l l l l l l l l l l l l l l l l l l l K R R R R K K K K l l l l @.@.l l l l l l l l l l l l l l l l l l l l l l l l l l l K K K K R M N M l K @.k '+)+b m d f @.l K l l l l l l @.@.Y Y Y @.@.@.@.@.@.@.@.@.@.@.@.@.@.@.@.l l l l l l l l l l l l l @.@.@.@.@.@.@.@.@.@.@.@.@.@.",
"l l l l l l l l l l l l l l l l l l l l l l l l l l l l l l l l l l l l l l l l l l l l l l l l @.l l l l K K K M R R M @.f m @+;+E n f P l K l l l R K l l l Y Y Y Y Y Y @.@.@.@.@.@.@.@.@.@.@.l l l l l l l l l l l l l K K l l l @.@.@.@.@.@.@.@.@.l l l l l l l @.l l l l K K K K K K K K K K l l l @.@.l l l l l l l l l l l l l l l l l l l l l l l l l l l @.@.l l l l K R K F N R R h L 3 ^.=.b d h Y l K l @.l K @.@.@.Y P P P Y Y Y @.@.@.@.@.@.@.@.@.@.l l l l l l l l l l l l l l K K l l l @.@.@.@.@.@.@.@.@.l l l l l l l l l l l l l l l l l l l l l l l l l l l l l l l l l l l l l l l l l l l l l l l l l l l l l l l l l K K K K N K R M h G [ ^.C r e P @.l l l l l l l l @.@.Y Y Y Y @.@.@.@.@.@.@.@.@.@.@.@.@.@.@.@.l l l K K l l l l l l l @.@.@.@.@.@.l l l l l l l l l l l l l l @.@.l K K l l R R K K K l K K l l l l @.@.l l l l l l l l l l l l l l l l l l l l l l l l l l l K K K K R M N M l K @.k '+)+b m d f @.l K l l l l l l @.@.Y Y Y @.@.@.@.@.@.@.@.@.@.@.@.@.@.@.@.l l l l l l l l l l l l l @.@.@.@.@.@.@.@.@.@.@.@.@.@.",
"@.@.@.@.@.@.@.@.@.@.@.@.@.l l l l l l l l l l l l l l l l l l l l l l l l l l l l l l l l l l l @.l l l l K K K M K R R Y f m @+;+E n h P l K l l l R K l l l Y Y Y Y Y Y @.@.@.@.@.@.@.@.@.@.@.@.@.@.@.@.@.l l l l l l l K K l l l @.@.@.@.@.@.@.@.@.@.@.@.@.@.@.@.@.l l l l K K K K K K K K K K l l l @.@.l l l l l l l l l l l l l l l l l l l l l l l l l l l @.@.l l l l K R K F N R R h L 3 ^.v b d h Y l K l @.l K @.@.Y P P P P Y Y Y @.@.@.@.@.@.@.@.@.@.l l l l l l l l l l l l l l K K l l l @.@.@.@.@.@.@.@.@.@.@.@.@.@.@.@.@.@.@.@.@.@.@.@.@.@.@.@.@.l l l l l l l l l l l l l l l l l l l l l l l l l l l l l l l l l l l l l K K K K N K R M h G [ ^.C r e P @.l l l l l l l l @.@.Y Y Y Y @.@.@.@.@.@.@.@.@.@.@.@.@.@.@.@.l l l K K l l l l l l l @.@.@.@.@.@.@.@.@.@.@.@.@.@.@.@.@.@.@.@.Y @.l K K l l K K K K l l l K l l l l @.@.l l l l l l l l l l l l l l l l l l l l l l l l l l l K K K K R M N M l K @.k '+)+b m d f @.l K l l l l l l @.@.Y Y Y @.@.@.@.@.@.@.@.@.@.@.@.@.@.@.@.@.@.@.@.@.@.l l l l l l l @.@.@.@.@.@.@.@.@.@.@.@.@.@.",
"@.@.@.@.@.@.@.@.@.@.@.@.@.@.l l l l l l l l l l l l l l l l l l l l l l l l l l l l l l l l l l @.l l l l K K K R K R R Y f m @+;+E n h P l K l l l R K l l l Y Y Y Y Y Y @.@.@.@.@.@.@.@.@.@.@.@.@.@.@.@.@.l l l l l l l K K l l l @.@.Y Y Y Y Y Y Y @.@.@.@.@.@.@.@.l l l l K K K K K K K K K K l l l @.@.l l l l l l l l l l l l l l l l l l l l l l l l l l l @.@.l l l l K R K F N R R h L 3 ^.v b d h Y l K l @.l K @.@.Y P P E P Y Y Y @.@.@.@.Y Y Y Y Y Y @.@.@.@.@.@.@.l l l l l l l K K l l l @.@.Y Y Y Y Y Y @.@.@.@.@.@.@.@.@.@.@.@.@.@.@.@.@.@.@.@.@.l l l l l l l l l l l l l l l l l l l l l l l l l l l l l l l l l l l l l K K K K N K R M h G [ ^.C r e P @.l l l l l l l l @.@.Y Y Y Y @.@.@.@.@.@.@.Y Y Y Y Y Y Y @.@.l l l K K l l l l l l @.Y Y Y Y Y Y @.@.@.@.@.@.@.@.@.@.@.@.@.@.Y @.l K K l @.K K K K l l l K l l l l @.@.l l l l l l l l l l l l l l l l l l l l l l l l l l l K K K K R M N M l K @.k '+)+b m d f @.l K l l l l l l @.@.Y Y Y @.@.@.@.@.@.@.@.@.Y Y Y Y Y Y Y @.@.@.@.@.@.@.l l l l l l @.Y Y Y Y Y Y Y Y Y Y Y Y Y ",
"Y Y Y Y Y Y Y Y Y Y Y Y Y Y Y Y Y @.@.@.@.l l l l l l l l l l l l l l l l l l l l @.@.@.@.@.@.@.K l @.@.l l l K M R K K Y f a @+;+E r g P @.l K K l l K l @.Y Y Y Y P P Y Y Y Y Y @.@.@.@.@.@.@.@.@.@.@.@.@.@.@.@.@.@.@.@.@.@.@.@.@.@.@.@.@.@.@.@.@.@.@.@.@.@.@.@.@.l l K K R R K l l l l l l K K l l l @.@.l l l l l l l l l l l l l l l l l l l l l @.@.@.@.@.@.@.@.@.@.@.l l l R M K K l f L 1 -.v b d h @.l K l @.K R l @.Y P P E P Y Y @.@.@.@.Y Y Y Y Y Y Y @.@.@.@.l l l @.@.@.@.@.@.@.@.@.@.Y Y Y Y Y Y Y @.@.@.@.@.@.@.@.@.@.@.@.Y Y Y Y @.@.@.@.@.@.@.@.@.@.@.@.@.@.@.l l l l l l l l l l l l l l l l l l l l @.@.@.@.@.@.@.@.@.@.@.l l l M l M l P G ^ ^.C r d E Y @.K K l l l @.@.@.Y P P P Y Y Y Y Y Y Y Y @.@.@.@.@.@.@.@.@.@.@.@.@.@.@.@.@.@.@.@.@.l l l @.@.@.@.@.@.@.@.@.@.l l @.@.Y Y P l l K R K l l l l l l l l l @.@.@.@.@.@.@.l l l l l l l l l l l l l @.@.@.@.@.@.@.@.@.@.@.@.@.@.Y @.l l l K R R R @.l 4.8 )+a s e e @.l l @.@.@.K l Y Y Y Y Y Y Y Y Y Y Y Y Y Y Y @.@.@.@.@.@.@.@.@.@.@.@.@.@.@.@.@.@.@.@.l l l l @.@.@.@.@.@.@.@.@.@.",
"Y Y Y Y Y Y Y @.@.@.@.@.@.@.Y Y Y @.@.@.@.@.@.@.@.@.@.l l l l l l l l l l l l l l @.@.@.@.@.@.@.l l @.@.l l l K M R K K Y f a @+;+E r g P @.l l K l l K l @.Y P Y Y P P Y Y Y Y Y @.@.@.@.@.@.@.@.@.@.@.@.@.@.@.@.@.@.@.@.@.@.@.@.@.@.@.@.@.@.@.@.@.@.@.@.@.@.@.@.@.@.l l K R R K l l l l l l K K l l l @.@.l l l l l l l l l l l l l l l l l l l l l @.@.@.@.@.@.@.@.@.@.@.l l l R M K K l f L 2 -.v b d h Y l l l @.l K l l Y P P E P Y Y Y @.@.@.Y Y Y Y Y Y Y @.@.@.@.@.l l @.@.@.@.@.@.@.@.@.@.Y Y Y Y Y Y Y @.@.@.@.@.@.@.@.@.@.@.@.Y Y Y Y @.@.@.@.@.@.@.@.@.@.@.@.@.@.@.@.@.@.@.@.@.@.l l l l l l l l l l l l l @.@.@.@.@.@.@.@.@.@.@.l l l R l M l P G ^ ^.C r d E Y @.l l l l l l l @.Y P P P P Y Y Y Y Y Y Y @.@.@.@.@.@.@.@.@.@.@.@.@.@.@.@.@.@.@.@.@.l l @.@.@.@.@.@.@.@.@.@.@.l @.@.@.Y Y P l l K R K l l l l l l l l l @.@.@.@.@.@.@.l l l l l l l l l l l l l @.@.@.@.@.@.@.@.@.@.@.@.@.@.Y @.l l l K R R R @.l 4.3.)+a s e e @.l @.@.Y @.l l Y Y Y Y Y Y Y Y Y Y Y Y Y Y Y @.@.@.@.@.@.@.@.@.@.@.@.@.@.@.@.@.@.@.@.l l l @.@.@.@.@.@.@.@.@.@.@.",
"Y Y Y Y Y Y Y l l l l l l @.Y Y Y @.@.@.@.Y Y Y Y Y Y @.l l l l l l l l l l l l l @.@.@.@.@.@.@.l @.@.@.@.l l K M R K K Y f a @+;+E r g P @.l l l l l l @.Y Y P P P P P Y Y Y Y Y @.@.@.@.@.@.@.@.@.@.@.@.@.@.@.@.@.@.@.@.@.@.@.@.@.@.@.@.@.@.@.@.@.@.@.@.@.@.@.@.@.@.@.l K K R K l l l l l l K K l l l @.@.@.l l l l l l l l l l l l l l l l l l l @.@.@.@.@.@.@.@.@.@.@.@.l l l R M K K l f L 2 !.v b d f Y @.l @.@.l K l @.Y P P E P Y Y Y Y @.@.Y Y Y Y Y Y Y Y Y @.@.@.@.l @.@.@.@.@.@.@.@.@.@.Y Y Y Y Y Y Y @.@.@.@.@.@.@.@.@.@.@.@.Y Y Y Y @.@.@.@.@.@.@.@.@.@.@.@.@.@.@.Y Y Y Y Y Y @.l l l l l l l l l l l l l @.@.@.@.@.@.@.@.@.@.@.l l l R l M l P G ^ ^.C r d E Y Y @.@.@.l l l l Y Y P P P P Y Y Y Y Y Y Y @.@.@.@.@.@.@.@.@.@.@.@.@.@.@.@.@.@.@.@.@.l @.@.@.Y Y @.@.@.@.@.@.@.@.@.@.@.Y Y Y l l K K K l l l l l l l l l @.@.@.@.@.@.@.l l l l l l l l l l l l l @.@.@.@.@.@.@.@.@.@.@.@.@.@.Y @.l l l K R R R @.l 4.3.)+m a e d @.@.@.@.Y @.l l Y P P P P P P P Y Y Y Y Y Y Y @.@.@.@.@.@.@.@.@.@.@.@.@.@.@.@.@.@.@.@.@.l @.@.@.Y Y @.@.@.@.@.@.@.",
"Y Y Y Y Y Y Y l l l l l l @.Y Y Y @.@.@.@.l l l l l l @.@.@.@.@.@.@.@.@.@.@.@.@.@.@.@.@.@.@.@.@.l @.@.Y @.l l K M R K K Y f a @+;+E r g P Y @.l l l @.l @.Y P P P P P P Y Y Y Y Y Y Y Y Y Y Y Y Y Y Y Y Y Y Y Y Y Y Y Y Y Y Y Y Y Y Y Y Y Y Y Y Y Y Y Y Y Y Y Y Y Y @.@.l l K K K l l l l l l K K l l l @.@.@.@.@.@.@.@.@.@.@.@.@.@.@.@.@.@.@.@.@.@.@.@.@.@.@.@.@.@.@.@.@.@.l l l R M K K l f L 2 !.v m c f Y @.l @.@.@.K l @.Y P P E E P P P Y Y Y Y Y Y Y Y Y Y Y Y Y Y @.@.@.Y Y Y Y Y Y Y @.@.@.Y Y Y Y Y Y Y @.@.@.@.Y Y Y Y Y Y @.@.Y Y Y Y @.@.@.@.@.@.@.@.@.@.@.@.@.@.@.l l l l l l @.@.@.@.@.@.@.@.@.@.@.@.@.@.@.@.@.@.@.@.@.@.@.@.@.l l l R l M l P L ^ ^.C r d E Y Y Y Y @.@.l l @.Y P E E E P Y Y Y Y Y Y Y Y Y Y Y Y Y Y @.@.@.@.@.@.@.Y Y Y Y Y Y @.@.@.@.Y Y Y Y Y Y Y Y Y Y Y Y Y Y @.@.@.l l l l l l l l l l l l l l @.@.@.@.@.@.@.@.@.@.@.@.@.@.@.@.@.@.@.@.@.@.@.@.@.@.@.@.@.@.@.@.@.@.Y @.l l l K R R R @.l 4.3.)+m a e d Y @.@.@.Y @.l l Y P P P P P P P Y Y Y Y Y Y Y Y Y Y Y Y Y @.@.@.@.@.@.@.@.Y Y Y Y Y Y @.@.@.Y Y Y Y Y Y Y Y Y Y Y ",
"Y Y Y Y Y Y Y l l l l l l @.Y Y Y @.@.@.l l l l l l l @.@.@.@.@.@.@.@.@.@.@.@.@.@.@.@.@.@.@.@.@.@.@.Y Y Y @.@.K M R K K Y f a @+;+E r g E Y @.l l @.@.@.@.Y P E E P P P Y Y Y Y Y Y Y Y Y Y Y Y Y Y Y Y Y Y Y Y Y Y Y Y Y Y Y Y Y Y Y Y Y Y Y Y Y Y Y Y Y Y Y Y Y Y Y @.@.l l K K l l l l l l K K l l l @.@.@.@.@.@.@.@.@.@.@.@.@.@.@.@.@.@.@.@.@.@.@.@.@.@.@.@.@.@.@.@.@.@.l l l R M K K l f L 2 !.=.m c g P @.@.@.Y @.l l @.Y P P E E P P P P Y Y Y Y Y Y Y Y Y P P Y Y Y @.@.Y Y Y Y Y Y Y @.@.@.Y Y Y Y Y Y Y @.@.@.@.Y Y Y Y Y Y @.@.Y Y Y Y @.@.@.@.@.@.@.@.@.@.@.@.@.@.@.l l l l l l l @.@.@.@.@.@.@.@.@.@.@.@.@.@.@.@.@.@.@.@.@.@.@.@.l l l R l M l P G ^ ^.C r d E Y Y Y Y @.@.@.@.@.Y P E E E E P Y Y Y Y Y Y Y Y Y Y Y Y Y @.@.@.@.@.@.@.Y Y Y Y Y Y Y @.@.Y Y Y P Y Y Y Y Y Y Y Y Y Y Y @.@.@.l l @.@.@.l l l l l l l l l @.@.@.@.@.@.@.@.@.@.@.@.@.@.@.@.@.@.@.@.@.@.@.@.@.@.@.@.@.@.@.@.@.@.Y @.l l l K R R R @.l 4.3.i b a g d Y Y @.@.Y @.l l Y P P P P P P P Y Y Y Y Y Y Y Y Y Y Y Y Y Y @.@.@.@.@.@.@.Y Y Y Y Y Y @.@.Y Y Y Y P Y Y Y Y Y Y Y ",
"Y Y Y Y Y Y Y @.@.@.@.@.@.@.Y Y Y @.@.@.@.@.@.@.@.@.@.@.@.@.@.@.@.@.@.@.@.@.@.@.@.@.@.@.@.@.@.@.@.Y Y Y Y @.@.K M R K K Y f a @+;+E r g E Y Y @.@.@.@.@.Y Y P E E E P P Y Y Y Y Y Y Y Y Y Y Y Y Y Y Y Y Y Y Y Y Y Y Y Y Y Y Y Y Y Y Y Y Y Y Y Y Y Y Y Y Y Y Y Y Y Y Y Y @.l l l K l l l l l l K K l l l @.@.@.@.@.@.@.@.@.@.@.@.@.@.@.@.@.@.@.@.@.@.@.@.@.@.@.@.@.@.@.@.@.@.l l l R M K K l f L 3 ^.=.m c g P Y @.Y Y @.l l l Y P P E E E P P P P Y Y Y Y Y Y Y Y P P P Y Y Y Y Y Y Y Y Y Y Y @.@.@.Y Y Y Y Y Y Y @.@.@.@.Y Y Y Y Y Y @.@.Y Y Y Y @.@.@.@.@.@.@.@.@.@.@.@.@.@.@.@.@.@.@.@.@.@.@.@.@.@.@.@.@.@.@.@.@.@.@.@.@.@.@.@.@.@.@.@.@.@.l l l R l M l P G ^ ^.C r d E Y Y @.@.@.Y Y Y Y P E E h E E P Y Y Y Y Y Y Y Y Y Y Y Y Y @.@.@.@.@.@.@.Y Y Y Y Y Y Y Y Y Y Y P P Y Y Y Y Y Y Y P Y Y Y @.@.l l l @.Y @.l l l l l l l l l @.@.@.@.@.@.@.@.@.@.@.@.@.@.@.@.@.@.@.@.@.@.@.@.@.@.@.@.@.@.@.@.@.@.Y @.l l l K R R R @.l 4.3.i b a g d P Y @.@.Y @.l l Y P E E E E E E Y Y Y Y Y Y Y Y Y Y Y Y Y Y @.@.@.@.@.@.@.Y Y Y Y Y Y Y Y Y Y Y P P Y Y Y Y Y Y Y ",
"Y Y Y Y Y Y Y Y Y Y Y Y Y Y Y Y Y @.@.@.Y Y Y Y Y Y Y Y Y Y Y Y Y Y Y Y Y Y Y Y Y @.@.@.@.@.@.@.@.Y Y Y Y @.@.l M R K K Y f a @+;+E q g E Y Y @.@.@.Y @.Y P P E E E P P P Y Y Y Y Y Y Y Y Y Y Y Y Y Y Y Y Y Y Y Y Y Y Y Y Y Y Y Y Y Y Y Y Y Y Y Y Y Y Y Y Y Y Y Y Y Y Y @.@.l l l l l l l l l l K l l l @.@.Y Y Y Y Y Y Y Y Y Y Y Y Y Y Y Y Y Y Y Y Y @.@.@.@.@.@.@.@.@.@.@.l l l K M K K l f L 3 !.=.m c g P Y @.@.Y @.l l @.Y P P E E E E P P P P Y Y Y Y Y Y Y P P P Y Y Y Y Y Y Y Y Y Y Y @.@.@.Y Y Y Y Y Y Y @.@.@.@.Y Y Y Y Y Y @.@.Y Y Y @.@.@.@.@.@.@.@.@.@.@.@.@.@.@.@.Y Y Y Y Y Y Y Y Y Y Y Y Y Y Y Y Y Y Y Y @.@.@.@.@.@.@.@.@.@.@.@.l l R l M l P G ^ ^.C r d h Y @.l @.@.Y Y P P P E E h h E P Y Y Y Y Y Y Y Y Y Y Y Y Y @.@.@.@.@.@.@.Y Y Y Y Y Y Y Y Y Y Y P P Y Y Y Y Y Y Y P P Y Y @.@.l K l @.Y @.@.l l l l l l l l @.@.@.@.@.@.@.Y Y Y Y Y Y Y Y Y Y Y Y Y @.@.@.@.@.@.@.@.@.@.@.@.@.@.Y @.l l l K R R R @.@.4.8 i b m e d P Y @.@.Y @.l l Y P E E E E E E Y Y Y Y Y Y Y Y Y Y Y Y Y Y @.@.@.@.@.@.@.Y Y Y Y Y Y Y Y Y Y Y P P Y Y Y Y Y Y Y ",
"@.@.@.@.@.@.@.Y Y Y @.@.@.@.@.@.@.@.@.@.Y Y Y Y Y Y Y @.@.@.@.@.@.@.Y Y Y Y Y Y Y Y Y Y Y Y Y Y Y Y Y Y Y Y @.@.l K Y K Y e a @+]+h q e E Y @.@.Y @.l @.Y P P E E E E E E E E E P Y Y Y Y Y Y Y Y Y Y Y Y Y Y @.@.@.@.@.@.Y Y P P P E E P P P Y Y Y @.@.@.@.@.Y Y Y @.@.@.l l l l l l l l l l @.@.@.@.@.@.@.Y Y Y Y Y Y Y @.@.@.@.@.@.@.Y Y Y Y Y Y Y Y Y Y Y Y Y Y Y Y Y Y Y Y l @.M R @.l g L 2 !.v b d g P @.l l @.l l @.Y P E E E E E E E E E E P Y Y Y Y Y Y Y Y Y Y Y Y Y @.@.@.@.@.@.@.@.@.P P P Y Y P P Y Y Y Y @.Y Y Y Y Y Y @.@.@.@.@.@.@.Y Y Y Y @.@.@.@.@.@.@.@.@.@.Y Y Y Y Y Y Y @.@.@.@.@.@.@.Y Y Y Y Y Y Y Y Y Y Y Y Y Y Y Y Y @.@.@.R l K R f L ^ ^.x q c h P @.l Y @.l l @.@.Y Y P E E P E P P P P Y Y Y Y Y Y Y Y Y @.@.@.@.@.@.@.Y Y Y Y Y Y Y Y Y Y Y Y Y P P P Y Y Y Y Y Y Y Y Y Y Y @.@.@.@.@.@.@.@.@.@.@.@.@.@.Y Y Y Y Y Y Y @.@.@.@.@.@.Y Y Y Y Y Y Y Y Y Y Y Y Y Y Y Y Y Y Y Y Y Y Y Y Y @.l K K l @.h k @+c.a m r g E l @.l l l @.@.@.Y P P E P P Y E E E E E E E E P P P Y Y Y Y Y @.@.@.@.@.@.@.@.@.@.@.Y Y Y Y Y Y Y P P P Y Y Y @.",
"Y Y Y Y Y Y Y Y Y Y @.@.@.@.@.@.@.@.@.@.Y Y Y Y Y Y Y @.@.@.@.@.@.@.Y Y Y Y Y Y Y Y Y Y Y Y Y Y Y Y Y Y Y Y @.@.l K Y K Y e a @+]+h q e E Y @.@.Y @.l @.Y P E E E E E E E E E E E Y Y Y Y Y Y Y Y Y Y Y Y Y Y Y Y Y Y Y Y Y Y P P P E E P P P Y Y Y Y @.@.@.Y Y Y Y @.@.@.@.l l @.@.@.@.@.@.@.@.@.@.@.@.@.@.Y Y Y Y Y Y Y @.@.@.@.@.@.@.Y Y Y Y Y Y Y Y Y Y Y Y Y Y Y Y Y Y Y Y l @.M R @.l g L 3 !.v b c g P @.l @.@.@.l @.Y P E E E E E E E E E E P Y Y Y Y Y Y @.@.@.@.@.@.@.Y Y Y Y Y Y Y @.Y P P P P P P P P Y Y Y Y @.@.@.@.@.@.Y Y Y Y Y Y Y Y Y Y Y @.@.@.@.@.@.@.@.@.@.Y Y Y Y Y Y Y @.@.@.@.@.@.@.Y Y Y Y Y Y Y Y Y Y Y Y Y Y Y Y Y @.@.@.R @.l K f L ^ ^.x q c h P @.l Y Y l l @.Y Y P P E E P E E P P P P Y Y Y Y Y Y Y Y Y Y Y Y Y Y Y Y Y Y Y Y Y Y Y Y Y Y Y Y P P P Y Y Y Y Y Y Y Y Y Y Y l l l l K K K @.@.@.@.@.@.@.Y Y Y Y Y Y Y @.@.@.@.@.@.Y Y Y Y Y Y Y Y Y Y Y Y Y Y Y Y Y Y Y Y Y Y Y Y Y @.l K K l @.h k @+c.a m r g E l @.l l @.@.@.@.Y P E E E P P E E E E E E E E E P P P Y Y Y Y Y @.@.@.@.Y Y Y Y Y Y Y Y Y Y Y Y Y P P P Y Y Y Y ",
"Y Y Y Y Y Y Y Y Y Y @.@.@.@.@.@.@.@.@.@.Y Y Y Y Y Y Y @.@.@.@.@.@.@.Y Y Y Y Y Y Y Y Y Y Y Y Y Y Y Y Y Y Y Y @.@.l K Y K Y e a @+]+h q e h Y @.Y P Y @.Y Y P E h E E E E E E E E E P P P P P P P P P P P P P Y Y Y Y Y Y Y Y Y P P P E E E P P P Y Y Y @.Y Y Y Y P P P Y Y Y @.@.@.Y Y Y Y Y Y @.@.@.@.@.@.@.Y Y Y Y Y Y Y @.@.@.@.@.@.@.Y Y Y Y Y Y Y Y Y Y Y Y Y Y Y Y Y Y Y Y @.@.R K @.l g L 3 !.v m c g P @.l @.@.@.l Y Y E E h E E E E E E E E P P P P P P P Y @.@.@.@.@.@.Y Y Y Y Y Y Y @.Y P P E P P P P P P Y Y Y @.@.@.@.@.@.Y Y Y Y Y Y Y Y Y Y Y @.@.@.@.@.@.@.@.@.@.Y Y Y Y Y Y Y @.@.@.@.@.@.@.Y Y Y Y Y Y Y Y Y Y Y Y Y Y Y Y Y @.@.@.K @.l K f L 1 ^.x q c h P @.@.Y Y @.l @.Y P P E E E P E E E P P P P P P P P P P P Y Y Y Y Y Y Y P P P P P P P P P P P P P P P P P Y Y Y P P P P P P P Y Y @.l l K K @.@.@.@.@.@.@.Y Y Y Y Y Y Y @.@.@.@.@.@.Y Y Y Y Y Y Y Y Y Y Y Y Y Y Y Y Y Y Y Y Y Y Y Y Y @.l K K l @.h k @+c.a m r g E l @.@.@.@.@.Y Y P P E E E P P E E E E E E E E E E P P P P P Y Y Y Y @.@.Y Y Y Y Y Y P P P P P P P P P P P Y Y Y ",
"Y Y Y Y Y Y Y Y Y Y @.@.@.@.Y Y Y Y Y Y Y Y Y Y Y Y Y Y Y Y Y Y Y Y Y Y Y Y Y Y Y Y Y Y Y Y Y Y Y Y Y Y Y Y @.@.l K Y K Y e a @+]+h q e h P Y Y P Y @.Y Y P E h h h E E E E E E E P P P P P P P P P P P P P Y Y Y Y Y Y Y Y Y P P P E E E E P P P P Y Y Y Y P P P P P P P Y Y Y Y @.@.@.@.@.@.Y Y Y Y Y Y Y Y Y Y Y Y Y Y Y Y Y Y Y Y Y Y Y Y Y Y Y Y Y Y Y Y Y Y Y Y Y Y Y Y Y @.Y R K Y @.e L 3 !.=.m n e E Y @.@.Y Y @.Y Y E h h h E E E E E E E P P P P P P P P Y Y Y Y Y Y Y Y Y Y Y Y Y Y Y P E E E P E E P P P P Y Y Y Y Y Y Y Y Y Y Y Y Y Y Y Y Y Y @.@.@.Y Y Y Y Y Y Y Y Y Y Y Y Y Y Y Y Y Y Y Y Y Y Y Y Y Y Y Y Y Y Y Y Y Y Y Y Y Y @.@.@.K @.l K f L 1 ^.x q c h P Y @.Y Y @.@.Y P E E h h E P E h E E E P P P P P P P P P Y Y Y Y Y Y Y P P P P P P P P P P P P P E E E P P P Y P P P P P P P E P Y @.@.l l Y Y Y Y Y Y Y Y Y Y Y Y Y Y Y Y Y Y Y Y Y Y Y Y Y Y Y Y Y Y Y Y Y Y Y Y Y Y Y Y Y Y Y Y Y @.l K K l @.h k @+c.a m r g E l @.@.@.Y Y Y Y P E E h E E P E E E E E E E h E E E E P P P P P Y Y Y Y Y Y Y Y Y Y P P P P P P P E E E P P P Y ",
"P P P P P P P Y Y Y @.@.@.@.Y Y Y Y Y Y Y Y Y Y Y Y Y Y Y Y Y Y Y Y Y Y Y Y Y Y Y Y Y Y Y Y Y Y Y Y Y Y Y Y @.@.l K Y K Y e a @+]+h q e h P Y Y P Y @.Y P E h h h h E E E E E E E P P P P P P P P P P P P P P P P P P P P Y Y P P P E E E E E P P P P Y Y P P P P P E E P P P P Y @.@.@.@.@.@.Y Y Y Y Y Y Y Y Y Y Y Y Y Y Y Y Y Y Y Y Y Y Y Y Y Y Y Y Y Y Y Y Y Y Y Y Y Y Y Y Y @.Y K K Y @.e L 3 ^.=.m n e E Y @.Y Y Y @.Y P h h h h h E E E E E E P P P P P P P E E E E E E E P P P P P P P Y P E E E E E E E E P P P P E E E E E E P P P P P P P Y Y Y Y @.@.@.Y Y Y Y Y Y Y Y Y Y Y Y Y Y Y Y Y Y Y Y Y Y Y Y Y Y Y Y Y Y Y Y Y Y Y Y Y Y @.@.@.K Y @.l g L 1 ^.x q c h P Y @.P P @.@.Y E h h h h E P E h h E E E E P P P P P P P P P P P P P P P P P P P P P P P P P P P E E E E P P P P P P P P P P Y Y Y @.@.l l Y Y Y Y Y Y Y Y Y Y Y Y Y Y Y Y Y Y Y Y Y Y Y Y Y Y Y Y Y Y Y Y Y Y Y Y Y Y Y Y Y Y Y Y Y @.l K K l @.h k @+c.a m r g E l @.@.Y Y Y Y P E E h h h E E E E E E E E E h h E E E E E P P P P Y Y Y P P P P P P P P P P P P P E E E E P P P ",
"P P P P P P P Y Y Y @.@.@.@.Y Y Y Y Y Y Y Y Y Y Y Y Y Y Y Y Y Y Y Y Y Y Y Y Y Y Y Y Y Y Y Y Y Y Y Y Y Y Y Y @.@.l K Y K Y e a @+]+h q e f P Y P E P Y Y P E h f h h E E E E E E E E E E E E E E E E E E E E P P P P P P P Y Y P P P E E E E E E P P P Y P P P P E E E E E E P P P Y Y Y Y Y Y Y Y Y Y Y Y Y Y Y Y Y Y Y Y Y Y Y Y Y Y Y Y Y Y Y Y Y Y Y Y Y Y Y Y Y Y Y Y Y Y Y @.P K l Y @.e L 0 ^.=.m n e E Y @.Y P Y @.Y P h h f h h E E E E E E E E E E E E E P P P P P P P P P P P P P P Y P E h E E E E E E E P P P P P P P P P P P P P P P P Y Y Y Y @.@.@.Y Y Y Y Y Y Y Y Y Y Y Y Y Y Y Y Y Y Y Y Y Y Y Y Y Y Y Y Y Y Y Y Y Y Y Y Y Y @.@.@.l Y @.l g L 2 ^.x q c h P Y Y P P Y @.Y E h h h h E P E h h h E E E E E E E E E E P P P P P P P E E E E E E E E E E E E E E E E E E P P E E E E E E E P P P P P P P Y Y Y Y Y Y Y Y Y Y Y Y Y Y Y Y Y Y Y Y Y Y Y Y Y Y Y Y Y Y Y Y Y Y Y Y Y Y Y Y Y Y Y Y Y @.l K K l @.h k @+c.a m r g E l Y Y Y Y Y P P E E h h h E E E E E E E E E h h h E E E E E E P P P Y Y P P P P P P E E E E E E E E E E E P P P ",
"P P P P P P P Y Y Y @.@.@.@.Y Y Y Y Y Y Y Y Y Y Y Y Y Y Y Y Y Y P P Y Y Y Y Y Y Y Y Y Y Y Y Y Y Y Y Y Y Y Y @.@.l K Y l Y e s @+]+h b e h P @.Y P P Y P P E h f f h E E E E E E E E E E E E E E E E P P E E E E E E E E E P Y P P P E E h E E E E E E P P P P E E E h E E E E P P P P Y Y Y Y Y Y Y Y Y Y Y Y Y Y Y Y Y Y Y Y Y Y Y Y Y Y Y Y Y Y Y Y Y Y Y Y Y Y Y Y Y Y Y Y @.@.P K l Y @.e L 3 !.=.a n e E Y @.Y P Y @.P P E h f f h E E E E E E E E E E E E E P P P P P P P P P P P P P P P E E E h E E E E E E P P P P P P P P P P E E E E E E P Y Y Y @.@.@.Y Y Y Y Y Y Y Y Y Y Y Y Y Y Y Y Y Y Y Y Y Y Y Y Y Y Y Y Y Y Y Y P P Y Y Y Y Y @.@.l @.@.@.g L 2 ^.C q c g Y Y Y Y Y Y @.Y P h h h h E P E h h E E E E E E E E E E E P P P P P P P P P P P P P E E E E E E E E E E E E P P E E E E E E E h h h h h h h Y Y Y @.Y Y Y Y Y Y Y Y Y Y Y Y Y Y Y Y Y Y Y Y Y Y Y Y Y Y Y Y Y Y Y Y Y Y Y Y Y Y Y P Y @.l K K l @.h k @+i a m q g h @.Y Y Y Y Y Y P E E h h h h E E E E E E E E h h h E E E E E E E P P P P P P P P P P E E E E E E E h E E E E P P ",
"E E E E E E E P P Y Y Y @.Y Y Y Y Y Y Y Y @.@.@.@.@.@.Y Y P P P E E Y Y Y Y Y Y Y @.@.@.@.@.@.Y Y Y Y Y Y Y Y @.@.@.l Y E e s 8 ;+h b e h P l @.Y P P Y P E h f h h h h h E E E E E E E E E E E E P P P P E h h h h h h h P P P E E E E E h h h h h E E E E E E E E E E E E E E E P P Y Y Y Y @.@.Y Y Y Y @.P Y Y Y Y Y P P Y Y Y Y Y P P P P P P P Y @.@.@.@.@.@.@.Y Y Y Y @.l @.P K l Y @.e L 3 !.v m n e E Y Y P P Y @.P P E h h f f h h h E E E E E E E E E E E E E E E E E E E P P P E E E E E E E E E E E E E E E E E E E E E E E h h h h h h E P Y Y @.Y Y Y Y Y Y Y Y Y @.@.@.@.@.@.@.@.@.@.@.@.@.@.@.@.@.@.@.@.Y Y P P P E E Y Y Y P P Y Y l @.@.@.f G 1 ^.C b c d Y E @.@.@.@.@.@.P E E E E E E E E E E E E E E E E E E E E E E E E E E E Y Y Y Y Y Y P E E E E E E E E E E E E E E E E E E E E E h h h h h E P Y @.@.@.@.@.@.@.@.@.@.@.Y Y Y P P Y Y Y Y Y Y Y Y Y Y Y Y Y Y Y Y Y @.@.@.@.@.@.Y Y P P @.l K K @.Y h ).@+i m m b f f P Y Y @.@.@.@.Y E E E E h h h E E E E E E E E E E E E E E E E E E E E E P P P P P P E E E E E E E E E E E E E E ",
"P P P P P P P E E E P P P Y Y Y Y Y Y Y Y P P P P P P Y Y P P P E E P P P P P P P Y Y Y Y Y Y Y P P P P P P Y @.@.@.l Y E e s 8 ;+h b e f E Y @.Y P Y Y P E h f h h h h h E E E E E E E E E E E E P P P P E E E E E E E E P P P E E E E E E E E E E E E E E E E E E E E E E E E E E E P P P P Y Y P P P Y Y P P Y Y Y P P P P Y Y Y P P P P P P P P P P P P P P P Y Y Y P Y @.l @.P K l Y @.e L 3 !.v m n e E P Y P P Y @.P P E h h f f h h h E E E E E E E E E E E E E E E E E P E h h h E P E E E E E E E E E E E E E E E E E E E E E P P P P P P E P Y Y @.Y Y Y Y Y Y Y Y Y Y Y Y Y Y Y Y Y Y Y Y Y Y Y Y Y Y Y Y Y Y Y P P P E E Y Y P P P Y Y l @.@.@.f G 1 ^.C b c d Y E Y Y Y Y Y Y P E E E E E E E E E E E E E E E E E E E E E E E E E E E P P P P P P P E E E E E E E E E E E E E E E E E E E E E E E E E E E E P Y Y Y Y Y Y Y Y Y Y Y Y Y P P P P Y P P P P P P P P P P P P P P Y Y Y Y Y Y Y Y Y P Y @.l K K @.Y h ).@+i m m b f f P Y Y @.@.@.@.Y E E E E h h h E E E E E E E E E E E E E E E E E E E E E h E E P P P E E E E E E E E E E E E E E ",
"P P P P P P P h E E E E P P Y Y Y Y Y Y P P P P P P P Y Y P P P E E P P P P P P P Y Y Y Y Y Y Y Y Y Y Y Y Y Y @.@.@.l Y E e s @+;+h b e f E P Y P Y @.Y P E h f h h h h h E E E E E E E E E E E E E P P E E E E E E E E E P P P E E E E E E E E E E E E E E E E E E E E E E E E P Y Y Y @.@.@.Y P E E E P P P P Y Y Y P P P P Y Y Y P P P P P P P P P P P P P P P Y Y P P P Y @.@.P K l Y @.e L 3 !.v m n e E P Y P P Y @.P P E h h f f h h h E E E E E E E E E E E E E E E E E P E f g f E P E E E E E E E E E E E E E E E E E E E E P P P P P P P E P Y Y @.Y Y Y Y Y Y Y Y Y Y Y Y Y Y Y Y Y Y Y Y Y Y Y Y Y Y Y Y Y Y Y P P P E E Y Y P P P Y @.l @.@.@.f G 1 ^.C b c d Y E Y Y Y Y Y Y P h h h h h h E E E E E E E E E E E E E E E E E E E E E E E E E E E E E E E E E E E E E E E E E E E E E E E E E E E E E E E h E P Y P P P Y Y Y Y Y Y Y Y P P P P Y P E E E E E E P P P P P P P Y Y Y Y Y Y Y P P Y Y @.l l K @.Y h ).@+i m m b f f P Y Y Y @.@.Y Y E E E E h h h E E E E E E E E E E E E E E E E E E E E h f h h E P P P E E E E E E E E E E E E E ",
"P P P P P P P h E E E E P P Y Y Y Y Y Y P P P P P P P Y Y P P P E E P P P P P P P Y Y Y Y Y Y Y Y Y Y Y Y Y Y @.@.@.l Y E e s @+;+h b e f E P P E Y @.Y P E h f h h h h h E E E E E E E E E E E E E E E E E E E E E E E E P P P E E E E E E E E E E E E E E E E E E E E E E E E P Y Y Y @.@.@.Y P E E E P P P P Y Y Y P P P P Y Y Y P P P P P P P P P P P P P P P P P P P P Y @.@.P K l Y @.e L 3 !.v m n e h E P E E P Y P P E h h f f h h h E E E E E E E E E E E E E E E E E P E h f h E P E E E E E E E E E E E E E E E E E E E E E E E E E E E E P Y Y @.Y Y Y Y Y Y Y Y Y Y Y Y Y Y Y Y Y Y Y Y Y Y Y Y Y Y Y Y Y Y Y P P P E E P P P P Y @.@.l @.@.@.f G 1 ^.C b c d Y E Y Y Y Y Y Y P h h h h h h E E E E E E E E E E E E E E E E E E E E E E E E E E E E E E E E E E E E E E E E E E E E E E E E E E E E E E E h E P Y P P P Y Y Y Y Y Y Y Y P P P P Y P E E E E E E P P P P P P P Y Y Y Y Y Y Y P P Y @.@.l l K @.Y h ).@+i m m b f f P P P Y Y Y Y P E E E E h h h E E E E E E E E E E E E E E E E E E E E h h h E P P Y P E E E E E E E E E E E E E ",
"Y Y Y Y Y Y Y E E E P P P P Y Y Y Y Y Y Y P P P P P P Y Y P P P E E P P P P P P P P P P P P P P E E E E E E P @.@.@.l Y E e s 8 ;+h b e h E P E h P @.Y P E h f h h h h h E E E E E E E E E E E P E h h E P P P P P P P P P P P E E E E P P P P P P P E E E E E E E E E E E E E E E E P P P P Y Y P P P Y Y P P Y Y Y P P P P Y Y Y P P P P P P P P P P P P P P P P P P E P P Y @.P K l Y @.e L 3 !.v m n e h E P E E P Y P P E h h f f h h h E E E E E E E E E E E E E E E E E Y P E h E P Y E E E E E E E E E E E E E E E E E E E E E h h h h h h E P Y Y @.Y Y Y Y Y Y Y Y Y P P P P P P P P P P P P P P P P P P P P Y Y P P P E E P P P P Y @.l l @.@.@.f G 1 ^.C b c d Y E P P P P P P P E E E E E E E E E E E E E E E E E E E E E E E E E E E P P P P P P P E E E E E E E E E E E E E E E E E E E E P P P P P P P E P Y Y Y Y P P P P P P P P Y P P P P Y P P P P P P P P P P P P P P P P P P P P P E P @.l l @.@.K @.Y h ).@+i m m b f f P P P Y Y Y P P E E E E h h h E E E E E E E E E E E E E E E E E E E E E E E P P Y Y P E E E E E E E E E E E E E ",
"Y Y Y Y Y Y Y P P P Y Y Y Y Y Y Y Y Y Y Y Y Y Y Y Y Y Y Y P P P E E E E E E E E E P P P P P P P E E E E E E P @.@.@.l Y E e s 8 ;+h b e h P P h h E Y Y P E h f h h h h h E E E E E E E E E E P P E h h E P P P P P P P P P P P E E E E P P P P P P P E E E E E E E E E E E E E E P P P Y Y Y @.Y Y Y Y Y @.P P Y Y Y P P P P Y Y Y P P P P P P P P P Y Y Y Y Y Y Y P E E P P Y @.P K l Y @.e L 3 !.v m n e h E P E E P Y P P E h h f f h h h E E E E E E E E E E E E E E E E E P P P Y P P Y E E E E E E E E E E E E E E E E E E E E E E E E E E E E P Y Y @.Y Y Y Y Y Y Y Y Y P P P P P P P P P P P P P P P P P P P P Y Y P P P E E P P P P Y @.l l @.@.@.f G 1 ^.C b c d Y E P P P P P P P E E E E E E E E E E E E E E E E E E E E E E E E E E E P P P P P P P E E E E E E E E E E E E E E E E E E E E P P P P P P P P Y @.@.@.Y Y P P P P P P P Y P P P P Y Y P P P P P P E E E E E E E P P P P P P P E P @.l l @.@.K @.Y h ).@+i m m b f f P P P P Y Y P E E E E E h h h E E E E E E E E E E E E E E E E E E E E P Y Y Y Y Y Y P E E E E E E E E E E E E E ",
"P P Y Y Y Y Y Y Y @.@.@.@.@.@.@.Y Y Y Y Y Y Y Y Y Y Y Y P P P P P P P P P P P P P Y Y Y Y Y Y Y Y P P P Y Y @.l l @.l @.P d D 8 #+h b e E P P E E E P P P P E h h h h h E E P E E P P P P P P P Y P P P P Y Y Y Y Y Y Y Y Y Y P P P P P P P P P Y Y P P P P P P P P P P P P P P Y @.@.@.@.@.@.@.@.Y P P Y Y Y Y @.@.@.Y Y P P P P P P P P P P P P P P Y Y Y Y Y Y Y Y P P P Y @.K Y K K Y Y e L 2 -.v a n g E P P P E E P P P E E h h h E E E E P P E E E E P P P P Y P P P P Y Y @.@.@.@.@.Y P P P P P P P P Y Y Y P P P P P P P P P P Y Y Y Y Y Y Y Y @.@.@.@.@.@.@.Y Y Y Y Y Y Y Y Y Y Y Y P P P P P P P E E E E E E P P P P P P P P P P Y Y @.@.@.l l @.f G 1 2.x r d e E E P P P P E E E E E h h E P E E E E E E E E P P P P P P P P P P P P P Y Y @.@.Y Y Y P P P P P P P P P P P P P P P P P P P P P Y Y Y Y Y Y Y @.l l @.@.Y Y Y Y Y Y Y Y @.Y Y Y Y @.Y P P P P P P E E P P P P P P P P P P P E P P @.@.@.l l K @.P E ].8 c.m s r g E P E E E E E E E E E E E E E E E E E P P P P P P P P P P P P E E E P Y @.Y Y Y Y Y Y Y Y Y Y Y Y Y Y Y Y Y Y Y Y ",
"P P Y Y Y @.@.Y Y Y Y Y Y @.l @.Y Y Y Y Y Y Y Y Y Y Y P P P P P P P P P P P P P P Y Y Y Y Y Y Y Y P P P Y @.@.l K @.@.l E c D 8 #+h b e h E P Y Y P P E P Y Y E h f h E P P P P P Y Y Y Y Y Y Y Y Y Y Y Y Y Y Y Y @.@.@.@.@.@.Y Y Y P P P Y Y Y Y @.@.Y Y Y Y Y Y Y @.@.@.@.@.@.@.@.@.@.@.@.@.@.@.Y Y P P Y Y Y Y Y Y Y Y P P P P P P P P P P P P P P P P P P P P Y Y P P P Y @.R Y K K Y P d L 1 >.=.s r g E P P P E E E P P P E E E E P P P P Y Y P P P P P Y Y @.@.@.Y Y @.@.@.@.@.@.@.@.@.@.Y Y Y Y P P Y @.@.@.@.Y Y Y Y Y Y Y Y Y Y Y Y Y Y Y @.@.@.@.@.@.@.l @.@.Y Y Y Y Y Y Y Y Y Y Y P P P P P P P P P P P P P P P P P P P P P P Y Y Y @.@.Y @.l @.g L 2 2.v r d e f P P P P E E E E E h f f h P P P P P P P P Y Y Y Y Y Y Y @.@.@.@.@.@.@.Y @.@.@.@.@.Y Y Y P P Y Y @.@.@.@.@.@.@.@.@.@.@.@.@.@.Y Y Y Y Y Y Y @.l l l @.Y Y Y Y Y Y Y Y Y Y Y Y Y Y Y Y P P P P P P E E P P P Y Y Y Y P P P E E P Y Y @.l l K K Y h P _.3.c.a w c d Y E h E E E E E E E P P P P P P P P P P P Y Y P P Y Y Y Y Y Y P P P Y l l @.@.@.@.@.@.Y Y Y Y Y Y Y @.@.@.@.@.@.@.",
"Y Y Y @.@.@.@.Y Y Y Y Y Y @.l Y Y P Y Y Y @.@.@.@.@.@.Y Y Y Y Y Y Y Y Y Y Y Y Y Y Y Y Y Y Y Y Y P P P P Y Y @.@.l Y Y @.h d D @+]+f m d f E P P Y P P P P P P E h f E P P Y Y Y Y l l l l l l @.@.@.@.@.@.@.@.@.@.@.l l l @.@.@.@.Y Y Y Y Y @.@.@.@.l @.@.@.@.@.@.@.l l l l l l @.Y Y Y Y Y Y @.@.@.Y Y Y @.Y Y Y Y Y Y Y Y Y Y Y Y Y Y Y Y Y Y Y Y Y Y Y Y Y Y Y P P P P P Y @.K Y @.K Y P c L 2 !.6.D q e h E P P E E E Y Y P P P P E P P Y Y Y Y Y Y Y Y Y @.@.l l @.@.@.@.l @.@.@.@.@.@.@.@.@.@.@.Y Y Y @.@.l l l @.@.@.@.@.@.@.@.@.@.@.@.@.@.@.Y Y Y Y Y Y Y l @.Y Y Y Y Y Y Y Y Y Y Y Y Y Y Y Y Y Y P P P P P P P Y Y Y Y Y Y Y P P Y Y @.l l P Y @.Y e L 3 ^.=.b c g f E E E E E P P P E h f f h P P P P P P P P @.l l l l l l l l l l l l l @.@.l l l @.@.@.Y Y Y Y @.@.@.@.@.@.@.@.l l l l l l l @.@.@.@.@.@.@.@.@.l @.@.Y Y @.@.@.@.@.@.Y Y Y Y Y Y Y Y Y Y Y Y Y Y E E P P P Y Y Y Y P P P E E Y Y @.l l K K l @.E Y [.8 i a w c c P E E P P P P P P P P P P P P P P Y Y Y Y @.@.P P Y Y Y Y Y @.Y Y Y @.@.l @.@.@.@.@.@.Y Y Y Y Y Y Y @.@.@.@.@.@.@.",
"Y Y Y @.@.@.l Y Y Y Y Y Y Y @.Y P P P Y @.@.@.@.@.@.@.Y Y Y Y Y Y Y Y Y Y Y Y Y Y Y Y Y Y Y Y Y P E E P P Y @.l l Y @.l E e s @+]+f m c f E E P P P E P P P E h f f P P Y @.@.Y Y Y Y Y Y Y Y Y @.@.@.@.@.@.@.@.@.l l l l l @.@.@.Y Y Y @.@.@.l l l l @.@.@.@.@.@.@.@.@.@.@.@.@.@.@.@.@.@.@.@.l l @.Y Y Y @.Y Y Y Y Y Y Y Y Y Y Y Y Y Y Y Y Y Y Y Y Y @.@.@.@.@.@.Y P E E P P Y R Y l K Y P c L 2 !.6.s q c h h E E E E E Y Y P P P P P P Y Y Y @.@.Y Y Y @.@.@.@.l l @.@.@.l l @.@.@.@.@.@.@.l @.@.@.Y Y Y @.@.l l l l @.@.@.@.@.@.@.@.@.@.@.@.@.@.@.@.@.@.@.@.@.@.@.Y P P Y Y Y Y Y Y Y Y Y Y Y Y Y Y Y Y Y Y Y Y Y Y @.@.@.@.@.@.@.P P P Y l K K P Y Y P e L 2 ^.=.a q g h h h E E E P P E h h f f h E P Y Y Y Y Y Y Y Y Y Y Y Y Y @.@.@.@.@.@.@.@.@.l l l @.@.@.@.Y Y @.@.l l l l l l l @.@.@.@.@.@.@.@.@.@.@.@.@.@.@.@.@.@.@.Y P @.@.@.@.@.@.@.Y Y Y Y Y Y Y Y Y Y Y Y Y P E P P P Y Y Y Y P P P E E Y Y @.l l K K @.Y P @.[.'+)+s w n r h E P P P P P P P Y Y Y Y Y Y Y Y Y Y @.@.@.@.P P Y Y Y Y @.l l @.@.@.@.@.Y Y Y Y Y Y Y Y Y Y Y Y Y Y Y Y Y Y Y Y ",
"Y Y Y Y @.@.@.@.@.@.@.@.@.@.@.Y P P P P Y @.@.@.@.@.@.Y Y Y Y Y Y Y Y Y Y Y Y Y Y Y Y Y Y Y Y Y E E E E P Y Y l K @.@.l E e s @+]+h b n g h E P P E E P P h h f f f P P Y @.@.Y Y Y Y Y Y Y Y Y @.@.@.@.@.@.@.@.@.@.@.l l @.@.@.Y Y Y Y @.@.@.@.l l l @.@.@.@.@.@.@.Y Y Y Y Y Y @.l l l l l l l @.@.Y Y Y Y Y Y Y Y Y Y Y Y Y Y Y Y Y Y Y Y Y Y Y Y Y @.@.@.@.@.@.Y E E E E P Y K Y l R Y P c L 3 !.v m r n f f h E E E E P P P P P P P P P Y Y Y Y Y Y Y @.@.@.@.l l @.@.@.@.l Y Y Y Y Y Y Y @.@.@.Y Y Y Y Y Y @.l l l @.@.@.@.@.@.@.@.@.@.@.@.@.@.l l l l l l l @.Y P P P P Y Y Y Y Y Y Y Y Y Y Y Y Y Y Y Y Y Y Y Y Y Y @.@.@.@.@.@.P E P Y @.l K @.@.@.P e L 1 !.C b q g h f h E E E P P E h f f f f h P Y Y Y Y Y Y Y Y Y Y Y Y Y Y Y Y Y Y Y Y @.@.l l l @.@.@.Y Y Y Y @.@.@.@.@.@.@.@.Y Y Y Y Y Y Y @.@.@.@.@.@.@.Y @.@.@.Y P P @.@.@.@.@.@.Y Y Y Y Y Y Y Y Y Y Y Y Y Y E E P P P Y Y Y Y P P P E E Y Y @.@.l l l Y P E Y [.@+i m s c q f E P P P P P P P Y Y Y Y Y Y Y Y Y Y @.@.@.@.P P Y Y Y Y Y l l l l @.@.@.Y Y Y Y Y Y Y Y Y Y Y Y Y Y Y Y Y Y Y Y ",
"P P P P Y Y Y Y Y Y Y Y Y Y Y P P E P P P Y Y Y Y Y Y P P P P P P P P P P P P P P P P P P P P P E E E E P P Y @.@.Y P Y h d D @+!+@.r c g h E E E E E P E h f f f f E P P Y Y Y P Y Y Y Y Y Y Y Y Y Y Y Y Y Y Y Y Y Y @.@.Y Y Y P P P P Y Y @.@.@.@.@.Y Y Y Y Y Y Y @.@.@.@.@.@.@.@.@.@.@.@.@.@.Y Y P P P P P P P P P P P P P P P P P P P P P P P P P Y Y Y Y Y Y P E E E E P Y l P @.l P E n O 0 -.y n c n g f f E E E E h h E E P P E E E P P P P P P Y Y Y @.@.@.@.Y Y Y Y @.Y Y Y Y Y Y Y Y Y Y P P P E E P Y @.@.@.Y Y Y Y Y Y Y Y Y Y Y Y Y Y Y @.@.@.@.@.@.@.Y P E E P P P P P P P P P P P P P P P P P P P P P P P Y Y Y Y Y Y E E P P Y Y @.@.@.Y E d L 1 -.s c r e f h E E E E P P h f f f f f f E P P P P P P Y Y Y Y Y Y Y @.@.@.@.@.@.Y Y Y @.@.@.Y Y Y P P P P Y Y Y Y Y Y Y Y Y @.@.@.@.@.@.@.@.@.@.@.@.@.Y Y @.@.Y P P Y Y Y Y Y Y P P P P P P P P P P P P P P E E P P P Y Y Y Y P P P E E P P Y Y @.l @.P E f P [.8 W.r b e q f E P P P P P P P P P P P P P P P Y Y Y Y @.Y P P Y Y Y Y Y P Y @.l @.@.Y @.@.@.@.@.@.Y P P P P P P @.@.@.@.@.@.@.",
"h E E E E E P E E E E E E P Y P P E E P P E E E E E E E h h h h h h h h h h h h E P P P P P P P E E h E E P P E P h h E e c D @+^+R c c g h h E E E E P E h f g f h h E P P P E E E E E E E E E E E E E E E E E E P P P P P P E E E E h P P P Y Y Y Y E E E E E E P P P P P P P P P P P P P P P P E h h E E P P P P P P P h h h h h h h h h h h h h E P P P P P P E E E h E E P Y h E Y h f q N 0 >.s e e c e g f E E E h g f f h h E h h h h E E E E E E P P P P P P E E E P P Y Y Y Y Y Y Y P E E E E h h h E P Y Y Y P E E E E E E E E E E E E E P P P P P P P Y Y P E E P P P P P P P P P h h h h h h E E E E E E E P P P P P P P E E E E E E P Y Y P h c L 2 -.q f n c f h P P E E E h f f f h h f f h E E E E E E E E E E E E E P P P P P P P E P P P P E P P E E E E P P P P P P P P P P P P P P P Y Y Y Y Y Y Y Y Y Y Y Y P E E E E E E E P P P P P P P E h h h h h h E E P P P Y Y Y Y P P P E E h E E P P Y @.P h g E [.U - c n g q g E E h h h h h h E E E E E E E E E P P P P P P P Y Y Y Y P h P @.@.@.Y Y Y Y Y Y Y Y Y P P P P P P @.@.@.@.@.@.@.",
"h f h h h h E E E E E E E E E E h h h h E E E h h h h h h h E E E E E E E E h h h P P P P P P P E E E E E E E h h f f f e g s @+/+R c g g f f f g f h E h f f f g f f f h h h h h f f f f f f f h h h h h h h h h h h h h h h h h h h h E E E E E E E h h h h h h h h h h h h h h h h h h h h P Y P E E P P E E E E E E E E E E E E E E E E E E h h E Y Y Y Y Y Y P P E E E E P E f f E h f n F 2 -.w d d e g g g f h E E g g g g g e g f f f f h h h h h h h h h E E E E E E E h h h h h h h h h h h h f f f h E E E P E h h h h h h h E E E E E E h h h h h h h P P E h h E E E E E E E E E E E E E E E P P P P P P P P Y Y Y Y Y Y E h h h E E P g Y f g d L 2 !.b e c e e g f f f f f f g g f f g g g f h h h h h h f f f f f f f E E E E E E E E E E E E E E h h f f h h h E E E E E E E E E E E E E P P P P P P P P P P P P E E E E E E E E E E E E E E E E E P P P P E E E E E E P P P P E E E E E E E E E E P P E g e Y _.@+W.c c c e d e g f h E h h f h h h h h E E E E E E E E E E E E E E E E E E P P Y P P E E E E E E h h h h h h h E E E E E E E ",
"h h f f h E h f f f f f f f E E E E E E h h h h h h E E E E E P P P P P P E E E E E E E E E E E E E E E E E E E h f f f e f m @+!+@.r d d g f f e g f g g f h h h f f f f f f f f f f f f f f f h h h h h h h h h h h h h h h f f f h h f f f f f f f h h h h h h h h h h h h h h h h h h h h E P P P P P P E h h h h E E E E E E E E E Y Y P P P P E E E E E E E h h f f f f h f g g f f e c O 1 !.C n r g e e g f f h h E h h h f g f f f f f f f f f f f f f f h E E E E E E h h h h h h h f f f f f f f f h h h E E E h h h h h h f f f f f f f h h h h h h h E E E P P P P P P P P P P P E E E E E E P P P P P P P E E E E E E E E E E E P P P g @.h g e L 1 !.a n c g d g g g g g g g g f h E f g g f f f f f f f f f f f f f f h h h h h h h h h h h h h h f f f f f f h h h h h h h h h h h h h h h h h h h h h h h h h h h E P P P P P P P P P P P Y Y E h E E E E h E P P P P P P E E E E E E E E E E h h h E E g f l 4.@+i n n r g c c e g f f f f g f f f f h h h f f f f f f f h h h h h h h f f f h h h h h h h h h h f f f f f f f h h h h h h h ",
"d d e g g g f f f f f f f f g g f h h E P Y Y @.@.l l l l K K K R R R R K K K K l l l l l l l l Y Y Y Y Y Y @.@.P E E h f h b @+;+h s q n d g f e e e e f E Y Y Y E g g g g g g g g g g g g g f h h h h h h h h h h h h h f f g g g g f e e e e e e e h h h h h h h h h h h h h h h h h h h h f f h h E E E Y Y @.@.l l K K K K K K K K K K l l l l @.@.@.@.@.@.@.Y P Y Y Y Y P Y P E h h f e O ^ !.=.m m n n c e g g g e f f f f f f g g g g g g g g g g g g g g f h h h h h h h h h h h h h g g g g g g g g f f f f h h h h h h h h f f f f f f f f h h h h h h E E E P P Y Y @.@.@.l l K K K K K K K K K R R R R R R l @.@.@.@.@.@.Y Y @.l @.Y P f Y f g d L ^ !.D b q d c g e e e e e e f P Y Y h f f g g g g g g g g g g g g g g f f f f f f f f f f f f f g g g g g g g g f f f f f f f f f f f f f f f f f f f f f f f f f f f E P P P Y @.@.@.l l l K K l l K K K K l l l l l l l l Y Y Y Y Y Y Y @.Y Y E E h E E h f l 4.8 )+m b b e c d e e e d d e e g f f f g g g g g g g g g g f f f f f f f g g g f f f f h h h h h h f g g g g g g f h h h h h h ",
"m b b r r r r c c c c c c n r r n c c d e g f f E E E P P P P P Y Y Y Y Y P P P P Y Y Y Y Y Y Y P P P P P P E f e d d c r c s @+(+d y a b r d e c n n r c g f g e n n n n n n n n n n n n n n c d d d d d d d d d d d d d d c c n c c d r r r r r r r d d d d d d d d d d d d d d d d d d d d c c d d e g g f f h h E P Y Y Y Y Y Y Y Y @.@.Y Y Y P Y @.@.@.@.@.@.P P Y @.@.Y E E h g e d c n F [ ^.z w D b b r n c c r q n n n n n n n n n n n n n n n n n n n n n c c c c c c d d d d d d d n n n n n n n n n n c c c c d d d d d d d d d d d d d d d d d d d d d d e g f f h f f h E E P Y @.@.@.@.@.@.Y Y Y Y Y Y Y @.@.@.@.@.@.@.P Y @.@.Y E h d f c c q M 2 ^.C D m r r d n n n n n n d f E h e d d c c c c c c c c c c c c c c d d d d d d d d d d d d d d c c c c c c c d d d d d d d d d d d d d d d d d d d d d d d d d d d e g g f h h E P Y Y Y @.@.l l K K K l l @.@.@.@.@.@.@.@.@.@.@.@.@.@.@.@.Y P h h f e e d E ].@+,+D s s c r c d d c r n c d e e d d c c c c c c c c c d d d d d d d d e e e e g g g e e e e e e d d d d d d d e e e e e e e ",
"y w s a a a s s s s s s s s s a m m b b m a a m b b q q q q q r r r r r r q q q q r r r r r r r n n n n n n r b a a a s D D x '+_+n x s D a b q m m m D s m b m s w s s s s s s s m m m m m m m m m m m m m m m m m m m m b b m m m b b a a a a a a a m m m m m m m m m m m m m m m m m m m m m m b b q r r m m b b q q r n n n n n n n c c c n n n n c c c c c c n n c e d c n r q m a a s w l 1 2.8.C y D D a m b m a s s s a a a a a m m m m m m a s s s s s s a a a a a a a m m m m m m m m m m m m m m s s a a a a m m m m m m m m a a a a a a m m m m m m m m m b q q r r q q r r n n n n n n n n n r r r r r r r n c c c c c c n c d e d n q m q s m D Y 0 2.6.x D a s q m m m m m m b n n r b m m m m m m m m m m m m m m m m b b b b b b b b b b b b b b m m m m m m b b b b b b b b b b b b b b b b b b b b b b b b b b b b b b q q r n n n n n c c c c d d e e d c d d d d d d d e e e e e e e g g e d c n r b q m n 7.'+n.y y C b a q q q b b b q q q q q b b b m q q q q q q q q q q q q q q q q q r r r r r r r r r r q b b b b b b r r r r r r r ",
"6.v C w w y y y y y y y y y y y y w w w y y y y y y w w w w w D D D D D D D w w w w w w w w w w w w w w w w w w y y w w y x 6.'+_+q =.C C y w w y y w y w w D w y C C C C C C C C y y y y y y y y y y y y y y y y y y y y w w y y y y w y y y y y y y y y y y y y y y y y y y y y y y y y y y y w w w w w D w w w w D D D s s s s s s s D D w w w w w s s s s s s s s s a a s s s D w w w y v E 2 2.9.v x C y y w w y y C C C y y y y y y y y y y y C C C C C C C C C C C C C C y y y y y y y y y y y y y y C C C y y y y y y y y y y y w w w w w w y y y y y y y y y y y w w w w w w w D D D D D D D D D D D D D D D D s s s s s s s w w w D D w w y w v y x h h.5.|.=.C y v w y y y y y y y w D D y C C y w w w w w w w w w w w w w w w w w w w w w w w w w w w w w w w w w w D D D D D D w w w w w w w w w w w w w w w w w w w w w w w w w w D w y w w w D D D s s a a s s D D D D D D D s s s s s s s a s s D D w y y s x D > '+n.x v 6.w y D D w D D D w w w w D D D D w D D D D D D D s s s s s s D w w D D D D D D D D D D D D D D D D D D D D D D D D D ",
"9.|.6.v v =.6.6.6.6.6.6.6.6.6.6.6.6.6.6.=.=.=.6.6.6.6.6.6.=.=.=.v v v v =.=.=.=.=.v v v v v v v v v v v v v =.6././.=.=.6././.@+:+m z =.6.=.v v =.v x /./.6.6.=.=.=.v v v v v v v =.=.=.=.=.=.=.v v v v v v v v v v v v v v v =.=.=.v v v v v v v v v v v v v v v v v v v v v v v v v v v v v v x x v v v v v v v v v v v v v v v v v x C C C x x x x v v v v v v v v v v v v v v =.v v x =.z e 3 2.0.v v v x x v v v v v 6.6.=.=.v v v =.=.=.=.=.=.v v v v v v v v v v v v v v v v v v v v v =.=.=.=.=.=.=.v v v x x x x v v v v v v v =.=.=.=.=.=.v v v v v v v v v v v v v v x x x x x x x x x x x x x x v v v v v v v v v v v v v v v v v v x x v =./.x =.g 6 5.9./.x x z v v v v v v v =.=.x x =.=.=.v x x x x x x x x x x x x x x x x x x x x x x x x x x x x x x x x x x x x x x x x x x x x x x x x x x x x x x x x x x x x x x x x x x x x x x x x C C x v x x x x v v v v v v v v v v v v v v v x x x x x v v v y /.x ; @+,+x =.z x =.x v =.v x x v =.v v x x C C C v v v v v v v C C C C C C C x C C C C y C x x x x x x C C C C C C C x x x x x x x ",
"y z 0.8.|.8.i.0.0.9.9.9.9.8.8.8.8.8.8.8.9.9.9.9.9.9.9.8.8.8.8.8.8.8.8.8.8.8.8.8.8.9.9.8.|.|.8.8.8.8.8.8.8.8.9.9.0.0.9.9.9.8.i.<+/+D l.|.z |.z z z z |.z z z z z z z 6.6.=.=.6./.z |.|.|.|.|.z z z z /././.z |.|.z z z z |.|./.=.v =.6.z z z z z z z |.|./.0.8.8.6.6.z z |.|.z z /./././././././.z z z z z z z z z z z z z /./././././.z z z /.6./././.z /./././.z z z z z z z z 8.8.z z z |.9.c ^ 2.0.k.C g./.z z z z z z 6././.z z z /.6./.z |.|.z z /.z z z /./././.z z /./.z /.z |.8.|.z z z z z z z |.z /./././././.|.6.i.z v x =.6././././././.z z z z z z z z z |.|.|.|.|.z z /.6././././.z |.|.|.|.z z z z z /./.z |.z z z z |./././././.z z |.6.z g.0.n [+5.k.=.z 9.x |.=.=.6.6.6.6.6././././././.6.6.6./././././././././././.6.6.6.=.=.6./.x v =.=.=.v v =.6.=.v v 6.=.=.6.6.=.6././.z 9.=.w x x /./././././././././.6.6.6.6./.6.=.=.6.6.6./.6.6.6.6.6.6.6.6./././.z 6.6.6.6.=.=.=./.z z z z z z /././././.z /./.z 8.w = '+)+y |.x z x x 6.x C C x x v v x x x C C y C C C C C C x C x x C y C C y w y C x y C x x x x x C w D w y C C C x C x =.C w C ",
"V *.k ).k k 4.].].].].4.4._.}.}.}.}.}.}._.4.4.].].].].}.7.7.}.}.}.}._.].].].].].].4.).k k k k 4._._._._._._.].).).).).).).k ' <+! 7.; & + $ $ $ $ $ $ # # # # # # # . # $ $ $ $ $ $ $ $ $ $ $ $ # # . . & & # $ # . . . . # $ $ + + $ # # # # # # # # $ ; & }.# . > $ $ + + $ $ # # # # # # # $ $ $ $ $ $ $ # # # # # # # # # # # . . # $ # # # # $ $ # # . . . # # # # # # # # + $ # . # $ + ).-.}+#   & $ $ $ $ $ $ $ $ . . . . # # # # $ $ $ $ $ # # # $ $ $ # . # $ # . . $ . # # . . . . # # # # # . . # # # # # # # & & & W.% - $ # # $ $ # # $ $ $ $ $ $ $ + + + + + $ $ + $ $ $ $ + + # # $ $ $ $ # # # # # # $ + $ $ # $ $ + $ $ $ $ $ $ $   @ & >   7.J.|+ .+  .+ ; , , , , , , , % @ @ @ @ @ @ + @ @ % % @ @ @ @ @ @ @ @ @ @ @ % + $ @ % - - * , , * % + @ @ + $ + $ $ @ + + + % %   > * *  .- @ @ @ @ @ + + , , , , , , , % @ + + + + $ $ $ $ $ $ + @ @ @ @ @ % % % % % % % % % # # # # # # $ $ $ $ # $ $ $ $ ; , . b.<+1++ - # - + @ - , % @ @ % % * - * * * * * * * , , , , , , * * * , * -  .* *  .W. ., % % % % % % -  . .- - - - % . # *  .- - ",
"/ ] ^ 2 2 1 [ { / / / ] ] ] / / { { ( ( { / / ] [ [ ^ [ ] ] / / { { ] ] ] ] ] ] ] [ [ ] ] / ] ] ] ] ] ] ] ] [ ^ ^ ^ ^ ^ ^ 2 ] D.j.( 3 ^ { [ ^ ^ ^ ^ ] [ [ [ [ [ [ [ ] ^ 1 2 2 ^ ^ ] [ [ ^ ^ ^ ^ [ ^ ^ [ / { ] ^ [ / / { { ( { [ 1 ^ / ( / / / / / / ] u : J.] 1 ( h.[ ^ ^ ^ ^ [ [ ] ] [ [ ^ ^ ^ ^ ^ ^ [ [ ] ] ] ] [ [ ^ ^ 2 1 1 ^ ^ [ [ ] ] ] ] [ 1 1 [ ] ] ] ] [ ^ 1 1 1 1 1 1 1 1 ^ [ [ ^ 1 ] .+6 0 0 ~ 6 ^ ^ ^ ^ [ ] ] ^ ^ [ [ [ [ ^ ^ ^ ^ ^ ^ [ ] ] ] [ ^ ^ ^ ^ 1 1 1 [ [ [ 1 [ / { { / ] [ ^ ^ ^ [ / { ] ] ] ] ] ] 1 2+V.{ 2 7 [ / [ ^ 1 1 ^ [ ] ] [ ^ ^ ^ ^ 1 1 1 ^ ^ [ [ ^ ^ [ ^ 1 2 2 ^ 1 1 1 1 [ [ [ ] / ] ^ 1 1 ^ [ [ [ ^ ^ 2 2 2 2 2 2 2 ^ h./ [ 0 { L.D.] 1 / { 2 { [ [ ] ] / / / ] ] ] ] ] ] ^ 1 2 2 1 ^ ^ [ [ [ [ [ [ [ ^ 1 ^ ] / / [ / { 7 ~ ~ 7 { ] ^ 1 [ / { { { / ] / ] ^ &.} ( 0 [ 7 t [ ^ ^ [ ] ] ] { { { / / ] [ 3 2 ^ [ [ [ [ ^ ^ 1 1 2 2 2 2 1 1 1 1 1 { ( { { / ] ] ] ] [ [ [ ^ 1 3 2 1 1 2 2 2 ^ h./ 3 [+#.3 3 2 { 3 1 1 0 3 2 1 1 1 1 ^ ^ 1 1 1 2 2 1 1 ^ [ [ ] ] ] [ ^ [ [ ^ 1 [ / { / [ [ [ [ ^ ^ 1 1 1 3 2 ^ / ( ( ( 2 ] { [ 2 1 ^ ",
"m b b a s m r n r r r q q m D s s a a m q c n n r q q D w w D s s a r n n n n n r m b b q q q b w w w w w w D s s s s s s a v y y b r m q b m a m b q r n n n n n r b b a s a m b b b b m m a m b m m q n d r b q n c c c n r b m m q r d d d d d d c W.3+  c y a n b b m m m b b q b b m m a a a m m b b b q q b b m m a D s s a m m b b b b b m a a b b b b b b m s s s s s s s s s a a s s x s b m q c q a m m b b b q q q q r r n q a a a a b b q q q b m m m m m m b r n r a b c e d n q r q b b r d d n n n n n n m ~ #.q a y m b b m a a m b b b b b m m a s a m m b b b b b b b m a a s D D s a m b b q q b m s a m b b b b m D w D D s s a a w b a w w r b C a r d y m s s a m b b q r r r r r r m s s a a m b b b b b b b b b m b r r r b a b n n n r r r b m q r n n n n r r r m W [ g f r D a a m m b q q r q b b a a s s D s m b b b b b b m m a s s s s a m m m b b b m a s s q b b b m a a D D s s s D w w D a a y m w s b n m b b a m b q q q q q r q q q b b s s a a b b b b m a m m s D a q r q m a r e d d c n n a s b r n n n r c d c q a D ",
"L I H G L I H I I I G G G G L G G I I I H H H I I G G G G I I H H H G G G G G G G L G G I I I G I I I I I I I G G G G G G G O M I F N M O I G L G I I G G G G G G G I I G L G G I I I I G G L L L O O L G I L O L G G I I G G G G G G G I I I I I I G ; 4+k l L h O I G G G G I I I G G G L L L L G G I I I I I G G G L L L G G I I I I G I I G G L L G I I I I G G G G G G G G G L L L L L L @.I F G L L L L G G I I I I G G G G G G G G L L L G I I I G G L L L L L O L G G G F O G I I G G G G L L G I I G G G G G G M ) #.n O O G I I G G G I I I I I I G G L O L L G G I I I I I I I G G L L O L G I I G I I I G O L G I I I I G L L L G G G G G G L L I K N O L G @.G O I I I I H H H I G G G G G G L L O L L G I G G G G G G G O O O G I G L L G H H H H I G O O G I I G I I L G G M X / F N F L I L L L G G I I H H I I I G L O L G I I I I I I I I G G L O L L G G G I H H I G G G I I G G G L L L L G G G L L G H f O G l O O I I I I G O L G G G G G G G G G L L L G I I I H H H H H I I H I L L I H I L L G I I I G L L L G H H H H H I G L G F P n ",
"L I I G L G I H H H H H H I G I I I I H I I I I I I I I I H H H H H H H H H H H H G I H H H H I G G G G G G I I I I I I I G K L O N L O G I I I I I I I I I I I I I H H I I I I I I I I I I I I I I I H H H I G I H H H H I I I I I I I I I I I I I G + z.4.M I @.G I I I I I I I I I I I I I I I I I I I I I I I I I I I I I I H H H H I I I I I I G I I I I I I I I I I I I I I I I I I I I F I O G G G I I I I I I I H H H H H H I I I I I I I I H H I I G I I H I G I H H I I I I I I H H I I I I I H H I I I I I I E x..+=.l I I I H I I I I H H I I I I I I I I I I I I I H H H H H I I I I I I I I I I I I I I I I I I I I I I I I I I I I I L I L N O G I O l L L I N G I I H H H H H I I I I I I I I I I I I I I I I I I I I I G I I I I I I H H H H H H I I G I I I I I H I I I N U.^ L M G L N G I I I I I I H H H I I I I I I I H H H H H H H I I I I I I I I I I I I I I I I G I I I I I I I I I I I I I I L L N I F F R I H I I I I I I I I I I I I I I I I I I G I I I I I I H I I I I I G I H H I G G I I I I I I I I H H H H H H H G G H L Y d ",
"H H H H H H H G I I I H H H H H H H H H H H H H H H H I I G G G G G H H H H H H H I I H H H H H H H H H H H H H H H H H H G G N I O G G I I H H H I I I I I I I I I I I H I I G I I H H H H H H H H H H H H I I H H H H I H I G G G I H H H H H H H I >  +].l l G N H I I I I H I I I I I I I H H H H H H I G I I I I I I I G G G G G G G I I H I I I I H H H H I G L L L L L L I I I G I I H G M L F G G I H H H H H I I H H H I I I I H H H H H H H I G G G H H H I G G H I G H H I G I H H G I I I I G I H H H H H H R t #.b E l L F G G I I G G I I H H H H H I I I I I I I G I I H I I I H H I G G I I I G G G I H I I H H H H I H H H I I I G I O R G I L N I G L N O I H H I I I I I I I I I I I I H I G G L L G I I I I I I I I I I H H G G H H I G G I I H I H H H I L I H G G I K &+1 G @.G L G I I I I I G G H H H H H H I G I I H I I I I H H H H H H I I G G L L I I I I I I H G I I I I I I I I H H I I I G G M I G F G I I N I I L G I I H I I G G G G I I H H H H I I I I I H I I H H H I H H H I G H H H H H H H H I I G G I H H I G H G @.q s ",
"O G H H I H H H H H H H I G G I I H H I I I I H H H H I I I I I I I I I I I I I I H H H H H H H H H H H H H H H H H H H H I I I I I I I H H H H H H H H H H H H H H H H H H H H H H H H H H H H H H H H H H H H H H H H H H H I G G G I I I H H G G F - 2+4.f R I I G G I I I H H I I I I I I I I I H H H H H H H H H H H H H H H H H H I I I I I I I H H H H H H H I I I I I I H H H H H H H I I I I I I I I I I I I I I H H H H H H H I I I I I I I H H H H H H I I I I I I I H H H H H H H H H H I I I I H H H H H L E 7 K.s n N O G G I I I I H H H H H H H H I I I H H H H H H H H H H H H H H H H H H I I I I I I H H H H H H H I I I I H H H I I I I I I I I I I I I I I H H H H H H I G G G G G G I I I I I I I H H H H H H H H H H H H H H H H H H H H H H H I I I I I G I H G I P o 2 L h L I H I I I H H H H H H H I G I I H H H H H H H I I I H H H H H H H H H H I I I I I I I H H H H H H H I I I I I I I I I I I I I H H H H H H H H H H H H H H H H H H H H H I I I I I I I H H H H H H H H H H H H H H H H H H H H H H H H H H H I H H O P d g ",
"N O L L L L G G G G G L L L G G I I I I I I I I I H H H H H H H H H H H H H H H H H H H H H I I I I I I I I I I I I G G G I H H H H H H I I I I I I I I I I I I I I I I I I I I I G G G G G G G G G G G G G I I I I I I I I I G G I I H H H H H I G N W. +_.e Y F O O L L L L G I I I I G G G I I I I I H H I I H H H H H I I I I I I I H H H H H H H H H H H H H H H H H H H H I I I G G G G I H H H H H H H H H H H H H I I I I I I I I I I I I I I G G G G G G I I I I I I I I I I I I I I I I I H H H H H H H H G N f ( L.w b K M O O L L L G G G G G G G L L I I I I H H H H H H H H H H I I I I I I H H H H H H H H H H H H H I I I I H H H H H H H H H H H H H H H H H H I I I I I I H H H H H H H I I I I I I I G G G G G G G G G G G G G I I I I I I I I I I I I H H I G I G L L h u 3 M c M O L G G I I I I I I I H I L L I I I I I I I I H H H H H H H I I I I I I H H H H H H H H H H H H H H H H H H H H H H H H H H H H I I I I I I I I I I I I I H H H H H H H I I I I I I I G G G G G G G G G G G G G I I I I I I I H H H H H H H I I I F E d g ",
"K M N N N F O O O O O F F N F F O O O O O O O O O L L L G G G G G G G I I I I I I G G L L L O O L L L L L L L L L O O O O L G G G G G G L L L L L L L L L L L L L L L L L L L L O O O O O O O O O O O O O O O O O O O O O F F F F O L G I I G L O N K c. +}.n f K M F F F F O O O O O O F F F F O O O L L L O O L L L G G G G G G G G G I I I I I I G L L L L L L L G G G G G G L L L O O O O L G G G G G G G G G G G G L L L L L L L L O O O O O O O F F F F F F O O O O O O O O O O O O O O F F O L G G I I I G G F K d { 9 y s P @.M F F F F O O O O O O F F F O O O O L L L L L L L L L L L L L L L L G I I I I I I G G L L L L O G G G G I I I G G G G G G G I I I I I I G L L L L L L G G G G G G G L O O O O O O F F F F F F F O O O O O O O O O O O O O O O O O L G I I L G O F F e W 0 l m P K M N F F F F O O O O O F M N F O O O O O O L L L G G G I L L L L L L L L G G G G G G L L L L L L L G G G G G G G G G G G G G L L L L L L L L L L L L L L G G G G G G G O O O O O O O O O O O O O O O O O O O O O O O O O O O L L L L G G G O F F K e n e ",
"@.K R R K R M N N N N M M K K R M M M M M M M M M N N N F F F F F F O O O O O O O F F N N N M N F F F F F F F F F N N N N N F F F F F F F F F F F F F N N N N N N N N N N N N N N N N N N N N N N N N N N N N M M M M M M R K R R N F O O O O F M R @.c. +}.r e @.K M M M M N N N N M M R R K R M M M N N N M M N N N F F O O O O O O O O O O O O O F N N N N N N N F F F F F F F F F N N N N F F F F F F F F F F F F F F F F F F F F N M M M M M M M M M M M M M M M M M M M M M M M M M M M R R M N F O L G L L O R Y c { L.y D h P R M M M N N N F N N M M R R M M M M N N N N N N N N N N N N N N N N F O O O O O O F F N N N N M F F F O O O O F F F F F F F O O O O O O F F F F F F F F F F F F F F N M M M M M M M M M M M M M N N N N N N N M M M M M M M R R M N O L G L L F M M c W 0 @.s h @.K K R R R R M M R M M K l l K M M M M M M N N F F F F O F N N N N N N F F F F F F F N N N N N N N F F F F F F F F F F F F F N N N N N N N N F F F F F F N N N N N N N M M M M M M M N N N N N N N N N N N N N N M M M M M M N N N N F F F N R K P n q d ",
"Y l R K K R M R R R R R K l K R M M M M M M M M M N N N N N N N N N O O O O O O O F F N N N M M M M M M M M M M M M R R R M N N N N N N M M M M M M M N F F F F F F F F F F F F N M M M M M M M R R R R R R M M M M M M M R R R M N F L L L O F N M l c.V.[.q d Y K R R R R M M N N N M R K l R M M M M N N M M N N N F F N N N N N N N O O O O O O F N N N N N N N N N N N N N M M M M R R R N N N N N N N N N N N N N N M M M M M M M N N N N N N N F F F F F F N N N N N N N M M M M M M M R R M N O L L L O F N R P n ( K.w w f Y K R R R R M M N M M R K l l M M M M N N N N N N N N N N F F F F F F F O O O O O O F F N N N M M M R R M M M M N N N N N N N O O O O O O F M M M M M M N N N N N N N N N N N N N N N F F F F F N R R R R R R R M M M M M M M M M M N O L L O O F M R n W 3 @.s h @.K R M M M M N M M M M K l K R M M M M M M M N N N F F F F F F F F F F F F F F F F F N N N N N N N N N N N N N N N N N N N N N F F F F F F N M M M M M M M M M M M M M N N N N N N N R R R R R R R R R R R R R M M M M M M M M N N F O O O F M K E c n f ",
"@.K R R R R M K R R R K l l K R M M M R R R R M M M N M M M M M M M F F F F F F F N N N M M M M R R R R R R R M R R R R K R M M M M M M M M M M M M M N N N N N N N N N N N N N N M M M M M M M R R R R R R M M M M M M M R R R M N F O O O O F N M K i  +}.b n P l K R R R R M N N M M R K l K R R M M M N M M M M N N N R R R R R R M F F F F F F F N N N N N N M M M M M M M M M R R R K K M M M M M M M M M M M M M M M M M M M M M N N N N N N N N N N N N N N N N N N N N M M M M M M M R M M F F O O O F F N R P r { K.y y g P K K R R R M M N M M R K @.@.R R R M M M N N N N N N N N N N N N N N N F F F F F F N N N N M M M K R R R M M M M M M M M M M F F F F F F N M M M M M M M N N N N N N N N N N N N N N N N N N N N R R R R R R R M M M M M M M M M M N F O L O O F M M n W 0 @.a h @.K M M N N N F F M N M R K K R M M M M M M M M M M M N N N N N N N N N N N N N N N N N N N N N N N M M M M M M M M M M M M M M N N N N N N M M M M M M M M M M M M M M N N N N N N N R R R R R R R R R R R R R R M M M M M M M N N F F O L O N K E d d Y ",
"@.K M M R M M K R R R K l l @.l K K K K l l K K K K R K K K K K K K R R R R R R R R R R R K K K K K K K K K R R R R R K K K K K K K K K R M M M M M M M M M M M M M M M M M M M M M M M M M M R R R R R R R R K K K K K K K K K K R M N N N N N M R @.)+ +7.m n h l K R R R R M M R R K l @.Y @.l K K K K R K K K R R R R R R R R R R R R R R R R R R R R R R R K K K K K K K K R R R R R K K K K K K K K K K K K K K K R M M M M M M M R R R R R R K K K K K K K R R R R R R R K K K K K K K K K R R M N N O F F N K Y n / L.y C g E K K R R R M M N M M R K l @.l l K K K K R R R R R R R R M M M M M M R R R R R R R R R R R R K K R R R R M M M K K K K K K K R R R R R R R M M M M M M M M M M M M M R R R R R R R K K K K K K K R R R R R R R K K K K K K K R R R R M N F F F F M M c >.0 l a h Y l R R R M M M M R M R K @.l K K K K K K K K l l K K K K R M M M M M M R R R R R R R R R R R R R R K K K K K K K K K K K K K R M M M M M M M M M M M M M M M M M M M M R R R R R R R R R R R R R R R R R R R R R K K K K K K K R R M N F F F M l E c n h ",
"l l K R M M R R R K K l l @.@.l l l l K K K K K K K K R R R R R R R R R R R R R R K K K K K K K R R R R R R R R R R R R R R R R R R R R R R R R M M M R R R R R R R R R R R R R R R R R R R R R R R R R R R R R R R R R R K K K K R R M M N N N M K Y i 2+7.b c f K R R R M M M M K K l @.@.@.l l l l l l l K K K R R R R K K K K K K K R R R R R R R R R K l l @.K R R R R R R R R R R R R R K K K K K K K K K K R R R R R R R R R R R R R R R R R K K K K K K K R R R R R R R K K K K K K K R K K R M N N O L O N K P n ] 9 C y e h l R R R M M M M M R R K l l l l l l l l l K K K R R R R R R R R R R R R R R R R R R R R R R R R R R R R R R R R R R R R R R R R R R R R R R R R M M M M R R R R R R R R R R R R R R R R R R R R R R R R R R R K K K K K K R M R R M M N F L N O R K c >.0 l a f Y K R R R R R R R R K K K l l l l l l l l l l K K R R R R K K K K K K K R R R R R R R R R R R R R R R R R R R R R R R R R R R K K K K K K K R R R R R R R R R R R R R R R R R R R R R K K K K K K K R R R R R R R K K K K K K K K R M M F F F M K P n m r ",
"@.l K R R R R R R K l l l @.@.l l l l K K K K K K K K R R R R R R R R R R R R R R K K K K K K K K K K K K K K R R R R R R R R R R R R R R R R R R M M R R R R R R R K K K K K K K R R R R R R R R R R R R R R R R R R R R K K K K R R M M N N N M K Y i 2+7.b c f K R R R R M M M K K l @.@.@.l l l l l l l K K K K R R R K K K K K K K R R R R R R R R K K K l l K K K K K K K R R R R R R R K K K K K K K K K K R R R R R R R R R R R R R R R R R K K K K K K K R R R R R R R K K K K K K K R K K R M N N O O O N K P n ] 9 C C e E l R R R R M M M M R R K l l l l l l l l l K K K K R R R K K K K K K K R R R R R R K K K K K K K K K K K K K K K K K K K K K R R R R R R R R R R R M M M R R R R R R R R R R R R R R R R R R R R R R R R R R R K K K K K K R M R R R M N F O N O R K c >.0 l a f Y K R R R R R R R K K K K l l l l l l l l l l K K K R R R K K K K K K K R R R R R R R K K K K K K K K K K K K K K K K K K K K K K K K K K K R R R R R R R R R R R R R R R R R R R R R K K K K K K K R R R R R R R K K K K K K K K R M M F F F R l h r b n ",
"@.l K R R R R R R K l l l @.@.l l l l K l l l l l l l K R R R R R R R R R R R R R K K K K K K K K K K K K K K R R R R R R R R R R R R R K K K R R R R R R R R R R R K K K K K K K R R R R R R R R R R R R R R R R R R R R K K K K R R M M N N N M K Y i 2+7.b c f K K K R R R R R K K l @.@.@.l l l l l l l l l K K K K R K K K K K K K R R R R R R K l l K K K K K K K K K K K R R R R R R R K K K K K K K K K K R R R R R R R R R R R R R R R R R K K K K K K K R R R R R R R K K K K K K K R K K R M N N O O O N l P n / 9 x C e E l K K R R R R R R R K K l l l l l l l l l l K K K K K R K K K K K K K R R R R R R K K K K K K K K K K K K K K l l l l l l l R R R R R R R K K R R R R R K K K K K K R R R R R R R R R R R R R R R R R R R R R K K K K K K K R R R R M N F O N O R K c >.0 l s f P l R R R R R R R K K K l l l l l l l l l l l l K K K K R K K K K K K K R R R R R R R K K K K K K K K K K K K K K K K K K K K K K K K K K K R R R R R R R R R R R R R R R R R R R R R K K K K K K K R R R R R R R K K K K K K K K R M M F F O R @.h n r e ",
"@.@.l K R K K R R K l l l @.@.l l l l K l l l l l l l K K K K K K K K K K K K K K K K K K K K K K K K K K K K K K K K K K K K K K K K K K K K K R R R K K K K K K K R R R R R R R K K K K K K K K K K K K K K K K K K K K K K K K R R M M N N N M K Y i 2+7.b c f K K K K K R R R K l l @.@.@.l l l l l l l l l l K K K K K K K K K K K K K K K K K K l l K K K K K K K K K K K K K K K K K K K K K K K K K K K K R R R R K K K K K K K K K K K K K K K K K K K K K K K K K K K K K K K K K K R K K R M N N F O F M l P n / 9 x C e E l K K K K R R R R K K l @.@.l l l l l l l l l l K K K K K K K K K K K K K K K K K K K K K K K K K K K K K K K K K K K K K K K K K K K K K K K K K R R R K K K K K K K K K K K K K K K K K K K K K K K K K K K K K K K K K K R K K R R M N O N O R K c >.h.l s g P l R R R R R R R K l l l @.@.@.l l l l l l l l l l K K K K K K K K K K K K K K K K K K K K K K K K K K K K K K K K K K K K K K K K K K K K R R R R R R R K K K K K K K K K K K K K K K K K K K K K K K K K K K K K K K K K K K K R M M F F O N l E c n f ",
"Y @.l K K K K R R K l l l @.@.l l l l K l l l l l l l K K K K K K K K K K K K K K K K K K K K K l l l l l l l K K K K K K K K K K K K K l l K K K R R K K K K K K K M M M M M M R K K K K K K K K K K K K K K K K K K K K K K K K R R M M N N N M K Y i 2+7.b c f K l K K K K R R K K l @.@.@.l l l l l l l l l l l K K K K K K K K K K K K K K K K K K K K K K K l l l l l l l K K K K K K K K K K K K K K K K K R R R R K K K K K K K K K K K K K K K K K K K K K K K K K K K K K K K K K K R K K R M N N F F F M l E r ] 9 y y e h @.l K K K K R R K K K l @.@.l l l l l l l l l l l K K K l l l l l l l K K K K K K l l l l l l l l l l l l l l R R R R R R R K K K K K K K l K K K K R R R R R R R R K K K K K K K K K K K K K K K K K K K K K K K K K K K K K K K K R M N O N O R K c -.h.@.D g E l R R R R R R R l l l @.@.@.@.l l l l l l l l l l l K K K K K K K K K K K K K K K K l l l l l l l l l l l l l l l l l l l l l K K K K K K R R R R R R R K K K K K K K K K K K K K K K K K K K K K K K K K K K K K K K K K K K K R M M F F L N K E c n e ",
"Y @.l K K K K R R K l l l @.@.l l l l K l @.@.@.@.@.@.l K K K K K K K K K K K K K K K K K K K K l l l l l l l K K K K K K K K K K K K K l l l K K K K K K K K K K K R R R R R R R K K K K K K K K K K K K K K K K K K K K K K K K R R M M N N N M K Y i 2+7.b c f K l l K K K K K K K l @.@.@.l l l l l l l @.@.l l l K K K K K K K K K K K K K K K K R R K K l l l l l l l l l K K K K K K K K K K K K K K K K K R R R R K K K K K K K K K K K K K K K K K K K K K K K K K K K K K K K K K K R K K R M N N N F N M @.E q [ L.w D g f Y l l K K K K K K K l l @.@.l l l l l l l @.@.l l l K K l l l l l l l K K K K K K l l l l l l l l l l l l l l K K K K K K K K K K K K K K l l K K K K K R R R R R R K K K K K K K K K K K K K K K K K K K K K K K K K K K K K K K K R R N O N O R K c -.6 @.D g E @.R R R R R R R l l l @.@.@.@.l l l l l l l @.l l l l K K K K K K K K K K K K K K K l l l l l l l l l l l l l l l l l l l l l K K K K K K R R R R R R R K K K K K K K K K K K K K K K K K K K K K K K K K K K K K K K K K K K K R M M F F F R l E n m n ",
"Y @.l l K K K R R K K l l @.@.@.l l l K l l l l l l l l K K K K K K K K K K K K K K K K K l l l l l l l l l l K K K K K K K K K K K K K K K K K K K K l l K K K K K K K K K K K K K K K K K K K K K K K K K K K K K K K K K K l l K K R M N F N M K Y )+2+7.b c f l l l K K K K K K K l @.@.@.@.l l l l l l @.@.l l l l K K K K K K K K K K K K K K R R K K l l @.l l l l l l l l K K K K K K l l K K K K K K K K R R R R K K K K K K K K K K K K l l K K K K K K K K K K K K K K K K K K K K K K K K R M N N N N M @.E q [ 9 w D g f @.K K K K K K K K l @.@.@.@.l l l l l l l l l l l l l K l l l l l l K K K K K K K K l l l l l l l l l l l l l l l l l l l l K K K K K K K K K K K K K K K K K K K R K K K K K l l K K K K K K K K K K K K K K K K K K K K K K K K K R R N O N F M l n -.h.l D g P @.K R R R R R R l l @.@.Y @.Y l l l l l l @.@.@.l l l K K K K K K K K K K K K K K K l l l l l l l l l l l l l l l l l l l l K K K K K K R R R R R R R R K K K K K K K K K K K K l l K K K K K K K K K K K K K K K K K K l l l K R M M N F N K @.E n b n ",
"P l l l K R l R R K K l l @.@.@.@.@.l l K K K K K K K l l l l l l l l l l l l l l K K K l @.@.@.l l l l l l l l l l l l l l l l l l l l K K K K K K K @.@.l l l K K K K K K K K K l l l l l l l l l l l l l K K K K K K K l l @.@.l K K R N F N R K Y Y.5+7.m c f l K K K K K K K l l l @.Y Y @.@.l l l K K @.@.l l l K K l l l l l l l K K K K K K K l l l l l l l l l l l l l l l l l l l l @.@.l l l K K K K R R R K K K K K K K K K K l l l l @.l l l l l l l l l l l l l l K K K K K K K l l l l K R M N M M M l E r / 9 C y g h l K K K K K K R K l @.Y Y Y @.@.@.@.@.@.@.K K K K K K K l l l l l l K K K K K K K K l l l l l l l l l l l l l l l l l l l l l l l l l l l K K K K K K l @.l l l l K K K l l l @.@.l l l l l l l l l l l l l l K K K K K K K l l l l K R N F N M M Y r >.3 K D g Y @.K K K K K K K K l @.Y P Y Y @.@.@.@.@.@.@.@.l l l l K l l l l l l l K K K K K K K l l l l l l l l l l l l l l l l l l l l K K K K K R R R R R R K K K K K K K K K K K K l l l @.@.l l l l l l l K K K K K K K K l l l l @.l l K R M N N N R @.E d c f ",
"P l l l K R l R R K l l @.@.@.@.@.@.l l l l l l l l l l l l l l l l l l l l l l l l l l l l l l l l l l l l l l l l l l l l l l l l l l K K K K K K K @.@.l l l K K l l l l l l l l l l l l l l l l l l l l K K K K K K K l l @.@.l K K R N F N R K Y Y.5+7.m c f l K K K K K K K l l l @.Y Y @.@.@.l l l l @.@.l l l K K l l l l l l l K K K K K K K l l l l l l l l l l l l l l l l l l l l @.@.l l l K K K K R R R K K K K K K K K K K l l l l @.l l l l l l l l l l l l l l K K K K K K K l l l l K R M N M M R l E r / 9 C y g h @.K K K K K K R K l @.Y Y Y @.@.@.@.@.@.@.l l l l l l l l l l l l l l l l l l l l l l l l l l l l l l l l l l l l l l l l l l l l l l l l l l l l l l l @.l l l l K K K l l l @.@.l l l l l l l l l l l l l l K K K K K K K l l l l K R N F N M M Y r >.3 K D g Y @.K K K K K K K K l @.Y P Y Y @.@.@.@.@.@.@.@.l l l l K l l l l l l l K K K K K K K l l l l l l l l l l l l l l l l l l l l l K K l K R R R R R R K K K K K K K K K K K K l l l @.@.l l l l l l l l l l l l l K K l l l l @.l l K R M N N N R @.E d c f ",
"P l l l K R l R K K l @.@.@.@.@.@.@.l l l l l l l l l l l l l l l l l l l l l l l l l l l l l l l l l l l l l l l l l l l l l l l l l l K K K K K K K @.@.l l l K K l l l l l l l l l l l l l l l l l l l l K K K K K K K l l @.@.l K K R N F N R l Y Y.5+7.m c f l K K K K K K K l l l @.Y Y @.@.@.@.l l l @.@.l l l K K l l l l l l l K K K K K K K l l l l l l l l l l l l l l l l l l l l @.@.l l l K K K K R R R K K K K K K K K K K l l l l @.l l l l l l l l l l l l l l K K K K K K K l l l l K R M N M M R l E r / 9 C y g h @.K K K K K K R K l @.Y Y Y @.@.@.@.@.@.@.l l l l l l l l l l l l l l l l l l l l l l l l l l l l l l l l l l l l l l l l l l l l l l l l l l l l l l l @.l l l l K K K l l l @.@.l l l l l l l l l l l l l l K K K K K K K l l l l K R N F N R M Y r >.3 K D g Y @.K K K K K K K K l @.Y P Y Y @.@.@.@.@.@.@.@.l l l l K l l l l l l l K K K K K K K K K K K K K K l l l l l l l l l l l l l l K l l l K R R R R R K K K K K K K K K K K K l l l @.@.l l l l l l l l l l l l l l K l l l l @.l l K R M N N N R @.E d c f ",
"P l l l K R @.K K l l @.@.Y @.@.@.@.l l l l l l l l l l l l l l l l l l l l l l l l l l l l l l l l l l l l l l l l l l l l l l l l l l K K K K K K K @.@.l l l K K l l l l l l l l l l l l l l l l l l l l K K K K K K K l l @.@.l K K K M N M R l Y Y.5+7.m c f l K K K K K K K l l l @.Y Y Y Y @.@.@.@.l @.@.l l l K K l l l l l l l K K K K K K K l l l l l l l l l l l l l l l l l l l l @.@.l l l K K K K R R R K K K K K K K K K K l l l l @.l l l l l l l l l l l l l l K K K K K K K l l l l K R M N M M R l E r / 9 C y g h @.K K K K K K R K l @.Y Y Y @.@.@.@.@.@.@.l l l l l l l l l l l l l l l l l l l l l l l l l l l l l l l l l l l l l l l l l l l l l l l l l l l l l l l @.l l l l K K K l l l @.@.l l l l l l l l l l l l l l K K K K K K K l l l l K R M N M R R Y q >.3 K D g Y @.K K K K K K K K l @.Y P Y Y @.@.@.@.@.@.@.@.l l l l K l l l l l l l K K K K K K K K K K K K K K l l l l l l l l l l l l l l l l l l K K R R R R K K K K K K K K K K K K l l l @.@.l l l l l l l l l l l l l l K l l l l @.l l K R M N N N R @.E d c f ",
"P l l l K R @.K l l @.@.Y Y @.@.@.@.l l l l l l l l l l l l l l l l l l l l l l l l l l l l l l l l l l l l l l l l l l l l l l l l l l l l l l l l l @.@.l l l K K l l l l l l l l l l l l l l l l l l l l l l l l l l l l l @.@.l K K K M N M K l Y Y.5+7.m c f l K K K K K K K l l l @.Y Y Y Y Y @.@.@.@.@.@.l l l K K l l l l l l l l l l l l l l l l l l l l l l l l l l l l l l l l l l @.@.l l l K K K K R R R K K K K K K K K K K l l l l @.l l l l l l l l l l l l l l l l l l l l l l l l l K R M N M M R l E r / 9 C y g h @.l l l l l l R K l @.Y Y Y @.@.@.@.@.@.@.l l l l l l l l l l l l l l l l l l l l l l l l l l l l l l l l l l l l l l l l l l l l l l l l l l l l l l l @.l l l l K K K l l l @.@.l l l l l l l l l l l l l l l l l l l l l l l l l K R M N M R R P q >.3 K D g Y @.K K K K K K K K l @.Y P Y Y @.@.@.@.@.@.@.@.l l l l K l l l l l l l l l l l l l l l l l l l l l l l l l l l l l l l l l l l l l @.l l K R R R R K K K K K K K K K K K K l l l @.@.l l l l l l l l l l l l l K K l l l l @.l l K R M N N N R @.E d c f ",
"P l l l K R @.K l l @.Y Y Y @.@.@.@.l l @.@.@.@.@.@.@.l l l l l l l l l l l l l l K K K l @.@.@.l l l l l l l l l l l l l l l l l l l l l l l l l l l @.@.l l l K K @.@.@.@.@.@.@.l l l l l l l l l l l l l l l l l l l l l l @.@.l K K K R N M K l Y Y.5+7.m c f l K K K K K K K l l l @.Y Y Y Y Y Y @.@.@.@.@.l l l K K l l l l l l l l l l l l l l l l l l l l l l l l l l l l l l l l l l @.@.l l l K K K K R R R K K K K K K K K K K l l l l @.l l l l l l l l l l l l l l l l l l l l l l l l l K R M N M M R l E r / 9 C y g h @.l l l l l l R K l @.Y Y Y @.@.@.@.@.@.@.@.@.@.@.@.@.@.l l l l l l K K K K K K K K l l l l l l l l l l l l l l l l l l l l l l l l l l l K K K K K K l @.l l l l K K K l l l @.@.l l l l l l l l l l l l l l l l l l l l l l l l l K R M N M R K P b >.3 K D g Y @.K K K K K K K K l @.Y P Y Y @.@.@.@.@.@.@.@.l l l l K l l l l l l l l l l l l l l l l l l l l l l l l l l l l l l l l l l l l @.@.l l K R R R R K K K K K K K K K K K K l l l @.@.l l l l l l l K K K K K K K K l l l l @.l l K R M N N N R @.E d c f ",
"P @.l l l K l K l l @.@.Y Y Y @.@.@.@.@.@.@.@.@.@.@.@.@.@.@.@.@.@.@.l l l l l l l K K l @.@.@.@.@.@.@.@.@.@.@.@.@.@.@.@.@.@.@.@.@.@.@.@.@.@.@.@.@.@.@.@.l l l l K K l l l l l l l K K K K K K K K K K K K K l l l l l l l l @.@.@.l l l R R M M K l P Y.5+7.m c f @.l l l l l l l l l @.Y Y Y P P Y Y @.Y Y @.@.@.@.@.l l @.@.@.@.@.@.l l l l l l l l @.@.@.@.@.@.@.@.@.@.@.@.@.@.@.@.@.@.@.@.@.@.@.@.@.l l R R R R R R K K K l l l l l K K K K l l l K K K K K K l l l l l l l l l l l l l l @.@.@.@.l K R M M N M l E r / L.v w d h Y l l l l l l K l @.Y Y Y Y Y Y Y Y Y Y Y Y Y Y @.@.@.@.@.@.@.@.@.@.l K K K K K K l l l @.@.@.@.@.@.@.@.@.@.@.@.@.@.@.@.@.l l l l l l l l l l l l l l l l l K K K K K l l l l l l l K K K K K K K K K K K K l l l l l l l l l l l l K K R N M M K Y r >.3 l w e P Y l l l l l l l l @.@.Y Y Y @.@.@.@.@.l l @.@.@.@.@.l l l @.@.@.@.@.@.l l l l l l l @.@.@.@.@.@.@.@.@.@.@.@.@.@.@.@.@.@.@.@.l K l l l l K R R R R R R R K K l l l l l l l l l l l l K K K K K K K K K K K K K K l l l l l l l l K R R M M N K @.h d c E ",
"E @.l l @.l K K l l @.Y Y Y P Y @.@.@.@.@.@.@.@.@.@.@.@.@.@.@.@.@.@.l l l l l l l l l l @.@.@.@.@.@.@.@.@.@.@.@.@.@.@.@.@.@.@.Y Y Y Y @.@.@.@.@.@.@.@.@.@.l l l K K K K K K K K K K K K K K K K K K K K K K l l l l l l l @.@.@.@.l l l R R M M R l P Y.5+}.m c g @.@.l l l l @.l l @.Y Y Y Y P P Y Y @.Y Y @.@.@.@.@.@.@.@.@.@.@.@.@.@.l l l l l l l @.@.@.@.@.@.@.@.@.@.@.@.@.@.@.@.@.@.@.@.@.@.@.@.l l l K K K K K K K K K l l l @.l K K K K K K K K K K K K K l l l l l l l l l l l l l l @.@.Y @.@.l K R N N M @.h r ] K.=.D c h P @.K K l @.l K l @.Y Y Y Y P P Y Y Y P P Y Y Y @.@.@.@.@.@.@.@.@.@.@.l l l l l l l l l @.@.@.@.@.@.@.@.@.@.@.@.@.@.@.@.@.@.l l l l l l l @.@.@.@.@.@.l K K K K K K l l l l l l l K K K K K K K K K K K K K K l l l l l l l l l l l l l K F M N l l n >.3 l w d P Y l l l l l l l l @.@.Y Y Y Y @.@.@.@.l l l @.@.@.@.@.@.@.@.@.@.@.@.@.l l l l l l l @.@.@.@.@.@.@.@.@.@.@.@.@.@.@.@.@.@.@.@.l K K l l K K K K K K K K K K K l l l @.@.l l l l l l l K K K K K K K K K K K K K K l l l l l l l l K K R M M M @.P f n n h ",
"E @.l l @.l K l l @.@.Y Y Y P Y @.@.@.@.@.@.@.@.@.@.@.@.@.@.@.@.@.@.l l l l l l l l l l @.@.@.@.@.@.@.@.@.@.@.@.@.@.@.@.@.@.@.Y Y Y Y @.@.@.@.@.@.@.@.@.@.@.l l l l l l l l l l l l l l l l l l l l l l l l l l l l l l l @.@.@.@.l l l K R M M K l P Y.5+}.m n g Y @.l l l l @.l l @.Y P P Y P P Y Y @.Y Y @.@.@.@.@.@.@.@.@.@.@.@.@.@.l l l l l l l @.@.@.@.@.@.@.@.@.@.@.@.@.@.@.@.@.@.@.@.l l l l K K K l l l l l l l K K l l l @.@.l l l l l l l l l l l l l l l l l l l l l l l l l l l @.@.Y @.@.l K R N N R @.h q ] K.=.D c h P @.K K l @.l l l @.Y P P Y P P Y Y Y P P Y Y Y @.@.@.@.@.@.@.@.@.@.@.l l l l l l l l l @.@.@.@.@.@.@.@.@.@.@.@.@.@.@.@.@.@.l l l l l l l @.@.@.@.@.@.l l l l l l l l l l l l l l l l l l l l l l l l l l l l l l l l l l l @.@.l l K K K N R N l @.r -.3 l w d P Y l l l l l l l l @.Y P Y Y Y Y @.@.@.@.l l @.@.@.@.@.@.@.@.@.@.@.@.@.l l l l l l l @.@.@.@.@.@.@.@.@.@.@.@.@.@.@.@.@.@.@.@.l K K K K K K K K K K K K K K K l l l @.@.l l l l l l l l l l l l l l l l l l l l l l l l l l l l l l K R R M R l Y h n r e ",
"E Y @.@.@.@.l l @.@.Y Y P P P Y Y @.@.Y Y @.@.@.@.@.@.@.@.@.@.@.@.@.@.@.@.@.@.@.@.l l l @.@.@.@.Y Y Y Y Y Y Y @.@.@.@.@.@.@.@.Y Y Y Y @.@.@.@.@.@.@.@.@.@.@.@.l l l l l l l l l l l l l l l l l l l l l l l @.@.@.@.@.@.@.@.@.@.@.l l l K R R R K @.E Y.5+7.m n g Y @.l l l l @.@.@.Y Y P P P E P Y Y @.Y Y @.@.@.@.@.@.@.@.@.@.@.@.@.@.@.@.@.@.@.@.@.Y Y Y Y Y Y Y Y Y Y Y Y Y @.@.@.@.@.@.@.l l K K K R R l l l l l l l K K l l l @.@.l l l l l l l l l l l l l @.@.@.@.@.@.@.@.@.@.@.@.@.@.@.@.Y @.@.l K R M N R @.h q ] K.=.D c h P @.K K l @.l l @.Y Y P P P P P Y Y Y P P Y Y Y @.@.@.@.@.@.@.@.@.@.@.@.@.@.@.@.@.l l l @.@.@.@.@.@.@.@.@.@.@.@.@.@.@.@.@.@.@.@.@.@.@.@.@.@.@.@.@.@.@.@.l l l l l l @.@.@.@.@.@.@.l l l l l l l l l l l l l l @.@.@.@.@.@.@.Y @.l l K R K N R M @.@.r -.3 l w d P Y l l l l l l l @.@.Y P P Y Y Y Y @.@.@.@.@.@.@.@.@.@.@.@.@.@.@.@.@.@.@.@.@.@.@.@.@.Y Y Y Y Y Y Y @.@.@.@.@.@.@.@.@.@.@.@.@.@.l K R R K l l K K K K K K K K l l l @.@.@.@.@.@.@.@.@.l l l l l l l l l l l l l l @.@.@.@.@.@.l l l K K R R N R l P c r d ",
"h Y @.@.Y @.l @.@.@.Y Y P P E P Y Y Y Y Y Y Y Y Y Y Y @.@.@.@.@.@.@.@.@.@.@.@.@.@.l l l @.@.@.@.Y Y Y Y Y Y @.@.@.@.@.@.@.@.@.Y Y Y Y @.@.@.@.@.@.@.@.Y Y @.@.@.l l l l l l l l l l l l l l l l l l l l l l @.@.@.@.@.@.@.@.@.@.@.l l l K K R R K @.E ,+2+7.a n e Y @.l l l l @.@.@.Y P P P P E P Y Y @.Y Y @.@.@.@.@.@.@.@.@.@.@.@.@.@.@.@.@.@.@.@.@.Y Y Y Y Y Y Y Y Y Y Y Y Y @.@.@.@.@.@.@.l l K K K R R l l l l l l l K K l l l @.@.l l l l l l l l l l l l l @.@.@.@.@.@.@.@.@.@.@.@.@.@.@.@.Y @.@.l K K M M R Y f q ] K.=.D c h P @.K K l @.l l @.Y P P P P P P Y Y Y P P Y Y Y @.@.@.@.@.@.@.@.@.@.@.@.@.@.@.@.@.l l l @.@.@.@.@.@.@.@.@.@.@.@.@.@.@.@.@.@.@.@.@.@.@.@.@.@.@.@.@.@.@.@.l l l l l l @.@.@.@.@.@.@.l l l l l l l l l l l l l l @.@.@.@.@.@.@.Y @.l l K R K N R M @.@.r -.3 l w d P Y l l l l l l l @.Y P P P P Y Y Y Y Y @.@.@.@.@.@.@.@.@.@.@.@.@.@.@.@.@.@.@.@.@.@.@.Y Y Y Y Y Y Y @.@.@.@.@.@.@.@.@.@.@.@.@.@.l K R R K l l K K K K K K K K l l l @.@.@.@.@.@.@.@.@.l l l l l l l l l l l l l l @.@.@.@.@.@.@.@.l l K K R M K l E n b c ",
"h P @.Y Y @.@.@.@.Y Y P P E E P Y Y Y P Y Y Y Y Y Y Y @.@.@.@.@.@.@.@.@.@.@.@.@.@.l l l @.@.@.@.@.@.@.@.@.@.@.@.@.@.@.@.@.@.@.Y Y Y Y @.@.@.@.@.@.@.@.Y Y Y @.@.@.@.l l l l l l l l l l l l l l l l l l l l @.@.@.@.@.@.@.@.@.@.@.l l l l K R K l @.h ,+2+' a r e Y @.l l l l @.@.@.Y P E E E E P Y Y @.Y Y @.@.@.@.@.@.@.@.@.@.@.@.@.@.@.@.@.@.@.@.@.@.@.@.@.@.@.@.@.@.@.@.@.@.@.@.@.@.@.@.@.@.l l l K K K l l l l l l K K K l l l @.@.l l l l l l l l l l l l l @.@.@.@.@.@.@.@.@.@.@.@.@.@.@.@.Y @.@.l K K M M K Y f q ] K.=.D c h P @.K K l @.l @.@.Y P E E E P P Y Y Y P P Y Y Y @.@.@.@.@.@.@.@.@.@.@.@.@.@.@.@.@.l l l @.@.@.@.@.@.@.@.@.@.@.@.@.@.@.@.@.@.@.@.@.@.@.@.@.@.@.@.@.@.@.@.l l l l l l @.@.@.@.@.@.@.@.l l l l l l l l l l l l @.@.@.@.@.@.@.@.@.@.l l K K K M K R @.Y q -.3 l w d P Y l l l l l l l Y Y P E E P P P P Y Y Y @.@.@.@.@.@.@.@.@.@.@.@.@.@.@.@.@.@.@.@.@.@.@.@.@.@.@.@.@.@.@.@.@.@.@.@.@.@.@.@.@.@.l K K K K K K l l l l l l l K K l l l @.@.@.@.@.@.@.@.@.l l l l l l l l l l l l l @.@.@.@.@.@.@.@.@.@.l K K K R l P g q m c ",
"h P Y Y Y Y @.@.@.Y P P E E E P P Y Y P Y Y Y Y Y Y Y @.@.@.@.@.@.@.@.Y Y Y Y Y Y l l l @.@.@.@.@.@.@.@.@.@.@.@.@.@.@.@.@.@.@.Y Y Y Y @.@.@.@.@.@.@.@.Y Y Y Y @.@.@.@.@.@.@.@.@.@.@.@.@.@.@.@.@.@.@.@.@.@.@.@.Y Y Y Y Y Y @.@.@.@.l l l l K K K l Y h ,+2+' a r e Y @.l l l l @.@.Y Y P E E E E P Y Y @.Y Y @.@.@.@.@.@.@.@.@.@.@.@.@.@.Y Y Y Y Y Y @.@.@.@.@.@.@.@.@.@.@.@.@.@.@.@.@.@.@.@.@.@.@.@.@.@.l l R R R R R R K K K l l l @.@.@.@.@.@.@.@.@.@.@.@.@.@.@.@.Y Y Y Y Y Y Y Y Y Y Y Y Y @.@.Y @.@.l K K M M K Y f b ] K.=.D c h P @.K K l @.l @.Y P P E E E P P Y Y Y P P Y Y Y @.@.@.@.@.@.@.@.@.@.@.Y Y Y Y Y Y @.l l @.@.@.@.@.@.@.@.@.@.@.@.@.@.@.@.@.@.Y Y Y Y Y Y @.@.@.@.@.@.@.@.@.@.@.@.@.@.@.Y Y Y Y Y Y @.@.@.@.@.@.@.@.@.@.@.@.@.@.Y Y Y Y Y Y @.l l l l l l l M K R @.Y q -.3 l w d P Y l l l l l l l Y Y P E E P P P P Y Y Y Y Y @.@.@.@.@.@.@.@.@.@.@.@.@.@.Y Y Y Y Y Y @.@.@.@.@.@.@.@.@.@.@.@.@.@.@.@.@.@.@.@.l K K l l K K K l l l l l l K K l l l @.@.Y Y Y Y Y Y @.@.@.@.@.@.@.@.@.@.@.@.@.@.@.Y Y Y Y Y Y @.@.@.l l K K M l P g q q e ",
"h Y l l l @.l l @.Y P P E E E E E P P P Y @.@.@.@.@.@.Y Y Y Y Y Y Y @.@.@.@.@.@.@.@.@.@.@.Y Y Y Y Y @.@.@.@.@.@.@.@.@.@.@.@.@.@.@.@.@.@.@.@.l l l @.@.Y Y Y Y Y Y Y @.@.@.@.@.@.@.@.@.@.@.@.@.@.@.@.@.@.@.@.@.@.@.@.@.@.@.@.@.Y Y Y @.@.l K R R K l E ,+V.' a n e P @.@.@.@.l l l @.P E E E h h P P P Y Y Y @.@.@.@.@.@.@.@.@.@.@.@.@.@.@.@.@.@.@.@.@.l @.@.@.@.l @.Y Y Y Y Y Y @.@.@.@.@.@.@.Y @.@.l l l @.K K K K K K K l l l @.@.@.@.@.@.@.@.@.@.@.@.@.@.@.@.@.@.@.@.@.@.@.@.@.@.@.@.@.@.@.@.@.@.@.l l K K M M K Y f b ] 9 C y n f E Y @.l @.@.@.@.Y Y P E E E E P P P Y Y Y @.@.@.@.@.@.@.@.@.@.@.@.@.@.@.@.@.@.@.@.l l l l @.@.@.Y Y Y Y Y Y Y @.@.@.@.@.@.@.@.@.@.@.@.@.@.l l l l l l @.Y Y Y Y Y Y @.@.@.@.@.@.@.@.@.@.@.@.@.@.@.@.@.@.@.@.@.@.@.@.@.@.@.@.@.@.@.@.@.@.l K R K Y Y b -.0 l D d h P @.@.@.@.@.@.@.Y P E E E E E P P Y Y Y Y @.Y Y @.@.@.@.@.Y @.@.l l l @.Y Y Y Y Y Y @.@.@.@.@.@.@.Y Y Y Y Y Y Y Y Y Y Y Y Y @.K K K K K K l l l l l l l l l @.@.@.@.@.@.@.@.@.@.@.@.@.@.@.@.@.@.@.@.@.@.@.@.@.@.@.@.@.Y Y Y @.@.@.@.l K R M K @.f q m c ",
"h Y l l l l K l l Y P P E E E E E E P P Y Y Y Y Y Y Y Y Y Y Y Y Y Y @.@.@.@.@.@.@.@.@.@.Y Y Y Y Y Y Y @.@.@.@.Y Y Y Y Y Y Y Y Y Y Y Y Y Y @.@.l l @.Y Y Y Y Y Y Y Y @.@.@.@.@.@.@.@.@.@.@.@.@.@.@.@.@.@.@.@.@.@.@.@.@.@.@.@.@.Y Y Y @.@.l K R R K l P ,+V.' a n e E @.@.@.@.l l l l P E E E h h E P P P Y Y Y Y Y Y Y Y Y @.@.@.@.@.@.@.@.@.@.@.@.@.@.l @.Y Y @.@.@.Y Y Y Y Y Y Y Y Y Y Y Y Y Y Y @.l l l @.l l l l l l l l l @.@.@.@.@.@.@.@.@.@.@.@.@.@.@.@.@.@.@.@.@.@.@.@.@.@.@.@.@.@.@.@.@.@.@.@.@.l K K M M K Y f m ] U.y C r g E Y Y @.@.@.@.@.Y Y P E E E E E P P P Y Y Y Y Y Y Y Y Y @.@.@.@.@.@.@.@.@.@.@.@.@.l @.@.@.@.Y Y Y Y Y Y Y Y Y Y Y Y Y Y Y Y Y Y Y Y Y Y Y @.@.@.@.@.@.@.Y Y Y Y Y Y @.@.@.@.@.@.@.@.@.@.@.@.@.@.@.@.@.@.@.@.@.@.@.@.@.@.@.@.@.Y Y Y Y @.l l R K Y Y b -.h.@.D d f P @.@.@.@.@.@.@.Y P E h E E E P P Y Y Y Y Y Y Y Y @.@.@.Y Y @.@.@.l l @.Y Y Y Y Y Y Y Y Y Y Y Y Y Y Y Y Y Y Y Y Y Y Y Y Y Y Y @.l l l l @.l l l l l l l @.@.@.@.@.@.@.@.@.@.@.@.@.@.@.@.@.@.@.@.@.@.@.@.@.@.@.@.@.@.@.Y Y Y @.@.@.@.l K R R K @.f b a n ",
"h Y @.l l l K l @.Y P P E E E E E E P P Y Y Y Y Y Y Y Y Y Y Y Y Y Y @.@.@.@.@.@.@.@.@.Y Y Y Y Y Y Y Y Y @.@.@.Y Y Y Y Y Y Y Y Y Y Y Y Y P Y Y @.Y Y P @.@.@.@.@.@.@.@.@.@.@.@.@.@.@.@.@.@.@.@.@.@.@.@.@.@.@.@.@.@.@.@.@.@.@.@.Y Y Y @.@.l K K R K @.E ,+V.' a n e E @.@.@.@.l l l l P E P P E E E E P P P P Y Y Y Y Y Y Y @.@.@.@.@.@.@.@.@.@.@.@.@.@.Y Y P P Y Y Y Y Y Y Y Y Y Y Y Y Y Y Y Y Y Y @.@.l @.@.l l l l l l l l @.@.@.@.Y Y @.@.@.@.@.@.@.@.@.@.@.@.@.@.@.@.@.@.@.@.@.@.@.@.@.@.@.@.@.Y Y @.l l K R R K P g m ] U.y C r g E Y Y @.@.@.@.@.Y Y P E E E E E E P P P P Y Y Y Y Y Y Y @.@.@.@.@.@.@.@.@.@.@.@.@.@.Y Y Y Y P P Y Y Y Y Y Y Y Y Y Y Y Y Y Y Y Y Y Y Y Y Y Y Y Y Y Y Y Y @.@.@.@.@.@.@.@.@.@.@.@.@.@.@.@.@.@.@.@.@.@.@.@.@.@.@.@.@.@.@.@.@.@.@.Y Y Y Y @.l l R K Y Y b -.h.@.D d f P @.@.@.@.@.@.@.Y P E h E E E P P P Y Y Y Y Y Y Y Y @.@.Y Y @.@.@.@.l Y Y Y Y Y Y Y Y Y Y Y Y Y Y Y Y Y Y Y Y Y Y Y Y Y Y Y Y Y @.@.@.@.Y @.l l l l l l @.@.@.@.@.@.@.@.@.@.@.@.@.@.@.@.@.@.@.@.@.@.@.@.@.@.@.@.@.@.@.Y Y Y @.@.@.@.@.K R K l Y f q m c ",
"f P @.l @.l l l @.Y P P E E E E E E P P Y Y Y Y Y Y Y Y Y Y Y Y Y Y @.@.@.@.@.@.@.@.Y Y Y Y P P P P Y Y Y Y Y Y Y Y Y Y Y Y Y Y Y Y Y Y P P Y Y Y P P @.@.@.@.@.@.@.@.@.@.@.@.@.@.@.@.@.@.@.@.@.@.@.@.@.@.@.@.@.@.@.@.@.@.@.@.Y Y Y @.@.l l K K l @.E ,+V.' a n e E @.@.@.@.l l l @.P E P P E E E E E P P P Y Y Y Y Y Y Y Y Y Y Y Y Y Y @.@.@.@.@.@.Y P P E E P P Y Y Y Y Y Y Y Y Y Y Y Y Y Y P Y @.@.@.@.@.@.@.@.@.@.@.@.@.@.@.@.Y Y Y @.@.@.@.@.@.@.@.@.@.@.@.@.@.@.@.@.@.@.@.@.@.@.@.@.@.@.@.Y Y Y @.l l l R R l P g m ] U.y x r g E Y Y @.@.@.@.@.Y P P E E E E E E E P P P Y Y Y Y Y Y Y Y Y Y Y Y Y Y @.@.@.@.@.@.Y Y P P P E E Y Y Y Y Y Y Y Y Y Y Y Y Y Y Y Y Y Y Y Y Y Y Y Y Y Y Y Y @.@.@.@.@.@.@.@.@.@.@.@.@.@.@.@.@.@.@.@.@.@.@.@.@.@.@.@.@.@.@.@.@.@.@.Y Y Y Y @.l l R K Y Y b -.h.@.D d f P @.@.@.@.@.@.@.Y P E h E E E E P P P Y Y Y P P Y Y Y Y Y Y @.@.@.@.@.Y Y Y Y Y Y Y Y Y Y Y Y Y Y Y Y Y Y Y Y Y Y Y Y Y Y Y Y @.@.@.@.@.@.@.@.@.@.@.@.@.@.@.@.@.@.@.@.@.@.@.@.@.@.@.@.@.@.@.@.@.@.@.@.@.@.@.@.@.@.@.@.Y Y Y Y @.Y Y @.K K l @.Y f q m c ",
"f P @.@.@.@.l l @.Y P P E E E E E E P P P Y Y Y Y Y Y Y Y Y Y Y Y Y Y Y Y Y Y Y Y Y Y Y P P P P P P P P Y Y Y Y Y Y Y Y Y Y Y Y Y Y Y Y P P Y Y Y Y P @.@.@.@.@.@.@.Y Y Y Y Y Y Y Y Y Y Y Y Y Y Y Y Y Y Y Y Y Y Y Y Y Y Y @.@.Y Y Y @.@.@.l K K l @.E ,+V.' a n e E @.@.@.@.l l l @.E E P P E h h E E E E P P Y Y Y Y Y Y Y Y Y Y Y Y Y Y Y Y Y Y Y Y P P E E P P Y Y Y Y Y Y Y Y Y Y Y Y Y Y P P Y @.@.@.Y @.@.@.@.@.@.@.@.@.Y Y Y Y Y Y Y Y Y Y Y Y Y Y Y Y Y Y Y Y Y Y Y Y Y Y Y Y Y Y Y Y Y Y Y Y Y @.l l K R l P g m ] U.y C r g E Y Y @.@.@.@.@.Y P P E E E h h E E E E P Y Y Y Y Y Y Y Y Y Y Y Y Y Y Y Y Y Y Y Y Y P P P E E E Y Y Y Y Y Y Y Y Y Y Y Y Y Y Y Y Y Y Y Y Y Y Y Y Y Y Y Y @.@.@.@.@.@.@.@.@.@.@.@.@.Y Y Y Y Y Y Y Y Y Y Y Y Y Y Y Y Y Y Y Y Y @.Y Y Y Y @.l l R K Y Y b -.h.@.D d f P @.@.@.@.@.@.@.Y P E h E E E E E E P P P P P P P Y Y Y @.@.Y Y Y Y Y Y Y Y Y Y Y Y Y Y Y Y Y Y Y Y Y Y Y Y Y Y Y Y Y Y Y Y Y @.l l l l @.@.@.@.@.@.@.@.Y Y Y Y Y Y Y @.@.@.@.@.@.@.@.@.@.@.@.@.@.Y Y Y Y Y Y Y @.@.@.Y Y Y Y Y Y Y @.l K K @.Y f q m c ",
"f P Y @.@.@.l l l Y P P E E E E E E P P P P P P P P P Y Y Y Y Y Y Y Y Y Y Y Y Y Y Y Y P P P E E E P P P P Y Y P P P P P P P P P P P P P P Y @.l @.@.Y Y Y Y Y Y Y Y Y Y Y Y Y Y Y Y Y Y Y Y Y Y Y Y Y Y Y Y Y Y Y Y Y Y Y @.@.Y Y Y @.@.@.l l K l Y h ,+V.' a n e E @.@.@.@.l l l Y E E P P P h h h E E E E P P P P P P P @.@.@.@.@.@.@.Y Y Y Y Y Y Y Y P P P P Y Y Y Y Y Y Y Y P P P P P P P E P Y @.@.Y Y @.@.@.@.@.@.@.Y Y Y Y P P P Y Y Y Y Y Y Y Y Y Y Y Y Y Y Y Y Y Y Y Y Y Y Y Y Y Y Y Y P P P Y @.@.l K K l E e a ] U.y C r g E Y Y @.@.@.@.@.Y Y P E E E h h h E E E E P P P P P P Y @.@.@.@.@.@.@.Y Y Y Y Y Y Y Y Y P P P P Y Y Y Y Y Y Y P P P P P P P P P P P P P Y @.@.@.@.@.@.@.Y Y Y Y Y Y @.@.@.@.@.@.@.Y Y Y Y Y Y Y Y Y Y Y Y Y Y Y Y Y Y Y Y Y @.Y Y Y Y @.l l R K Y Y b -.h.@.D d f P @.@.@.@.@.@.@.Y P E h E E E E E E E P P P E P P P Y Y @.@.Y Y Y P P Y Y Y Y Y Y Y P P P P P P P Y Y Y Y Y Y Y Y Y Y Y Y Y Y @.@.@.@.@.@.@.@.@.@.@.@.@.Y Y Y Y Y Y Y @.@.@.@.@.@.@.@.@.@.@.@.@.@.Y Y Y Y Y Y Y @.@.@.Y Y Y Y Y P Y Y l K K K @.f b a c ",
"g P Y @.Y @.@.l l Y P P E E E E E E P P P P P P P P P Y Y Y Y Y Y Y Y Y Y Y Y Y Y Y P P P E E E E E P P P P Y P P P P P P P P P P P P P Y @.l l l @.@.Y Y Y Y Y Y Y Y Y Y Y Y Y Y Y Y Y Y Y Y Y Y Y Y Y Y Y Y Y Y Y Y Y Y @.@.Y Y Y @.@.@.@.l l @.Y h ,+V.' a n e E @.@.@.@.l l l Y E E P Y P E h h h E E E P P P P P P P @.@.@.@.@.@.@.Y Y Y Y Y Y Y Y Y P P Y Y Y Y Y Y Y Y Y P P P P P P P E P Y Y Y Y Y Y Y Y Y Y Y Y Y Y Y Y P P P Y Y Y Y Y Y Y Y Y Y Y Y Y Y Y Y Y Y Y Y Y Y Y Y Y Y Y Y P P P Y Y @.@.K K l E e a ] U.y C r g E Y Y @.@.@.@.@.Y Y P E E E h h h E E E E P P P P P P Y @.@.@.@.@.@.@.Y Y Y Y Y Y Y Y Y Y P P P Y Y Y Y Y Y Y P P P P P P P P P P P P P Y @.@.@.@.@.@.@.Y Y Y Y Y Y @.@.@.@.@.@.@.Y Y Y Y Y Y Y Y Y Y Y Y Y Y Y Y Y Y Y Y Y @.Y Y Y Y @.l l R K Y Y b -.h.@.D d f P @.@.@.@.@.@.@.Y P E h E E E E E E E P P P E E P P P Y @.@.Y Y P P P Y Y Y Y Y Y Y P P P P P P P Y Y Y Y Y Y Y Y Y Y Y Y Y Y P Y Y Y Y P Y Y Y Y Y Y Y Y Y Y Y Y Y Y @.@.@.@.@.@.@.@.@.@.@.@.@.@.Y Y Y Y Y Y Y @.@.@.Y Y Y Y P P P Y l l R K @.f b a r ",
"g E Y Y Y Y @.@.Y P h h h h h h h E E E E E E E E E E E E E E E E E P P P P P P P E E E E E E E P P P P P P P E E E E E E E E P P P P Y Y Y Y @.@.@.@.Y Y Y Y Y Y Y @.@.@.@.@.@.@.@.@.@.@.@.@.@.@.@.@.@.@.@.@.@.@.@.@.@.@.@.@.@.@.@.@.@.l l K R K Y f ,+2+' a r d E P Y Y @.Y Y @.Y E g f h P E h h h E E E E E E E E E E E E E E P P P P P P P P P P P P E E E E P P P P P P P E E E E E E E P Y Y Y @.@.@.@.l l l l @.@.@.@.@.@.@.@.@.@.@.@.@.@.@.@.@.@.@.@.@.@.@.@.@.@.@.@.@.@.@.@.@.@.@.@.Y Y Y Y @.@.@.@.K K l E e m ] K.y x r d h Y l P P @.Y @.Y P h f f f h h h E E E E E E E E E E E E E E E E E P P P P P P P P E E E E E E Y Y Y Y Y Y Y E E E E E E E P P Y Y Y P P P P Y Y Y Y Y @.@.@.@.@.@.@.@.@.@.@.@.@.@.@.@.@.@.@.@.Y Y Y Y Y Y Y Y Y Y Y Y Y Y @.@.@.@.@.@.l K @.M @.E m !.0 @.C c f E Y Y Y Y Y Y Y E E E E E E E E E E E E E E E E E E E E P P P P P P P Y Y Y Y Y Y Y E E E E E E E P P P P P P P h h h h h h E Y Y Y Y @.@.@.@.@.@.@.Y Y @.@.@.@.@.@.@.@.@.@.@.@.@.@.@.@.@.@.@.@.@.@.@.@.@.@.@.@.@.@.@.@.@.@.Y Y P Y Y l K M R Y d q c E ",
"g E P Y Y Y @.@.Y E h h h h h h h E E E E E E E E E E E E E E E E E P P P P P P P E E E E E E E P P P P P P P E E E E E E E E P P P P Y Y Y Y Y @.@.@.Y Y Y Y Y Y Y Y Y Y Y Y Y Y Y Y Y Y Y Y Y Y Y Y Y Y Y Y Y Y Y Y Y Y Y Y Y Y Y Y Y l l K R K @.f ,+2+7.a r d E E Y Y @.Y Y Y Y h g g h E E h h h E E E E E E E E E E E E E E P P P P P P P P P P P P E E E E P P P P P P P E E E E E E E P P P P Y Y Y Y Y @.@.@.@.Y Y Y Y Y Y Y Y Y Y Y Y Y Y Y Y Y Y Y Y Y Y Y Y Y Y Y Y Y Y Y Y Y Y Y Y Y Y @.@.@.@.@.K K l E e m ] L.y x r d h Y l P P Y Y @.Y E h f f f h h h E E E E E E E E E E E E E E E E E E P P P P P P E E E E E E E P P P P P P P E E E E E E E E E P P P E E P P Y Y Y Y Y Y Y Y Y Y Y Y Y Y Y Y Y Y Y Y Y Y Y Y Y Y Y Y Y Y Y Y Y Y Y Y Y Y Y @.@.@.@.@.@.l K @.M @.h m !.0 @.C c h E Y Y Y Y Y Y Y E E E E E E E E E E E E E E E E E E E E P P P P P P P Y Y Y Y Y Y Y E E E E E E E P P P P P P P E E E E E E E P P P Y Y Y @.@.@.@.Y Y Y Y Y Y Y Y Y Y Y Y Y Y Y Y Y Y Y Y Y Y Y Y Y Y Y Y Y Y Y Y Y Y Y Y Y Y Y P Y Y l K R K P d b n h ",
"g E P Y Y Y @.@.Y E h h h h h h h E E E E E E E E E E E E E E E E E P P P P P P P E E E E E E E P P P P P P E E E E E E E E E P P P P Y Y Y Y Y Y @.@.@.@.@.@.@.@.@.Y Y Y Y Y Y Y Y Y Y Y Y Y Y Y Y Y Y Y Y Y Y Y Y Y Y Y Y Y Y Y Y Y Y l l l R K Y f ,+2+7.a r d E E Y Y @.Y Y Y P h f g h E E h h h E E E E E E E E E E E E E E P P P P P P P P P P P P E E E E E P P P P P P E E E E E E E E E E E E P P E E P Y @.@.Y Y Y Y Y Y Y Y Y Y Y Y Y Y Y Y Y Y Y Y Y Y Y Y Y Y Y Y Y Y Y Y Y Y Y Y Y Y @.@.@.@.@.K K l E e m ] L.y x r d h Y l P P Y Y Y Y E h f f f h h h E E E E E E E E E E E E E E E E E E P P P P P P E E E E E E E E E E E E E E E E E E E E E h E E E E E E P P Y Y Y Y Y Y Y Y Y Y Y Y Y Y Y Y Y Y Y Y Y Y Y Y Y Y Y Y Y Y Y Y Y Y Y Y Y Y Y @.@.@.@.@.@.@.K @.M @.h m !.0 @.C c f h Y Y Y Y Y Y Y E E E E E E E E E E E E E E E E E E E E E P P P P P P P P P P P P P E E E E E E E P P P P P P E E E E E E E E E E E E P P Y @.@.Y Y Y Y Y Y Y Y Y Y Y Y Y Y Y Y Y Y Y Y Y Y Y Y Y Y Y Y Y Y Y Y Y Y Y Y Y Y Y Y P Y Y l K l l Y d b q c ",
"g E P Y Y Y @.@.Y E h h h h h h h E E E E E E E E E E E E E E E E E P P P P P P P E E E E E E E E E E E E E E E E E E E E E E P P P P Y P P Y Y Y Y Y @.@.@.@.@.@.@.Y Y Y Y Y Y Y Y Y Y Y Y Y Y Y Y Y Y Y Y Y Y Y Y Y Y Y Y Y Y Y Y Y Y @.l l K l Y g ,+2+7.a r d E E Y Y @.Y Y Y P h h f h E h h h h E E E E E E E E E E E E E E P P P P P P P P P P P P E E E E E E E E E E E E E E E E E E h h h h E E E f h E Y Y Y Y Y Y Y Y Y Y Y Y Y Y Y Y Y Y Y Y Y Y Y Y Y Y Y Y Y Y Y Y Y Y Y Y Y Y Y Y Y @.@.@.@.@.K K l E e m ] L.y x r d h Y l P P Y Y Y P E h h f h h h h E E E E E E E E E E E E E E E E E E P P P P P P E E E E E E E h h h h h h h E E E E E E E h h E E E h E P P Y Y Y Y Y Y Y Y Y Y Y Y Y Y Y Y Y Y Y Y Y Y Y Y Y Y Y Y Y Y Y Y Y Y Y Y Y Y Y Y Y Y Y Y Y @.K @.M @.h m !.3 l C c f h Y Y Y Y Y Y Y h h h h h h h E E E E E E E E E E E E E E E E E E E E P P P P P P P E E E E E E E E E E E E E E E E E E E E h h h h E E E Y Y Y Y Y P P Y Y Y Y Y Y Y Y Y Y Y Y Y Y Y Y Y Y Y Y Y Y Y Y Y Y Y Y Y Y Y Y Y Y Y Y P Y Y l K @.@.Y e b m r ",
"g E P Y Y Y @.@.Y E h h h h h h h E E E E E E E E E E E E E E E E E P P P P P P P E E E E E E E E E E E E E E E E E E E E E E P P P P Y P P P P Y Y Y Y Y Y Y Y Y Y P P P P P P P P P P P P P P P P P P P P P P P P P P P P P P P P P P @.@.l K l Y g ,+2+7.a r d E E Y Y @.Y Y Y P E h h h h h h h h E E E E E E E E E E E E E E P P P P P P P P P P P P E E E E E E E E E E E E E E E E E E h h h h h E E h E E Y Y Y P P P P P P P P P P P P P P P P P P P P P P P P P P P P P P P P P P P Y Y Y @.@.@.@.@.K K l E e m ] L.y x r d h Y l P P Y Y P E E h h h h h h h E E E E E E E E E E E E E E E E E E P P P P P P E E E E E E E h h h h h h h E E E E E E E h E E E E E E P P Y Y Y Y Y P P P P P P P P P P P P P P P P P P P P Y Y Y Y Y Y Y Y Y Y Y Y Y Y @.@.@.@.@.@.@.K @.M @.h m -.3 l C n g f Y Y Y Y Y Y Y E E E E E E E E E E E E E E E E E E E E E E E E E E E P P P P P P P E E E E E E E E E E E E E E P P P P P P E h h h h E E P Y Y P P P P P P P P P P P P P P P P P P P P P P P P P P P P P P P P P P P P P P Y Y P Y Y l K @.@.Y e b b n ",
"g E P Y Y Y @.@.Y E h h h h h h h E E E E E E E E E E E E E E E E E P P P P P P P E E E E E E E E E E E E E E E E E E E E E E P P P P Y P E P P P Y Y P P P P P P P P P P P P P P P P P P P P P P P P P P P P P P P P P P P P P P P P P @.@.@.K l Y e ,+2+7.a r d E E Y Y @.Y Y P E E h h h h h h h h E E E E E E E E E E E E E E P P P P P P P P P P P P E E E E E E E E E E E E E E E E E E h h E E E P P P P Y Y Y P P P P P P P P P P P P P P P P P P P P P P P P P P P P P P P P P P P P Y Y Y @.@.@.@.@.K K l E e m ] L.y x r d h Y l P P Y Y P E h h h h E h h h E E E E E E E E E E E E E E E E E E P P P P P P E E E E E E E E E E E E E E E E E E E E E E E P P P E E P P Y Y Y Y Y P P P P P P P P P P P P P P P P P P P P Y Y Y Y Y Y Y Y Y Y Y Y Y Y @.@.@.@.@.@.l K @.M @.h m -.2 l C n g f P Y Y Y Y Y Y E E E E E E E E E E E E E E E E E E E E E E E E E E E E E E E E E E E E E E E E E E E E E E E E P P P P P P E h E E E E P Y Y P P P P E P P P P P P P P P P P P P P P P P P P P P P P P P P P P P P P P P P Y Y P Y Y l K @.@.P e q q d ",
"g h P Y Y Y @.@.P E h h h h h h h E E E E E E E E E E E E E E E E E P P P P P P P E E E E E E E h h h h h h h E E E E E E E E P P P P Y P E E P P P Y E E E E E E E P P P P P P P P P P P P P P P P P P P P P P P P P P P P P P P P P P @.@.@.l l P e ,+2+7.a r d E E Y Y @.Y Y P E E E h h h h h h h E E E E E E E E E E E E E E P P P P P P P P P P P P E E E E E h h h h h h E E E E E E E E E E E E P P Y Y Y Y Y P P P P P P P P P P P P P P P P P P P P P P P P P P P P P P P P P P P P Y Y Y @.@.@.@.@.l K l E e m ] L.y x r d f Y l P P Y Y P E h h h h E h h h E E E E E E E E E E E E E E E E E E P P P P P P E E E E E E E E E E E E E E E E E E E E E P P P Y P P P P P Y Y Y Y Y P P P P P P P P P P P P P P P P P P P P Y Y Y Y Y Y Y Y Y Y Y Y Y Y @.@.@.@.@.@.@.K Y M @.h m >.2 l y n g f P Y Y Y Y Y Y E E E E E E E E E E E E E E E E E E E E E h h h h h h E E E E E E E E E E E E E E h h h h h h E P P P P P P E E E E E P P Y P P P P E E P P P P P P P P P P P P P P P P P P P P P P P P P P P P P P P P P P P Y P Y Y l K @.@.P e q r e ",
"e f h P P P P P P P E E h h h E E E P P P P P P P P P P E E h E E P E E E E E E E Y Y Y Y P P E f h E E E E h E E E E E E E h E E E P P Y Y Y Y Y Y Y @.@.Y P P P Y P P P P P P P P P P P P P P Y P P P P E P P P P P P P E E h h E P Y @.@.l @.Y P f ,+2+' a q c f E P Y P P P P P E E h h f h E h f f h P E E E E E P P h h E E E P P E E E E E E P Y P P P P E E E E E E E E E E E E E E E h h h h h h h Y Y Y Y Y Y Y P P P P P P P P P P P P P P P P P P P P Y P P E E P Y P P P P P P P E E E P P Y @.K @.@.Y E e b ] K.6.w b d g h Y Y Y Y Y P E E h f g g h E E E E P P E E h h h E E E E E E E E E h E E E E P P P E E Y P E E E E E E E E E E E E E E E E E E E E E E P P Y Y Y Y Y @.Y P P P Y P P P P P P P P P P P P P P @.@.@.@.@.@.Y P P P P P P P E P Y Y @.@.P R Y Y Y E b >.0 Y w c g E E E P P P Y Y h h f g g f f h h h h h h E E E E E E E E E P P P P Y Y Y Y Y Y Y Y P P P P P P P E E E E E E E E E E E E E E E E E E E E E P P Y Y P E E E E E E E E P P P P P P P @.@.@.@.@.@.Y E E E E E E E E P P P E h f h E Y @.l l l @.@.h q m n ",
"g f h E P P P P P E E E h h h h h h E E E E E E E E E P P E E E P P P P P P P P P P P P P E E E f h h E E h E E E E E E E E E E E P P P Y Y Y Y Y Y Y @.@.Y P P P Y P P P P P P P P P P P P P P Y P P P P E P P P P P P P E E E E E P Y @.@.l @.Y P f ,+2+' s q c f f E P E E E P P E E h h f h E E h f h P h h h h h E E h h E E E E P P P P P P P P P E E E E h E E E E E E E E E E E E E E E E E E E E E Y Y Y Y Y Y Y P P P P P P P P P P P P P P P P P P P P P E E h h E E P P P P P P P E E E P Y Y @.K @.@.Y E e b ] K.6.w b d g h P P P E P E E E h f f g h h h h h E E E E h h h E E E E E E E E E E E E E P P P E h h P E h E E E E E E E E E E E E E E E E E E E E P P P Y Y Y Y @.@.Y P P P Y P P P P P P P P P P P P P P Y Y Y Y Y Y Y P P P P P P E h E E P Y Y Y R Y Y Y h b >.0 Y w c g E E E P P P Y Y h h f g g f f E E E E E E E E E E E E E E h E E E E P P P P P P P P E E E E E E E E E E E E E E E E E E E E E E E E E E E E P P Y Y P P E E E E E E E P P P P P P P Y Y Y Y Y Y P E E E E E E E P P P P E h h h E Y @.l l l @.Y f q b d ",
"h h E E E E E E E E E E E h h h E E E P P P P P P P P P Y P P P P Y Y @.@.@.@.@.Y Y P P P P E E h E P P P E E P P P P P P P P P P Y Y Y Y Y Y Y Y Y Y @.@.Y P P P Y Y Y Y Y Y Y Y Y Y Y Y Y Y Y Y P P P P E P Y Y Y Y Y Y P E E E P P Y @.@.l @.Y P f ,+2+' s q c f f E P E h E P P E E h h f h E E h h E Y h h E E E E P E P P P P Y Y @.@.@.@.@.@.Y P P P E E E E P P P P P P P P P P P P P P Y Y Y Y Y Y Y Y Y Y Y Y Y Y Y Y Y Y Y Y Y Y Y Y Y Y Y Y Y Y Y Y Y P E E E E E E P Y Y Y Y Y P P P P P Y @.l K @.@.Y E e b ] K.6.w b d g h P P h h h E E E h h h f f h E E E E P P E E E E P P P P P P P P P P P P Y Y Y Y P E E P P E P P P P P P P P P P P P P P P P P P P P P Y Y Y Y @.@.@.@.Y P P P Y Y Y Y Y Y Y Y P P P P P P P P P P P P P P Y Y Y Y Y Y P E E E P Y Y Y M @.Y Y f m >.0 Y w c g E E E P P P Y Y E h f f f f h P P P P P P P P P P P P P E E E P P P P P P P P P P P P P P P P P P P P P P P P P P P P P P P P P P P P P P P P Y Y Y Y P P P P P P P P P Y Y Y Y Y P P P P P P P P P P P P P P P P P P P E h h h P @.@.l l l Y E e q q f ",
"h h E E E h h E E E E E E E E P P P Y Y Y Y Y Y Y Y Y @.Y Y P P Y Y l l l l l l l @.@.Y Y Y P P P Y @.@.@.Y Y Y Y Y Y Y Y P P Y Y Y Y @.@.@.@.@.@.@.@.@.@.Y P P P Y Y Y Y Y Y Y Y Y Y Y Y Y Y Y Y P P P P E P Y Y Y Y Y Y P P E E P Y @.@.@.l @.Y P f ,+2+' s q c f h P Y P E P P P E E h h f h E P E E E Y P E P P P Y Y Y Y @.@.@.@.@.l l l l l l @.Y Y Y Y P P P Y Y Y Y Y Y Y Y Y Y Y Y Y @.@.@.@.@.@.@.@.@.@.@.@.@.@.Y Y Y Y Y Y Y Y Y Y Y Y Y Y Y Y Y Y Y Y Y P P P P P Y Y Y Y Y Y Y Y P P P P Y @.l K @.@.Y E e b ] K.6.w b d g h P P h f h E E E E h h h E P P P P Y Y Y P P P P Y Y Y Y Y Y Y Y P P P Y Y Y @.@.Y P Y @.@.Y Y Y Y Y Y Y Y Y Y Y Y Y Y Y Y Y Y Y Y Y Y Y Y Y @.@.@.@.@.Y P P P Y Y Y Y Y Y Y Y P P P P P P P P P P P P P P Y Y Y Y Y Y Y P P Y Y @.@.@.M @.Y P f a >.0 Y w c g E E E P P P Y Y E h h f f h h P P P P P P P Y Y Y Y Y Y P P P Y Y Y Y @.@.@.@.@.@.@.Y Y Y Y Y Y Y Y Y Y Y Y Y Y Y Y Y Y Y Y Y Y Y Y Y Y Y P P Y @.Y Y P P P P P P P P Y Y Y Y Y Y Y P P P P P P P P P P P P P P P Y Y Y P E E E Y @.l l l l Y h d b r E ",
"f f E E E E E E E E E P P P Y Y @.@.@.l l l l l l l l @.@.Y Y Y Y @.l l l l l l l l l @.@.@.@.@.Y @.l l l l @.@.@.@.@.@.@.Y Y Y @.@.@.@.@.@.@.@.@.@.@.@.@.Y P P P Y Y Y Y Y Y Y Y Y Y Y Y Y Y Y Y P P P P E P Y Y Y Y Y Y P P P P P Y @.@.@.l @.Y P f ,+2+' s q c f E Y Y P P P Y P E E h h f f E Y Y P P Y Y Y @.@.@.@.l @.l l l K K K l l l l l l l l l l l @.@.@.@.@.@.@.@.@.@.@.@.@.@.@.@.@.@.@.@.@.@.@.@.@.@.@.@.@.@.Y Y Y Y Y Y Y Y Y Y Y Y Y Y Y Y Y Y Y Y @.@.Y Y Y Y @.Y Y Y Y Y Y Y Y P P Y @.l l K @.@.Y E e b ] K.6.w b d g h P P h h E E E E E E E E Y Y @.@.@.l l @.Y P P Y Y @.@.@.@.@.@.@.Y Y Y @.@.@.@.l l @.@.l l @.@.@.@.@.@.@.@.@.@.@.@.@.@.@.@.@.@.@.@.@.@.Y Y @.@.@.l @.@.Y P P P Y Y Y Y Y Y Y Y P P P P P P P P P P P P P P Y Y Y Y Y Y Y Y Y @.l l l @.M @.Y Y h m >.0 Y w c g E E E P P P Y Y P E h f h h E Y Y Y Y Y Y Y @.@.@.@.@.@.@.@.@.l l l l l K K K K K K l l l l l l l @.@.@.@.@.@.@.@.@.@.@.@.@.@.@.@.@.@.@.@.Y Y @.@.@.Y Y Y Y Y Y Y Y Y Y Y Y Y Y Y Y P P P P P P P Y Y Y Y Y Y Y Y Y Y Y P E P Y Y @.l l l l Y h d b r E ",
"g f h P P P P h h E E P P P Y Y @.@.@.@.@.@.@.@.@.@.@.l @.@.@.@.@.l l l l l l l l @.@.@.@.Y Y Y P P @.@.@.@.Y @.@.@.@.@.@.@.@.@.@.@.l l @.@.@.@.@.@.@.@.@.Y P P P Y Y Y Y Y Y Y Y Y Y Y Y Y Y Y Y P P P P E P Y Y Y Y Y Y Y P P P Y @.@.@.@.l @.Y P f ,+2+' s q c f h P Y P E P P P E E h h f f E Y @.Y P P Y Y Y @.@.@.@.Y Y @.@.@.l l l l l l l l l l l l @.@.@.@.@.@.@.@.@.@.@.@.@.@.@.@.@.@.@.@.@.@.@.@.@.@.@.@.@.@.@.Y Y Y Y Y Y Y Y Y Y Y Y Y Y Y Y Y Y Y Y @.Y Y P P Y @.Y Y Y Y Y Y Y Y Y Y Y @.l K K @.@.Y E e b ] K.6.w b d g h P Y P P Y E E E E E P P Y Y Y @.@.@.@.@.@.Y Y Y @.@.@.@.@.@.@.@.@.@.@.@.@.l l l @.Y @.l l @.@.@.@.@.@.@.@.@.@.@.@.@.@.@.@.@.@.@.@.@.@.@.@.@.@.l l l @.Y P P P Y Y Y Y Y Y Y Y P P P P P P P Y Y Y Y Y Y Y Y Y Y Y Y Y Y P Y Y @.@.l Y R Y Y Y E b >.0 Y w c g E E E P P P Y Y P E h h h h E Y Y Y Y Y Y Y @.@.@.@.@.@.@.@.@.@.l l l l l l l l l l @.@.@.@.@.@.@.@.@.@.@.@.@.@.@.@.@.@.@.@.@.@.@.@.@.@.@.Y Y @.@.@.@.Y Y Y Y Y Y Y Y Y Y Y Y Y Y Y Y Y Y Y Y Y Y Y Y Y Y Y Y Y Y Y @.Y Y P P Y @.l l l l l Y E e b q f ",
"e g h P P P P h E E E P P P P P Y Y Y Y @.@.@.@.@.@.@.@.l @.@.@.@.l @.@.@.@.@.@.@.Y Y Y Y P P P E P P Y Y P Y @.@.@.@.@.@.@.@.@.@.l l l @.@.@.@.@.@.@.@.@.P P P P Y @.@.@.@.@.@.@.@.@.@.@.@.@.Y Y P P P P E Y @.@.@.@.@.@.Y Y P P P Y @.@.l l @.Y P g n.2+7.s b n f f h E E h h P P E E h f f f h Y @.Y P P P P Y Y Y Y @.P P P Y Y Y Y @.@.@.@.@.@.@.@.@.@.Y Y Y Y @.@.@.@.@.@.@.@.@.@.@.@.@.@.@.@.@.@.@.@.@.@.@.@.@.@.@.@.@.@.@.@.@.@.@.@.@.@.@.@.@.@.@.@.@.@.@.Y P P E P P Y @.@.@.@.@.@.@.Y Y Y Y @.l K K l l Y h e b ] K.=.y b c g h E P P P P P E E E P P P P P Y Y Y Y @.@.Y Y Y Y @.@.@.@.@.@.@.@.@.@.@.@.l l l @.Y Y Y @.@.Y Y @.@.@.@.@.@.@.@.@.@.@.@.@.@.@.@.@.@.@.@.@.@.@.@.l l @.@.Y P P P P @.@.@.@.@.Y Y Y P P P P P P @.@.@.@.@.@.@.@.@.@.@.@.@.Y P P P Y @.l Y R @.@.Y h b >.0 @.w c e h E E P P P P Y P E E h h h P @.@.@.@.@.@.@.@.@.@.@.@.@.Y Y Y Y @.@.@.@.@.@.@.@.@.@.@.@.@.@.@.@.@.@.@.@.@.@.@.@.@.@.@.@.@.@.@.@.@.@.@.@.@.@.Y @.@.@.Y Y Y Y Y Y Y Y Y Y Y Y @.@.@.@.@.@.@.@.@.@.Y P P P Y Y Y Y Y Y Y Y P P Y Y @.l l l l l Y P g q r f ",
"c f E P P P P P P P P Y Y Y P P P Y Y Y Y P P P P P P Y Y Y Y Y Y Y Y Y Y Y Y Y Y @.Y P P P P Y Y Y Y Y Y Y Y @.@.@.@.@.@.Y Y Y Y Y Y Y Y Y Y Y Y Y Y Y Y P P P P P P Y Y Y Y Y Y E E P P P Y P E E E E E E P P P P P P P Y P E E E P Y @.@.@.Y E f c 6+3+4.q b n f f h E E E h E P E h f g g h h P Y Y P P Y @.@.@.@.l l Y Y Y Y @.@.@.Y Y Y Y Y Y @.@.@.Y Y Y Y Y P P P P P P Y @.@.@.@.@.@.Y Y Y Y Y Y Y P P P P P P P E P P P Y Y Y P P P P P P Y @.Y Y P P P E E E E E E E @.@.Y Y Y P P Y Y P P Y l K K K l P f d m / K.y x r n g f h E h f f E P P P P P P Y Y Y Y Y Y Y Y Y Y Y Y Y Y P P P P P P Y Y Y Y Y Y Y @.@.P P P P P P P P P P P P P P P P P P Y Y Y Y Y Y Y Y Y Y Y Y Y Y Y Y Y P P P P @.@.Y Y P E h P Y Y Y Y Y Y P P P P P P P P P P P P P P @.Y P Y @.K l M @.l Y e m -.2 M s c g g E E h h h E P h E E f g h P Y Y Y Y Y Y Y Y Y Y Y Y Y Y Y Y Y Y Y Y Y Y @.@.@.Y Y Y Y Y Y Y Y Y Y Y Y Y Y Y @.@.@.@.@.@.@.@.@.@.@.@.@.@.@.@.@.Y Y P P E E E P Y @.@.E E P Y Y @.Y P P P P P P E E E E P P Y P E E E E E E P Y @.@.@.@.@.@.Y P f r n P ",
"d g h h h h P h E E E E P P E P P P Y Y Y P P P P P P Y Y Y Y Y Y Y Y Y Y Y Y Y Y Y Y P E E P Y Y Y Y Y Y Y Y P P P P P P P Y Y Y Y Y Y Y Y Y Y Y Y Y Y P P P P P Y Y Y Y P P Y P h h h E E E E E E E E E E E P P P P P P P P E E E P P P E E E f g c T 5 k e e c g f h h h h h h f f f g g g h E E P P P P P P Y Y Y @.@.P P Y Y Y Y Y Y Y Y Y Y Y Y Y Y Y P P P P P P P P P P P P P P P P P Y Y Y Y Y Y Y P P P P P P P h h E E E P P Y Y P P E E P P P P E E E E E E E E E E P P P P E E E P P E E P Y @.Y Y P h e c m / #.s a e n g h h P P E E E E E E E E E Y Y Y Y Y Y Y P P P P P P P P P P P P P P Y Y Y Y Y Y Y Y P E E P P P P P P P P P P P P P P P Y Y Y Y Y Y Y Y Y Y Y Y Y Y P P P P P E E E E P P P P P P P P P P P P P P P P P P P P P P P P P P P E E E Y @.P @.h E h c a >.^ F a e g e h E E E E E E f h h f g h E P P P P P P Y Y Y Y Y Y Y Y Y Y Y Y Y Y P Y Y Y Y Y P Y Y Y Y Y Y Y Y Y Y Y Y Y Y Y Y Y Y Y Y Y Y Y Y Y Y Y @.@.@.Y Y P P E E E P P P P E E E P P P P E E E E E E E P P P P Y Y Y P P P P P P P P P Y Y @.@.Y E E g r n E ",
"e g g g g h E g f f f h h h h h h h E E h h h h h h h h E E E E E E E E E E E E E P E h h h E E E E E E E E E h h h h h h h E E E E E E E E E E E E E E E E E E E E P P E E E E E E E E E P P P P P P P P P P P P P P P P P P E E E P P h h h h f f e 7+5+4.e f n c e g f f f f g f f h h h h h h f f f h E f h h h h E E h E E E E P E E E E E E E E E h h h f f f h h h h h h E E E E E E E E E E E E E E E E E E E E E E E E E P P P P P E E h h E E E E h h h E P P P P P P P P E E E h h h h h h h E E P E E f g e b / K.a q h c d e f h h h h f f f f f f f E E E E E E E h h h h h h h E E E E E E E P P P P P P P P E h h h E E E E E E E E E E E E E E E P P P P P P E E E E E E E h h h h h h h E E P P P Y Y P P P P P P P E E E E E E E E E E E E E E f f f f h h f P g h f c m W [ O b e g d g f h h h f g f h E h f h E f f f f f f h E E E E E E P P P P P P P E E P P P E E E E E E E E E E E E E E E E E E E E E E E E E E E E E E P P P P E E P P P P E E E h h h h h h h h h h h h h h E E E E P P E E E E E E E h h h E E E E h f g c q r f ",
"e g g g g f E f f f h h h f g g f f f f f f f f f f f h h h h h h h h h h h h h h E E h f f f h h h h h h h h h h h h h h h h h h h h h h h h h h h h h h h h E E P P P P E E E E h E E E E P E h h h h h h h h h h h h h h h f f f f h f g g g g g e Y.2+}.n e n c d e g g g g e e g f h h f h f g g g h E f g g f f f f f f f h h h h h h h h h h h f f f f g g f f f f f f f h h h h h h h h h h h h h h h h h h h h h f h h h h E P P P P P E E P Y Y Y P P P E h h h h h h h h h f f f f E E E E E h h h f f g e e q { 9 y s g c c c d e g g g g g g g g g g g g g g g g g f f f f f f f f f f f f f h E E E E E E E E h f f f h h h h h h h h h h h h h h h E E E E E E E h h h h h h h f f h h h E E E E h h h E h h h h h h h h h h h h h h f f f f f f h h h h h h f e f d e e c m W ^ O m d e d e g f h f g e e f f f g g g g g g g g g g g g g g g g f h h h h h h h h E E E h h g g g g g g g f f f f f f f h h h h h h h h h h h h h h h h h E E E h h h f f f f E E E E E E h g g g g g g f E E E E E E E E E E E E E E E E E E E E h g e d r n h ",
"c e g e d e g f h h h h E h g g g f f f f f f f f f f f h h h h h h h h h h h h h E h h f f h h h h h h h h h h h h h h h h h h h h h h h h h h h h h h h E E P P Y Y Y Y Y @.@.@.@.l l l l K l @.@.@.@.@.@.@.@.@.@.@.@.@.Y P Y Y Y Y P P P E E E E h W.3+7.m n n e e e g f g g g h E Y Y P E f f f f f h h f f f f f h h f f f f h h h h h h h h h h h h h h f f f f f f f f f f f f f f f f f h h h h h h h h h h h h h P P P Y Y Y Y @.@.@.@.@.@.l K K K K R R l @.@.@.@.@.@.@.@.@.Y Y Y P Y @.@.@.Y Y P Y P E h E E c / U.=.v r r c d d e g g e g f f f f f f g g g g g g g h h h h h h h h h h h h h h E E E E E E E E h f f f h h h h h h h h h h h h h h h E E E E E E h h h h h h h h h E E P P Y @.@.@.@.Y Y Y @.@.@.@.@.@.@.l l l l l l l Y Y Y Y Y Y Y Y @.@.@.Y P h Y g h h f n W 2 R w r c d g g f f f g g E Y @.Y h h h f f f f f f f f f f f f f h E E E E E E h E E P E E h f f f f f f f f f f f f f f h h h h h h h h h h h h h h h h E E E E P P P P P Y Y @.@.@.@.@.@.@.Y Y Y Y Y Y @.l l @.@.@.@.Y E E E E E E @.@.@.Y P P E Y h g g e g Y ",
"b n d c n r r c c d d d d d n c c c c d c c c c c c c d d d d d d d d d d d d d d g e d d d d d d d d d d d d d d d d d d d d d d d d d d d d d d d d d e e g f f h f h E P Y @.@.Y Y @.@.@.@.@.@.@.@.@.@.@.@.Y Y Y Y Y Y @.@.l K K @.@.E h f g g f g i 5+' D s m r r n c c c c c g f E E h g d c d d d d d c d d d e e e c c c d d d d d d d d d d e g e e e d d d c c c c c c c c c c c c c d d d d d d d d d d d d d e f f h h h h h E E P Y Y @.@.Y Y @.@.l l l @.@.@.@.@.@.l l @.@.@.@.@.Y @.@.@.Y E E P E f g g f r / 9 v 6.a b r n n c c n n d e e e e e e e d d d d d e e e e e e e e e e e e e e e e e e e e e g e e d d d d d d d d d d d d d d d d d d e e e e e e e d d d d d d e g g f f E E P P P Y @.@.l K K K K K K K K K K K K K K l l l l l l @.@.@.l @.Y P h Y g f f g r >.0 Y =.a r c d c c n c c d E Y @.P h g e d d d d d d e e e e e e e g g g g g g g e e g g g e e e e e e e e e e e e e e e g g g g g g g g g g g g g g e d e e e g g h h E P Y Y Y P Y Y Y @.l l K K K K K K K K K K l l @.@.@.@.@.@.@.@.l l @.P E h f P g e e e f @.",
"m b r r b b m m m m m m m b m b b b b b b b b b b b b b b b b b b b b b b b b b b q q b b b b b b b b b b b b a q r D n s q b q m b q b b b b b b b b b q q q r r r r n c d g g g e e e e e e e e e e e e e d c c c c c c e e g g g g e n r q b b b m 7+ +> y C a s m m b b b b m b q r r q b m m b q q b b b b b q q q q m m b b b b b b b b b b b b q q q b b b b m m m m m m b q q m r m q b b b b b b b q q q q q q b b q q q q q r n c d d e g e e e e e g g e d d d d d d e e e e e e e e g g g e e d n q q q a b m { L.x 8.q a a b b b b b m b b b b b b b r r r r r r r q q q q q q q q q q q q q q q q q q q q r r r q q q q r r r r r r r r m q q c m q q q q q q q q q q q q q q r r n n c c d c c d e g g f g g g g g g g f f f f f f f h h h h h h h E E E h g e c c r q q b w -.6 h 6.D a n r q b b b q q n d d c r q q r r r r r r r r r r r r r q q q q q q q r r n n n r r r r r r r r r r r r r r r r b n q n m n b r r r r r r q q r r r r r n c c d d e e g g g f f h h h h h h h h E E E E h h h h E P P P P P P P h f e d c c n r q r d E ",
"w w w w w w w w w w w w w w D D D D D D w w w w w w w w y y w w w w y y y w w w w w w w w w w w w w w w w w y y x a |.s s w D s C y s w w w y y y y w w w w w w w w y w w D s a a a a a a a a s s s s s s s s s s s s s s s s s s s s s s s s s D D w H.V.; C v v C D D D D D D D D D D D D D w w w w w w w y y y y y y y w w w w w w w w w w w w w w w w w w w w w w w w w w w y x y 6.D y y w w w w w w w w w w w w w w D D D D D D D D s s s s a m b b b b b b b m m m m m m s s s s s s s s s s s s s a s y s s x y C [ 9 z /.v C a D D D D D D w w w w w w w w D D D D D D w w w w w w w D D D D D D D D D D D D D D D D D D D D D D D D D D D s y C D D m y w w w w w w w D D D D D D D s s s s s s s s s s a a a m b b b b b b b b b b b b b m m m m m m b r q b a a s D s m D D w 6.W 3 g z C w b D D D D D D D a a a a a a s D D D D D D D D D D D D D s s s s s s s s s s s s s s D D D D D D D D D D D D D s s a a q C r D a a a a a a a a a a a a a s s s s s s s b b b b q q q q q q q q q q q q q q q q q b b b q q q r q b m a s s a m a D s n E ",
"/./././././.6.=.=.=.=.=.=.=.=.=.=.=.=.=.=.=.=.=.=.=.=.=.6.=.=.=.v v v v v v v x x =.=.=.=.=.=.=.=.=.=.=.=.=.v x v w |./.y /.=.v z /.v =.v x v v v v x v =.=.=.=.=.=.6.6.6.=.=.=.v v v v v v v v =.=.=.=.=.=.v x x x x x x v =.=.=.=.=.=.x x x x x x =.'.2+# 8.s /.v =.=.=.=.=.=.=.=.=.=.=.=.=.=.6.6.6.6.6.6.=.=.=.=.=.=.=.=.=.=.=.=.=.=.=.=.=.=.=.=.=.=.=.=.=.=.=.=.=.=.=.=.=.=.C z x C |./.x =.=.=.=.=.=.=.=.=.=.=.=.=.=.6.6.6.6.6.6./././././.6.6.6.=.=.=.=.=.=.=.v v v v v v v v v v v v v x x x x x x x =./.v x z =./.] K.8.8.=.6.6.6.6.6.6.6.6.6.6.6.6.6.6.6.=.=.=.=.=.=.=.=.=.=.=.=.=.=.=.=.=.=.=.=.6././././././.6.=.=.=.=.=.=.=.=.=.=.=.=.=.=.z x |.z x 9.=.=.=.=.=.=.=.v v v v v v v =.=.=.=.=.=.v v v v x x x v v v v v v v =.=.=.=.=.=.=.x x x x x x C C C x v v v v x x v v =.8.^.0 e |.v C z =.v v v v v v 6.6.6.6.6.6.=.v v v v v v =.6.6.6.6.6.6.6.6.6.6.6.6.6.v x x x x x x =.6.6.6.6.6.6.6.6.6.6.6.6.=.x 6.|.0.=.y /.=.=.=.=.=.=.=.=.=.=.=.=.=.v v v v v v v =.=.=.=.v v v v v v v v v v v v v v v v x C C C C C C C C x x v v v v v =./.=.D n ",
"r r r r r r q q q q q q q q r r r r r r r n n n n n n r r r n n n n n n n n n c c q q q q q q q b b b b b b r m n n r n d r r r q q r r n c n n n n c q q q q q q q n n n n r r r c c c c c c c c c c c c c r q q q q q q r n n n n n n q q r r n n r Y.8+_.m w b c r r r r r r r r r r r r r q q q q q q q r n n n n n n q q q q q q q c c c c c c r b b b b b b b b b b b b b r m n c m d n n c c c c c c c c c c c c c c c c c c c n n n c c c d n r r r r r r n n n n n n n n n n n n n n c c c c c c n b m q r m r n t L.b =.q d q e e e e e e e e e e e e e c c c c c c c e e e e e e d c c c c c c c e e e e e e c c c c c c c c c c c c c c n b E m f d d c c c c c c d d d d d d d c c c c c c c c d d d e e e g g g g g g g e e e e e e e e e e e e e e e e e d d d d d d d d n b 9 t Y n e f e d d d d d d d d d d d d d d d d d d d d e g g g g g g g e e e e e e e e e e e e e g g g g g g g g g g g g g g e c f d P c d d d d d d d e g g g g g g e d d d d d d g g g f f f f g g g g g g g g g g g g g g g g g e e e e e e d d d d g g d c d P M ",
"{ { { { { { { ~ ~ ~ ~ ~ ~ 7 7 7 7 7 7 7 ( ( ( ( ( ( ( ( 7 7 7 7 ~ ~ { { { { ( ( ( ~ ~ ~ ~ ~ ~ 7 7 7 7 7 7 7 7 ! 3 { C.3 h.{ ~ 7 ~ ~ 7 ~ 7 ( { { { { ( 7 ~ ~ ~ ~ ~ ~ 7 7 ( ( { { / ( ( ( ( ( ( ( 7 7 7 7 7 7 7 7 7 7 7 7 7 ( ( ( ( ( ( ( 7 7 ~ ~ ~ 4 ~ #.j j.{ 7 p [ 7 7 7 7 7 7 7 7 7 7 7 7 7 ( ( ( ( ( ( ( ( ( ( ( ( ( ( ~ ~ ~ ~ ~ ~ 7 ( ( ( ( ( ( ( 7 7 7 7 7 7 7 7 7 7 7 7 7 ^ 4 { ^ x.2 3 ( ( ( ( ( ( ( ( ( ( ( ( ( ( { { { { { { { { { { ( ( ( ( ( ( ( ( ( ( ( { { { { { { / / / / / / / ( ( ( ( ( ( { { { ( ( / 7 ~ 9+V.4 4 [ ~ ! / / / / / / { { { { { { { / / / / / / / / / / / / / / / / / / / / { ( ( ( ( ( ( { / / / / / / / / / / / / / [ ) 3 ) / 0 ^ 7 7 7 7 7 7 ( / / / / / / { 7 7 7 7 7 7 / ] ] ] / / / ( ( ( ( ( ( ( / / / / / / / { { { { { { { / / { { { { ( { { 7 7 { ] 0+z.) ^ ^ ^ 7 ( { { { { { { 7 7 7 7 7 7 7 { { { { { { { ( ( ( ( ( ( 7 7 7 7 7 7 7 { / / / / / / ( ( ( ( ( ( ( ( ( ( ( ( ( 7 ( ] [+{ t 2 x.( ( ( ( ( ( ( { { { { { { { { { { { { { { { { { ( ( ( ( ( ( ( ( ( ( ( ( ( ( ( ( ( ( ( { { { / / / / { { { { 7 7 ( ( 7 ! ;.",
"6+6+6+6+6+6+6+T T T T T T T 6+6+6+6+6+6+T T T T T T T 6+6+6+6+6+T T 6+6+6+T T T T T T T T T T T T T T T T T T 7+H.n.,+a+b+c+T 6+T T 6+T T T T 6+6+T T T T T T T T T T T 6+6+H.H.H.6+6+6+6+6+6+6+T T T T T T T T T T T T T 6+6+6+6+6+6+6+T T T 7+7+7+T T @ ,+H.,+%.H.6+6+6+6+6+6+6+6+6+6+6+6+6+H.H.H.H.H.H.H.H.H.H.H.H.H.H.T T T T T T T 6+6+6+6+6+6+6+T T T T T T T T T T T T T 6+,+7+T :+..C.d+%.%.%.%.%.%.%.%.%.%.%.%.%.O.O.O.O.O.O.O.O.O.d+d+d+d+d+d+d+d+d+d+d+O.O.O.O.O.O.O.T.H.H.H.H.H.H.H.H.H.H.H.H.H.T.H.H.T.%.H.d+%.Y.'.(.` e+{.` ` ` ` ` ` ` ` ` ` ` ` ` d+%.%.%.%.%.d+` ` ` ` ` ` O.%.%.%.%.%.%.d+` ` ` ` ` ` d+%.%.%.%.%.%.%.%.%.%.%.%.%.1.H.1.6+B 3.y.d+d+d+d+d+d+O.O.O.O.O.O.O.d+d+d+d+d+d+d+O.` ` O.O.O.d+O.` ` ` ` ` ` ` ` ` ` ` ` ` d+d+d+d+d+d+d+d+d+d+d+d+d+%.` 1.d+%.O.O.d+O.T.` %.(.{.d+d+d+d+d+d+d+O.O.O.O.O.O.O.d+d+d+d+d+d+O.` ` ` ` ` ` O.O.O.O.O.O.O.O.O.O.O.O.O.O.` ` ` ` ` ` ` ` ` ` ` ` ` 1.{.(.5+-.` (.O.1.1.1.1.1.1.` ` ` ` ` ` ` O.d+d+d+d+d+d+{.{.1.1.1.` ` O.O.O.O.O.O.O.O.O.O.O.O.O.d+%.%.d+d+d+d+d+d+d+d+d+d+d+O.` 1.` O.d+%.",
"G G G G G G G G G G G G G I I I I I I I G G G G G G G G G G G I I I G G G G G G G G G G G G G G G G G G G G L F N G N $ 8+).G O I G L I I G G G G G G G G G G G G G G G G G G G G G G G G G G G G G G G G G G G G G G G G G G G G G G G I G G G G G G L O L F M E G I I I I I I I I I I I I I I I I I I I I G G G G G G G G G G G G G G G G G G G G G G G G G G G G G G G G G G F G F F k 4+* O L L L L L L L L L L L L G G G G G G G G L L L G G G G G G G G G G I I I I I I I I I I I I I I G G G G G G G I H G O O L G G I O G G O G I I I I I I G G G G G G G G G G G G G G G G G G G G G G G G G G G G G G G G G G G G G G G G G G G G G G G G G M O L E  +u.O O O O O O L L L L L L L G G G G G G G G G G G I I I G G G G G G G G G G G G G G G G G G G G G G G G G G G G O F G I G G G F M O G F L I G G G G G G I I I I I I I G G G G G G I I I I I I I G G G G G G G G L L L L L L I I I I I I I I I I I I I G L K #.p G O L I I I I I I I I I I I I I G G G G G G G I I I H H H H I I I I I I I I I I I I I G G G G G G G G G G G G G G G G I I H I L ",
"G G G G G G G G G G G G G G I I I I I I G L L L L L L G G G G G I I G L L G G G G G G G G G G G G G G G G G G G O I L % 5+).N L I G L G I G G G G G G G G G G G G G G G G L L L L G G G G G G G G G G G G G G G G G G G G L L L L L L L G G G G L L L G O G F I I G I I I I I I I I I I I I I I I I I I I I I G G G G G G G G G G G G G G G G G G G G L L L L L L L L L L G G G L G F l ~+} c.L I I I I I I I I I I I I I G G G G G G G G G G G G G G G G G G G G G G G G G I I G G G G G G G G G G G G G G I H I G G G G L G O G G O G G G G G G G G G G G G G G I I I I I I I G G G G G G G G G G G G G G L L L L L L G I I I I I I I I I I I I I H G O I E U S.G G I L G I G I I I I I I I I I H H I I I H H H H H H I G G G G G G G G G G G G I I I I I I I I H H I I I I H I I H H H H I H I I G O L I H H H H H H I I I I I I I H H H H H H I I I I I I I I G G G G G G I I I I I I I G G I I I G G G G G I I I I L h u t L F I I I I I I I G G G G G G G I I I I I I I I I I H H H H I I I I I I I I I I I I I I I I I I H H H H H I I I I I I I H H I G ",
"H H H H H H H H H H H H H H H H H H H H I I I I H H H H H H H H H H H H H H H H H H H H H H H H H H H H H H H I H I L % 5+k R L H I I I I I I I I I I H H I I H H H H H H I I I I H H H H H H I I H H H H H H H H H H H H H H H H H H H H H H H H H H H H H H H H H H H H H H H H H H H H H H H H H H H H H H H H H H H H H H H H H H H H H H H H H H I I H H H H H H H H H H H H O F Y k 5 Y.L H I I I H H I I I I I I I H H H H H H H I I I I I I H H H H H H H I I I I I H H I I I I I I I H H H H H H H H H H H H H I I I I H H H H H H H H H H H H H H H H H H H H H H H H H H H H H H H H H H H H H H H H H H H H I I I I I I I I I I I I I I H I G H f U *+I L H L G I L I I I I I I G I H H H H I I I I I I I I H H H H H H H H H H H H H H I I I I I I H H H H H H H H H H H H H H H H H I I I I H H H H H H H H H H H H H H H H H H H H H H H H H H H H I I I I I I H H H H H H H H H H H H H H H H H H H H I N d W 7 L F H H H H H H I I I I I I I I I I I I I I I H H H I I I I H H H H H H H I I I I I I I I I I I I I I I I I I I I H H H H H H H ",
"H H H H H H H H H H H H H H H H H H H H I H H H H H H H H H H H H H H H H H H H H H H H H H H H H H H H H H H H H I O % 2+).l F H G I I I I I I I I I H H H I H H H H H H H H H I H H H H H H H I I I H H H H H H H H H H H H H H H H H H H H H H H H H H H H H H H H H H H H H H H H H H H H H H H H H H H H H H H H H H H H H H H H H H H H H H H H H H H H I I I I I I I I I G K @.e ].5+n.N L G I H H H I I I I I I I H H H H H H H H H H H H H H H H H H H H I I I I I H H I I I I I I I H H H H H H H H H H H H H H I H H H H H H H H H H H H H H H H H H H H H H H H H H H H H H H H H H H H H H H H H H H H H H H H H H H H H I I I I I I I G I G I g 8 f+G F I G H H G I I I I I I I H H H H H I H H H H H H H H H H H H H H H H H H H H H H H H H H H H H H H H H H H H H H H H H H H H H H I I H H H H H H H H H H H H H H H H H H H H H H H H H H H H H H H H H H H H H H H H H H H H H H H H H H H I I G O @.q -.{ L M I H H H H H H H H H H H H H H H H H H H H H H I I I G G H H H H H H H I I I I I I I I I I I I I H H H H H H H H H H H H H H ",
"I I I I I I I G G G G G G G L L L L L L G G G G I I I I I I I I I I I I I I I I I I I I I I I I I I I I I I I H H I O % 2+4.Y K L L I I H H H H H H H H H I G G I I I I I I G G G G G G G G G G G G G I I I I I I I I I I I G G G G G G G G G G G G G L L L L L L G G G G G G G G G G G G G G I I I I I I I G L L L L L L L L L L L L L L L L L L L L L L O F N M F L O O O O F N P f b }.2+7+@.N L I H I I H H H H H H H I I I I I I I H H H H H H I G G G G G G G G G G I I I G G G G G G G I I I I I I I L L L L L L G G G G I I I I I I I I I I I I I I I I I G L L L L L G H H H H H H H I I I I I I I I I I I I I H H H H H H H H H H H H H H L H I I g 8 ^+L R L I H H I H H H H H H H H H H H H H H H H H H H H H I I I I I I G I I I I H H H H H H H H H I I I I I I I I I I I I I H H H H H H I I I I I I I I I I I I I I I I I I I I I I I I I I I I I I I I I I I I I I I I I I G G L L L G G L L L L F M l g s !.[ L @.O I I H H H H H H H H H H H H H H H H H H H H H H H I I I I I I I I I H H H H H H H H H H H H H H H H H H H H I I I I I I I ",
"O O O O O O O F F F F F F F N N N N N N F F F F O O O O O O O O O O O O O O O O O L L L L L L L L L L L L L G I I G O % V.].E Y N O G G G L L L L L L I G L L O O L O O O O F F F F F F F F F F F F O O O L L O O O O O O O F F F F F F F F F F F F F N N N N N N F F F F F F F F F F F F F F O O O O O O O F N N N N N N N N N N N N N M M M M M M N N N M R R K M N M M R R R K E e m }.5+T E K F G I I G I I I I I I I L L L L L L L L L L L L L O F F F F F F F O O O L L L O O O O O O O O O O O O O O N N N N N N F F F F O O O O O O O O O O O O O O O O O N N N N N N F L L L L L L L O O O O O O O O O O O O O L L L L L L L G I I I I I I L H I G f 3.^+O l O I I H I I I I I I I G L L O O L L L L L L L L L O O O O O O O F O O O O L L L L L L L L O O O O O O O O O O O O O O L G L L L O O L L L L L L L O O O O O O O O O O O O O O O O O O O O O O O O O O O O O O O O O O F F N M N F F M M N N K @.h c y ^.1 L E N L G I I I I I I I I I I I L L L L L L L G G G G L L L L L L L L L L G G G G G G G G G G G G G L L L L L L L L L L L L L L ",
"F F F F F F N M M M M M M M M M M M M M M M N N N F F F F F F F F F F F F F F F F F F F F F F F F F F F F F O G G G O % 2+4.E P R N L L O F F F F F F L O F F N N N F F N N N M M M M M M M M M M M N N N N N F F F F F F M M M M M M M M M M M M M M M M M M M M M M M M M M M M M M M M M M N N N N N N N M M M M M M M M M M M M M M R R R R R R R M M R R K K R R R K l l l l h e m [.3+H.h l M O G G L L L L L L L O F F F F F F N N N N N N N M M M M M M M M N N N F F F N N N N N N N N N N N N N M M M M M M M M M N N N F F F F F F F F F N N N N N N N M M M M M M M M M M M M M M F F F F F F F F F F F F F N N N N N N N F O O O O O O O I G O g U ^+F P N G L G O L L L L L L O N N M M N N N N N N N N N N N N N N N N N N N N N F N N N N N N N N N N N N N N N N N N N N N N F N N N M M F F F F F F F N N N N N N N N N N N N N N N N N N N N M M M M M M M N N N N N N N N R K l K R M l K R R @.E g r C !.2 L e K F O L G G G L L L L L L L N N N N N N N F F N N N N N F F F F F F F N N N N N N N N N N N N N N N N N N N N F F F F F F F ",
"N N N N N N N R R R R R R R M M M M M M M M M M M N N N N N N N N N N N N N N N N M M M M M M M M M M M M M F L G L F % 2+4.E h K N O F L L L L L L L O F N M R R M N N M M M M R R R R R R R R K K R R R R M N N N N N N R R R R R R R R R R R R R R M M M M M M M R R R R R R R R R R R R R R R R R R R R M M M M M M M M M M M M M M R R R R R R K K K K l l l R M R K l l @.Y h e a [.5+%.h @.M F O O O O O O O O O F M M M M M M N N N N N N N M R R R R R R R R R M M M M R R R R R R R M M M M M M M M M M M M M M M M M M N N N N N N N N N M M M M M M M M M M M M M M M M M M M M M N N N N N N N N N N N N N N N N N N N N F O O O O O O N I F N e U ^+F E R O O O N O O O O O O O F N M M N F F N N N N N N M M M M M M M R M M M M N N N N N N N N N M M M M M M M M M M M M M N F N N N M M M M M M M M M M M M M M M M M M M M M M M R R R R R R R M M M M M M R R R R R R R M R l @.l R M @.l R R l E g q x -.2 L c l M N F O O O O O O O O O O F N N N N N N F N N N N M M M M M M M M M N N N N N N N N N N N N N N N N N N N N N M M M M M M ",
"R R R R R R M M M M M M M M R R R R R R R R R R R R R R R R R R R R M M M M M M M R R R R R R R M M M N N F O O L G M , V._.E P l M M O O O O O O O F F N M M R M M R R R R R R R R R R R R R R R R R R R R R R R R R R R M M R R K K K R R R R R R R R R R R R R R R R R R R R R K K K K K K R R R R R R R R R R R R K K R R R R R R R K K K K K K K l l l @.@.@.l l l K K l l Y f e m _.5 H.f @.R M N O L O O O O F F N R R R R R R R M M M M M M R R R R R R R R R R R R R R M M M M M M M R R R R R R R R R R R R R R R R R R R R R R R R R R R M M M M M M M M M M M R R R M M R R R R K R R R R R R M M M M M M M M M M M M M M N N N N N F O F L I N d 8 f+F E K L M G F L O O F F N N N M M M M N M M M M M M M R R R R R R R N N N N N N N M N N N N M M R R R R R R M M M M M M M M M M M M R R R R R R R R R R R R R R R R R R R R R R R M M M M M M M M M M M M M R K K K K l l K l @.@.@.l K l l K K l P g n x ^.3 L e K M N O O L L F F F F F N R M M M M M M M M M M M M M M R R R R R R M M M M M M M N N N M M M R M M M M M M M R R R R R R R ",
"R R R R R R R R R R R R R R R R R R R R R R R R R R R R R R R R R R M M M M M M M R R R R R R R M M M M N F L O L I M , V.[.h Y l M R L F O O O O N N N N M R R M M R R R R R R R R R R R R R R R R R R R R R R R R R R R M M M M R R K R R R R R R R R R R R R R R R R R R R R R K K K K K K R R R R R R R R R R R K K K K K K K K K K K K K K K K K l l @.@.@.@.@.@.l K K K l @.f d m _.5 H.f Y R M N F L O O O O F N M R R R R R R R R R R R R R R R R R R R R R R R R R R R R R R R R R R R R R R R R R R R R R R R R R R R R R R R R R R R R R M M M M M M M M M M R R R R M R R K K K K R R R R R R R M M M M M M R R R R R R R M M M M N F O L O H F e 8 f+F P K L R I O L O O F N N N M M M M M M R R R R R R R R R R R R R R R R R R R R R R M N N M M R R R R R R R R R R R R R R R R R R R R R R R R R R R R R R R R R R R R R R R R R R R R R R R R R R R R R R R K K K K l l l l l @.@.@.l l l l K K l P g c x 2.0 L g K M N F O L L O F F F N M R R R R R R R R M M M M M M M R R R R R R R M M M M M M M M M M M M M R R R R R R R R R R R R R R ",
"R R R R R R R K K K K K K K R R R R R R R R R R R R R R R R R R R R M M M M M M M R R R R R R R M R M M N F L O L I M , V._.h P @.M R O F F O O F N N N N M R R R M R R R R R R R R R R R R R R R R R R R R R R R R R R R M N M M M R R R R R R R R R R R R R R R R R R R R R R R K K K K K K R R R R R R R R R R K K K K l l l l l l l l l l l l l l l @.@.@.@.Y @.@.l K K K l @.f d m _.5 H.g Y K R N F L L L L F N M R R R R R R R R R R R R R R R R R R R R R R R R R R R R K K K K K K K R R R R R R R R R R R R R R R R R R R R R R R R R R R R R R R R R R M M R R R K K R R K K K K K R R R R R R R M M M M M M R R R R R R R M M R M N F O G F G F f 8 ^+F E l L R I F O O F F N N M M M M M M M R R R R R R R R R R R R R R R R R R R R R M M R R M M M R R R R R R K K K K K K K R R R R R R R R R R R R R R R R R R R R R R R R R R R R K K K K K K K K K K K K K K K K K l l l l @.@.Y @.@.l l l K K l P g n x ^.3 L g l M N F O O O O F N M M R M R R R R R R R M M M M M M M R R R R R R R M M M M M M R R R M M M M R R R R R R R R R R R R R R ",
"R R R R R R R K K K K K K K R R R R R R R R R R R R R R R R R R R R R R R R R R R R R R R R R R R R R M N F O O L I M , V._.h E Y M M F N F F F F N M N M R R R R R R R R R R R R R R R R R R R R R R R R R R R R R R R R K R R R R R R R R R R R R R R R R R R R R R R R R R R K K K K K K K K R R R R R R R K K K K l l l l l l l l l l l l l l l l @.@.@.@.Y Y @.@.l l K K l Y f c a [.3+T.g P K R M F O L L O F M R K R R R R R R R R R R R R R R R R R R R R R R R R R R R K K K K K K K R R R R R R R R R R R R R R R R R R R R R R R R R R R K K K K K K K R R R R K K K K K K K K K K R R R R R R R R R R R R R R R R R R R R R R R R M N F G N L F f 3./+N E l O R G F O F F N N M M R R R R R R R R R R R R R R R R R R R R M M M M M M M M M K K R M M R R R R R R K K K K K K K R R R R R R R R R R R R R R R R R R R R R R R R R R R K l l l l l l l l l l l l l K K K l l l @.@.@.Y Y Y @.@.l l K K l P g n x ^.2 L e l R M F O O O O F M R R R M R R R R R R R R R R R R R R R R R R R R R R R R R R R R K R R M M M R R R R R R R R R R R R R R ",
"K K K K K K K R R R R R R R K K K K K K K K K K K K K K K K K K K K R R R R R R R K K K K K K K R R R R M N O O L I M , V._.h h Y N M F N N F F F M M M M R K K K R K K K K K K K K K K K K K K K K K K K K K K K K K K K l l K K K K K K K K K K K K K K K K K K K K K K K K K K K K K K K K K K K K K K K K K K l l l l l l l l l l l l l l l l l l @.@.Y Y Y Y Y @.l K K K l Y g c a [.3+T.g P l R M N O L O O F M R K K K K K K K K K K K K K K K K K K K K K K K K K K K K R R R R R R R K K K K K K K K K K K K K K K K K K K K K K K K K K K K l l l l l l R R K K K K l l l l K K K K K K K K K K K R R R R R R K K K K K K K R R R R M N F L N L N g 8 !+N h l O K G N F F F N M M M R R R R R R K K K K K K K K K K K K K K R R R R R R R M R K K R M R K K K K K K R R R R R R R K K K K K K K K K K K K K K K K K K K K K K K K K K K K l l l l l l l l l l l l l l l l l @.@.@.@.Y Y Y Y Y @.l l K K l P g n x !.2 L d @.R M N F O O F F M R K R R K K K K K K K R R R R R R R K K K K K K K R R R R R R R K K R R M M R K K K K K K K K K K K K K ",
"K K K K K K K K K K K K K K K K K K K K K K K K K K K K K K K K K K R R R R R R R K K K K K K K R K K R M N O O L I M , V._.h f P N M N M N N F N M M M R R K K K K K K K K K K K K K K K K K K K K K K K K K K K K K K K l l l l K K R K K K K K K K K K K K K K K K K K K K K K K K K K K K K K K K K K K K K l l l l @.K K K K K K l @.@.@.@.@.@.@.Y Y Y Y P P Y @.l K K K l Y g c a [.3+T.e P l K M N O F F F N M R R K K K K K K K K K K K K K K K K K K K K K K K K K K K K K K K K K K K K K K K K K K K K K K K K K K K K K K K K K K K K K K K K K K K K K K K K K l l @.@.l l K K K K K K K K K K R R R R R R K K K K K K K R K K R M N N O N G N d 8 ^+N h @.O K G N F F N M M M R R R R R R R K K K K K K K K K K K K K K K K K K K K K K R R R R K K K K K K K K K K K K K K K K K K K K K K K K K K K K K K K K K K K K K K K K K K K l l l l l l l l l l l l l l l l @.@.@.@.Y Y P P P Y Y l l K K l P e r x !.1 L d @.R M N F F F N M M M R R K K K K K K K K R R R R R R R K K K K K K K R R R R R R R R R R K K K K K K K K K K K K K K K K K ",
"K K K K K K K l l l l l l l K K K K K K K K K K K K K K K K K K K K K K K K K K K K K K K K K K K K K R M N O O L I M , V._.h g P N M N M N N N N M R M R R K K K K K K K K K K K K K K K K K K K K K K K K K K K K K K K l l K K R R M K K K K K K K K K K K K K K K K K K K K K K K K K K K K K K K K K K K l l l l @.@.R R R R R R K @.@.@.@.@.@.@.Y Y Y Y P P Y @.l K K K l Y g n s }.3+T.e P l K M N O N N N N M M R K K K K K K K K K K K K K K K K K K K K K K K K K K K l l l l l l l K K K K K K K K K K K K K K K K K K K K K K K K K K K R R R R R R R K K K K l l l @.@.l l K K K K K K K K K K K K K K K K K K K K K K K K K K K M N N N F I M n 8 g+M h @.F K L N F F N M M R R K K K K K K K K K K K K K K K K K K K K R R R R R R K l K R M R K l K K K K K K K l l l l l l K K K K K K K K K K K K K K K K K K K K K K K K K K K K K K K K K K K K K K K K K l l l @.@.@.Y Y Y P P P Y Y l l K K l P e r x -.1 L d @.R M N F F F M M M N M K l K K K K K K K K K K K K K K K K K K K K K K K K K K K R R R R K K l K K K K K K K K K K K K K K ",
"R R R R R R R R R R R R R K l l @.@.@.@.@.l l l l l l l l l l l l l @.@.l l l K K l K K K K K K R R R R M M N F O O M - 2+_.g g Y l R M F F O F N M R R R R R R R R R R R R R R K l l l l l l K R R R R R R R R R R R R R K K K K K K K K K K K K K K R R R R R R R R R R R R R R R R R R R R R R R R R R R l l l l l l l l l l l l l l @.@.@.@.@.@.@.Y Y Y Y P P Y @.l l l @.@.Y g n s [.3+%.e P l K M N O L O F N M M M R R R R R R R R R R R R R K l l l l l l K R R R R R R R R R R R R R K l l l l @.l R R R R R R R R R R R R R R R R R R R R R R R R R R R K l l l l @.@.l l l l l l l l l l l l l l @.l l l l K l K K K K K K K K R R M N N N G G M g 8 g+N f Y R K N F O O O F N M R K K l l K K R R R R R R R R R R R R R R R R R R R R R R R R R R R R K K K K K K K K K K K K K R R R R R R R R R R R R R R R R R R R R R R R R R R R R K l l l l @.@.@.@.@.@.@.@.l l l l @.@.@.@.@.Y Y Y @.@.@.l K l Y E g r x ^.^ F d P l R M N F F F F N N M K K R R R R R R R K K K K K K K K K K K K K K R R R R R R K K K R R R R R R R R R R R R R R R R R R ",
"K K K K K K K K K K K K K K R K K K l l l l l l l l l l l l l l l l @.@.l l l K K K K K K K K K R R K R R M N F O O M - 2+_.g g Y @.R M F F O F F M R K K K K K K K K K K K K K K R R R R R R R K K K K K K K K K K K K K R R R R R R R R R R R R R R K K K K K K K K K K K K K K K K K K K K K K K K K K K l l l l l l l l l l l l l l @.@.@.@.@.@.@.Y Y Y Y P P Y @.l l l @.@.Y g r s [.3+%.e P l K M N O L O F N M M R K K K K K K K K K K K K K R R R R R R R K K K K K K K K K K K K K K R R R K K K K K K K K K K K K K K K K K K K K K K K K K K K K K K K R R R K K K K l l l l l l l l l l l l l l @.l l l l K K K K K K K K K K K R M M N M L O R e 8 /+N f Y R K N F O O O F M R R K l l l l K K K K K K K K K K K K K K K K K K K K K K K K K K K K K R R R R R R R R R R R R R K K K K K K K K K K K K K K K K K K K K K K K K K K K K K l l l l @.@.@.@.@.@.@.@.l l l @.@.@.@.@.@.Y Y Y @.@.@.@.K l Y E g r x ^.^ F d P l K M N F F F F N M M R K K K K K K K K K K K K K K K K K K K K K K K K K K K K K l K K K R R K K K K K K K K K K K K K K ",
"K K K K K K K K K K K K K K K K l l l @.l l l l l l l l l l l l l l @.@.l l l K K R K K l l l @.R K K K R M M F O O M - 2+_.g g Y @.R M F F O F F M R K K K K K K K K K K K K K K K K K K K K K K K K K K K K K K K K K K K K K K K K K K K K K K K K K K K K K K K K K K K K K K K K K K K K K K K K K K K l l l l l l l l l l l l l l @.@.@.@.@.@.@.Y Y Y P P P Y @.l l l l @.Y g r s [.3+%.e P l K M N O O O F N M R R K K K K K K K K K K K K K K K K K K K K K K K K K K K K K K K K K K R K K K l l l K K K K K K K K K K K K K K K K K K K K K K K K K K K R K K K l l l l l l l l l l l l l l l l l @.l l l l K R R K K l l @.l K K R R M M N L L R e 8 ^+N f Y R K N F O O F N M R K K l l l l K K K K K K K K K K K K K K K K K K K K K K K K K K K K K K K K K K K K K K K K K K K K K K K K K K K K K K K K K K K K K K K K K K K K K K K l l l l @.@.@.@.@.@.@.@.@.l @.@.@.Y Y @.Y Y Y Y @.@.@.@.K l Y E g r x ^.^ F d P l K M N F F F N N M R K K K K K K K K K K K K K K K K K K K K K K K K K K K K K l l l l l K K K K K K K K K K K K K K K K ",
"K K K K K K K K K K K K K K l l @.@.@.@.@.l l l l l l l l l l l l l @.@.l l l K K R K K l @.Y @.K K K K R M M F O O M - 2+_.g g Y @.R M F F O F F M R K K K K K K K K K K K K K K l l l l l l l K K K K K K K K K K K K K l l l l l l l l l l l l l l K K K K K K K K K K K K K K K K K K K K K K K K K K K l l l l l l l @.@.@.@.@.@.@.Y Y Y Y Y Y Y Y P P P E E P Y @.l l l l Y g r s [.3+%.e P l K M N O O F F M M R K K K K K K K K K K K K K K l l l l l l l K K K K K K K K K K K K K K K l l l @.@.@.K K K K K K K K K K K K K K K K K K K K K K K K K K K K l l l @.@.@.l l l l l l l l l l l l l l @.l l l l K R R K l @.@.Y l l K K R R M N I G M f 8 g+N f Y R K N F F F F N M R K K l l l l K K K K K K K K K K K K K K K K K K K K K K K K K K K K K l l l l l l l l l l l l l K K K K K K K K K K K K K K K K K K K K K K K K K K K K K l l l l @.@.@.@.@.@.@.@.@.@.@.Y Y Y Y Y Y P P P Y @.@.@.K l Y E g r x ^.^ F d P l K M N F F N N M R R K l K K K K K K K K K K K K K K K K K K K K K K K K K K K l @.@.l l l l K K K K K K K K K K K K K K ",
"l l l l l l l l l l l l l K K K l l l l l l l l l l l l l l l l l l @.@.l l l K K K K l @.@.@.@.K K l K K R M F O O M - 2+_.g g Y @.R M F F O F F M R l l l l l l l l l l l l l K K K K K K K K l l l l l l l l l l l l l K K K K K K K K K K K K K K l l l l l l l l l l l l l l l l l l l l l l l l l l l l l l l l l l @.@.@.@.@.@.@.Y Y Y Y Y Y Y P P P E E E P Y @.l l l l @.g r s [.3+%.e P l K M N O F F N M R R K l l l l l l l l l l l l l K K K K K K K K l l l l l l l l l l l l l R K K K l l l l l l l l l l l l l l l l l l l l l l l l l l l l l l R K K K l l l l l l l l l l l l l l l l l @.l l l l K K K l l @.@.Y l l l K R R R N L L R e 8 ^+N f Y R K N F F F N N R K K K l l l l K K l l l l l l l l l l l l l l l l l l l l l l l l l l l K K K K K K K K K K K K K l l l l l l l l l l l l l l l l l l l l l l l l l l l K K l l l l @.@.@.@.@.@.@.@.@.@.Y Y Y Y P Y Y P P P Y Y @.@.K l Y E g r x ^.^ F d P l K M N F F N N M R K K l l l l l l l l K K K K K K K K K K K K K K l l l l l l l l l l l K K l l l l l l l l l l l l l l ",
"l l l l l l l l l l l l l K R K K K l l l l l l l l l l l l l l l l @.@.l l l K K @.@.@.@.@.@.@.K l l l K R M F O O M - 2+_.g g Y @.R M F F O F F M R l l l l l l l l l l l l l K R R R R R R K l l l l l l l l l l l l l K K K K K K K K K K K K K K l l l l l l l l l l l l l l l l l l l l l l l l l l l l l l l l l l @.@.@.@.@.@.@.Y Y Y Y Y Y Y P P E E E E P Y @.l l l l @.g r s [.3+%.e P l K M N O F F N M R K K l l l l l l l l l l l l l K R R R R R R K l l l l l l l l l l l l l R R R K K K K l l l l l l l l l l l l l l l l l l l l l l l l l l l R R R K K K K l l l l l l l l l l l l l l @.l l l l K l @.@.@.@.@.@.@.l l K R R R M L O R e 8 /+N f Y R K N F F F N M R K K K l l l l K l l l l l l l l l l l l l l l l l l l l l l l l l l l l K K K K K K K K K K K K K l l l l l l l l l l l l l l l l l l l l l l l l l l l l K l l l l @.@.@.@.@.@.@.@.Y Y Y Y Y P P Y P P E P P Y @.@.K l Y E g r x ^.^ F d P l K M N F F N M M R K l @.l l l l l l l K K K K K K K K K K K K K K l l l l l l l K K K K R R K l l l l l l l l l l l l l ",
"l l l l l l l l l l l l l l l l @.@.@.@.@.l l l l l l l l l l l l l @.@.l l l K K @.@.@.@.@.l l l l l l K K M N O O M - 2+_.g g Y l R M F F O F N M R l l l l l l l l l l l l l l l l l l l l l l l l l l l l l l l l l l @.@.@.@.@.@.@.@.@.@.@.@.@.@.l l l l l l l l l l l l l l l l l l l l l l l l l l l l l l l l l l Y Y Y Y Y Y Y Y Y Y Y Y Y Y P P E E E E E P Y l l K l Y g r s [.3+%.e P l K M N O F F N M R K K l l l l l l l l l l l l l l l l l l l l l l l l l l l l l l l l l l K l l l @.@.@.l l l l l l l l l l l l l l l l l l l l l l l l l l l K l l l @.@.@.l l l l l l l l l l l l l l @.l l l l K l @.@.@.@.l l @.@.l l K R R F G G M g 3.^+N f Y R K N F N N N M R K l K l l l l K l l l l l l l l l l l l l l l l l l l l l l l l l l l l @.@.@.@.@.@.@.@.@.@.@.@.@.l l l l l l l l l l l l l l l l l l l l l l l l l l l l K l l l l @.@.@.@.@.@.@.@.Y Y Y Y Y P P Y P P E P P Y @.l K l @.E g r x ^.[ N d P l K M N F F N M M R K l l l l l l l l l K K K K K K K K K K K K K K l l l l l l l K K R R R R K l l l l l l l l l l l l l ",
"l l l l l l l l l l l l l l @.@.@.@.@.@.@.Y Y Y Y Y Y @.l l l l l l K K K K K K K K K K K K K l @.K l l @.l M N N M M i 5+].g h h K @.M N N N N M R K l l l l l l l l l l l l l l l l l l l l l l l l l l l l l l l l l l @.@.@.@.@.@.@.@.@.@.@.@.@.@.l l l l l l l @.@.@.@.@.@.@.@.@.@.@.@.@.@.@.@.@.@.@.@.K K K l l l @.@.@.@.Y Y Y Y Y Y Y Y Y Y Y P P E E E E P Y @.l K K @.P f q m 7.3+T.g P l K R M F F F N M R K l l l l l l l l l l l l l l l l l l l l l l l l l l l l l l l l l l l @.@.@.@.@.@.@.@.@.@.@.@.@.l l l l l l l l l l l l l l l l l l l l l @.@.@.@.@.@.@.Y Y Y Y Y Y @.l l l l l l l K K K K K K K K K K K K K l l l K K K K O F F N n &./+N f P K l M N N N N N M R K l l l l l l l l l l l l l l l l l l l l l l l l l l l l l l l l l l @.@.@.@.@.@.@.@.@.@.@.@.@.l l l l l l l @.@.@.@.@.@.@.@.@.@.@.@.@.@.@.@.@.@.@.@.l K K l l l @.@.@.@.@.Y Y Y Y Y Y Y Y Y Y P P E E E P P @.K K @.l P e r v 2.] N d Y K R M N F F N M R K K l K l l l l l l l l l l l l l l l l l l l l l l l l l l l l @.@.@.@.@.@.@.@.@.@.@.@.@.@.@.@.@.@.@.@.",
"l l l l l l l l l l l l l l l l l l l l l @.@.@.@.@.@.l l l l l l l K K K K K K K K K K K K K l @.K l l @.l M M N N M i 5+_.d f h K Y R N N N N M R K l l l l l l l l l l l l l l l l l l l l l l l l l l l l l l l l l l l l l l l l l l l l l l l l l l l l l l l l l l l l l l l l l l l l l l l l l l l l K l l l @.@.@.@.@.Y Y Y Y Y Y Y Y Y Y P P P E E E E E P @.l K l @.P f q m 7.3+T.g P l K R M F N N N M R K l l l l l l l l l l l l l l l l l l l l l l l l l l l l l l l l l l l l l l l l l l l l l l l l l l l l l l l l l l l l l l l l l l l l l l l l l l l l @.@.@.@.@.@.l l l l l l l l K K K K K K K K K K K K K l l l K K K K F F O F r j /+N f P K l M N N N N M R K K l l l l l l l l l l l l l l l l l l l l l l l l l l l l l l l l l l l l l l l l l l l l l l l l l l l l l l l l l l l l l l l l l l l l l l l l l l l K l l l @.@.@.@.@.@.Y Y Y Y Y Y Y Y Y Y P P E E E P P Y K K @.@.P e r v 2.] N d Y K R M N N N N M R K K l K l l l l l l l l l l l l l l l l l l l l l l l l l l l l l l l l l l l l l l l l l l l l l l l l ",
"l l l l l l l l l l l l l l K K K K K K l l l l l l l l @.@.@.@.@.@.l l l l l l l l l l l l l l @.K l l @.l R R F F N i 2+}.n f E K @.R N N N N M R K l l l l l l l l l l l l l l l l l l l l l l l l l l l l l l l l l l l K K K K K K K K K K K K l l l l l l l l K K K K K K K K K K K K K K K K K K K K l l l l @.@.@.@.@.@.Y Y Y Y P P P P P P P P P E E E E E P Y l l l @.P f q m 7.3+T.e P l K R M F N N N M R K l l l l l l l l l l l l l l l l l l l l l l l l l l l l l l l l l l l K K K K K K K K K K K K K l l l l l l l l l l l l l l l l l l l l l K K K K K K l l l l l l l l @.@.@.@.@.@.l l l l l l l l l l l l l l l l l K K K K N N L F r U !+N f P K l M N M M M M R K l l l l l l l l l l l l l l l l l l l l l l l l l l l l l l l l l l l K K K K K K K K K K K K K l l l l l l l l K K K K K K K K K K K K K K K K K K K l l l l @.@.@.@.@.@.@.Y Y Y P P P P P P P P P E E E P P Y l l @.@.P e r v 2.] N d Y l K M N N N N M R K K l K l l l l l l l l l l l l l l l l l l l l l l l l l l l l K K K K K K K K K K K K K K K K K K K K ",
"l l l l l l l l l l l l l l K K K K K K l l l l l l l @.@.@.@.@.@.@.l l l l l l l l l l l l l l @.K l l @.l R K O O N )+2+[.c h P M l M N N N N M R K l l l l l l l l l l l l l l l l l l l l l l l l l l l l l l l l l l K K K K K K K K K K K K K K l l l l l l l K K K K K K K K K K K K K K K K K K K K l l @.@.@.@.Y @.@.@.Y Y Y Y P P P P P P P P P E E E E E P Y @.l l @.P f q m 7.3+T.e P @.K K M N M N N M K l @.l l l l l l l l l l l l l l l l l l l l l l l l l l l l l l l l l l K K K K K K K K K K K K K K l l l l l l l l l l l l l l l l l l l l K K K K K K K l l l l l l l @.@.@.@.@.@.@.l l l l l l l l l l l l l l l l K K K K M N O N q U /+N f P K l M N M M M R R K l l l l l l l l l l l l l l l l l l l l l l l l l l l l l l l l l l l K K K K K K K K K K K K K l l l l l l l K K K K K K K K K K K K K K K K K K K K K l l @.@.@.Y @.@.@.@.Y Y Y P P P P P P P P P E E E P P P l l Y Y E e r v 2.] N d P l K R M N N N M R K K l K l l l l l l l l l l l l l l l l l l l l l l l l l l l l K K K K K K K K K K K K K K K K K K K K ",
"l l l l l l l l l l l l l l l l l l l l l l l l l l l @.@.@.@.@.@.@.l l l l l l l l l l l l l l @.K l l @.l R R O O M Y.5+].e h P M l N N N N N M R K l l l l l l l l l l l l l l l l l l l l l l l l l l l l l l l l l l l l l l l l l l l l l l l l l l l l l l l l l l l l l l l l l l l l l l l l l l l @.@.@.@.@.Y Y @.@.@.Y Y Y Y P P P P P P P P P E E E E E E Y @.l @.Y P f q m 7.3+T.e E @.l K R N M M M R K l @.l l l l l l l l l l l l l l l l l l l l l l l l l l l l l l l l l l l l l l l l l l l l l l l l l l l l l l l l l l l l l l l l l l l l l l l l l l l l l l l l l l @.@.@.@.@.@.@.l l l l l l l l l l l l l l l l K K K K N N O M m 3.^+N f P K l M M M M M R K l l l l l l l l l l l l l l l l l l l l l l l l l l l l l l l l l l l l l l l l l l l l l l l l l l l l l l l l l l l l l l l l l l l l l l l l l l l l l @.@.@.@.Y Y @.@.@.@.Y Y Y P P P P P P P P P E E E P P P l @.Y Y E d r v 2.] N d P l K R M M M N M R K K l K l l l l l l l l l l l l l l l l l l l l l l l l l l l l l l l l l l l l l l l l l l l l l l l l ",
"l l l l l l l l l l l l l l l l l l l l @.@.@.@.@.@.@.@.@.@.@.@.@.@.@.@.@.@.@.@.@.@.@.@.@.@.@.@.@.K l l @.l R R O F R ,+3+).e h h l @.M N N N N M R K l l l l l l l l l l l l l l l l l l l l l l l l l l l l l l l l l l l l l l l l l l l l l l l l l l l l l l l l l l l l l l l l l l l l l l l l l l l @.@.@.@.Y Y Y @.@.@.Y Y Y Y E E E E E E E P P E E E E h E P @.@.@.Y P f q m 7.3+T.e E @.l K R N M M M R K @.@.l l l l l l l l l l l l l l l l l l l l l l l l l l l l l l l l l l l l l l l l l l l l l l l l l l l l l l l l l l l l l l l l l l l l l l l l l l l @.@.@.@.@.@.@.@.@.@.@.@.@.@.@.@.@.@.@.@.@.@.@.@.@.@.@.l l l K K K K N F F K s U f+N f P K l M M R M R R K l l l l l l l l l l l l l l l l l l l l l l l l l l l l l l l l l l l l l l l l l l l l l l l l l l l l l l l l l l l l l l l l l l l l l l l l l l l l l @.@.@.Y Y Y @.@.@.@.Y Y Y P E E E E E E P P E E E P P P @.@.P Y E d r v 2.] N d P @.l R M M M N M R K K l K l l l l l l l l l l l l l l l l l l l l l l l l l l l l l l l l l l l l l l l l l l l l l l l l ",
"l l l l l l l l l l l l l @.@.@.@.@.@.@.@.Y Y Y Y Y Y Y @.Y Y Y Y @.@.@.@.@.@.@.@.@.@.@.@.@.@.@.@.l l l @.K R R O N K Y.5+4.d f f @.Y R M N N M M R K l l l l l l l l l l l l l l l l l l l l l l l l l l l l l l l l l l @.@.@.@.@.@.@.@.@.@.@.@.@.@.l l l l l l l @.@.@.@.@.@.@.@.@.@.@.@.@.@.@.@.@.@.@.@.@.@.@.@.Y Y Y @.@.@.Y Y Y Y E E E E E E E P P E E E E h E P @.@.@.Y E f r a 7.3+T.d E Y l K R N M M R R l @.@.l l l l l l l l l l l l l l l l l l l l l l l l l l l l l l l l l l @.@.@.@.@.@.@.@.@.@.@.@.@.@.l l l l l l l l l l l l l l l l l l l l @.@.@.@.@.@.@.Y Y Y Y Y Y Y @.Y Y Y Y @.@.@.@.@.@.@.@.@.@.@.@.@.@.@.l @.l l K K K N N F l s 3.f+N f Y l K R N M R R R K l l l l l l l l l l l l l l l l l l l l l l l l l l l l l l l l l l l @.@.@.@.@.@.@.@.@.@.@.@.@.@.@.l l l l l l @.@.@.@.@.@.@.@.@.@.@.@.@.@.@.@.@.@.@.@.@.@.@.@.Y Y Y Y @.@.@.Y Y Y P E E E E E E P P E E E P P P @.@.Y Y h e r v 2.[ M d P @.l R R M M M M R K l l l l l l l l l l l l l l l l l l l l l l l l l l l l l l @.@.@.@.@.@.@.@.@.@.@.@.@.@.@.@.@.@.@.@.@.",
"@.@.@.@.@.@.@.@.@.@.@.@.@.@.@.@.@.@.@.@.@.@.@.@.@.@.@.l l @.@.@.l l @.@.@.@.@.@.@.@.@.@.@.@.@.@.Y Y Y @.l K R @.N R R i V.].n f Y K K R R M M M M K l @.@.@.@.@.@.@.K K l l @.@.@.@.@.@.@.@.@.@.@.@.@.@.@.@.@.@.@.@.@.@.@.@.Y Y Y Y Y Y Y Y Y Y Y Y Y @.@.@.@.@.@.@.@.@.@.@.@.@.@.@.@.@.@.@.@.@.@.@.@.@.@.@.@.@.@.@.Y Y Y Y Y Y Y Y Y Y E E E E E E E E E E h h h h E P @.@.@.Y h e c w }.5 %.e E Y l R R M M M R l l @.@.@.@.@.@.@.@.@.@.@.@.@.@.@.@.@.@.@.@.@.@.@.@.@.@.@.@.@.@.@.@.@.@.@.@.@.@.@.@.@.@.@.@.@.@.@.@.@.@.@.@.@.@.@.@.@.@.@.@.@.@.@.@.@.@.@.@.@.@.Y Y Y Y Y Y Y @.@.@.@.@.@.@.l @.@.@.@.l l @.@.@.@.@.@.@.@.@.@.@.@.@.@.Y Y Y l K K R R F l q 8 f+N g Y Y R K N N M M R K K l @.@.l l K K l @.@.@.@.@.@.@.@.@.@.@.@.@.@.@.@.@.@.@.@.@.@.@.@.@.@.@.Y Y Y Y Y Y Y Y Y Y Y Y Y @.@.@.@.@.@.@.@.@.@.@.@.@.@.@.@.@.@.@.@.@.@.@.@.@.Y Y P Y Y Y Y Y Y Y Y Y Y Y Y Y P P P E E E E E E E E E E E P Y @.@.P f e q x ^.^ M n h @.l R M M N M K K l @.@.@.@.@.@.@.@.@.@.@.@.@.@.@.@.@.@.@.@.@.@.@.@.@.@.@.@.@.@.@.@.@.@.@.@.@.@.@.@.@.@.@.@.@.@.@.@.@.@.@.",
"@.@.@.@.@.@.@.@.@.@.@.@.@.@.@.@.@.@.@.@.@.@.@.@.@.@.@.l l @.Y @.@.l @.@.@.@.@.@.@.@.@.@.@.@.@.@.@.@.@.@.@.l R l F M R c.V.].n f P K l K R M M M R K l @.@.@.@.@.@.@.l l l l @.@.@.@.@.@.@.@.@.@.@.@.@.@.@.@.@.@.@.@.@.@.@.@.l l l l l l l l l l l l l @.@.@.@.@.@.@.@.@.@.@.@.@.@.@.@.@.@.@.@.@.@.@.@.@.@.@.@.@.@.Y Y Y Y P P P P P P P E E E E E E E E E E h h h h E P @.@.@.Y h e c w }.5 %.e h Y l K R R M M R l l @.@.K K K K K K l @.@.@.@.@.@.@.@.@.@.@.@.@.@.@.@.@.@.@.@.@.@.@.@.@.@.@.@.@.@.@.@.@.@.@.@.@.@.@.@.@.@.@.@.@.@.@.@.@.@.@.@.@.@.@.@.@.@.@.@.@.l l l l l l l @.@.@.@.@.@.@.l @.@.Y @.l l @.@.@.@.@.@.@.@.@.@.@.@.@.@.Y Y Y l K K N R F K c 8 ^+N g Y Y R K M M M M R K K l @.@.l l l l @.@.@.@.@.@.@.@.@.@.@.@.@.@.@.@.@.@.@.@.@.@.@.@.@.@.@.@.l l l l l l l l l l l l l @.@.@.@.@.@.@.@.@.@.@.@.@.@.@.@.@.@.@.@.@.@.@.@.@.Y Y P P P P P P P P P P P P P P P P P E E E E E E E E E E E P Y @.@.P f e q x ^.^ M n h @.l R M M N M K K l @.@.@.l l l l l l l @.@.@.@.@.@.@.@.@.@.@.@.@.@.@.@.@.@.@.@.@.@.@.@.@.@.@.@.@.@.@.@.@.@.@.@.@.@.@.@.@.",
"@.@.@.@.@.@.@.@.@.@.@.@.@.@.@.@.@.@.@.@.@.@.@.@.@.@.@.@.@.Y Y Y @.@.@.@.@.@.@.@.@.@.@.@.@.@.@.@.l @.@.@.@.@.K K F M M W.2+4.c f P @.l K R M M M R K l @.@.@.@.@.@.@.l l l @.@.@.@.@.@.@.@.@.@.@.Y Y Y Y Y Y @.@.@.@.@.@.@.l l l l l l l l l l l l l l @.@.@.@.@.@.@.@.@.@.@.@.@.@.@.@.@.@.@.@.@.@.@.@.@.@.@.@.Y Y Y Y Y P P P P P P P P E E E E E E E E E E h h h h h P Y @.Y Y h e c w }.5 %.e h P @.K R R M R R l l @.@.l l l l l l l @.@.@.@.@.@.@.@.@.@.@.@.@.@.@.@.@.@.@.@.@.@.@.@.@.@.@.@.@.@.@.@.@.@.@.@.@.@.@.@.@.@.@.@.@.@.@.@.@.@.@.@.@.@.@.@.@.@.@.@.@.l l l l l l l @.@.@.@.@.@.@.@.@.Y Y Y @.@.@.@.@.@.@.@.@.@.@.@.@.@.@.@.Y Y Y l K K F R F M g 8 !+M g P Y R l M M M R K K l l @.@.@.@.l l @.@.@.@.@.@.@.@.@.@.@.@.@.@.@.@.@.@.@.@.@.@.@.@.@.@.@.@.l l l l l l l l l l l l l @.@.@.@.@.@.@.@.@.@.@.@.@.@.@.@.@.@.@.@.@.@.@.@.@.Y Y P P P P P P P P P P P P P P P P P E E E E E E E E E E E P Y @.Y E f d q x ^.^ M n h @.l R M M N M K l l @.@.@.l l l l l l l @.@.@.@.@.@.@.@.@.@.@.@.@.@.@.@.@.@.@.@.@.@.@.@.@.@.@.@.@.@.@.@.@.@.@.@.@.@.@.@.@.",
"@.@.@.@.@.@.@.@.@.@.@.@.@.@.@.@.@.@.@.@.@.@.@.@.@.@.@.@.@.Y Y Y @.@.Y Y Y Y Y Y Y Y Y Y Y Y Y @.l @.@.@.@.@.K K F M M W.2+4.c g E Y @.K K R R R R l @.Y Y Y Y Y Y Y @.@.@.@.@.@.@.Y Y Y Y Y Y Y Y Y Y Y Y Y @.@.@.@.@.@.@.l l l l l l l l l l l l l l @.@.@.@.@.@.@.Y Y Y Y Y Y @.@.@.@.@.@.@.@.@.@.@.@.@.@.Y Y Y Y P P P P P P P P P P E E E E E E E E E E h h h f h P Y Y Y P h e c w }.5 %.d h P @.K R R M R R l l @.@.Y Y Y Y Y Y @.@.@.@.@.@.@.@.@.@.@.@.@.@.Y Y Y Y Y Y Y Y Y Y Y Y Y Y @.@.@.@.@.@.@.Y Y Y Y Y Y Y Y Y Y Y Y Y Y Y Y Y Y Y Y Y Y Y Y Y Y Y l l l l l l l Y Y Y Y Y Y Y @.Y Y Y Y @.@.Y Y Y Y Y Y Y Y Y Y Y Y Y @.Y Y Y l K K F R F N g 8 !+M e P P K l M M R R K K l l @.@.@.@.@.@.Y Y Y Y Y Y Y Y Y Y Y Y Y Y @.@.@.@.@.@.@.Y Y Y Y Y Y @.l l l l l l l l l l l l l @.@.@.@.@.@.@.Y Y Y Y Y Y Y @.@.@.@.@.@.@.@.@.@.@.Y Y P P P P P P P P P P P P P P P P P E E E E h h h h h h h E P Y Y E g d q x ^.^ M n h @.l R M M N M K l l @.@.@.l l l l l l l @.@.@.@.@.@.@.@.@.@.@.@.@.@.@.@.@.@.@.@.@.@.@.@.@.@.@.@.@.@.@.@.@.@.@.@.@.@.@.@.@.",
"@.@.@.@.@.@.@.@.@.@.@.@.@.@.@.@.@.@.@.@.@.@.@.@.@.@.@.@.Y Y P P Y @.Y Y Y Y Y Y Y Y Y Y Y Y Y Y l @.@.@.@.l R K F M R c.V.4.c g h P Y K K R R R K l @.Y Y Y Y Y Y Y Y Y Y @.@.@.@.Y Y Y Y Y Y Y @.@.@.@.@.@.@.@.@.@.@.@.@.l l l l l l l l l l l l l l @.@.@.@.@.@.@.Y Y Y Y Y Y Y @.@.@.@.@.@.@.@.@.@.@.@.@.Y Y Y P P P P P P P P P P P E E E E E E E E E E h h h f h E Y Y Y P h e c w }.5 %.d f P Y l K R M M R l l @.@.Y Y Y Y Y Y Y @.@.@.@.@.@.@.@.@.@.@.@.@.Y Y Y Y Y Y Y Y Y Y Y Y Y Y @.@.@.@.@.@.@.Y Y Y Y Y Y Y Y Y Y Y Y Y Y Y Y Y Y Y Y Y Y Y Y Y Y Y l l l l l l l Y Y Y Y Y Y Y Y Y P P Y Y Y Y Y Y Y Y Y Y Y Y Y Y Y Y @.Y Y Y l K K N R F R d 8 /+M e P P K @.R R R K K l l l @.@.@.@.Y Y Y Y Y Y Y Y Y Y Y Y Y Y Y Y @.@.@.@.@.@.@.Y Y Y Y Y Y @.l l l l l l l l l l l l l @.@.@.@.@.@.@.Y Y Y Y Y Y Y @.@.@.@.@.@.@.@.@.@.@.Y Y P P P P P P P P P P P P P P P P P E E E E h h h h h h h E P Y P h g d q x ^.^ M n h @.l R M M N M K K l @.@.@.@.@.@.@.@.@.@.@.@.@.@.@.@.@.@.@.@.@.@.@.@.@.@.@.@.@.@.@.@.@.@.@.@.@.@.@.@.@.@.@.@.@.@.@.@.@.@.@.",
"@.@.@.@.@.@.@.@.@.@.@.@.@.@.@.@.@.@.@.@.@.@.@.@.@.@.@.Y Y P P P Y Y Y Y Y Y Y Y Y Y Y Y Y Y Y Y @.Y Y @.l K R l N R R i V.4.c g f P Y l l R R R K @.@.Y Y Y Y Y Y Y Y Y Y @.@.@.@.Y Y Y Y Y Y Y @.@.@.@.@.@.@.@.@.@.@.@.@.@.@.@.@.@.@.@.@.@.@.@.@.@.@.@.@.@.@.@.@.@.Y Y Y Y Y Y Y @.@.@.@.@.@.@.@.@.@.@.@.@.Y Y P P P E E E E E E E E E E E E E E E E E E E h h h f f E P Y P E h e c w }.5 %.d f E Y l K K M M R l l @.@.Y Y Y Y Y Y @.@.@.@.@.@.@.@.@.@.@.@.@.@.Y Y Y Y Y Y Y Y Y Y Y Y Y Y @.@.@.@.@.@.@.Y Y Y Y Y Y Y Y Y Y Y Y Y Y Y Y Y Y Y Y Y Y Y Y Y Y Y @.@.@.@.@.@.@.Y Y Y Y Y Y Y Y P P P P Y Y Y Y Y Y Y Y Y Y Y Y Y Y Y @.Y Y Y l K K R R F l r 8 g+R e E P K @.R R R K l l @.@.@.@.@.Y Y Y Y Y Y Y Y Y Y Y Y Y Y Y Y Y @.@.@.@.@.@.@.Y Y Y Y Y Y Y @.@.@.@.@.@.@.@.@.@.@.@.@.@.@.@.@.@.@.@.Y Y Y Y Y Y Y @.@.@.@.@.@.@.@.@.@.@.Y Y P E E E E E E E E E E E E E P P P E E E E h h h h h h h E P Y P h g c q x ^.^ M n h @.l R M M N M K K l @.@.@.Y Y Y Y Y Y Y @.@.@.@.@.@.@.@.@.@.@.@.@.@.@.@.@.@.@.@.@.@.@.@.@.@.@.@.@.@.@.@.@.@.@.@.@.@.@.@.@.",
"@.@.@.@.@.@.@.@.@.@.@.@.@.@.@.@.@.@.@.@.@.@.@.@.@.@.@.Y Y P P P Y Y Y Y Y Y Y Y Y Y Y Y Y Y Y Y Y Y Y @.l l K l N l R i V.4.c f h P Y K K K R K l @.@.Y Y Y Y Y Y Y P Y Y Y @.@.@.Y Y Y Y Y Y Y @.@.@.@.@.@.@.@.@.@.@.@.@.Y Y Y Y Y Y Y Y Y Y Y Y Y Y @.@.@.@.@.@.Y Y Y Y Y Y Y Y @.@.@.@.@.@.@.@.@.@.@.@.@.Y P P E E E E E E E E E E E E E E E E E E E h h h f f f f h P Y P P f g n D }.5 %.d f E P @.l K R R K l l @.@.@.@.@.@.@.@.@.@.@.@.@.@.@.@.@.@.@.@.@.@.Y Y Y Y Y Y Y Y Y Y Y Y Y Y @.@.@.@.@.@.Y Y Y Y Y Y Y Y Y Y Y Y Y Y Y Y Y Y Y Y Y Y Y Y Y Y Y Y Y Y Y Y Y Y Y Y Y Y Y Y Y Y Y Y P P Y Y Y Y Y Y Y Y Y Y Y Y Y Y Y Y Y Y Y Y @.l l R M N l r 3.g+M e E P l @.R R R K l l @.@.@.@.@.Y Y P Y Y Y Y Y Y Y Y Y Y Y Y Y Y @.@.@.@.@.@.Y Y Y Y Y Y Y Y Y Y Y Y Y Y Y Y Y Y Y Y Y Y @.@.@.@.@.@.Y Y Y Y Y Y Y @.@.@.@.@.@.@.@.@.@.@.Y P P E E E E E E E E E E E E E E P E E E E E h h h h h f f E P Y P E f d q v ^.2 N n h Y @.K R R M R K l @.@.Y Y Y P P P P P P @.@.@.@.@.@.@.@.@.@.@.@.@.@.@.@.@.@.@.@.@.@.@.@.@.@.@.@.@.@.@.@.@.@.@.@.@.@.@.@.@.",
"Y Y Y Y Y Y Y Y Y Y Y Y Y Y Y Y Y Y Y Y Y Y Y Y Y Y Y Y Y Y Y Y Y Y Y Y Y Y Y Y Y P Y Y Y Y P P Y Y Y @.@.@.l l N @.M c.2+).c h E Y @.K K K K K l @.Y Y Y Y Y Y Y Y Y Y Y Y Y Y Y Y Y Y Y Y Y Y Y Y Y Y Y Y Y Y Y Y Y Y Y Y Y Y Y Y Y Y Y Y Y Y Y Y Y Y Y Y Y Y Y Y Y Y Y Y Y Y Y Y Y Y Y Y Y Y Y Y Y Y Y Y Y P E E E E E E E E E E E E E E E h h h h h f f f f g f h h E Y Y P f f q a 7.5 %.d f E P Y @.K K K K l @.@.@.Y Y Y Y Y Y Y Y Y Y Y Y Y Y Y Y Y Y Y Y Y Y Y Y Y Y Y Y Y Y Y Y Y Y Y Y Y Y Y Y Y Y Y Y Y Y Y Y Y Y Y Y Y Y Y Y Y Y Y Y Y Y Y Y Y Y Y Y Y Y Y Y Y Y Y Y Y Y Y Y Y Y Y Y Y Y Y Y Y Y Y Y Y Y Y P P Y Y Y Y P Y Y Y Y @.@.@.l M R l r U /+M e E P l @.K R R K l l l @.Y Y Y Y Y Y Y Y Y Y Y Y Y Y Y Y Y Y Y Y Y Y Y Y Y Y Y Y Y Y Y Y Y Y Y Y Y Y Y Y Y Y Y Y Y Y Y Y Y Y Y Y Y Y Y Y Y Y Y Y Y Y Y Y Y Y Y Y Y Y Y Y P P P E E E E E E E E E E h h h E E E E h h h h h f f f g g E P Y P E h e b =.^.0 O r h P Y @.l K K l l @.@.Y Y P Y Y Y Y Y Y Y Y Y Y Y Y Y Y Y Y Y Y Y Y Y Y Y Y Y Y Y Y Y Y Y Y Y Y Y Y Y Y Y Y Y Y Y Y Y Y Y Y ",
"Y Y Y Y Y Y Y Y Y Y Y Y Y Y Y Y Y Y Y Y Y Y Y Y Y Y Y P P P P P P P P P P P P P P P P Y Y Y P P Y Y Y @.@.@.l l N @.M c.2+).c f E Y @.K K K K K l @.Y Y Y Y Y Y Y Y Y Y Y Y Y Y Y Y Y Y Y Y Y Y Y Y Y Y Y Y Y Y Y Y Y Y Y Y Y Y Y Y Y Y Y Y Y Y Y Y Y Y Y Y Y Y Y Y Y Y Y Y Y Y Y Y Y Y Y Y Y Y Y Y Y Y Y Y Y P E E E E E E E E E E E E E E E h h h h h f f f f g f h f E Y Y E f f q a 7.5 %.d f E P Y @.K K K K l @.@.@.Y Y Y Y Y Y Y Y Y Y Y Y Y Y Y Y Y Y Y Y Y Y Y Y Y Y Y Y Y Y Y Y Y Y Y Y Y Y Y Y Y Y Y Y Y Y Y Y Y Y Y Y Y Y Y Y Y Y Y Y Y Y Y Y Y Y Y Y Y Y Y Y Y Y Y Y Y Y Y Y Y Y P P P P P P P P P P P P P P P Y Y Y P P Y Y Y Y @.@.@.@.R R l q U !+M e E P l @.K R R K l l @.@.Y Y Y Y Y Y Y Y Y Y Y Y Y Y Y Y Y Y Y Y Y Y Y Y Y Y Y Y Y Y Y Y Y Y Y Y Y Y Y Y Y Y Y Y Y Y Y Y Y Y Y Y Y Y Y Y Y Y Y Y Y Y Y Y Y Y Y Y Y Y Y Y P P P E E E E E E E E E E h h h E E E E h h h h h f f f g g E P Y P E f d b =.^.0 O r h P Y @.l K K l l @.@.Y Y P Y Y Y Y Y Y Y Y Y Y Y Y Y Y Y Y Y Y Y Y Y Y Y Y Y Y Y Y Y Y Y Y Y Y Y Y Y Y Y Y Y Y Y Y Y Y Y Y ",
"Y Y Y Y Y Y Y Y Y Y Y Y Y Y Y Y Y Y Y Y Y Y Y Y Y Y Y P P P P P P P P P P P P P P P P Y Y P P P Y Y Y @.@.@.l l N @.M c.2+4.n f E Y Y K K K K K l @.Y Y Y Y Y Y Y Y Y Y Y Y Y Y Y Y Y Y Y Y Y Y Y Y Y Y Y Y Y Y Y Y Y Y Y Y Y Y Y Y Y Y Y Y Y Y Y Y Y Y Y Y Y Y Y Y Y Y Y Y Y Y Y Y Y Y Y Y Y Y Y Y Y Y Y Y Y P E E E E E E E E E E E E E E E h h h h h f f f f g f f f h P Y E f f q a 7.5 %.d f E P Y @.K K K K l @.@.@.Y Y Y Y Y Y Y Y Y Y Y Y Y Y Y Y Y Y Y Y Y Y Y Y Y Y Y Y Y Y Y Y Y Y Y Y Y Y Y Y Y Y Y Y Y Y Y Y Y Y Y Y Y Y Y Y Y Y Y Y Y Y Y Y Y Y Y Y Y Y Y Y Y Y Y Y Y Y Y Y Y Y P P P P P P P P P P P P P P P P Y Y P P Y Y Y Y @.@.@.K N M K n j /+M e E P l @.K R K l l @.@.Y Y Y Y Y Y Y Y Y Y Y Y Y Y Y Y Y Y Y Y Y Y Y Y Y Y Y Y Y Y Y Y Y Y Y Y Y Y Y Y Y Y Y Y Y Y Y Y Y Y Y Y Y Y Y Y Y Y Y Y Y Y Y Y Y Y Y Y Y Y Y Y Y P P P E E E E E E E E E E h h h E E E E h h h h h f f f g g E E P P h f d b =.^.0 O r h P Y @.l K K l l @.@.Y Y P Y Y Y Y Y Y Y Y Y Y Y Y Y Y Y Y Y Y Y Y Y Y Y Y Y Y Y Y Y Y Y Y Y Y Y Y Y Y Y Y Y Y Y Y Y Y Y Y ",
"Y Y Y Y Y Y Y Y Y Y Y Y Y Y Y Y Y Y Y Y Y Y Y Y Y Y Y P P P P P P P P P P P P P P E P P P P P E Y Y Y @.@.@.l l N @.M c.2+4.n f h P Y l K K K K l @.Y Y Y Y Y Y Y Y Y Y Y Y Y Y Y Y Y Y Y Y Y Y Y Y Y Y Y Y Y Y Y Y Y Y Y Y Y Y Y Y Y Y Y Y Y Y Y Y Y Y Y Y Y Y Y Y Y Y Y Y Y Y Y Y Y Y Y Y Y Y Y Y Y Y Y Y Y P E E E E E E E E E E E E E E E h h h h h f f f f g f f f h P P h f f q a 7.5 %.d f E P Y @.K K K K l @.@.@.Y Y Y Y Y Y Y Y Y Y Y Y Y Y Y Y Y Y Y Y Y Y Y Y Y Y Y Y Y Y Y Y Y Y Y Y Y Y Y Y Y Y Y Y Y Y Y Y Y Y Y Y Y Y Y Y Y Y Y Y Y Y Y Y Y Y Y Y Y Y Y Y Y Y Y Y Y Y Y Y Y Y P P P P P P P P P P P P P E P P P P P E Y Y Y Y @.@.@.K N M l r j /+M e E P l @.K K K l l @.@.Y Y Y Y Y Y Y Y Y Y Y Y Y Y Y Y Y Y Y Y Y Y Y Y Y Y Y Y Y Y Y Y Y Y Y Y Y Y Y Y Y Y Y Y Y Y Y Y Y Y Y Y Y Y Y Y Y Y Y Y Y Y Y Y Y Y Y Y Y Y Y Y Y P P P E E E E E E E E E E h h h E E E E h h h h h f f f g g h E P E h f d b =.^.0 O r h P Y @.l K K l l @.@.Y Y P Y Y Y Y Y Y Y Y Y Y Y Y Y Y Y Y Y Y Y Y Y Y Y Y Y Y Y Y Y Y Y Y Y Y Y Y Y Y Y Y Y Y Y Y Y Y Y Y ",
"Y Y Y Y Y Y Y Y Y Y Y Y Y Y Y Y Y Y Y Y Y Y Y Y Y Y Y P P P P P P P P P P P P P P E E P P P E E Y Y Y @.@.@.l l N @.M c.2+4.n g h P P l K K K K l @.Y Y Y Y Y Y Y Y Y Y Y Y Y Y Y Y Y Y Y Y Y Y Y Y Y Y Y Y Y Y Y Y Y Y Y Y Y Y Y Y Y Y Y Y Y Y Y Y Y Y Y Y Y Y Y Y Y Y Y Y Y Y Y Y Y Y Y Y Y P P P P P P P Y P E E E E E E E E E E E E E E E h h h h h f f f f g f g g h P P h f f q a 7.5 %.d f E P Y @.K K K K l @.@.@.Y Y Y Y Y Y Y Y Y Y Y Y Y Y Y Y Y Y Y Y Y Y Y Y Y Y Y Y Y Y Y Y Y Y Y Y Y Y Y Y Y Y Y Y Y Y Y Y Y Y Y Y Y Y Y Y Y Y Y Y Y P P P P P P P Y Y Y Y Y Y Y Y Y Y Y Y Y Y P P P P P P P P P P P P P E E P P P E E Y Y Y Y @.@.@.@.R R l q U !+M e E P l @.K K l l @.@.Y Y Y Y Y Y Y Y Y Y Y Y Y Y Y Y Y Y Y Y Y Y Y Y Y Y Y Y Y Y Y Y Y Y Y Y Y Y Y Y Y Y Y Y Y Y Y Y Y Y Y Y Y Y Y Y Y Y Y Y Y Y Y P P P P P P P Y Y Y Y P P P E E E E E E E E E E h h h E E E E h h h h h f f f g g h E E E h g c b =.^.0 O r h P Y @.l K K l l @.@.Y Y P Y Y Y Y Y Y Y Y Y Y Y Y Y Y Y Y Y Y Y Y Y Y Y Y Y Y Y Y Y Y Y Y Y Y Y Y Y Y Y Y Y Y Y Y Y Y Y Y ",
"Y Y Y Y Y Y Y Y Y Y Y Y Y Y Y Y Y Y Y Y Y Y Y Y Y Y Y P E E E E E E E E E E E E E E E P P P E E Y Y Y @.@.@.l l N @.M c.2+4.r g h P P l l K K K l @.Y Y Y Y Y Y Y Y Y Y Y Y Y Y Y Y Y Y Y Y Y Y Y Y Y Y Y Y Y Y Y Y Y Y Y Y Y Y Y Y Y Y Y Y Y Y Y Y Y Y Y Y Y Y Y Y Y Y Y Y Y Y Y Y Y Y Y Y Y P P P P P P P Y P E E E E E E E E E E E E E E E h h h h h f f f f g g g g h E P h g f q a 7.5 %.d f E P Y @.K K K K l @.@.@.Y Y Y Y Y Y Y Y Y Y Y Y Y Y Y Y Y Y Y Y Y Y Y Y Y Y Y Y Y Y Y Y Y Y Y Y Y Y Y Y Y Y Y Y Y Y Y Y Y Y Y Y Y Y Y Y Y Y Y Y Y P P P P P P P Y Y Y Y Y Y Y Y Y Y Y Y Y P E E E E E E E E E E E E E E E P P P E E Y Y Y Y @.@.@.l M R l r j /+M e E P l @.K K l l @.Y Y Y Y Y Y Y Y Y Y Y Y Y Y Y Y Y Y Y Y Y Y Y Y Y Y Y Y Y Y Y Y Y Y Y Y Y Y Y Y Y Y Y Y Y Y Y Y Y Y Y Y Y Y Y Y Y Y Y Y Y Y Y Y P P P P P P P Y Y Y Y P P P E E E E E E E E E E h h h E E E E h h h h h f f f g g h h E E h g c b =.^.0 O r h P Y @.l K K l l @.@.Y Y P Y Y Y Y Y Y Y Y Y Y Y Y Y Y Y Y Y Y Y Y Y Y Y Y Y Y Y Y Y Y Y Y Y Y Y Y Y Y Y Y Y Y Y Y Y Y Y Y ",
"@.@.@.@.@.@.@.@.@.@.@.@.@.@.@.@.@.@.@.@.Y Y Y Y Y Y Y P P P P P P P E h h h E E E E P P E E E h P P Y Y @.@.l @.K l N W.5+_.r e f @.l @.l l l l @.@.@.@.@.Y P P P Y Y Y Y @.@.@.@.@.@.@.@.Y Y Y P P P P P P Y @.@.@.@.@.@.Y Y Y Y Y Y P @.@.@.@.@.@.@.@.@.@.@.@.@.Y P P P P P P P P P P P P P P P P P P P P Y Y P E E P E h h h h h h h h h h f f f h h f f f f g g g f h E E h f d q s 7.3+%.d f E Y @.l K l l l l @.Y Y @.@.@.@.@.@.@.@.Y Y Y P P Y Y P P P P P Y @.@.@.@.@.@.@.@.@.@.@.@.@.P P P P P P P P P P P P P P P P P P P P Y @.@.@.@.@.@.Y Y Y Y Y Y Y @.@.@.@.@.@.Y P P P P Y Y Y P E E E E P E h h h h h h E P P P P E E P P P Y Y @.@.l K K K r j ;+M e h Y @.l K l l l l @.Y Y Y Y Y Y Y Y Y @.Y Y Y P P Y @.@.@.@.@.@.P P P P P P Y @.@.@.@.@.@.@.@.Y Y Y Y P Y @.@.@.@.@.@.@.@.@.@.@.@.@.Y P P P P P P P P P P P P P P P P P P P E h h h h h h E P P E E E E E E E E h h h f f h h f g g h h h E h g c q x ^.1 F n f E P @.l K K l l @.@.Y Y P Y Y Y Y Y Y Y P P P P P P P P P P P P P Y @.@.@.@.@.@.Y P P P P Y Y Y Y Y Y Y Y Y @.@.@.@.@.@.@.",
"Y Y Y Y Y Y Y Y Y Y Y Y Y Y Y Y Y Y Y Y Y Y Y Y Y Y Y P P P P P P P h h h h E E E P P P E E E E E P P Y Y @.@.Y l K N c.3+].r e g @.K @.@.l l @.@.@.@.@.@.Y P P P Y P Y Y Y @.@.@.@.@.Y Y Y Y P P P P P P P Y Y Y Y Y Y Y Y Y Y @.Y P E Y Y Y Y Y Y Y P P P P P P P P P P P P P P P P P P P P P P P P P P P P P P P P E E h h h h h h h f f f f f f f h f f f f g g f h h E h h f c q D 7.5+T.d f E Y l K K l l l l @.Y P Y Y Y Y Y Y Y Y Y Y Y P P Y Y P P P P E Y Y Y Y Y Y Y Y Y Y Y Y Y Y P P P P P P P P P P P P P P P P P P P P Y Y Y Y Y Y Y Y Y Y Y Y Y Y Y Y Y Y Y Y Y P P P P P P P P E h h E E E E E E E E E P P P P P E E E P P P Y @.@.l K R K r &.;+M e h @.Y K K l l l l @.Y P Y Y Y Y Y Y Y Y Y Y Y P P Y Y Y Y Y Y Y P P P P P P P Y Y Y Y Y Y Y P P P P E E P Y Y Y Y Y Y Y P P P P P P P P P P P P P P P P P P P P P P P P P P P E E E E E E E P E E E E h E E E h h h f f f h h f g g h f h E h e n q C ^.[ N n g E P @.l l K l l @.@.Y Y P Y Y Y Y Y Y Y P P P P P P P P P P P P P P Y Y Y Y Y Y P E P P P P Y Y Y Y Y Y Y Y Y Y Y Y Y Y Y ",
"P P P P P P P P P P P P P P P P P P P P Y Y Y Y Y Y Y P E E E E E E h h E E E P P P P P E E E E h E P P Y Y @.@.R K K )+5 4.n e g P @.@.@.l l @.@.@.@.@.@.Y P P P Y P P P P Y Y Y Y Y P P P P P P P P P P P P P P P P P P Y Y Y @.Y P E P P P P P P P E E E E E E E P P P P P P P P P P P P P P P P P P P P P P E E E E h h h h h h h h f f f f f f f h f f f f g g f h h E h h f c q D 7.5+T.c g h P @.l l l l l l @.Y P P P P P P P P P P Y Y Y Y Y Y P P P P E P P P P P P P P P P P P P P P P P P P P P P P P P P P P P P P P P P P P P P P P P P P P P P P P P P P P P P P P P P P P P P E h h h h E E E E E E E E P P P E E E E P P P Y @.@.@.K M M l b &./+M e h @.Y K K l l l l @.Y P Y Y Y Y Y Y P P P Y Y Y Y P P P P P P P P P P P P P P P P P P P P P P E E E E h E P P P P P P E E E E E E E P P P P P P P P P P P P P P P P P P P P P E E E E E E E E E h h h h h h h h f f f h h f f f g g h f h E h e n b x ^.^ M n g E P @.l l K l l @.@.Y Y P Y Y Y Y Y Y Y P P P P P P P P P P P P P P P P P P P P P E P P P P Y Y Y Y Y Y Y Y P P P P P P P ",
"P P P P P P P P P P P P P P P P P P P P Y Y Y Y Y Y Y P E E E E E E E E E P P P P Y P P P E E E h E E P P Y @.l M R @.Y.5 ).c g e E @.@.@.l l @.@.@.@.@.@.Y P P P Y E E P P P P P P P P P E E E P P P P P P P P P P P P P Y Y Y @.Y P E P P P P P P P h h h h h h E P P P P P P P P P P P P P P P P P P P P P E E E E h h h h h h h h h h h h h h h h h f f f f g g f h h E h h f c q D 7.5+T.n e h E Y @.l l l l l @.Y P P P P P P P P P P Y Y Y @.Y Y P P P P E P P P P P P P P P P P P P P P P P P P P P P P P P P P P P P P P P P P P P P P P P P P P P P P P P P P P P P P Y Y P P E E E E E h h h E P P P P P P P P P P P E E E P P Y Y @.@.l @.R R P D U ^+M e h @.Y K K l l l l @.Y P Y Y Y Y Y Y P P P Y Y @.@.P P P P P P P P P P P P P P P P P P P P P P P P E E E P P P P P P P E h h h h h h P P P P P P P P P P P P P P P P P P P P P E E E E E E E E h h h h h h h h f f f f h h f g g f f h f h E h e n b x ^.^ M n g E P @.l l K l l @.@.Y Y P Y Y Y Y Y Y Y P P P P P P P P P P P P P P P P P P P P P E P P P P Y Y Y Y Y Y Y Y E E E E E E E ",
"P P P P P P P P P P P P P P P P P P P P Y Y Y Y Y Y Y P E E E E E E P P P P Y Y Y Y Y Y P P P E E E P P Y Y @.l M R l Y.5 4.c f g h Y l @.l l @.@.@.@.@.@.Y P P P Y E E P P P P P P P P P E E P P P P P P P P P P P P P P Y Y Y @.Y P E Y Y Y Y Y Y Y P P P P P P P P P P P P P P P P P P P P P P P P P P P P P P E E E E E E E E E E E h h h h h h h h f f f f g g f h h E h h f c q D 7.5+T.c g h P Y @.l l l l l @.Y P P P P P P P P P P Y Y Y @.Y Y P P P P E P P P P P P P P P P P P P P P P P P P P P P P P P P P P P P P P P P P P P P P P P P P P P P P P P P P P P P P Y Y P P E E P P P E E P P P P P P P P P Y Y Y P P P P P P Y @.@.l l l R R Y s j g+M e h @.Y K K l l l l @.Y P Y Y Y Y Y Y P P P Y Y Y @.Y Y Y Y Y Y Y P P P P P P P P P P P P P P Y Y Y P P P Y Y Y Y Y Y Y Y P P P P P P P P P P P P P P P P P P P P P P P P P P P E E E E E E E E E E h h h h h h h h f f E h f g g f f h f h E h e n b v ^.^ R r g E P @.l l K l l @.@.Y Y P Y Y Y Y Y Y Y P P P P P P P P P P P P P P P P P P P P P E P P P P Y Y Y Y Y Y Y Y E E E E E E E ",
"Y Y Y Y Y Y Y Y Y Y Y Y Y Y Y Y Y Y Y Y Y Y Y Y Y Y Y Y Y Y Y Y Y Y Y Y Y Y @.@.@.Y Y Y Y P P P P Y Y @.@.l l l R K R )+5+_.n f f E Y l l l l @.@.@.@.@.@.Y P P P Y P Y Y Y Y @.@.@.@.Y Y Y P P P P P P P P P Y Y Y Y Y Y Y Y Y @.Y P E Y Y Y Y Y Y Y Y Y Y Y Y Y Y P P P P P P P P P P P P P P P P P P P P Y Y Y Y Y Y P E E E E E E E h h h h h h h h f f f f g g f h h E h h f c q D 7.5+T.d f h P @.l l l l l l @.Y P Y Y Y Y Y Y Y Y Y Y Y P P Y Y P P P P E P Y Y Y Y Y Y Y Y Y Y Y Y P P P P P P P P P P P P P P P P P P P P P P Y Y Y Y Y Y Y Y Y Y Y Y Y Y Y Y Y Y Y P P P P P P P Y @.Y Y Y Y @.@.Y Y Y Y Y Y @.l @.@.@.@.@.Y Y Y @.l l l R M R @.b ++^+M e h @.Y K K l l l l @.Y P Y Y Y Y Y Y Y Y Y Y Y P P Y Y Y Y Y Y Y P P P P P P P Y Y Y Y Y Y Y Y Y Y P P P Y Y Y Y Y Y Y Y Y Y Y Y Y Y P P P P P P P P P P P P P P P P P P P P P P P P P P P P Y Y P P P P P P P E E E E E h g e g f h h f h E h e n m v 2.^ R r g E P @.l l K l l @.@.Y Y P Y Y Y Y Y Y Y P P P P P P P P P P P P P P Y Y Y Y Y Y P E P P P P Y Y Y Y Y Y Y Y P P P P P P P ",
"@.@.@.@.@.@.@.@.@.@.@.@.@.@.@.@.@.@.@.@.Y Y Y Y Y Y Y Y @.@.@.@.@.@.Y Y Y @.@.@.@.@.Y Y Y P P P Y Y @.l l K K K K K N i 2+7.q h h P @.l l l l @.@.@.@.@.@.Y P P P Y Y Y Y @.@.@.@.@.@.@.@.Y Y P P P P P P P Y @.@.@.@.@.@.Y Y Y @.Y P E P P P P P P P P P P P P P P P P P P P P P P P P P P P P P P P P P P @.@.@.@.Y Y Y E E E E E E E E E E E E E h h f f f f g g f h h E h h f c q D 7.5+T.d f E Y l K K l l l l @.Y P @.@.@.@.@.@.@.@.Y Y Y P P Y Y P P P P E Y @.@.@.@.@.@.@.@.@.@.@.@.@.P P P P P P P P P P P P P P P P P P P P Y @.@.@.@.@.@.@.@.@.@.@.@.@.@.@.@.@.@.@.Y E E P P Y Y Y l @.@.@.@.l @.@.@.@.@.@.@.l K K l l l l Y Y @.@.l l K R K l @.q &.#+M e h @.Y K K l l l l @.Y P Y Y Y Y Y Y Y @.Y Y Y P P P P P P P P P P P P P P P P @.@.@.@.@.@.Y P P P E E E P P P P P P P P P P P P P P P P P P P P P P P P P P P P P P P P P P P P P P P P P Y @.Y Y Y Y P P Y Y P P P P P h g e g f h h f h E h e n m v 2.^ R r g E P @.l l K l l @.@.Y Y P Y Y Y Y Y Y Y P P P P P P P P P P P P P Y @.@.@.@.@.@.P E P P P P Y Y Y Y Y Y Y Y P P P P P P P ",
"Y Y Y Y Y Y Y Y Y Y Y Y Y @.l @.@.@.Y Y Y Y Y Y Y Y Y Y Y Y @.@.@.@.@.@.@.@.@.@.@.@.@.@.@.@.@.@.@.@.Y @.@.l R @.R l K i 2+_.c e f g Y l @.@.@.@.@.@.@.l @.P E P Y @.Y Y Y Y Y Y Y Y Y Y Y Y Y Y P P Y Y @.@.Y Y Y Y Y Y Y Y Y Y Y Y Y Y P P P P P P P Y Y Y Y Y Y Y P P P P P P P Y Y Y Y Y Y Y @.@.Y Y P P Y Y Y Y Y Y Y Y Y Y Y P P P Y Y P P P P E h h E E h f g f E P P h f g c q w }.5 %.d f E Y l l K K K K l l l @.Y Y Y Y Y Y Y Y Y Y Y Y Y @.@.@.@.Y Y Y Y Y Y Y Y Y Y Y Y Y Y Y Y Y @.@.@.@.@.@.@.@.@.@.@.@.@.Y Y Y Y Y Y Y Y Y Y Y Y Y Y Y Y Y Y Y Y Y Y Y Y @.@.l l Y Y Y Y Y Y Y @.@.@.@.@.@.@.@.@.@.@.@.@.l l l l l l l @.@.@.@.l l K l K K @.m j !+N g h Y Y l K l l l l l l @.Y Y Y Y Y Y @.@.@.@.@.@.@.@.Y Y Y Y P P @.@.@.@.Y Y Y @.@.@.@.@.@.@.Y Y Y Y Y Y P E E E E E E E E E E E E E Y @.@.@.@.@.@.Y Y Y Y Y Y Y @.@.Y Y P E P Y Y Y Y Y Y P P E E E E E Y Y Y P P P P E h h f h h h Y E f f f e c m =.2.] R n f P Y @.l l l l @.@.@.Y Y Y Y Y Y Y Y Y Y Y Y Y Y Y Y Y Y Y Y Y Y Y P P P P P Y Y Y Y Y Y Y Y Y Y Y Y Y Y Y Y Y Y Y Y Y Y Y ",
"Y Y Y Y Y Y Y Y Y Y Y Y Y Y @.@.@.Y Y Y Y Y Y Y Y Y Y Y Y Y Y @.@.@.@.@.@.@.@.@.@.@.@.@.@.@.@.@.l @.@.@.l l R l M @.l )+2+].d d h g @.l K K K K K K K l Y P E P Y l Y Y Y Y Y Y Y Y Y Y Y Y Y Y P P Y Y Y @.Y Y Y Y Y Y Y Y Y Y Y Y Y Y Y Y Y Y Y Y Y Y Y Y Y Y Y Y P P P P P P Y @.@.@.@.@.@.Y Y Y Y Y P P Y Y Y Y Y Y Y @.@.Y Y Y P P P P P E E E E h E E E h g g h E P P E f g d q y }.5 d+c e f E Y @.l K K l l l @.@.Y Y Y Y Y Y Y Y Y Y Y Y Y @.@.@.Y Y Y P Y Y Y Y Y Y Y Y Y Y Y Y Y Y Y Y Y Y Y Y Y Y Y Y Y Y Y Y Y Y Y Y Y Y Y Y Y Y Y Y Y Y Y Y Y Y Y Y P Y Y Y @.@.@.Y Y Y Y Y Y Y Y Y Y Y Y Y Y @.@.@.@.@.@.@.@.@.@.@.@.@.l @.@.@.l l K @.K K Y m j !+K d f P P l l @.@.@.@.@.@.Y Y Y Y Y Y Y Y Y Y Y Y Y Y P P P P P E E @.@.Y Y Y Y Y Y Y Y Y Y Y Y Y Y Y Y Y Y Y @.@.@.@.@.@.@.@.@.@.@.@.@.Y Y Y Y Y Y Y Y Y Y Y Y Y Y @.Y Y P P P Y @.@.@.@.@.@.Y P P P P P P Y Y P P P E E f f f f g g g P h f f f e n m =.2.] K r g E P Y @.@.@.l l l l @.Y Y Y Y Y Y Y Y Y Y Y Y Y Y Y Y P P P P P P P P Y Y Y Y @.Y Y Y Y Y Y Y Y Y Y Y Y Y Y P P P P P P P ",
"P P P P P P P P P P P P P P Y Y Y Y Y Y Y Y Y Y Y Y Y P P Y Y Y Y @.@.@.@.@.@.@.@.@.@.@.@.@.@.@.l @.@.@.l K M K M l l )+2+].d d E g Y @.l K K K K K K @.Y P E P Y @.P P P P P P P Y Y Y Y Y Y P P P P Y Y Y P P P P P P P P P P P P P P @.@.@.@.@.@.@.P P P P P P P P P P P P P P P P P P P P P P P P Y Y Y P P P P P P P @.@.Y Y Y Y P P P P P E E E E E E h f e g g h E E h f f d q y 7.3+O.c e f h P l K l l @.@.@.@.Y P P P P P P P Y Y Y Y Y Y Y Y P P P E E P Y Y Y Y Y Y P P P P P P P P P P P P P P P P P P P P P Y Y Y Y Y Y P P P P P P P P P P P P P P P P Y Y Y @.@.Y Y Y Y Y Y Y Y Y Y Y Y Y Y @.@.@.@.@.@.Y Y Y Y Y Y Y @.@.@.@.@.l K l K l Y a U ;+l c g P E @.l @.@.@.@.@.@.Y P P P P P P P P P P P P P P P P P P E E P P P P P P Y P P P P P P P Y Y Y Y Y Y P P P P P P P P P P P P P P P P P P P P P Y Y Y Y Y Y Y P P P P P P Y @.@.@.@.@.@.Y Y Y Y Y Y Y P P P P E E E h h f f f g g f f f h f e n m =.2.[ l q g E P Y @.l l K K K l @.Y Y Y Y Y Y Y Y Y Y Y Y Y Y Y Y P P P P P P P Y Y Y @.@.@.Y P P P P P P P P P P P P P P P P P P P P ",
"P P P P P P P P P P P P P P E E P Y Y Y Y Y Y Y Y Y Y P P P P P Y Y Y @.@.@.@.@.@.@.@.@.@.@.@.@.@.@.@.@.l K R l M l @.)+2+_.c c h e P E @.l l l l l l Y P P E P P Y P P P P P P P E E E E E E P P P P P P P P P P P P P P P P P P P P P P P P P P P P P P P P P P P E E E E E E E h h h h h h E E P P P Y Y P P P P P P P Y Y Y Y P P P P P P E E E E E h h f g e g g f h h h f f c q y 7.3+O.c g f E Y l K @.@.Y Y Y Y P P P P P P P P E E E E E E P P P E E E h E E E E E E E P P P P P P P E E E E E E E E E E E E E E E E E E E E P P P P P P P P P P P P P P P P P P P P P Y Y Y Y Y Y Y P P P P P P P Y Y Y Y Y Y P P P P P P P Y @.Y Y @.@.l l l @.Y m U ;+l c f P E P Y @.@.@.@.@.@.Y P P P P P P E E E E E E E P Y Y P P P P h h E E E P P E E E E E E E E E E E E E E E E E E E E E E E E E E E E E E E E E E E E E E E E E E E E E P P E E E E E E E E E E E E E E E E E E h h h h h f f f g g g g g f f d r a 6.2.^ l b e h P Y @.l l l @.@.Y P E E E E E E E E E E E E E E E E E E E E E E E P P P P Y Y P P P P P P P P P P P P P P E E E E E E E ",
"P P P P P P P P P P P P P P E E E E P P P P P P P P P E h E E E P P P P P P P P P P P P P P P Y Y Y P Y @.@.K Y K Y Y )+V._.c c h e E h E P P P P P P P P P P P P P P P P P P P E h h h h h h E P P P E E E P P P P P P P P P P P P P P E h h h h h E P P P P P P P E E E E E E E E E E E E E E E E P P P P E h h h h h h E E E E E h h f f f f g g f h f f g g g f f g g g g g e n q C 7.3+d+n g g h E P P P P P E E E P P P P P P P E h h h h h h E P P E E E h h h h h h h h P P P P P P P E E E E E E E E E E E E E E h h h h h h E P P P P P P P P P P P P P P P E E E E E P P P P P P P E E E E E E E E E E E E E E E E E E E E P P P P P Y @.l @.Y Y m U ]+K d g E f f f E E E E E E E P P P P P P E E E E E E E E E E h h h h E E E E E P P E E E E E E E h h h h h h E E E E E E E E E E E E E E E E E E E E E h h h h h h h h h h h h h h f f f f f f f f f f f f f h h h h f f f g g g e e e e e e e g g c q a /.2.[ K q e f h E E P P P P P E E h h h h h h h h h h h h h h h h P P P P P P E h h h E E E P P P P P P P P P P P P P P P P P P P P P ",
"E E E E E E E E E E E E E E E E E h h h h h h h h h h h h h E E E E E E E E E E E E E E E E E P P E E E P Y @.E @.E P Y.V._.d e E g P h E E E E E E E E E P P P E E E E E E E E E E E E E E E E P P E E E h E E E E E E E E E E E E E E E E E E E E E E E E E E E E E E E E E E P Y Y Y Y Y Y P P P E E E E h h h h h h h h h h f f f g f g g g g e g f g e e g f h h f e e d d d r b C 7.5 %.c f E P P h f E E E E h h E E E E E E E E E E E E E E E P P P E E E E E E E E E E E E E E E E E P P P P P P P P P P P P P E E E E E E E E E E E E E E E E E E E E E P E E E h h h h h h h h h E E E E E E E h h h h h h h h h h h h h h E h h h h E P @.P P Y b j ;+K e h P h h f f f f f f f h E E E E E E P P P P P P P E E E E h h h P P P P E E E P P P P P P E E E E E E E h h h h h h h h h h h h h h P P P P P P P E E E E E E E E h h h f f f f f f f f f f f f f f f f h h f f f f g e e e g g f f g e d e d n q s /.2.] M n g f f h h h f h h E E E E E E E E E E E E E E E E E E E P P P P P P E h h E E E P P E E E E E E E E E E E E E P P P P P P P ",
"E E E E E E E E E E E E E E E E h h h f f f f f f f f h h h h E E E h h h h h h h h h h h h h h E h h h E P P f P h P Y.V.].g f @.h Y P E E E E E E E h E E P E E h E E E E E E E Y Y Y Y Y Y P P P E E h h E E E E E E E E E E E E E E P P P P P P P E E E E E E E h h h h h h E E E E E E E P P P E E E h h h h h h h h g g g g e e g E E h h h f f g e d e g h E h f e d c c n q a C }.5 %.g Y l K l P h E E E h h h h E E E E E E P Y Y Y Y Y Y Y Y Y P P P E P Y Y Y Y Y Y E E E E E E E P P P P P P P P P P P P P P Y Y Y Y Y Y P E E E E E E E E E E E E E E E E h h f f f f f f f f f h h h h h h f g g g g g g f f f f f f f f f f f f h E Y E E P q &.;+M f @.R l l Y E E E E E E E E E E E E E P P P P P P P @.@.@.@.@.Y Y Y Y P P E E E P P P P P P P Y Y Y Y Y Y Y @.@.@.@.@.@.@.@.@.@.@.@.@.P P P P P P P Y Y Y Y Y Y P E E h f g g f h h h h h h h h h h h h h f f f f f g g f f h E P Y Y h g d c c n b s /.2./ N d E P P P P E h h h E P P Y Y Y Y Y Y Y Y Y Y Y Y Y Y Y Y Y Y Y Y Y Y P E E P P P Y P E E E E E E E E E E E E E Y Y Y Y Y Y Y ",
"@.@.@.@.@.@.@.Y Y Y Y Y Y Y @.@.Y Y P E E E E E E E E f f f f f f f f f f f f f f P P P P P P E h h h h h h @.f l e e * 5+_.e g @.K R l K l Y Y Y @.l K K l @.Y Y P Y Y Y @.@.@.@.Y Y @.@.@.@.l K K K K K K l l l l l l l Y Y Y Y Y Y Y l l l l K K K R @.K M K l R @.@.@.@.@.@.@.@.@.@.@.Y Y @.@.@.Y P P E h h h h f f f e e e e e e e e e e e e e e g f g e f Y K l E e c d g q q x s ; z.1.n h @.K K @.Y E E E P Y @.l K l @.@.@.K K l l l l l l l @.@.@.@.@.@.l l l l l l l P P P P P P Y R R R R R R R K K K K K K l @.@.Y @.@.l l l l l l l l @.Y Y Y Y Y Y l l K l @.E h d d d d d d d d d d d d d e g g g g g g f f f g g f f h h h h h h h @.f Y h m j #+M e K @.@.@.@.E P P Y @.@.@.Y Y P P P P P Y Y @.@.Y Y @.l l l l l l l l l l @.@.@.l l l l l l l l l l K K K K K K K K K K K @.l N K Y l K K K K K K l @.@.Y Y Y P P E E h h f f g g g e e e e e g g g g g g g e e d d d d e g f h E Y P g c r n c q s D 0.^.) f n @.@.l K @.Y P P P Y l K K l l l @.@.@.@.@.l l l l l l l l l l l l l l K K K K K K K K K K K K K R M M M M M M R R R R R R R ",
"@.@.@.@.@.@.@.l l l l l l l Y Y Y P E h g c c c c c c d d d d d d d e e e e e e e e e g g f f f g g g g g g d h f K h ` 8+[.d c g h P h E h f f h h E @.@.@.Y P P P P P P P Y Y Y Y @.l l l @.Y E E E E E E E h h h h h h Y Y Y Y Y Y Y Y Y Y @.@.@.@.Y E Y @.Y Y @.Y Y Y Y Y Y Y Y Y P P P P h g g e d d c d e d d d d c n n n n n n n r r r r r r q q r n r r d g e c q b b q h v b x 7.z.7+c g h E P E h e e e e g f E P E h h E P P h h h h h h P @.@.@.@.@.@.Y P P P P P P P P P P P P P h h h h h h h P P P P P P Y l @.Y Y Y @.Y Y Y Y Y Y Y P P P P P P P P P P P h f e c c c c c c c c c c c c c c c c c c c c c d d c c d d d d d d d d d n d d c C 8 #+l m g e g g e d e e g f f E Y Y P P P E E E P P P E E E E E E E E E h h f f f f f h h h h h h h E E E P P P P E E E E E E E f h Y P f h E E E E E E E P E E E E h f e e d d d c c n n r r r r q b b b b b b b q b b b b m b b q q r n n c q b q r b s s v 2.^ L r n h P P E h h g g h E P P E P P E E E E h P P P P P P P Y Y Y Y Y Y P f f f f f f h E E E E E E h h h h h h h E E E E E E E ",
"g g g g g g g e e e e e e e e e e e d c n r r r r r r n n n n n n n r q q q q q q b b q r r r n n n n n n n r d e s e Y.3+' r a b q r r r r r r r c c e e d d c c c c c c c d d c n c c d c c d d d d d d d c n n n n n n n n n n n n n d d d d e e d c n c e c d e c c c c c c c d d c c c c c n n r r q q b b b m m m a m m m m m m m b b b b b b b m b b b m b q q b b b m m D =.q x ; 5+d+a b b b q b b n n r n n c d c c n n c c c c c c c c c n n n n n n n c c c c c c c n n n n n n n n n n n n n c c c c c c c c n n r q q r r n n n n n n r r r r r r r r r r r q m m a a a a a a a a a a a a a a m m m m m m b b m m m b b r r r r r r r b c m q y j f+Y y b m r b m b b b q q r r q q b b b b m b b q q b b r n n n n n n r r q q q q b q q q q q q b m m m m b b q q q q q q q q b q n n r r r r r r r r r b b b m m m m b b b m m m m m m a a a a a a a a a a a a a s s s s D a a a m m a m s w y D s D w x 9.>.1 R /.n m q r q b q n c d e e e e d d d c c c c r r r r r r r d d d d d d d c c c c c c c c c c c c c c c c c c c c d d d d d d d ",
"m m m m m m m b b b b b b b b b b b m m s D D D D D D D D D D D D D a a a a a a a D s s a m m b m m m m m m y b e w d n.5+= b w w w s D s D s a m m b m a a a a s s s s s s a a s s s a a a a a D D D D D D a a a a a a a a s s s s s s s s a a a m a s a m a a m b a a a a a a a a a s s s s w w w y y C C D D D D w w w D D D D D D D y y y y y y y y y y y C C C C y y y y y w a |.=.= 3+1.w w w y y w w w w y w w D s D w D D w D D D D D D D D s s s s s s s s s s s s s s w w w w w w w w w w w w w D s s s s s s s D D D D s s D y y y y y y s s s s s s s s s D D w y y D D D D D D D D D D D D D w y y y y y y D s D w D D s w y y y y y y C m y r y U c+f /.y y s y y D D D D s s D D D w w w w w D D s D D w w w w w w w w w w w y y y y y y y y y y w w w w D D D D w w w w w w y y y y w w w y y y y y y y D D w w w y y C C C C C C y D D w w w w y C C C C C C C C C C x x x C C C C C C C C x x C y y v 6.9.!.6 e w C y D D D D s D w D D D D s s s s D D D D s s s s s s s D D D D D D D D D D D D D s a a a a a a D w w w w w w D D D D D D D ",
"6.6.6.6.6.6.=.v v v v v v v =.v v v v =.v x x x x x x x v v v v v v =.=.=.=.=.=.=.6.6.6.=.=.v v =.=.=.=.=.=.C =.=.n /.O.| ; v |.|.|.z z z z /.6.=.=.=.6././././././.z z /./././././.6.6.=.=.=.=.v v v v v v =.6.6.6.6.6.6.6.6.6.6.6.6.6.z z /././.6.6.z =.=.z z 6.6.6.6.6.6.6.6.6././././.z z /././././././././././.z z z /././././././.=.=.=.=.=.=.=.=././.6.6./.z z 6.=.=.=.=.x l.C 8., h+1./.6./.z z /.6.6././.z /./.6.6.6.=.=.6.6.6.v v v v v v =.6.6.6.6.6.6./././././././.v v v v v v v /././././././.z z z z z z z 6././.6.6.=.v x x x x x x /.z z z z z z =.=.6.6././.6.6.6.6.6.6.6.6.6.6.6.6.6.6.6.6.6.6.6.6.6././.z z z z /./././././././.C C z w =.i+c+q 0.6./.=./.z |.|.|.|.|.|.z /././.z z z z z z /./.z z 6.=.=.=.=.=.=.v v =.=.=.6.6.=.=.=.=.=.=.6.z /././.6.6./.z z z z z z 6.v =././.=.6.6.6.6.6.6.6.6.z z z z z |.z /.6.6.6.6.6./.|.|.|.8.8.8.|.z z z z z z =.=.6.6.6.6././.z z z z z z 8.|.|.|.|.|.|.|.l.X / Y /.8.6.6.6././.v v =.=.6.6.=.=.v v v =.=.=.=./././././././.v v v v v v v =.=.=.=.=.=.6././././././.6.6.6.6.6.6.6./././././././.",
"e e e e e e e d d d d d d d e e g f g g d c c c c c c c d d d d d d e e e e e e e e e g g g g g e e e e e e f E h r R - 3+].e q r n d c n c d e d c c d d d d d d d c c c c d d c r n c c c c n n n n n n n n c c c c c c n n n n n n n c c c c d d c c h g n n d c n n n n n n c d d d c c c r q q q q q q c d d c c c c c c c c c c n r r r r r r r n b m q r q b b q q r r r n e m r _.3+T.b q r r r r r q b b b b b b m b b q b b a a a a a a a b r r r r r r n c c c c c c m a a a a a a b b b b b b b n n n n n n n r q b m m m m m m m m m m b q q q q q q n r q q q r n r r r r r r r r r r r r r q b b b b b b r n r r r r n q q q q q q q D m c e v 8+j+h C q m m a b r r r r r r q b m m m a a s a a m a a s s s s s s s s s s D D D w w a a a a a a a m m m b b b b q q q q q q m b a w w s w D s s s s s s b b m m m m s w D D s s s m r r r r q q b b b b b b b m m m m a a a m b b b b b m m b b b m m q m /.R._ F v b n n r b q n c n r q q r r q b b b m m m q q q q q q q s s s s s s a r r r r r r r n n n n n n q q q q q q q q q q q q q q ",
"7 7 7 7 7 7 7 7 7 7 7 7 7 ( { { ( ( ( ( 7 ~ ~ ~ ~ ~ ~ 7 7 7 7 7 7 7 ( { { { { { { 7 7 ( ( ( ( ( ( ( ( ( ( ( { 7 ^ x.^ .+j 6 { [ / { ( { { / { ( { / ] / / / { { { { ] ] ] / / / / / / { { { { { { { { { { { / / / / / / / { { { { { { { / / / / { / / ( 3 ^ / / 7 { { { { { { { / / / / / ] ] { ( ( ( ( 7 7 ( ( { { { / / / / / / / / / / / { { { { ( 7 ] [ { 7 7 ( { { { { { ( 1 ! 3 { 3 $+9 ] / { { { { { ( ( { { { { ( 7 ~ ~ ~ ~ 7 ( / / / / / / / / / / / / / ] [ [ [ ] ] [ ( ( ( ( ( ( ( / / / / / { { { { { { { { { 3 { 7 ( / ] ( ( ( ( ( 7 7 { { { { { { / ( ( { / / { ( { { { { { / / / / / / / / { ( ( ( ( ( ( / ] [ [ [ [ ] { { { { { { { t ] ] ( w.@+D.) [ t 7 ( ( 7 ( ( ( ( { { ( 7 ( ( ( ( { { ( ( 7 7 ( ( ~ ~ ~ ~ ~ ~ ~ 7 7 7 7 7 7 ~ t t ! ! ! ! 4 7 7 7 7 ~ ~ ~ ~ ~ ~ ~ ~ ~ t 3 ( 4 7 t ~ 4 4 4 4 4 4 4 4 4 4 4 ~ ~ ~ 7 ~ ~ 4 4 4 4 7 ( ( ( ( { ( ( ( ( ( ( ( 7 ~ ~ ~ 7 7 7 ( ( ( 7 7 7 7 ( 7 7 ( { ( { 7 7 0+5.( 7 ( 7 7 { / / ( 7 ( { { { { ( ~ ~ 7 7 7 7 ( ] ] ] ] / / / 7 7 7 7 7 7 ( { { ( ( { { { / / / / / / { { { { ( ( ( ( 7 ( ( ( ( ( ",
"1.1.` ` O.O.O.d+d+O.O.O.O.O.` O.O.O.d+d+O.` ` ` ` ` ` ` ` ` ` ` ` ` ` ` ` ` ` ` ` ` ` ` ` ` ` ` ` ` ` ` ` ` O.O.1.1.d+T )+7+%.%.%.%.%.%.d+d+d+d+d+d+d+%.%.%.%.%.%.%.` ` ` ` ` ` ` ` ` ` ` ` ` O.O.O.O.O.O.O.d+%.%.%.%.%.%.%.%.%.%.%.%.%.H.6+T.%.T.T.d+Q.$+j.O.1.6+1.1.1.1.1.1.1.1.` O.d+O.` 1.1.` ` ` ` ` ` d+d+d+d+d+d+d+d+d+d+d+d+d+d+` ` ` O.O.O.d+d+d+d+d+d+d+O.O.O.O.O.O.O.d+d+d+H.7+,+n.d+O.O.O.O.O.O.O.d+d+%.%.%.%.%.%.%.%.%.%.d+O.O.O.O.O.O.d+%.%.%.%.%.%.d+O.O.%.T.T.d+%.T.T.T.T.T.T.d+d+O.d+%.H.H.T.%.H.H.d+%._+3.B.{.T.1.<.%.O.O.O.O.d+d+%.%.d+O.O.` ` ` ` ` O.O.d+d+d+d+O.O.` 1.1.` ` ` ` ` ` O.O.O.O.O.O.O.O.` ` ` ` ` ` O.O.O.O.O.O.O.1.` d+H.7+,+n.` ` ` ` ` ` ` O.O.O.O.O.O.d+%.%.%.%.%.%.O.` ` ` ` ` ` d+d+d+d+d+d+d+` ` O.d+T.H.T.%.T.T.H.H.H.%.%.d+O.d+%.T.H.H.H.T.T.H.H.1.S h.n.` H.T.d+d+d+d+d+d+d+T.H.H.%.d+d+%.d+d+d+d+d+d+%.T.T.T.T.T.T.T.H.H.H.H.H.H.%.%.%.%.%.%.%.%.%.%.%.%.%.%.%.%.%.%.%.%.%.T.H.Y.)+6+T.T.%.%.%.%.%.%.%.T.T.T.H.H.H.H.H.H.H.H.H.H.d+%.%.%.T.T.T.T.T.T.T.T.T.T.T.T.H.H.H.T.H.6+6+6+H.H.H.%.%.T.H.H.6+6+6+6+H.T.T.%.%.",
"I I I I I I I I I I I I I I G I I I H H H I I I I I I I I I I I I I I I I I I I I I I I I I I I I I I I I I I I I G G I G G I I I I I I G G G G G G G G I I I I I I I I I I I I I I I I I I I I I I I I I I I I I I I I I I I I I I I I I I G L I I F |.&+k+M I @.H I I I I I I G G I I I G L G I I I I I I I I I I I I I I I I I I I I I I I I I I I I I I I I I I I I I I I I H I G G I G L I I I I I I I G G G I I I I I I I I I I I I I I I I I I I I I I I I G G G I H I L G G G G G G G G G L L G I I I G I I O L ~+}+c.N G R N I I I I I I I H H I I I G G I I I I H H H H H I I I G I I I I I I I I I I I I I I I I I I I I I I I I I I I I I I I I G G G I I I I I I I I I I I I I I I I I I I I I I I I I I I I I I I I I I I I I I I I G O L G G G G G I G L G G I I I I I I I I K i+]+O M L O I I I I I I I G I I G L L G I I I I I I I I I I I I I I I I I I I I I I I I I I I I I I I I I I I I I I I I I L O G G O L I I I I I I I I I G G I I I I I I I I I I G G G G G G G G G G G G G G L G G G G L G I I I G G G G G G G I I I G G G I G F K ",
"I I I G G G L G G G G G I I G G G G I I I I I I I I I I I I I I I I I I I I I I I I I I I I I I I I I I I I G G I I I L O L G G G G G G L L L L L L L G G G G G G G I I I I I I I I I I I I I I G G G G G G G G G G G G G G G G G G G G L G L L G G N 9.U.f+M R L I I I I I I I G G G G G L O G I I I I I I G G G G G G G I I I I I I I I I G G L L L G G G G G G G G G G G G G I I G G I G L G G G G G G G I I G G G L G G G G G G G G G G G G G G G G G G G G G I G L G I G O L L L L L L L G G L L L L G L L G G N F *.}+d+N O E G G I I G G G G G G G G G G G I I I I I G G G G G G G G I I I I I I I G L L L L L L G I I I I I I G G G G G G G G G G L L O O I I I I I I I G G G G G G G G G G G G G I I I I I I I G G G G G G G I I G L L O O L G G I I I I I G G L L L L L L G G G L Y &.b.F @.I F L G G G G G G G I H I G I I G G G G G G G L L L L L L L L L L L L L G G G G G G G G G G G G G G G G G G G G I I L O L O G I G G G G G G G G L L L O O G G G G G G G G G L L L O O L L L L L L L G G I I G G G L G G I I I G L L L L O O G L L L N P n ",
"H I I I I I I I I I I I H H I I I I I I I I I I I I I I I I I I I I I I I I I I I I I I I I I I I I I I I I I I I H H I I I I I I I I I I I I I I I I I I I I I I I I I I I I I I I I I I I I I I I I I I I I I I I I I I I I I I I I I I I I I H H L 8.u ;+R l H I I I I I I I I I I I I I I I I I I I I I I I I I I I I H H H H H H H I I I I I I I I I I I I I I I I I I I I I I I H H H H I I I I I I I H H H I I I I I I I I I I I I I I I I I I I I I I I I H I I H H I I I I I I I I I I I I I I I I I I H I G G {+5 O.l M N O I H I I I I I I I I I I I I H H H I I I I I I I I I I I I I I I I I I I I I I I I I I I I I I I I I I I I I I I I I I I I I I I I I I I I I I I I I I I I I I I I I I I I I I I I I I I I I I I I I I I I I I I I H H H H H H H I I I I I I I I I I I K 3.u.G L O L I I I I I I I I H H H H H H I I I I I I I I I I I I I I I I I I I I I I I I I I I I I I I I I I I I I I I I H H I I I I H H I I I I I I I I I I I I I I I I I I I I I I I I I I I I I I I I I I I H H H H I I I I I H H H I I I I I I I H I I I F h b ",
"L L L L L L L G G G I I I I G G G I I I I G G G G G G G G G G G G G G G G G G G G G G G G G G G G G G G G G I H I L L L L G G G G G G G G G G G G G G G G G G G G G G G G G G G G G G G G G G G G G G G G G G G G G G G G G G G G G G G G H I I H L M |.>.]+R R M L L L L L L L G I G L L L G G G G G G G G G G G G G G G L L L L L L G G G G G L L G G G G G G G G L L L L L L L G I G L L G G L L L L L L I I I G G G G G G G G G G G G G G G G G G L L L L L L G G L G G G O G G G G G G G L L G G G L G G L I G N F ~+2.O.m d L N I I I I G G G I I I G G G G G G G L L L G G G G G L L G G G G G G G I I I I I I I I G G G G G G G L L L L L L H I I G G L G G G G G G G G L L L L L L G G G G G G G G G G G G G G G G G G G G G L L G G I H I L L G G G G L L G G G L L L I I I G L F n 0+N.K R K O G G G G G G G L G G L O L G G G G G G G G G G G G G G I I I I I I I I G G G G G G G G G G G G G G G G G G G L O G G L G L O G G G G G G I I I I G G G G G G G G G G I I G G G G G G G G G G G G L G G G G L L L L G G G G G G G I I I I O L G L K g q ",
"G G G I I I I I I I I I I I I I I I I I H H H H H H H H H H H H H H H H H H H H H H H H H H H H H H H H H H H H H H H H H H H H H H H H H H H H H H H H H H H H H H H H H H H H H H H H H H H H I I I I I I H H H H H H H H H H H H H H H H H H I L K i.u (+f O L I G G G G G G I I I G L G I H H H H H H H H I I I I I I H H H H H H H H H H H H H H I I I I I I H H H H H H H I I H H I I H H H H H H H H H H H H H H H H H H H H H H I I I I I I I H H H H H H H I I H H H I I G G G G G G G G H H H H H I G I G N F _.} b.n h Y F F I I I I I I H H I I I I G I I I I H H H H H H H H I H H H H H H H H H H H H H H H H H H H H H H H H H H H H I H H H H I I H H H H H H H H H H H H H H H H H H H H H H H H H H H H I I I I I I I I I I I I H I I I I I I I G I H H H I I H H H I F M g 8 !+F F O L I I I I I I I H H H I G I I I I I I I I H H H H H H H H H H H H H H H H H H H H H H H H H H H H H H H H H H H H H H I H H H H H H H H H H H H H H H H H I I I I I I I I I I H H I G G G G G G I I I I I I I I H H I I I I I I H H H H H L H H O Y g e ",
"N F O O O O O O O O F N N N F O O O L O O O L L L L L L G G G G G G L L L L L L L L L L L L L L L L L L L L L G I I I I G G I I I I I I G G G G G G G I I I I I I I L L L L L L L G G G G G G L F F F F F F L L L L L L L G G L G G G I G G I L O M P 8.>._+c M h M N N N N F F F O F N M M N O L L L L L L O O O O O L L I I I I I I I G L G G G G G L L L L L L G G G G G G G L L G L O L G G L G G G L L L G G G I I I G G G G G G L O F F F F F O L L L L L L O O O L G G L O F F F F F F F O L G I G G L O L N K l ).3+O.b r P R M N N F F O O L L O F F N M F F O O L L L G G G G L L L L L L L L L G L L L L L L L G G G G G G G G G G G G G L L L L L G G L L L L L L G G G G G G G G G G G G G G G L L L L L L O O O O O O F O O O O O O O N N F F F F F F O L G G L L G G L F R @.q 3.g+R f N M F O O O O O O O O O F M M N L L L L L L L G G G G G I G G G G G G G G G G G G G G G G G G G G G G G G G G G G G I L O G G L G G G G G G G L L G G I I L L L L L L L O O O O L L L O O O O O O F N F F F F N F L L O O F F F O L G I I I O G L M f n n ",
"l M F N N N N N N N N M R R M N F F F N N M M N N N F O L L L L L L O O O O O O O O O O O O O O O O O O O O O O O O O O O O O O O O O O O O O O O O O O O O O O O O O O O O O O O O O O O O O F N N N N N N N N N N N N N N N N N F O L L F L F N R g |.W l+d f R R R M M M N N N N N M R K l R M N F F F F N N F F F F O O O O O O O O O F F F F N F O O O O O O O O O O O O O O O O O O O O N N F F F N N O O O O O O O O O O F F F F F N N N M M N N N N N N N N F F F F F F N N N N N N M M M M N F L L O F L K R h m+5 {.b r P Y K M M N N M R N N N M R K l K R N F F O F N N F F F O O O O O O O O O O F F F N N F O O O O O O O L L L L L L F F F F F F F O O O O O O O O O O O O O O O O O O O O O O O O O O O N N M M M M R F F F F F F N N N N N N N M M M M N F F O L L F N M Y m j ;+N g l M N N N N N N N R R R R K K R F F F F F F N N N F F F O O O O O O O O O O O O O O O O O O O O O O O O O O O O F F F F F N N F F O O O O F F F F O O O O O O O O O O O F F F F F F F F F F F F F N M M M M M M M N N N N N N R M F L L O O O N N K f r n ",
"Y l R M R R R N N N M R K K K K M M M R R M M M N N N F F F F F F F N N N N N N N N N N N N N N N N N N N N N N N N N N N N N N N N N N N N N N N N N N N N N N N N N N N N N N N N N N N N N N M M M M M M M R R R R R R M R R M N F F O F L F N R e 8.W l+d f K K R R M M M M N N M R R K l K R R M M M M R M M M N N N N N N N N N N M M M M R R M N N N N N N N M M M M M M M M M M M M M M N F F F N M N N N N N N F F F F F N N N N N N M M M M M M M M M M M M M M M M M R R R R R R R M M M N F O L O F L K R h m+z.{.a q P @.K R M M M M R R M R R K l @.l R M M N N M R R R M M M N N N N N N N N M M M M R R M N N N N N N F F F F F F F M M M M M M N N N N N N N N N N N N N N N N N N N N N N N N N N N N N M M M M R R M M M M M M M R R R R R R R R M M N F F F O L N N M Y a j ]+M g l R M M M M M M M M R R K K l l R R R R R R R M M M M N N N N N N N N N N N N N N N N N N N N N N N M M M M M M N N N N M M M M M N N N M M M M M M N N N N N N N N N N M M M M M M M M M M M M M M M M M M M M M R R R R R R R M N L L O O L F M K f c d ",
"P l K R K K K M M M M R K l @.l K K K K K R R R M M M M M M M M M M M R R R R R M N N N N N N N N N N N N N N N N N N N N N M M M M M M M R R R R R R M M M M M M M R R R R R R R R R R R R R M M M M M M M R R R R R R R M R R R N F F O N L N M R e 8.W l+c g K K R R R M M M M N M R K l l K K R R M M R K K K R R R R R R R R R R R R R K K K l K R R R R R R M M M M M M M M M M M M M M M M N N N M M R R R R R R M F F N N N M M M M M R R R M M M M M M M R R R R R R R R R R R R R R R R M N F O L O F L K K h m+z.(.s b E @.R R M M M M R R M M R K @.Y @.l K R R R K l K K K K R R R R R R R R R R K K K K l K R R R R R R M M M M M M M N N N N N N N M M M M M M M R R R R R R M M M M M M M M R R R R R R M M M M R R R R R R R R R R R R R R R R R R R M M N F F O L N N R P a U ]+M e @.R M M M M M M M M M R K @.@.@.M M M M M M R K K K R R R R R R R R R R R R R R R R R R R R R R R M M M M M M M M F F N N N N M K R R R R K K K K R R R R R R R R R R R R R R R R R R K K K K K K R R R R R R R R R R R R R R R R N F O O O L F M l f d g ",
"P l R R K K R M M M R R K l @.K K R K K K K K R R R M R R R R R R R R R R R R R R R R R R R R R R R R R R R R R R R R R R M N N N N N N M R R R R R R N N N N N N N R R R R R R R R R R R R R R R R R R R R M M M M M M M M M M M N O O O N O N M K e 8.W n+c g K K K R R R R M M M R R K l l l R R M M M M K l K K K R R R R R R R R R R R R K K K K R R R R R R R M M M M M M M M M M M M M R R M M M R R R R R R R R R N N N M M M M M R R R K K R R R R R R R K K K K K K K M M M M M M M R R R M N O O F F O l K h m+5 (.s b E @.K R R M M R K R M M M K l @.@.l l K K l l K K K R R R R R R R R R R R R R R K K K R R R R R R R R R R R R R R N N N N N N N N N N N N N M R R R R R R M N N N N N N M R R R R R R M M R R R K K K K K K K K K M M M M M M R R R M M N N F O O N M R P a U ]+M e @.R M M M M M M M M M K l @.Y @.M M M M M M R l K K K K R R R R R R R R R R R R R R R R R R R R R R M M M M M M M N N N M M M R R M M M M R R R R R R M M R R R R R R R K K K K K K K R R R R R R R R R R R R R R M M M M M M R R M N F O O L N R @.f d g ",
"Y K R M R R M R M M R K l l l K R R R K K K K K K R R K K K K K K K R R R R R R R R R R R R R R R R R R R R R R R R R R R M N N N N N N R R R R R R R M N N N N N M R R R R R R R M M M M M M R K K K K K K R M M M M M M N M M M N F O F N O N M K d 9.>.n+n g l l K K R R R R R M R K K l @.l K R M M M R l l l K K K R R R R R R R R M R R R R K K R R R R R R K K K K K K K K K K K K K K K R R M R R K R R R R R R R M M M M R R R R R K K K K K K K K K K K K K K K K K K M M M M M M M R R R M N F O F N O l l f {+5 <.s b E Y l K R R R R K R N M R K l @.@.l l K l l @.K K R R R R M R R R R R R R R R R R R K R M M M M M M K K K K K K K K K K K K K K N N N N N N M R R R R R R M N N N N N N M R R R R R R R R R R K K K K K K K K K K M M M M M M R K R R M M N N F O M M R P s 3.(+R e @.K M M M M M M M R R K l @.@.@.K K K K K K l l l K K K R R R R R R R R M M M M M M M R R R R R R R K K K K K K K R R K K K K K R M M M M R R R R M M M M R R R R R R R K K K K K K K R R R R R R R R R R R R R R M M M M M M R R M M N O O O N R @.g n c ",
"Y l R R R R R R R R R K l @.@.l K K K K l l l K K K K K K K K K K K R R R R R R R K K K K K K K K K K K K K K K K K K K K K R R R R R R R R R R R R R R R R R R R R R R R R R R R R R R R R R K K K K K K K K R R R R R R R R R R M N F F M F M R K d 9.>.n+n e l l K K K R R R R M R K l @.@.@.l K K K K K l K K K R R R R R R R R R R R R R K K K K R R R R R R R R R R R R R R R R R R R R K K R R R K K R R R R R R R M M R R R R K K K K K l l K K K K K K K K K K K K K K R R R R R R R R R R M N F O F N O l l f {+3+<.a q h P l K R R R R K K R R K l @.Y l l K K K l l K K K K R R R R R R R R R R R R R K K K K R R R R R R K K K K K K K K K K K K K K R R R R R R R R R R R R R R R R R R R R R R R R R R R R R R R K K K K K K K K K K R R R R R R K K K R M M M N F O M M K E s 3.(+R e Y K R R R R R R R K K l l @.@.l l l l l l l l K K K K R R R R R R R R R R R R R R R R R R R R R R R R R R R R R R R R K K K K K K R M M R K K K R R R M M R R R R R R R K K K K K K K K K K K K K K R R R R R R R R R R R R R R R R M N O O F M R l e q q ",
"P K R R K K K R R K K l @.@.@.l l l K l K K K K K K K R R R R R R R R R R R R R R K K K K K K K K K K K K K K K K K K K K K K K K K K K R R R R R R R R K K K K K K R R R R R R K K K K K K K K K K K K K K K K K K K K K K K K K R M M F M F M R K e 8.W n+n e l l K K K R R R R R R K @.@.@.@.@.l l l l l K K K K K K K R R R R R R R K K K K l l K R R R R R R R R R R R R R R M M M M M M R R R R R R R R R R R R R R M R R R R K K K K K K l l K K K K K K K K K K K K K K K K K K K K K K K K R M F F F N F @.l f m+3+(.D q g P l K R R R R R R K K K l @.@.l l K K K l K K K K K K K R R R R R R R R K K K l l l K K K K K K K l l K K K K K R R R R R R R K K K K K K K R R R R R R R K K K K K K R R R R R R R R R R K K K K K K K K K K K K K K K K K K K K K R M M N N F M M K E s U (+R d Y l R R R R R R R K K l l l l l K K K K K K K K K K K K K R R R R R R R K K K K K K K R R R R R R R R R R R R R R M M R R R R K K R R R R K K K K K R R R R R R R R R R K K K K K K K K K K K K K K K K K K K K K K K K K K K K R R M N F O M R R l g q q ",
"P K R K R R l K K l l @.@.@.@.l l l l K K K K K K K K R R R R R R R R R R R R R R K K K K K K K K K K K K K R R R R R R R R R R R R R R R R R R R R R R R R R R R R K K K K K K K K K K K K K K K K K K K K K K K K K K K K K K K R R R F M F M R K e 8.W n+n e @.l K K K R R R R R K l @.@.@.@.@.l l l K K l l l l l l l K K K K K K K K K K K l l l K K K K K K K K K K K K K K K K K K K K K K K K K K K R R R R R R R R R R R R R R K K K K K K K K K K K K K K K K K K K K K K K K K K K R K K R M N N F N F @.l h m+5 {.C q e P l R R R M M M R R R K l l @.@.@.l l l K K K K K K K K K K K K K K K K K K K K K K K K K K K K K @.@.l l l K K K K K K K K K K K K K K K K K K K R R R R R R R R R R K K K K K K K K K K K K K K K K K K K K K K K K K K K K l K K R R M N M M N R l E a U (+R d Y l R R R R R R R R K l @.@.@.@.l l l l l l l l l l l l l K K K K K K K K K K K K l l K K K K K K K K K K K K K K K K K K K K K K K K K K K R R R R R R R K K K K K K K K K K K K K K l K K K K l l K K K K K K K K K K K K K K K R M N F F F M R @.e n e ",
"P K R l K R l K K l l @.@.@.@.l l l l K K K K K K K K K K K K K K K l l l l l l l K K K K K K K K K K K K K K K K K K K K R R R R R R R R R R R R R R R R R R R R R K K K K K K K K K K K K K K K K K K K K K K K K K K K K K K K R R R F M F M R K e 8.W n+n e @.l K K K R R R R K l @.@.@.@.@.@.l l l K K l l l l l l l K K K K K K K K K K K l l l l l l l l l K R R R R R R K K K K K K K K K K K K K K K K K K K K K R R R R R R R K K K K K K K K K K K K K K K K K K K K K K K K K K K K K K R R M N F N O l l f {+3+{.y r e E @.K R R R M M R R K K l @.@.@.@.l l l K K K K K K K K K K K K K K K K K K K K K K K l l l l l l @.@.l l l K K K K K K K K K K K K K K K K K K K K R R R R R R R R R K K K K K K K K K K K K K K K K K K K K K K K K K K K K l l K R R M N M M N R l E a U (+R d Y l R R R R R R R R K l @.@.@.@.l l l l l l l l l l l l l K K K K K K K K K K K K l l l l l l l l l K K K K K K K K K K K K K K K K K K K K R R R R R R R K K K K K K K K K K K K K K l l K K K l l K K K K K K K K K K K K K K K R R M N F L F R Y e n g ",
"P K R l K R l K K l l @.@.@.@.l l l l K K K K K K K K l l l l l l l l l l l l l l K K K K K K K K K K K K K K l l l l l l K R R R R R R R R R R R R R R R R R R R R K K K K K K K K K K K K K K K K K K K K K K K K K K K K K K K R R R F M F M R K e 8.W n+n e @.l K K K R R R R K l @.Y Y @.@.@.l l l K K l l l l l l l K K K K K K K K K K K l l l l l l l l l l l l l l l l K K K K K K K K K K K K K K K K K K K K K R R R R R R R K K K K K K K K K K K K K K K K K K K K K K K K K K K K K K K R M N M N L K K g k 3+1.w n e E @.K K R R R R R K K l l @.@.@.@.l l l K K K K K K K K K K K K K K K K K K K K K K l l l l l l l @.@.l l l K K K K K K K K K K K K K K K K l K K K K K R R R R R R R K K K K K K K K K K K K K K K K K K K K K K K K K K K K l l K K R R M M M N R l E a U (+R d Y l R R R R R R R K K l Y Y @.@.l l l l l l l l l l l l l K K K K K K K K K K K K l l l l l l l l l K K K K K K K K K K K K K K K K K K K K R R R R R R R K K K K K K K K K K K K K K l l K K K l l K K K K K K K K K K K K K l K K R M N N R R N K g b b ",
"P K R l K R l K K l l @.@.@.@.l l l l K K K K K K K K l l l l l l l K K K K K K K K K K K K K K K K K K K K l l l l l l l K K K K K K K K K K K K K K K K K K K K K K K K K K K K K K K K K K K K K K K K K K K K K K K K K K K K R R R F M F M R K e 8.W n+n e @.l K K K R R R R K l @.Y Y Y @.@.l l l K K l l l l l l l K K K K K K K K K K K l l l l l l l l l l l l l l l l K K K K K K K K K K K K K K R R R R R R R K K K K K K K K K K K K K K K K K K K K K K K K K K K K K K K K K K K l l K R M M N N L K K g k 3+1.w n e E Y K K K K R R K K K l @.@.Y @.@.l l l K K K K K K K K K K K K K K K K K K K K K K l l l l l l l @.@.l l l K K K K K K K K K K K K K K K K l l l K K K K K K K K K K K K K K K K K K K K K K K K K K K K K K K K K K K K K l @.l l K K R M M M N R l E a U (+R d Y l K K K K K K K K l @.Y Y Y Y l l l l l l l l l l l l l l K K K K K K K K K K K l l l l l l l l l K K K K K K K K K K K K K K K K K K K K K K K K K K K K K K K K K K K K K K K K K l l K K K l l K K K K K K K K K K K K K l l K R R N N N M N l e q r ",
"P K R l K R l K K l l @.@.@.@.l l l l K l l l l l l l l l l l l l l K K K K K K K l l l l l l l l l l l l l l l l l l l l K K K K K K K K K K K K K K K K K K K K K K K K K K K K K K K K K K K K K K K K K l l l l l l l K K K K R R R F M F M R K e 8.W n+n e @.l K K K R R R R l @.Y Y Y Y @.@.l l l K K l l l l l l l l l l l l l l K K K K l l l l l l l l l K R R R R R R K l l l l l l l l l l l l l R R R R R R R K K K K K K K K K K K K K K K K K K K K l l l l l l l l l l l l l l l l l l K R M F N O l l f {+3+{.y r e E Y l K K K K R K K l l @.Y Y @.@.l l l K K l l l l l l l l l l l l l l K K K K K K K l l l l l l @.@.l l l K K l l l l l l l l l l l l l l l l l l K K K K K K K K K K K K K K K K K K K K K K K l l l l l l l l l l l l l l @.@.l K K K M M M N R l E a U (+R d Y l K K K K K K K K l @.Y Y Y Y l l l l l l l l l l l l l l l l l l l l K K K K K l l l l l l l l l K K K K K K K l l l l l l l l l l l l l K K K K K K K l l l l l l l K K K K K K K l l K K K l l l l l l l l l K K K K K K l l K K R M N G F K E c c h ",
"P K R l K R l K K l l @.@.@.@.l l l l K l l l l l l l l K K K K K K l @.@.@.@.@.l l l l l l l l l l l l l l l K K K K K K K K K K K K K K K K K K K K K K K K K K K K K K K K K K K K K K K K K K K K K K K l l l l l l l K K K K R R R F M F M R K e 8.W n+n e @.l K K K R R R K l @.Y P P Y @.@.l l l K K l l l l l l l l l l l l l l K K K K l l K R R R R R R K K K K K K K l l l l l l l l l l l l l l l l l l l l K K K K K K K K K K K K K K K K K K K K K l l l l l l l l l l l l l l l l l l K R N F N F @.l h ~+5 {.C q e P @.l l K K K K K l l @.@.Y Y @.@.l l l K K l l l l l l l l l l l l l l K K K K K K K R R R R R R l @.l l l K K l l l l l l l l l l l l l l @.@.l l l K K K K K K K K K K K K K K K K K K K K K K l l l l l l l l l l l l l l @.@.l l K K M M M N R l E a U (+R d Y l K K K K K K K l l @.Y P P Y l l l l l l l l l l l l l l l l l l l l K K K K K l l K R R R R R K K K K K K K K l l l l l l l l l l l l l K K K K K K K l l l l l l l K K K K K K K l l K K K l l l l l l l l l K K K K K K l l l K R M M F M l P d n f ",
"P l K l R R l K K l l @.@.@.Y @.@.@.@.l l l l l l l l K K K K K K K l l l l l l l K K K K K K K K K K K K K l l l l l l l l l l l l l l l l l l l l l l l l l l l l l l l l l l l l l l l l l l l l l l l l l l l l l l l l l l l K K K R N F N R R n 8.u l+q e P l l l l K K K K K l @.Y Y Y @.@.@.@.@.l l l l l l l l l @.l l l l K K K K l l l @.l K K K K K K l @.l l l l K l @.@.@.@.@.@.l l l l l l l l l l l l l l l l l l l l l l l l l l l l l l l l l l l l l l l l l l l l l l l l l l l l K R M N M N Y l g {+5 1.C b d P Y @.l l l K K K l @.Y Y Y Y Y Y @.@.@.l l K K K K K K l @.@.@.@.@.@.l K K l l l l K K K K K K K K l K K K K K @.@.@.@.@.@.@.@.@.@.@.@.@.@.l l l l l l l l l l l l l l l l l l l l l l l l l l l l l l l l l l l l l l l l l l l K l l R M M M M R @.E s 3.;+K d P l K R R R R R R K l @.Y Y Y @.@.@.@.@.@.@.l K K K K K K l l l l l l l K K K l l l @.K K K K K K K K K K K K K K @.@.@.@.@.@.l l l l l l l l l l l l l l l l l l l l l l l l l l l l l l l l l l l l l l l l l l l l l l l l @.l l K R M M M N K Y g r e ",
"P l K l R R @.K K l l @.@.@.Y Y Y @.@.@.l l l l l l l K K K K K K K l l l l l l l K K K K K K K K K K K K K K l l l l l l l l l l l l l l l l l l l l l l l l l l l l l l l l l l l l l l l l l l l l l l l l l l l l l l l l @.@.l K K K F N M K M r 9.u c+b g P l @.l l l l K K K l l @.Y Y @.@.@.@.@.@.@.l l l l l l l @.@.l l l K K K K l l l @.@.l l l l l l @.@.l l l l K l l l l l l l l l l l l l l l l l l l l l l l l l l l l l l l l l l l l l l l l l l l l l l l l l l l l l l l l l l l K R M M R N Y @.g {+3+1.y b d P Y @.l l l l K K l @.Y Y Y Y Y Y Y @.@.@.@.K K K K K K K l l l l l l l K l l l l @.l K K K K K K K K K K K K K l l l l l l l l l l l l l l l l l l l l l l l l l l l l l l l l l l l l l l l l l l l l l l l l l l l l l l l K K K l l R N M M M R @.h s 8 ;+l e P l K K K K K K K K l @.Y @.@.@.@.@.@.@.@.@.l K K K K K K l l l l l l l K K l l l @.@.K K K K K K K K K K K K K K l l l l l l l l l l l l l l l l l l l l l l l l l l l l l l l l l l l l l l l l l l l l l l l l l l l l l l @.l l K R M N M F K @.f q g ",
"P l K l R R @.K K l @.@.@.Y Y Y Y @.@.@.@.l l l l l l l l l l l l l l l l l l l l l l l l l l l l l l l l l l l l l l l l l l l l l l l l l l l l l l l l l l l l l l l l l l l l l l l l l l l l l l l l l l l l l l l l l l @.@.l K K K F N M l M r 9.u c+b g P l @.l l l l K K l l @.@.Y Y @.@.@.@.@.@.@.l l l l l l l @.@.l l l K K K K l l l @.@.l l l l l l @.@.l l l l K l l l l l l l l l l l l l l l l l l l l l l l l l l l l l l l l l l l l l l l l l l l l l l l l l l l l l l l l l l l K R M M R N Y @.g {+3+1.y b d P Y @.l l l l K K l @.Y Y Y Y Y Y Y @.@.@.@.l l l l l l l l l l l l l K K l l l l @.l l l l l l l l l l l l l l l l l l l l l l l l l l l l l l l l l l l l l l l l l l l l l l l l l l l l l l l l l l l l l l l l l l l l l K K K l l R N M M M K @.h s 8 ;+l e P l K K K K K K K l l @.Y Y @.@.@.@.@.@.@.@.@.l l l l l l l l l l l l l l l l l @.@.@.l l l l l l l l l l l l l l l l l l l l l l l l l l l l l l l l l l l l l l l l l l l l l l l l l l l l l l l l l l l l l l l l l l l l @.l l K R M N R N l Y g q g ",
"P l K l R R @.K l l @.@.Y Y Y Y Y @.@.@.@.@.@.@.@.@.@.l l l l l l l l l l l l l l l l l l l l l l l l l l l l K K K K K K K K K K K K K l l l l l l l l l l l l l l l l l l l l l l l l l l l l l l l l l l l l l l l l l l l @.@.l K K K N M M l R q 9.u c+b g E @.@.l l l l K K l @.@.Y Y P Y @.@.@.@.@.@.@.@.@.@.@.@.@.@.@.l l l K K K K l l l @.@.@.@.@.@.@.@.@.@.l l l l K K K K K K K K l l l l l l l l l l l l l l l l l l l l l l l l l l l l l l l l l l l l l l l l l l l l l l l l l l l l K R M M R N Y @.g {+3+1.y b d P Y @.l l l l K K l @.Y Y Y Y Y Y Y @.@.@.@.l l l l l l l K K K K K K K K l l l l @.l l l l l l l l l l l l l l K K K K K K K K K K K K K K l l l l l l l l l l l l l l l l l l l l l l l l l l l l l l l l l l l l l l l l l K K K l l R N M M M K @.h s 8 ;+l e P l K K K K K K K l @.Y Y Y Y @.@.@.@.@.@.@.@.l l l l l l l l l l l l l l l l @.@.@.@.l l l l l l l l l l l l l l K K K K K K K l l l l l l l l l l l l l l l l l l l l l l l l l l l l l l l l l l l l l l l l l l l l l l l @.l l K R M N R N l Y g q e ",
"P l K l R R @.l l @.@.Y Y Y Y Y Y @.@.@.@.@.@.@.@.@.@.l l l l l l l l l l l l l l l l l l l l l l l l l l l l K K K K K K K K K K K K K l l l l l l l l l l l l l l l l l l l l l l l l l l l l l l l l l l l l l l l l l l l @.@.l K K K N M R @.R q 9.u c+b g E @.@.l l l l K l @.@.@.Y P P Y @.@.@.@.@.@.@.@.@.@.@.@.@.@.@.l l l K K K K l l l @.@.@.@.@.@.@.@.@.@.l l l l K K K K K K K K l l l l l l l l l l l l l l l l l l l l l l l l l l l l l l l l l l l l l l l l l l l l l l l l l l l l K R M M R N Y @.g {+3+1.y b d P Y @.l l l l K K l @.Y Y Y Y Y Y Y @.@.@.@.l l l l l l l K K K K K K K K l l l l @.l l l l l l l l l l l l l l K K K K K K K K K K K K K l l l l l l l l l l l l l l l l l l l l l l l l l l l l l l l l l l l l l l l l l l K K K l l R N M M M K @.h s 8 ;+l e P l l K K K K K K @.@.Y Y Y Y Y @.@.@.@.@.@.@.l l l l l l l l l l l l l l l @.@.@.Y Y l l l l l l l l l l l l l l K K K K K K l l l l l l l l l l l l l l l l l l l l l l l l l l l l l l l l l l l l l l l l l l l l l l l l @.l l K R M N R N l P g b e ",
"P l K l R R @.l l @.Y Y P P Y Y Y @.@.@.@.@.@.@.@.@.@.@.@.@.@.@.@.@.l l l l l l l @.@.@.@.@.@.@.@.@.@.@.@.@.l l l l l l l l l l l l l l l l l l l l l l l l l l l l l l l l l l l l l l l l l l l l l l l l l l l l l l l l l @.@.l K K l N R R @.R q 9.u c+b g P l @.l l l l K l @.@.Y P P P Y @.@.@.@.@.@.@.@.@.@.@.@.@.@.@.l l l K K K K l l l @.@.@.@.@.@.@.@.@.@.l l l l K l l l l l l l l l l l l l l l l l l l l l l l l l l l l l l l l l l l l l l l l l l l l l l l l l l l l l l l l l l l K R M M R N Y @.g {+3+1.y b d P Y @.l l l l K K l @.Y Y Y Y Y Y Y @.@.@.@.@.@.@.@.@.@.l l l l l l l l K l l l l @.@.@.@.@.@.@.@.@.@.@.@.@.@.@.l l l l l l l l l l l l l l l l l l l l l l l l l l l l l l l l l l l l l l l l l l l l l l l l l l l l l l l K K K l l R N M M M K @.h s 8 ;+l e P l l l l l l l l @.@.Y P P P Y @.@.@.@.@.@.@.@.@.@.@.@.@.l l l l l l l @.@.@.@.Y Y Y @.@.@.@.@.@.@.@.@.@.@.@.@.l l l l l l l l l l l l l l l l l l l l l l l l l l l l l l l l l l l l l l l l l l l l l l l l l l l l l l l @.l l K R M N R M @.P e b d ",
"P l K l R R @.l l @.Y Y P P Y Y Y @.@.@.@.Y Y Y Y Y Y @.@.@.@.@.@.@.l l l l l l l @.@.@.@.@.@.@.@.@.@.@.@.@.@.@.@.@.@.@.@.@.@.@.@.@.@.@.l l l l l l l l l l l l l l l l l l l l l l l l l l l l l l l l l l l l l l l l l l l @.@.l K K l M R R @.K b 9.u c+b g P l @.l l l l K l @.Y Y P P E Y @.@.@.@.@.@.Y Y Y Y Y Y Y @.@.l l l K K K K l l l @.@.Y Y Y Y Y Y @.@.l l l l K l @.@.@.@.@.@.l l l l l l l l l l l l l l l l l l l l l l l l l l l l l l l l l l l l l l l l l l l l l l l l l l l l K R M M R N Y @.g {+3+1.y b d P Y @.l l l l K K l @.Y Y Y Y Y Y Y @.@.@.@.@.@.@.@.@.@.@.@.@.@.@.@.@.l K l l l l @.@.@.@.@.@.@.@.@.@.@.@.@.@.@.@.@.@.@.@.@.@.@.@.@.@.@.@.l l l l l l l l l l l l l l l l l l l l l l l l l l l l l l l l l l l l l l l l l l K K K l l R N M M M K @.h s 8 ;+l e P l l l l l l l l @.Y Y P P P Y @.@.@.@.@.@.@.@.@.@.@.@.@.l l l l l l l @.@.@.@.Y Y Y @.@.@.@.@.@.@.@.@.@.@.@.@.@.@.@.@.@.@.@.l l l l l l l l l l l l l l l l l l l l l l l l l l l l l l l l l l l l l l l l l l l l l l l l @.l l K R M N R M @.P e m d ",
"E @.l l l l l K l @.Y P P P P Y Y @.@.l @.@.@.@.@.@.@.@.@.@.@.@.@.@.@.@.@.@.Y Y Y Y Y Y @.@.@.@.@.@.@.@.@.@.@.@.@.@.@.@.@.@.@.@.@.@.@.@.@.@.@.@.@.@.@.@.@.@.@.@.@.@.l l l l l l l l l l l l l l l l l l l l l l l l l l l @.@.@.@.l l l K l M R l l n 9.>.l+b n @.Y l l l l l l l l Y P Y P E P Y @.@.@.@.@.@.@.@.@.@.@.@.Y Y @.@.@.@.@.@.@.@.@.Y Y Y Y Y Y @.@.@.@.@.@.@.@.@.@.@.@.@.@.@.@.@.@.@.@.@.@.@.@.@.@.@.@.@.@.@.@.@.@.@.@.@.@.l l l l l l l l l l l l l l l l l l l l @.@.@.@.@.@.@.@.@.@.@.l l K M M M R Y f ).3+(.D a e h Y l l l l K K K l @.Y Y Y Y @.@.Y P Y l l @.@.@.@.@.@.@.@.@.@.@.@.@.@.Y @.@.l l l @.Y Y Y @.@.@.@.@.@.@.@.@.@.@.@.@.@.@.@.@.@.@.@.@.@.@.@.@.@.@.@.@.@.@.@.@.@.@.@.@.@.@.@.@.@.@.@.l l l l l l l l l l l l l l l l l l l l l @.@.@.@.@.@.l R N K l @.h a @+/+@.e E @.K K K K K K K @.@.Y P P Y Y @.@.@.l l l l @.@.@.@.@.@.@.@.@.@.@.@.@.@.@.@.@.Y Y Y Y Y Y @.@.@.@.@.@.@.@.@.@.@.@.@.@.@.@.@.@.@.@.@.@.@.@.@.@.@.@.@.@.@.@.@.@.@.@.@.@.l l l l l l l l l l l l l l l l l l l l l @.@.@.@.@.@.l l l K R R R M F K Y g m c ",
"E Y l l l l l K l @.Y P P E P Y Y @.@.l @.@.@.@.@.@.@.@.@.@.@.@.@.@.@.@.@.@.Y Y Y Y Y Y @.@.@.@.@.@.@.@.@.@.@.@.@.@.@.@.@.@.@.@.@.@.@.@.@.@.@.@.@.@.@.@.@.@.@.@.@.@.l l l l l l l l l l l l l l l l l l l l l l l l l l l @.@.@.@.l l l R l M R K @.c 9.-.l+b r @.P l l l l l l l l P P P Y P P Y Y @.@.@.@.@.@.@.@.@.@.@.Y Y @.@.@.Y Y @.@.@.Y Y Y Y Y Y Y @.@.@.@.@.@.@.@.@.@.@.@.@.@.@.@.@.@.@.@.@.@.@.@.@.@.@.@.@.@.@.@.@.@.@.@.@.@.l l l l l l l l l l l l l l l l l l l l @.@.@.@.@.@.@.@.@.@.@.l l K M M R M P g ).3+(.s s e f Y @.l l l l K K l @.Y P Y Y Y Y Y Y @.@.l @.@.@.@.@.@.@.@.@.@.@.@.@.@.@.@.@.@.l l @.Y Y Y @.@.@.@.@.@.@.@.@.@.@.@.@.@.@.@.@.@.@.@.@.@.@.@.@.@.@.@.@.@.@.@.@.@.@.@.@.@.@.@.@.@.@.@.l l l l l l l l l l l l l l l l l l l l l @.@.@.@.@.@.l R N K l @.h m @+^+Y e E @.K K K K K K K @.@.Y P P P Y @.@.@.@.l l l @.@.@.@.@.@.@.@.@.@.@.@.@.@.@.@.@.Y Y Y Y Y Y @.@.@.@.@.@.@.@.@.@.@.@.@.@.@.@.@.@.@.@.@.@.@.@.@.@.@.@.@.@.@.@.@.@.@.@.@.@.l l l l l l l l l l l l l l l l l l l l l @.@.@.@.@.@.@.l l l K R R R N l P e a n ",
"h Y l l @.@.l l l @.Y P E E P P Y @.@.@.@.@.@.@.@.@.@.@.@.@.@.@.@.@.@.@.@.@.Y Y Y Y Y Y @.@.@.@.@.@.@.@.@.@.@.@.@.@.@.@.@.@.@.@.@.@.@.@.@.@.@.@.@.@.@.@.@.@.@.@.@.@.l l l l l l l l l l l l l l l l l l l l l l l l l l l @.@.@.@.l l l R l M R K @.c 9.-.l+b r @.P l l l l l l l @.P P P P E P P Y @.@.@.Y @.@.@.@.@.@.@.Y Y @.@.@.Y Y @.@.@.Y Y Y Y Y Y Y @.@.@.@.@.@.@.@.@.@.@.@.@.@.@.@.@.@.@.@.@.@.@.@.@.@.@.@.@.@.@.@.@.@.@.@.@.@.l l l l l l l l l l l l l l l l l l l l @.@.@.@.@.@.@.@.@.@.@.l l K R R R R P g ).3+(.s s e f Y @.@.l l l l l l @.Y P P Y P P Y @.@.@.Y @.@.@.@.@.@.@.@.@.@.@.@.@.@.@.@.@.@.@.@.Y Y Y Y @.@.@.@.@.@.@.@.@.@.@.@.@.@.@.@.@.@.@.@.@.@.@.@.@.@.@.@.@.@.@.@.@.@.@.@.@.@.@.@.@.@.@.@.l l l l l l l l l l l l l l l l l l l l @.@.@.@.@.@.@.l R N K l @.h m @+/+Y d h Y l l l l l l l @.Y P P P P P Y Y @.@.@.l @.@.@.@.@.@.@.@.@.@.@.@.@.@.@.@.@.@.Y Y Y Y Y Y @.@.@.@.@.@.@.@.@.@.@.@.@.@.@.@.@.@.@.@.@.@.@.@.@.@.@.@.@.@.@.@.@.@.@.@.@.@.l l l l l l l l l l l l l l l l l l l l @.@.@.@.@.@.@.@.@.l l K K R K M @.E d s r ",
"h Y @.l @.@.l l @.Y P P E E P P P Y @.@.@.@.@.@.@.@.@.Y Y Y Y Y Y Y @.@.@.@.Y Y Y Y Y Y @.@.@.@.@.@.@.@.@.@.Y Y Y Y Y Y Y Y Y Y Y Y Y Y Y Y Y Y Y Y Y Y Y Y Y Y Y Y @.@.@.@.@.@.@.@.@.@.@.@.@.@.@.@.@.@.@.@.@.@.@.@.@.@.@.@.@.@.@.l l l R l M R K @.c 9.-.l+b r @.P @.@.@.@.@.@.@.@.P E P P E E P Y Y @.Y Y Y @.@.@.@.@.@.Y Y @.@.@.Y Y @.@.@.Y Y Y Y Y Y Y @.@.@.@.@.@.@.@.@.@.@.@.@.@.@.@.@.Y Y Y Y Y Y Y @.@.@.@.@.@.@.@.@.@.@.@.@.@.@.@.@.@.@.@.@.@.@.@.@.@.@.@.@.@.@.@.@.@.@.@.@.@.@.@.@.@.@.@.@.l l K R R R R P g 4.3+(.s s e f Y @.@.@.l l l l @.Y P P P P E P Y @.@.Y P @.@.@.@.@.@.@.@.@.@.@.@.@.@.l @.@.Y Y Y Y Y Y Y @.@.@.@.@.@.@.@.@.@.@.@.@.@.@.@.@.Y Y Y Y Y Y Y @.@.@.@.@.@.@.Y Y Y Y Y Y @.@.@.@.@.@.@.@.@.@.@.@.@.@.@.@.@.@.@.@.@.@.@.@.@.@.@.@.@.@.@.@.@.@.l R N K l @.h a @+/+Y d h Y l l l l l l l Y Y P E E P P Y Y Y @.@.@.@.@.@.@.@.@.@.@.@.@.@.@.@.@.@.@.@.@.Y Y Y Y Y Y @.@.@.@.@.@.@.@.@.@.@.@.@.@.@.@.@.@.Y Y Y Y Y Y @.@.@.@.@.@.@.Y Y Y Y Y Y Y @.@.@.@.@.@.@.@.@.@.@.@.@.@.@.@.@.@.@.@.@.@.@.@.@.@.@.@.@.@.l l K K K M l P d a r ",
"h Y @.@.@.Y @.@.@.Y P E E h E E P Y Y @.Y Y Y Y Y Y Y Y @.@.@.@.@.@.@.@.@.@.Y Y Y Y Y Y @.@.@.@.Y Y Y Y Y Y Y @.@.@.@.@.@.@.@.@.@.@.@.@.@.@.@.@.@.@.@.@.@.@.@.@.@.@.@.@.@.@.@.@.@.@.@.@.@.@.@.@.@.@.@.@.@.@.@.@.@.@.@.@.@.@.@.@.@.l l l R l M R K @.c 9.-.l+b r @.P @.@.@.@.@.@.@.@.E E E E E E E P Y Y Y Y Y Y Y Y Y Y Y Y Y @.@.@.Y Y @.@.@.Y Y Y Y Y Y Y @.@.@.Y Y Y Y Y Y Y @.@.@.@.@.@.@.@.@.@.@.@.@.@.Y Y Y Y Y Y Y @.@.@.@.@.@.@.@.@.@.@.@.@.@.@.@.@.@.@.@.@.@.@.@.@.@.@.@.@.@.@.@.@.@.@.@.@.@.l l K R R K K E g 4.3+(.s s e f P Y Y @.@.@.@.@.@.Y P E E P E E Y Y Y Y P Y Y Y Y Y Y Y Y Y Y Y Y Y Y Y Y Y Y Y Y Y Y Y Y @.@.@.Y Y Y Y Y Y Y @.@.@.@.@.@.@.@.@.@.@.@.@.@.@.@.@.@.@.@.@.@.@.@.@.@.@.@.@.@.@.@.@.@.@.@.@.@.@.@.@.@.@.@.@.@.@.@.@.@.@.@.@.@.@.@.@.@.@.@.@.l R N K l @.h a @+/+P d h Y l l l l l l l Y P P E E E P P Y Y Y Y @.@.Y Y Y Y Y Y Y Y Y Y Y Y Y @.@.@.@.Y Y Y Y Y Y @.@.@.@.Y Y Y Y Y Y Y @.@.@.@.@.@.@.@.@.@.@.@.@.@.@.@.@.@.@.@.@.@.@.@.@.@.@.@.@.@.@.@.@.@.@.@.@.@.@.@.@.@.@.@.@.@.@.@.@.@.@.@.@.@.Y Y @.l l K K K N l P e a n ",
"f P @.@.Y Y @.@.@.Y P E h h E E P P Y Y Y Y Y Y Y Y Y @.@.@.@.@.@.@.@.@.@.@.Y Y Y Y Y Y @.@.@.@.Y Y Y Y Y Y Y @.@.@.@.@.@.@.@.@.@.@.@.@.@.@.@.@.@.@.@.@.@.@.@.@.@.@.@.@.@.@.@.@.@.@.@.@.@.@.@.@.@.@.@.@.@.@.@.@.@.@.@.@.@.@.@.@.@.l l l R l M R K @.c 9.-.l+b r @.P @.@.@.@.@.@.@.Y E h E E E E E P Y Y Y P Y Y Y Y Y Y Y Y Y @.@.@.Y Y @.@.@.Y Y Y Y Y Y Y @.@.@.Y Y Y Y Y Y Y @.@.@.@.@.@.@.@.@.@.@.@.@.@.Y Y Y Y Y Y Y @.@.@.@.@.@.@.@.@.@.@.@.@.@.@.@.@.@.@.@.@.@.@.@.@.@.@.@.@.@.@.@.@.@.@.@.@.@.l l K K K K K E e 4.3+(.s s e f P Y Y Y @.@.@.@.Y Y P E E E P P E P P Y Y Y Y Y Y Y Y Y Y Y Y Y Y Y Y P Y Y Y Y Y Y Y Y Y @.@.@.Y Y Y Y Y Y Y @.@.@.@.@.@.@.@.@.@.@.@.@.@.@.@.@.@.@.@.@.@.@.@.@.@.@.@.@.@.@.@.@.@.@.@.@.@.@.@.@.@.@.@.@.@.@.@.@.@.@.@.@.@.@.@.@.@.@.@.@.l R N K l @.h a @+!+P c f P @.@.@.@.@.@.@.Y P E E E E E P P Y Y Y Y Y Y Y Y Y Y Y Y Y Y Y Y Y Y @.@.@.@.Y Y Y Y Y Y @.@.@.@.Y Y Y Y Y Y Y @.@.@.@.@.@.@.@.@.@.@.@.@.@.@.@.@.@.@.@.@.@.@.@.@.@.@.@.@.@.@.@.@.@.@.@.@.@.@.@.@.@.@.@.@.@.@.@.@.@.@.@.@.@.Y Y Y @.l l K K N @.P d a r ",
"f P @.@.Y Y @.@.@.P E E h h E E P P Y Y Y Y Y Y Y Y Y @.@.@.@.@.@.@.@.@.@.@.Y Y Y Y Y Y @.@.@.@.Y Y Y Y Y Y Y @.@.@.@.@.@.@.@.@.@.@.@.@.@.@.@.@.@.@.@.@.@.@.@.@.@.@.Y Y Y Y Y Y Y Y Y Y Y Y Y Y Y Y Y Y Y Y Y Y Y Y Y Y Y @.@.@.@.@.l l R l M R K @.c 9.-.l+b r @.P Y Y Y Y Y Y @.Y E h E E h E E P P Y P P Y Y Y Y Y Y Y Y Y @.@.@.Y Y @.@.@.Y Y Y Y Y Y Y @.@.@.Y Y Y Y Y Y Y @.@.@.@.@.@.@.@.@.@.@.@.@.@.Y Y Y Y Y Y Y @.@.@.@.@.@.@.Y Y Y Y Y Y Y Y Y Y Y Y Y Y Y Y Y Y Y Y @.@.@.@.@.@.@.@.@.@.@.l l K K K K K E e 4.3+(.s s e f P Y Y Y @.@.@.@.Y P P E E E P P E E P Y @.Y Y Y Y Y Y Y Y Y Y Y Y Y Y P P P Y Y @.Y Y Y Y @.@.@.Y Y Y Y Y Y Y @.@.@.@.@.@.@.@.@.@.@.@.@.@.@.@.@.@.@.@.@.@.@.@.@.@.@.@.@.@.@.@.@.@.Y Y Y Y Y Y Y Y Y Y Y Y Y Y Y Y Y Y Y Y Y @.@.@.@.@.@.l R N K l @.h a @+!+P c f P @.@.@.@.@.@.@.P P E h h E E P P Y Y Y Y Y Y Y Y Y Y Y Y Y Y Y Y Y Y @.@.@.@.Y Y Y Y Y Y @.@.@.@.Y Y Y Y Y Y Y @.@.@.@.@.@.@.@.@.@.@.@.@.@.@.@.@.@.@.@.@.@.@.@.@.@.@.Y Y Y Y Y Y Y Y Y Y Y Y Y Y Y Y Y Y Y Y @.@.@.@.@.@.@.Y Y Y @.@.l K l R Y h n D q ",
"g Y @.Y @.l Y l @.Y P P E E E E E E E E P @.@.@.@.@.@.@.@.@.@.@.@.@.@.Y Y Y P P P Y Y Y P E E P Y Y Y Y Y Y Y Y Y Y Y Y Y Y @.@.@.@.@.@.@.@.@.@.@.@.@.@.@.@.@.@.@.@.@.@.@.@.@.@.@.@.@.@.@.@.@.@.@.@.@.@.@.@.@.@.@.@.@.@.@.Y Y Y Y @.@.@.R l M R K @.c 0.-.n+m d g P Y @.@.@.@.Y Y Y P P E E P E E E E E E E P P P Y Y Y @.@.@.@.@.@.@.@.Y @.@.P E P Y P P P P P P Y @.@.@.@.@.@.Y P P P P P P @.@.@.@.@.@.@.@.@.@.@.@.@.@.@.@.@.@.@.@.@.Y Y Y Y Y Y @.@.@.@.@.@.@.@.@.@.@.@.@.@.Y Y Y Y Y Y Y @.@.Y Y Y @.l K M R K E f ).3+(.s s d f P Y @.@.Y Y l @.@.Y P E E E E E E E E E E P P Y Y Y Y @.Y Y P P P Y Y Y Y Y Y P P Y @.@.Y Y P P Y @.@.@.@.@.@.@.Y P P P Y @.Y Y Y Y Y Y Y @.@.@.@.@.@.@.@.@.@.@.@.@.P E P P Y @.l @.@.@.@.@.@.@.@.@.@.@.@.@.@.@.@.@.@.@.@.@.@.Y Y Y Y @.l l l K l P g a @+/+P n f Y Y Y Y Y @.@.@.Y Y P E E P P E P P P Y Y @.l l l l l l @.@.@.@.@.@.@.@.@.Y P P Y Y @.@.@.@.@.@.@.Y Y Y Y Y Y Y Y Y Y Y Y Y Y Y Y Y Y Y Y @.@.@.@.@.@.@.P E E P P P P @.@.@.@.@.@.@.Y Y Y Y Y Y Y Y Y Y Y Y Y Y @.@.@.@.@.@.Y Y P Y Y l K K R P h d b g ",
"g Y @.Y @.l Y l @.Y P P E E E E E E E E P P P P P P P Y Y Y Y Y Y Y Y Y Y Y P P P Y Y Y P P P Y Y Y Y Y Y Y Y Y Y Y Y Y Y Y Y Y Y Y Y Y Y Y Y Y Y Y Y Y Y Y Y Y Y Y @.@.@.@.@.@.@.@.@.@.@.@.@.@.@.@.@.@.@.@.@.@.@.@.@.@.@.Y Y Y Y @.@.@.K l M R K @.n 0.-.n+m d g P Y @.@.@.@.Y Y Y P E E E P E E E E E E E P P P Y Y Y Y Y Y Y Y Y Y Y Y @.Y P E P Y P P P P P P Y Y Y Y Y Y Y Y P P P P P P Y Y Y Y Y Y Y Y Y Y Y Y Y Y Y Y Y Y Y Y Y Y Y Y Y Y Y @.@.@.@.@.@.@.@.@.@.@.@.@.@.Y Y Y Y Y Y Y @.@.Y Y Y @.l K R R K E f ).3+(.s s d g E Y @.@.Y Y l @.Y P E E E E E E E E E E E P P P Y Y Y Y @.Y Y P Y @.@.Y Y Y Y P P P Y Y Y Y P P Y Y Y Y Y Y Y Y Y Y P Y Y Y Y Y Y Y Y Y Y Y Y Y Y Y Y Y Y Y Y Y Y Y Y P P Y Y Y @.@.@.@.@.@.@.@.@.@.@.@.@.@.@.@.@.@.@.@.@.@.@.Y Y Y Y @.l l l K l P g a @+/+P n g Y Y Y Y Y @.@.@.Y Y P E E P P E E P P P Y P P P P P P P P Y Y Y Y Y Y @.@.Y P P P Y Y Y Y Y Y Y Y Y Y Y Y Y Y Y E E E E E E P Y Y Y Y Y Y Y Y Y Y Y Y Y P P P P Y Y Y @.@.@.@.@.@.@.Y Y Y Y Y Y Y Y Y Y Y Y Y Y @.@.@.@.@.@.Y Y P Y Y l K @.R Y E d a n ",
"g Y @.Y @.l Y @.@.Y P E h h E E E E E E P P P P P P P Y Y Y Y Y Y Y Y Y Y P P P P P Y Y Y Y Y @.@.@.@.@.@.@.@.@.@.@.@.@.@.Y Y Y Y Y Y Y Y Y Y Y Y Y Y Y Y Y Y Y Y Y @.@.@.@.@.@.@.@.@.@.@.@.@.@.@.@.@.@.@.@.@.@.@.@.@.@.@.Y Y Y Y @.@.@.K l M K K @.n 0.-.n+m d g P Y @.@.@.@.Y Y Y P E E E E E E E E E E E E P P P Y Y Y Y Y Y Y Y Y Y P Y Y P E P Y Y Y Y Y Y Y Y Y Y Y Y Y Y Y Y Y Y Y Y Y Y Y Y Y Y Y Y Y Y Y Y Y Y Y Y Y Y Y Y Y Y Y Y Y Y Y Y @.@.@.@.@.@.@.@.@.@.@.@.@.@.Y Y Y Y Y Y Y @.@.Y Y Y @.@.l R R K E g ).3+(.s s d g E Y @.@.Y Y l @.Y P E E E E E E E E E E E P P P P Y Y Y @.@.Y Y @.@.@.Y Y Y P P P P P P P Y Y Y Y Y Y Y Y Y Y P P Y Y Y P P P P P P P P P Y Y Y Y Y Y Y Y Y Y Y Y Y Y Y Y Y Y Y Y @.@.@.@.@.@.@.@.@.@.@.@.@.@.@.@.@.@.@.@.@.@.Y Y Y Y @.l l l K l P g a @+/+P n g Y Y Y Y Y @.@.@.Y P P E E E E E E E P P P P E E E E E E P Y Y Y Y Y Y @.Y P P P P P Y Y Y Y Y Y Y @.@.@.@.@.@.@.Y Y Y Y Y Y Y P P P P P P Y Y Y Y Y Y Y Y Y Y Y @.@.@.@.@.@.@.@.@.@.Y Y Y Y Y Y Y Y Y Y Y Y Y Y @.@.@.@.@.@.Y Y P Y Y l K @.R Y E d s q ",
"g Y @.Y @.l Y @.@.Y P E h h E E E E E E P Y Y Y Y Y Y Y Y Y Y Y Y Y Y P P P P E E P P Y Y Y @.@.@.@.@.@.@.@.@.@.@.@.@.@.@.Y Y Y Y Y Y Y Y Y Y Y Y Y Y Y Y Y Y Y Y Y Y Y Y Y Y Y Y Y Y Y Y Y Y Y Y Y Y Y Y Y Y Y Y Y Y Y Y Y Y Y Y @.@.@.K @.R K l Y n 0.-.n+m d g P Y @.@.@.@.Y Y P P E h E E E E E E E E E E E P P P P Y Y Y Y Y Y Y Y P Y Y P h E P Y Y Y Y Y Y Y Y Y Y Y Y Y Y Y Y Y Y Y Y Y Y Y Y Y Y Y Y Y Y Y Y Y Y Y Y Y Y Y Y Y Y Y Y Y Y Y Y Y Y Y Y Y Y Y Y Y Y Y Y Y Y Y Y Y Y Y Y @.@.Y Y Y @.@.l K K l h g ).3+(.s s d g E Y @.@.Y Y l Y Y P E h h h E E E E E E E E E P P P P Y @.@.Y Y Y @.@.Y P P P E E E E E P P Y Y Y Y Y Y Y Y Y E P Y Y Y P E P P P P P P P Y Y Y Y Y Y Y Y Y Y Y Y Y Y Y Y Y Y P P Y Y Y Y Y Y Y Y Y Y Y Y Y Y Y Y Y Y Y Y Y @.Y Y Y Y @.l l l K l P g a @+/+P n g Y Y Y Y Y @.@.@.P P E E h E E h E E E E P P Y Y Y Y Y Y Y Y Y Y Y Y Y Y Y P E E E P Y Y Y Y Y Y Y @.@.@.@.@.@.@.@.@.@.@.@.@.Y P P P P P P Y Y Y Y Y Y Y Y Y Y @.@.@.@.Y Y Y Y Y Y Y Y Y Y Y Y Y Y Y Y Y Y Y Y Y Y Y Y Y Y Y Y Y P Y Y l K l R P f n s r ",
"g Y @.Y @.l Y @.Y P E h h h E E E E E E E P P P P P P P P P P P P P P P P P E E E E P P P P P Y Y Y Y Y Y Y Y Y Y Y Y Y Y Y P P P P P P P P P P P P P P P P P P P P @.@.@.@.@.@.@.Y Y Y Y Y Y Y Y Y Y Y Y Y Y Y Y Y Y Y Y Y Y Y Y @.@.@.l @.R K l Y r 0.-.n+m d g P Y @.@.@.@.Y Y P E h h h E E E E E E E E E E E P P P P P P P P P P P P Y Y E h E P P P P P P P P P P P P P P P P P P P P P P P P P P P P P P P P P P P P P P P P P Y Y Y Y Y Y Y Y Y Y Y Y Y Y Y Y Y Y Y Y Y Y Y Y Y Y Y Y @.@.Y Y Y @.@.@.K K l h g ).3+(.s s d g E Y @.@.Y Y l Y P E h h h h E E E E E E E E E E P P P Y Y Y P P P Y Y P P P E E E E E E E P P P P P P P P P P E E P P P E E P P P P P P P P P P P P P P P P P P P P Y Y Y Y Y Y Y Y Y Y Y Y Y Y Y Y Y Y Y Y Y @.@.@.@.@.@.@.@.Y Y Y Y @.l l l K l P g a @+/+P n g Y Y Y Y Y @.@.@.P P E h h h E h h E E E E P P P P P P P P P P P P P P Y P P E E E E P P P P P P P Y Y Y Y Y Y Y P P P P P P P P P P P P P P P P P P P P P Y Y Y @.@.@.Y Y Y Y Y Y Y Y Y Y Y Y Y Y Y Y Y Y Y Y Y Y Y Y Y Y Y Y Y P Y Y l K R R P g r s c ",
"g Y @.Y @.l Y Y Y P E h h h E E E E E E E h h h h h h E P P P P P P P P P E E E E E E E E E h E P P P P P P P P P P P P P P P P P P P P P P P P P P P P P P P P P P @.@.@.@.@.@.@.Y Y Y Y Y Y Y Y Y Y Y Y Y Y Y Y Y Y Y Y Y Y Y Y @.@.@.l @.K l @.Y r 0.-.n+m d g P Y @.@.@.@.Y Y E E h h h h E E E E E E E E E E E P P P P P P P P P P E P P E h h E E E E E E E P P P P P P P E E E E E E E P P P P P P P P P P P P P P P P P P P P P Y Y Y Y Y Y Y Y Y Y Y Y Y Y Y Y Y Y Y Y Y Y Y Y Y Y Y @.@.Y Y Y @.@.@.K l l h e ).3+(.s s d g E Y @.@.Y Y l Y P E h h h h E E E E E E E E E E E P P P P P E E E P P P P E E E E P P P E E E E P P P P P P P P E E E E E P E E E E E E E P P P P P P P P P P P P P P P P Y Y @.@.Y Y Y Y Y Y Y Y Y Y Y Y Y Y @.@.@.@.@.@.@.@.Y Y Y Y @.l l l K l P g a @+/+P n g Y Y Y Y Y @.@.@.P E E h h h h h h h E E E E E E E E E E P P P P P P P Y P E E E E E P P P P P P P P P P P P P P h h h h h h E E E E E E E P P P P P P P P P P P Y Y Y Y Y Y Y Y Y Y Y Y Y Y Y Y Y Y Y Y Y Y Y Y Y Y Y Y Y Y Y Y P Y Y l K l R Y h c m d ",
"e P @.Y @.l Y Y Y P E h f h E E E E E E E P P P P P P P P P P P P P P P P E E E h E E h h h f h E E E E E E E E E E E E E E P P P P P P P P P P P P P P P P P P P P @.@.@.@.@.@.@.Y Y Y Y Y Y Y Y Y Y Y Y Y Y Y Y Y Y Y Y Y Y Y Y @.@.@.@.@.K l @.P r 0.-.n+m d g P Y Y @.@.@.Y Y E E h h h h E E E E E E E h E E E E P P P P P P P P P E P P h h h E h h h h h h E P P P P P P E h h h h h h P P P P P P P P P P P P P P P P P P P P Y Y Y Y Y Y Y Y Y Y Y Y Y Y Y Y Y Y Y Y Y Y Y Y Y Y Y Y @.Y Y Y Y @.@.@.l l @.f e 4.3+(.s s d g E Y @.@.Y Y @.Y P E h f f h E E E E E E E h E E E P P P E E h h E E P P P E E E E E P P E E E h E P P P P P P P P E h E P P E E E E E E E P P P P P P P P P P P P P E E P P Y @.l Y Y Y Y Y Y Y Y Y Y Y Y Y Y @.@.@.@.@.@.@.@.Y Y Y Y @.@.l l K l P g s @+/+P n g Y Y Y Y @.@.@.@.E E E h h h h h h h E E E E E E E E E E E P P P P P P P P E E h E E P P P P P P P E E E E E E E E E E E E E E E E E E E E P P P P P P P E E E P P P P Y Y Y Y Y Y Y Y Y Y Y Y Y Y Y Y Y Y Y Y Y Y Y Y Y Y Y Y Y P Y Y @.l @.K @.Y e b c ",
"d P @.Y @.@.E Y Y P E h h f h h h E E E E E E E E E E E h h h h h h E P P Y P P E h h h h h h h h h h h h h E E E E E E E E h h h h h h P P P P P P P P P P P P P P P P Y Y Y @.@.@.@.@.@.@.@.@.@.@.@.@.@.@.@.@.@.@.@.@.@.@.@.@.@.Y Y Y Y l l @.@.h c 0.>.n+m c g P Y Y Y @.@.@.Y E h f f f f E E E E E E E E E E E E E E h h h h h h h E E E h h h h E E E E E E E E E E E E E E E E E E E E E E E E E E E E E E E E E P Y P P P P Y Y @.@.@.@.@.@.@.@.@.@.Y Y Y Y @.@.@.@.@.@.@.@.@.@.@.@.@.Y P P P Y @.@.@.l @.Y f e 4.3+(.s s c e h P Y Y @.Y Y Y P E h h h h h h h E E E E E E E E E E E E E E E E E E P Y Y E E P P E E E E E E E E E E E E E E E E E E E E h h h h h h E P P P P P P P E E E E E E P P Y Y Y Y @.@.@.@.@.Y Y Y @.@.@.@.@.@.@.@.@.@.@.@.@.@.@.@.@.@.Y Y @.@.@.l @.P g s @+!+P r g E Y Y Y @.@.@.@.h h E E E h h E E E E E E E E E E E E E E E E E E P P P P P E E E E E E E E E E E E E E E E E E E E E E E E E E E E E E E E E E E E E E P P P P P P P @.@.@.@.@.@.@.@.@.@.@.@.@.@.@.@.@.@.@.@.@.@.@.@.@.@.@.Y Y Y Y Y @.l l @.Y h n b n ",
"d P @.Y @.@.E Y Y P E h f f h h h E E E E E E E E E E E E E E E E E E P P Y P P E E E E E E E E E E E E E E E E E E E E E E E E E E E E E E E E E E E E E E E E E E P P P P Y Y Y Y Y Y Y Y Y Y Y Y Y Y Y Y Y Y Y Y Y Y Y Y @.@.Y Y Y Y Y l l @.@.h c 0.>.n+m c g P Y Y Y Y @.@.Y E h f f f f E E E E E E E E E E E E E E E E E E E E E E E E E h h h E E E E E E E E E E E E E E E E E E E E E E E E E E E h h h h h h h P E E E E P P Y Y Y Y Y Y @.@.@.Y Y Y Y Y Y Y Y Y Y Y Y Y Y Y Y Y Y Y P P P Y @.@.@.l @.Y g e 4.3+(.s s c e h P P Y Y Y Y Y P E h h h h h h h E E E E E E E E E E E E E E E E E E P Y Y E E P P E E E E E E E E E E E E E E E E E E E E E E E E E E E E E E E E E E h h h h h h E P P P Y Y Y @.@.@.Y Y Y Y Y Y Y Y Y Y Y Y Y Y Y Y Y Y @.@.@.Y Y Y @.@.@.l @.P g s @+!+E r e E Y Y Y Y @.@.@.E E h h h E E E E E E E E E E E E E E E E E E E E P P P P P E E E E E E E E E E E E E E E E E E E E E E E E E E E E E E E h h h h h h h E P P P P P P Y Y Y Y Y Y Y Y Y Y Y Y Y Y Y Y Y Y Y Y Y Y Y Y Y Y Y Y Y Y Y Y @.l @.Y P f r a q ",
"d E Y P Y @.P Y Y P E h f f h h h E E E E E E E E E E E E E E E E E E P P Y P P E E E E E E E E E E E E E E E E E E E E E E E E E E E E P P P P P P P E E E E E E E h E E E E P P Y Y Y Y Y Y Y Y Y Y Y Y Y Y Y Y Y Y Y Y Y Y Y Y Y Y Y Y l l @.@.h c 0.>.n+m c g E P Y Y Y Y @.Y E h f f f f E E E E E E E E E E E E E E E E E E E E E P E E E E h h E E E E E E E E E E E E E E E E E E E E E E E E E E E E E E E E E E E E h h h E P Y Y Y Y Y Y @.@.Y Y Y Y P Y Y Y Y Y Y Y Y Y Y Y Y Y Y Y P P P Y @.@.@.l @.Y g e 4.3+(.s s c e h E P Y Y Y P Y P E h h h h h h h E E E E E E E E E E E E E E E E E E P Y Y E E P P E E E E E E E E E E E E E E E E E E E E E E E E E E E P P P P P P P P P P P P P E h E E E P P @.Y Y Y Y Y P Y Y Y Y Y Y Y Y Y Y Y Y Y Y Y Y Y Y Y Y @.@.@.l @.P g s @+!+E r e E P P Y Y Y Y @.P E h f h E P E E E E E E E E E E E E E E E E E E P P P P P E E E E E E E E E E E E E E E E E E E E E E E E E E E E E E E E E E E E E E E h h h h h h Y Y Y Y Y Y Y Y Y Y Y Y Y Y Y Y Y Y Y Y Y Y Y Y Y Y Y Y Y Y Y Y @.l l @.Y h n m r ",
"e E P E Y Y P Y Y P E h f f h h h E E E E E E E E E E E E E E E E E E P P Y P P E E E E E E E E E E E E E E E E E E E E E E E E E E E E P Y Y Y Y Y Y E E E E E E E h h E E E P P Y Y Y Y Y Y Y Y Y Y Y Y Y Y Y Y Y Y Y Y P P P Y Y Y @.Y l l @.@.h c 0.>.n+m c g E P P P Y Y Y P E h f f f f E E E E E E E E E E E E E E E E E E E E E P P P E E E E E E E E E E E E E E E E E E E E E E E E E E E E E E E P P P P P P P E E h h h E P Y Y Y Y Y Y Y Y Y Y P P P Y Y Y Y Y Y Y Y Y Y Y Y Y Y Y P P P Y @.@.@.l @.Y g e 4.3+(.s s c e f E P P Y P P Y P E h h h h h h h E E E E E E E E E E E E E E E E E E P Y Y E E P P E E E E E E E E E E E E E E E E E E E E E E E E E E P Y Y Y Y Y Y Y Y Y Y Y Y Y E h E E E P P Y Y Y Y P P P Y Y Y Y Y Y Y Y Y Y Y Y Y Y P P P Y Y Y @.@.@.l @.P g s @+!+E r e E P P P Y Y Y Y P E h f h E P E E E E E E E E E E E E E E E E E E P P P P P E E E E E E E E E E E E E E E E E E E E E E E E E E E E E E E P P P P P P P h h h h h h h Y Y Y Y Y Y Y Y Y Y Y Y Y Y Y Y Y Y Y Y Y Y Y Y Y Y Y Y Y Y Y Y @.l K l @.E n b n ",
"e E E h P Y P Y Y P E h f f h h h E E E E E E E E E E P P P P P P P E P P Y P P E P P P P P P P P P P P P P P E E E E E E P P P P P P P E E E E E E E h h h h h h h E E E P P P P P P P P P P P P P P P P P P P P P P P P E E E P Y Y @.Y l l @.@.h c 0.>.n+m c g E P P P P Y Y P E h f f f f E E E E E E E E E E E E E E P P P P P P P P P P P E E E E E E E E E E E E E E E E E E E E E E E E E E E E E E h h h h h h h E E h h E E E P P P P P P Y Y Y P P P P P P P P P P P P P P P P P P Y P P P Y @.@.@.l @.Y g e 4.3+(.s s c e f E E P P P P Y P E h h h h h h h E E E E E E E E E E E E E E E E E E P Y Y E E P P E E E E E E E E E E E E E E E E E E E E P P P P P P P E E E E E E P P P P P P P E E E E P P P Y Y Y P P P P P P P P P P P P P P P P P P E E P Y Y Y @.@.@.l @.P g s @+!+E r e E P P P P Y Y Y P E h f h E P E E E E E E E E E E E E E E E E E E P P P P P E E E E E E E E E E E E E E E E E E E E E E E E E E E E E E E h h h h h h h E E E E E E E P P P P P P P P P P P P P P P P P P P P P P P P P P P Y Y Y Y Y @.l @.Y Y f r a r ",
"e E E f E Y P Y Y P E h f f h h h E E E E E E E E E E P P P P P P P E P P Y P P E P P P P P P P P P P P P P P E E E E E E P P P P P P P P E E E E E E E E E E E E E P P P Y Y Y Y P P P P P P P P P P P P P P P P P P P P h E E P Y Y @.Y l l @.@.h c 0.>.n+m c g E E E P P P Y P E h f f f f E E E E E E E E E E E E E E P P P P P P P Y Y P P P E E E E E E E E E E E E E E E E E E E E E E E E E E E E E h h h h h h E P P E E E P P P P P P P P Y Y P P P E E P P P P P P P P P P P P P P Y P P P Y @.@.@.l @.Y g e 4.3+(.s s c e f h E P P P E Y P E h h h h h h h E E E E E E E E E E E E E E E E E E P Y Y E E P P E E E E E E E E E E E E E E E E E E E E P P P P P P P E E E E E E P P P P P P P P P P P Y Y Y Y Y P P P E E P P P P P P P P P P P P P E h E P P Y Y @.@.@.l @.P g s @+!+E r e E E E P P P Y Y E E h h h E E E E E E E E E E E E E E E E E E E E P P P P P E E E E E E E E E E E E E E E E E E E E E E E E E E E E E E E E h h h h h h P P P P P P P P P P P P P P P P P P P P P P P P P P P P P P P P P P Y Y Y Y Y @.l l Y Y f r m r ",
"d h h f E P P Y P E h h f h h h E E E E P P P P P P P P P P P P P P P Y Y Y Y P P P P P P P P P P P P P P P P P P P P P P P P P P P P P Y Y Y Y Y Y Y Y Y Y Y Y Y Y P Y Y Y Y @.Y P P P P P P P P P P P P P P P P P P P Y E E E P Y Y @.@.l l @.@.h n g.>.n+m c e h E E E P P P P E E h h h h E E E E E E P E E E E E E E P P P P P P P Y Y Y P P P E E E E E E E E E E E E E E P P P P P P P P P P P P P P P P P P P P Y Y Y Y Y Y Y Y Y Y Y Y Y Y Y Y P P P E E P P P P P P P P P P P P P P P P P P Y @.@.l l @.Y f d ).5 (.D s c e f h h E E E E P P E h h h h E E E E P P P E E E E E E E P P P P P P P P Y Y P P Y P P P P P P P P P P P P P P P P P P P P P P P P P P P Y Y Y Y Y Y Y Y @.@.@.@.@.@.Y P Y Y Y Y @.Y P P P P P P P P P P P P P P P P P P P P h E P P Y Y @.@.@.l @.E g s 8 ;+P r e h E E E P P P P h h h h h h h E E E E E E E E E E E E E P P P P P P P P P P P P E E E E E E E E E E E E E E E E P P P P P P P P P P P P P P P P P P P P P P P P P P P P P P P P P P P P P P P P P P P P P P P P P P P P P P P P Y Y @.@.@.l l Y E c q d ",
"d f h E E E P P E h h h E E P P P P Y Y Y Y Y Y Y Y Y Y Y Y Y Y Y Y @.@.@.@.Y Y Y @.@.@.@.@.@.Y Y Y Y Y Y Y Y Y Y Y Y Y Y Y Y Y Y Y Y Y @.@.@.@.@.@.@.Y Y Y Y Y Y Y Y Y Y Y Y Y Y P P P P P P P P P P P P P Y Y P P P P @.P P P P Y @.l K @.K @.Y E q i.>.X.s d g h E E E E E E P P E E h h E E E P P P P Y P P P P P P P Y Y Y Y Y Y Y @.@.@.Y Y Y P P P P P P P P Y Y Y Y Y Y Y Y Y Y Y Y Y Y Y Y Y Y Y Y Y Y Y Y Y Y Y @.l l l @.Y Y Y Y Y Y Y Y Y Y P P P P E P P P P P P P P P P P P P P P P P P @.l l l K @.E E c {+5 (.D w c g f f f E E h h E E E E E E E Y Y Y Y Y Y Y P P P P P P P Y Y Y Y Y Y Y @.@.@.@.@.@.Y Y Y Y Y Y Y Y Y Y Y Y Y Y Y Y Y Y Y Y Y Y Y Y Y Y Y Y Y Y Y Y Y Y Y @.@.@.@.@.@.Y Y Y Y Y Y Y Y P P P P P P P P P P P P P Y Y Y Y Y Y P E E P Y Y @.l l l l @.h e s U c+P b e f E E E E E E E E E h f f f h h E E P P P P P P P P P P Y Y Y Y Y Y Y Y Y Y Y Y P P P Y Y Y Y Y P P P P P P P P Y Y Y Y Y Y Y @.@.@.@.@.@.Y Y Y Y Y Y Y Y @.@.@.@.@.@.P P P P P P P E E E E E E E E P P P P Y Y Y P P P P E h E P Y @.l l @.K E h e r h ",
"e f E E E P P E E E E E P P P Y Y Y @.@.Y Y Y Y Y Y Y Y @.@.@.@.@.@.@.@.@.@.Y Y Y @.@.@.@.@.@.@.@.@.@.@.@.@.@.@.@.@.@.@.@.@.@.@.@.@.@.@.@.@.@.@.@.@.@.l l l l l l l @.@.@.@.@.@.Y Y Y Y Y Y Y P P P P P P P Y Y P P P P @.P P P P Y @.l K @.R l @.P r 0.W n+a d g E E E E E E E E E E h h h h E P @.Y Y Y @.Y Y Y Y Y Y Y @.@.@.@.@.@.@.@.@.@.@.Y Y Y Y Y Y Y Y Y Y @.@.@.@.@.@.Y Y Y Y Y Y Y @.@.@.@.@.@.@.@.@.@.@.@.@.@.@.l l @.@.Y Y Y Y Y Y Y Y Y Y P P P P E P P P P P P P P P P P P P P P P P Y @.K l @.l Y f f n {+3+<.D w n e f h E E P E E h E E E P P P Y Y Y Y Y Y Y @.@.@.@.@.@.@.@.@.@.@.@.@.@.@.@.@.@.@.@.Y Y Y Y Y Y Y @.@.@.@.@.@.@.@.@.@.@.@.@.@.@.@.@.@.@.@.@.@.@.@.@.@.@.@.@.@.@.@.@.@.@.@.@.@.@.@.@.P P P P P P P P P P P P P P Y Y Y Y Y Y Y P P Y Y @.@.l l l l @.E e D 3._+Y b e f E E E E E E E E E h f f f h E P Y Y Y Y Y Y Y Y Y Y Y Y @.@.@.@.@.@.Y Y Y Y Y P P @.@.@.@.@.@.@.Y Y Y Y Y Y Y @.@.@.@.@.@.@.@.@.@.@.@.@.@.@.@.@.@.@.@.@.@.@.@.@.@.@.Y Y Y Y Y Y P E E E E E E E E P P P P Y Y Y P P P P E E E Y @.l l l l K P f d b g ",
"g h P P P Y Y h E P Y Y Y P Y Y @.@.@.@.Y Y Y Y Y Y Y @.@.@.@.@.@.@.@.@.@.@.Y Y Y Y Y Y Y Y Y Y @.@.@.@.@.@.@.@.@.@.@.@.@.@.@.@.@.@.@.@.Y Y Y Y Y Y Y @.@.@.@.@.@.@.@.@.@.@.@.@.@.@.@.@.@.@.@.Y P P P P P P Y Y Y P P Y Y P P P P Y @.l R l R l @.P r 9.W n+a c g E E E E E E E E P E E h h E P Y @.@.Y @.l @.@.@.@.@.@.@.@.@.@.@.@.@.@.@.@.Y Y Y P Y @.@.@.@.@.@.l K K K K K K @.@.@.@.@.@.@.@.@.@.@.@.@.@.@.@.@.@.@.@.@.@.@.@.@.@.Y P Y Y Y Y Y Y Y Y P P P P E P P P P P P P P P P P P P P P P Y @.l K K @.@.Y h f r k 5+<.D w r d f E E P P P P h E E P Y Y @.Y Y Y Y Y Y Y Y Y Y Y Y Y Y @.@.@.@.@.@.@.Y Y Y Y Y Y Y Y Y Y Y Y Y @.@.@.@.@.@.@.@.@.@.@.@.@.@.@.@.@.@.@.@.@.@.@.@.@.@.@.@.Y Y Y Y Y Y @.@.@.@.@.@.@.Y Y Y Y Y Y Y P P P P P P P Y Y Y Y Y Y Y P Y Y @.l l l l @.@.Y h e w 8 _+@.q g E E E E E E E E E E h f f f h P Y @.@.@.@.@.@.@.@.@.@.@.@.@.@.@.@.@.@.Y Y Y Y Y P P l l l l l l l @.@.@.@.@.@.@.@.@.@.@.@.@.@.Y Y Y Y Y Y @.@.@.@.@.@.@.Y Y Y Y Y Y Y @.@.@.@.@.@.@.P P P P P P P E P P P P Y Y Y P P P P E P P @.l K K K l K P f c b e ",
"g h P P P Y Y h E Y @.Y Y P Y Y @.@.@.@.Y Y Y Y Y Y Y @.@.@.@.@.@.@.@.@.@.@.Y Y Y Y Y Y Y Y Y Y @.@.@.@.@.@.@.@.@.@.@.@.@.@.@.@.@.@.@.@.Y Y Y Y Y Y Y @.@.@.@.@.@.@.@.@.@.@.@.@.@.@.@.@.@.@.@.Y P P P P P P P Y Y Y Y Y P P P P P Y @.l K l R l @.P r 9.!.X.m r c h E E E E E E P Y P E E E P P Y @.@.Y @.l @.@.@.@.@.@.@.@.@.@.@.@.@.@.l l @.@.@.@.Y @.@.@.@.@.@.@.l l l l l l l l l l l l l @.@.@.@.@.@.@.@.@.@.@.@.@.@.Y @.@.@.Y P P Y Y Y Y Y Y Y Y P P P P E P P P P P P P P P P P P P P P P P Y @.K l l l @.h h n {+3+(.s D n c g E E P P P P h E E P Y @.@.Y Y Y Y Y Y Y Y Y Y Y Y Y Y @.@.@.@.@.@.@.Y Y Y Y Y Y Y Y Y Y Y Y Y @.@.@.@.@.@.@.@.@.@.@.@.@.@.@.@.@.@.@.@.@.@.@.@.@.@.@.@.@.@.@.@.@.@.@.@.@.@.@.@.@.@.@.@.@.@.@.@.P P P P P P P Y Y Y Y Y Y Y P Y Y @.l l K l l l @.h e y 8 :+l b e h E E E E E E E E E h f f f E Y Y @.l l @.@.l l l l l l @.@.@.@.@.@.@.Y Y Y Y Y P P @.@.@.@.@.@.@.l l l l l l l @.@.@.@.@.@.@.Y Y Y Y Y Y @.@.@.@.@.@.@.Y Y Y Y Y Y Y @.@.@.@.@.@.@.@.@.@.@.@.@.Y E P P P P Y Y Y P P P P E P P @.l K K K l K E f c m e ",
"e f E E E P P E E P P P P P P Y Y Y @.@.Y Y Y Y Y Y Y @.@.@.@.@.@.@.@.@.@.@.Y Y Y @.@.@.@.@.@.@.@.@.@.@.@.@.@.@.@.@.@.@.@.@.@.@.@.@.@.@.@.@.@.@.@.@.@.l l l l l l l Y Y Y Y Y Y Y Y Y Y Y Y Y P P P P P P P P P Y @.@.Y P P P P P Y @.l l Y K @.P E q 0.!.n+b r r f E E E E E E P P P E E E E E Y @.@.Y Y @.Y Y Y Y Y Y Y @.@.@.@.@.@.@.K K K K l l @.Y Y Y Y Y Y Y @.@.@.@.@.@.@.l l l l l l @.@.@.@.@.@.@.@.@.@.@.@.@.@.Y Y @.@.Y P P P P P P P P Y Y P P P P E P P P P P P P P P P P P P P E E E P Y l @.l l Y h h n {+5 {.a a c c g h E E P E E h E E E P P Y Y Y Y Y Y Y Y @.@.@.@.@.@.@.@.@.@.@.@.@.@.@.@.@.@.@.@.Y Y Y Y Y Y Y @.@.@.@.@.@.@.@.@.@.@.@.@.@.@.@.@.@.@.@.@.@.@.@.@.@.@.l K K K K K K @.Y Y Y Y Y Y @.@.@.@.@.@.@.P P P P P P P Y Y Y Y Y Y Y P P Y Y @.@.K K K K l E g y 8 ]+l b d f E E E E E E E E E h f f f h P Y @.@.@.@.@.@.@.@.@.@.@.@.@.@.@.@.@.@.Y Y Y Y Y P P Y Y Y Y Y Y Y @.@.@.@.@.@.@.@.@.@.@.@.@.@.@.@.@.@.@.@.@.@.@.@.@.@.@.@.@.@.@.@.@.@.Y Y Y Y Y Y Y Y Y Y Y Y Y P E P P P P Y Y Y P P P P E E P Y @.l l l @.l E g c b e ",
"d f h E E E P P E h h h E E P P P P Y Y Y Y Y Y Y Y Y Y Y Y Y Y Y Y @.@.@.@.Y Y Y @.@.@.@.@.@.Y Y Y Y Y Y Y Y Y Y Y Y Y Y Y Y Y Y Y Y Y @.@.@.@.@.@.@.Y Y Y Y Y Y Y P P P P P P P P P P P P P P P P P P P P P P Y @.@.Y P P P P P Y @.l @.P l P P h b 0.-.c+n n r f E E E E E E E h f g g g f h E Y P P P Y P P P P P P P Y Y Y Y Y Y Y Y Y Y Y P P P P P P P P P P P P P P P P P Y Y Y Y Y Y Y Y Y Y Y Y Y Y Y Y Y Y Y Y Y Y Y Y Y P E P P P P P P Y Y P P P P E P P P P P P P P P P P P P P h h h E P @.Y @.@.P g g r k z.` b m d d g f h E E h h E E E E E E E Y Y Y Y Y Y Y P P P P P P P Y Y Y Y Y Y Y @.@.@.@.@.@.Y Y Y Y Y Y Y Y Y Y Y Y Y Y Y Y Y Y Y Y Y Y Y Y Y Y Y Y Y Y Y Y Y Y Y Y Y Y Y Y Y P P P P P P P P P P P P P P P P P P P P P Y Y Y Y Y Y P E E P Y Y @.@.Y Y Y P g c C 3.;+K m c f E E E E E E E E E h f f f h P Y Y @.@.Y Y @.@.@.@.@.@.Y Y Y Y Y Y Y Y Y Y Y Y P P Y Y Y Y Y Y Y @.@.@.@.@.@.Y Y Y Y Y Y Y Y @.@.@.@.@.@.Y Y Y Y Y Y Y Y @.@.@.@.@.@.P P P P P P P E E E E E E E E P P P P Y Y Y P P P P E h h P Y @.l l Y @.h g c b g ",
"d g f h h h E h f f f f f h h h h h h h E E E E E E E E E E E P P P Y Y Y P P P P E P P P P P P P P P P E E E P P P P P P E E E E E E E P P P P P P P P E E P P P P P P P P P P P E E E E E E E E E E E E P E E P Y Y Y P P E E E P P Y Y f P E h f q 9.-.:+c g q g h h E E h h f g e e g g e f h E E h E E E E E E E E E E E E E E E E E E h h h E E E E E E E E E h h h h h h E E E E E E E E E E E E E E P P P E E E E P P P P P E E E E E E E E E P P E P P P E E E E E E E P P P P P P P E E E E P Y Y h E f f e q ).z.%.n n n d e g g f f f f f h h h h h E E E E E E E E h h h h h h E P P P P P P P P P P P P P P E E E E E E P P P P P P P E E E E E E E P P P P P P P P P P P E E E h h h h h h E E E E E E E E E E E E E P E E E E E E P Y Y Y P P P P E E E E E E E P P E f d r x 3.!+R q c f f h E E E h f h h f f f h h E E E E E E E E E E P P P P E E E E E E P P P P P E E P P P P P P P E E E E E E E E E E E P P P P P P P P P P P P P P P Y Y P P P P P P E E E E E E E E E E E E E E E E E E P P P P P E E E h h f E P P P P h P f e r m f ",
"c e g f f f f g f f f h h h h h h h h h h h h h h h h h f f h h h h E E E h h h h h h h h E E E f f h h h h h h h h h h h h h h h h h h h h h h h h h E E E E P P P P P P P P P E E E E E E E E E E E E h h h h h E E P P E h h h h h h P e f f g g r 9.-._+n h q g g f h h f g g g e g h f e f h h h h h h h h h h h h h h h h h h h h h h f f f h h h h h h h h f f f f f f f h h h h h h h h h h h h h h E E E E h h h h E E E E h h E E E E E E E E E E P P P P P P P P P P E E E E E E E E E h h h E E f h e E e n k 5 %.n e q d e e g f f f g f f f f h h h f f f f f f f f f f f f f h h h h h h h h h h h h h h h f f f f f f h h h h h h h f f f f f f f E E E E E E E E E E h h h f h h h E E E E E E E E E E E E E E P P P P P P P P P P P E E E E h h h E E h h f h E E h g d n y U !+M r d f g g h h h f e g g g g g g g h h h h h h h f f f h h h h h h h h h h h h h h h h h E E E E E E E E E E E E E h f f h h h h h h h h h h h f f f h h h h E E E E E E E h h h h h h h E E E E E E E E E E E E E E P P E E E E h h h E E E h g h g d q a g ",
"c c e g g g g f f f h h h h f f h h E E h f f f f f f g f f f f h h f f f f f g g f f f f f g g g g f f h h h f f f f f f h h h h h h h h h h h h h h h h E E Y Y Y E E E E E E E Y Y Y Y Y Y Y Y Y Y P P P P P P P P E E E E E E E E E Y g h h f f c |.>.c+b e b e e g g g g e g E P Y E h f f f f f f f f f f f f f f f f f f f f f f f f f g f f f g g g g g g f f f f f f f f f f f f f f h h h h h h h h h E E E E E h E P P Y P P P P P P P P P Y Y @.@.@.@.@.@.@.@.@.@.@.E E E E E E E E E E E h f f h E g P g d {+5 1.D r q c c e g g f g g f f f f f f f g g g g g g g g g g g g g g g g g g g g f f f f f f f f g g g g g g h h h h h h h f f f f f f f h h h h h h h h h h f f f f h h E P P Y P P P P P P P Y Y Y @.@.@.@.@.@.@.@.@.@.Y E E E h h h h P P Y P E E h f f f f f f a j ]+K q e g e e g g g e e g f h f g e e f f f f f f f g g g g f f f f f f f f f f f f f f f f f f f f f f h E E E E E E h f f f f h h h h h h h h h h h h h E E E h h E E P P P E E E E E E E Y Y Y Y Y Y Y Y Y Y Y Y Y P h h h h f f h E P P E h f f h e d c b g ",
"n c c d e d d g g g g f f g e e g f h E f e e e e e e e g g g f f f g g g e e e e f g g e e d e h f f g g e e e e e e e e g f f f f f f f f f f f f f f f h E P @.@.@.@.@.@.@.@.@.K K K K K K R R R K l @.@.l K K l l @.@.l l l l l l l @.f P E h E c |.W l+D n a c d d d d d d e E l K P f f g e e e e e e e e e e e e e e e e e e e e g g e e g g e e e e e e e e g g g g g g e e e e e e e g g g g g g g g g f f f h h E P Y @.@.@.l l l l l l l l l l l K K K l l l l l l l l l l l l l l Y @.@.@.P E h h E g E g e m+5 (.v m b n n c d e e e d e g e e e d d g g g g g g g g g g g g g e e e e e e e e e e e e e e e g g g g g g g f f f f f f g g g g g g g g g g g g g g f f f f g g g f h E P Y @.@.l l l l l l l K K K R R R l l l l l l l @.@.@.Y Y Y @.l l K K @.@.P E h f f h E m j :+P b d c d d e e e d d E E P P h g e g g g g g g e e e e e g g g f f f f f f g g g g g g g g g g g g g g h h h h h h f g g f f f h f f f f f f f f h h h E E E E E P P Y @.@.l l l l l l l l l l l l l l l l l l l l @.P P E E E E Y @.@.@.P h f E P g f h d E ",
"q r n n n r r r n n n c c n r n c c d d c r r r r r r n c c c d d d c c c c n n n d c c n n n n d d d c c c c c c c c c c c c c c c c c c c c c c c c d e e g f h E E E E E E E E P P P P P P Y @.Y Y P E E P @.Y Y Y P P Y Y Y Y Y Y Y E c e e d d b 9.>.X.x m w q r r r r r r r d f f d n r r r r r r r r r r r r r r r r r r r r r r c n n n n c c n n n n n n n n n n n n n r r r r r r r n n n n n n n n n n n c c c d e g f f f f h h h h h h h h h h E E E E h h h h h h P P P P P P P E E P E h g e d e r e n r k 5 (.6.w m q b q q r r r r n n n r r q q c c c c c c c c c c c c c c n n n n n n r r r r r r r n c c c c c c c c c c c c c n n n n n n n n n n n n n n c c c c c d d d e g f h E E E E E E E E E E E E P P P E E E E E E P P P E E E h E P P P P E E f g e c c c d D j c+g D r b n n n n n n n g f h h g d c c c c c c c c n n c c c c d d d d d d d c c c c c c c c c c c c c c d d d d d d d d d d e e e d d d d d d d c c c d d d d f h h E P P Y Y Y Y Y Y Y Y @.@.@.@.@.@.@.@.@.@.@.@.@.@.l l @.@.@.@.Y Y Y P E f g g f d e g c E ",
"s a m m m a s s s s a a a a s a a m m m a s s s s s s a m m m m b b b b m m m a a m m m m m m a a a m m b q b m m m m m m m a a a a a a a m m m m m m b b q r r n n r r r r r r r n n n n n n n n n n n r r n n n n c c n c c c c c c c r s b m m m y k.-.o+6.D C a a s s s s a s s a m a D w D s s s s s s s s s s s s s s s s s s s a a a s s s a a a a a a a a a a a a a a a a s s s s s s s s s s s s s s a a a a a s s a m m m m m b b b b b b m b b b b q q r r r r r r r r r r r r r r r r q q q q b m b D b s s ].3+{./.x w a s D s a a a a a a s s a a a a m m m m m m m m m m m m a a a a a a a a s s s s s s a m m m m m m m m m m m m m a a a a a a a s s s s s s s a a a m m m b b b b q r r r r r r r r r q q q q r r r n n n n n n n n n n n r r r r r n n r q b b m a s s s v 3._+d x a s m m a a a m m q q q q b m a m m m m m m m m m m b b b b q q q q q q b b b b b b b b b b b b b b m m m m m m m b b b b q q b b b b b b b b q q r r r n n n n n c c c c c c c c c c e e e e e e e e e e e e e e e e e e d d d e e d c n q m r m b b a e ",
"C y y y y C C x C C C C y y y y y y y y y y y y y y y C C C y y y y w w w y y y y y y y y w w w y y y y y y y y y y y y y y y y y y y y C C C C C C C w w w w w w D w w w w w w w D D D D D D D D D D D D D w w w w D D s D D D D D D D a C D D w w =.l.!.o+z y v w y C x x x y y C x x w y x C y y y y y y y y y y y y y C C C C C C C C x x x x C C y y y y y y y C C C C C C C C C C C C C x x x x x x x y y y C C C x C C y y C C x C C C C C C C C C y y y w y y y y y y y y y y y y y y w y C C y w w y w v w C C 7.5+{.z /.v y C C y w w w y C C C y y w w C C C C C C C C C C C C C C C C C C C C C C C C C C C C C C C C C C C C C C C C C C C C C C C C y y y y y y C x x C C y y C C C C y y y w w w w w w w w w w D D D D w w w w w w w D D D D w w w D D D D w y y y w w w y C z 8 _+n /.w y w w y C y w w w w w w w D w y y y y y y y y w w w w D w w w w w w w D D D D D D D w w w w w w w w w w w w w w w w w w D D w w w w w w w w D D D D s s D D D D D D w D D D D D D D s s s s s s s s s s s s s s a a a s s s s a a s D w y C a D D y C c ",
"/././././.6.6.6.6./.z /././.z z z z z z /.6.6.6.6././././././././.6.6.6.6.6.6./.6.=.=.=.=.=.=.=.6.6.6./././.|.|.v |./.y z |././.=.z /.=.=./././.6.6.6.6.6.6.6.6.6.6.6.6.6.6.6.6.=.=.=.=.=.=.=.6.6.6.6.6.6.6.6.6.6.6.6.6.6.6.6.6.6.=.=.=.=.=.=.6.6.z 9.p.A.p+f.6.=.|././.z z /./././.z z /./././././././././././././././.z |.z z z z z |.z z z z z z z /./././././.z |.|.z z z z /./.z /.z z /./.6.z /.9.|.6.z z z z z |.|.z z z z |.|.z /./.z z z z z |.|.z /././././././././././././././././.z |.z z z z /./.6.z z z v = 2+b.|.i.|.8././.6.6.6.6.6.6./.6.6.6.6.6././././././././././././././.z z z z z z /././././././.6.6.6.6.6.6.6.6.6.6.6.6./.z =.8.=./.|.s 0.6././.z z /./.|.|.z z z z z z z z z z z z z z z z z z 6.6.6.6.6.6.6.z z z z z z z /./././.z z /./././././.z z /./.6.6././.9.'+:+m z v |.6.=.6.6.6.6.6.6.6.6.6.6.6.6.6.6.6.6././.6.6.6.=.=.=.=.=.6.6.6.6.6.6.=.=.=.6.6.=.=.6.6.6.=.=.=.=.6.6.6.6.6.6./.z =.6.v 9.x =.6.=.=.=.=.6.6.6.6.6.6.6.6.=.=.=.=.=.=.=.=.=.=.=.=.=.=.=.=.=.=.=.=.=.=.=.=.=.=.=.v v v v v v v v v v v =.=.=.6.x v 6./.x b ",
"q q q q q r r r r q b b q r c c c c c c n r r r q q q q r r r r r r r r r r r r q q q q q q q q n n n n n n r b q q s w q P r q m c n D a m m m b b b b b b b b b b b b b b b b b q q q q q q b b b b b b b b b b b b b b m m m m b b b m q b m b a w 9.L.;+r C c y D s s s s D a b b b b b b b b b b b b b b q q q q b q m b b b b b m D s s s s D a q q q q q q b m m m b b b q q b b b b b a y w c n m w m m m m m m m b b m m m m m b b b b b b m m m b b q q m a a a a a a b q q q q q b m m m m m m m a a s a s q _.2.O.s b d q q b b b b b b b b b b b b b b b b b b b b b b b b b b b r n n n n r q b b b b b b b b b b b b b m m b b b b m w d n b v x d q q b b b q q b b b b b b b b b b m m m b b b b b b b m m m m m m m b b b b b b b b b b b b b b b b b m m m m m m m m m m v j #+E w e f d c c n n n n n n n n n n n c c c n n n n n n n n n n n n n n n n n c c n n n c c n n n n c c c n n n n n n n b c m s e D e r n n n r q n c c c c c c r r r r r r r n n n n n n n r r r r r r r r r r r r r r n n n n n n r r r r r r r q n r q r f K ",
"^ ] / / / ] [ [ ] ] ] ] ] [ ^ ^ ^ ^ ^ ^ [ [ ] ] ] ] ] ] ] ] ] ] ] ] ] ] ] ] ] ] ] / / / / / / / [ [ [ [ [ [ / / { ~ 7 ( / [+^ ) 0 7 ~ { / { { { ( ( ( { { { { { { { { { { { { { { { { { { { { { ( ( ( ( ( ( ( ( ( ( ( ( ( ( ( ( { { { { ] / / / { / ^ 2  +!.{ ^ x.] ~ 4 4 4 4 ~ 7 7 7 7 7 7 7 7 7 7 7 7 7 7 { { ( ( 7 7 7 7 7 ~ ~ ~ 7 7 ~ 4 4 4 4 ~ ~ ~ ~ ~ ~ ~ ~ 7 7 7 7 ~ ~ ~ 7 7 7 ~ 4 ~ ( / ! ) { [ { 4 { { ( ( 7 7 7 7 7 ( ( ( ( ( ( ( ( 7 7 7 7 ( ( ( ( { { ~ 4 4 4 4 4 4 7 ( ( ( ( ( ( 7 7 7 ( ( { ( 4 7 7 4 4 ~ 3 ..U.t ] 2 1 / ( ( ( ( ( ( ( ( ( ( ( ( ( ( ( ( ( ( ( ( ( ( ( ( ( ( { ] ] / / ] ] / ( ( ( ( ( ( { { { { { { { ] / { ( ( 7 7 t { / ( B./ ] / / / / { ( { { { { { { { ( ~ 7 7 7 ( ( { { { { { { { ( ( ( ( ( ( ( { { { { { { { { { { { { { ( ~ 7 7 7 ( ( ( 7 7 7 7 7 7 ~ 3.>.t ~ { [ / / / / ] ] ] / / / / / / / / / / / ] ] ] ] ] ] ] ] ] ] ] ] ] ] ] ] / / ] ] ] / / / / / / ] ] ] / / / / / / ( ~ { t h.6 ] 4 ~ ~ ~ 7 ( { / ] ] ] ] ] ] { ( ( ( ( ( ( ~ ~ ~ ~ ~ ~ ~ ( ( ( ( ( ( ( ( ( ( ( ( ( ( 7 7 7 7 7 7 ( ( ( ( ( ( ( ( 7 7 { ( t ;.",
"1.O.%.%.%.O.` ` O.d+%.%.d+d+T.T.T.T.T.T.d+O.O.O.d+d+%.%.%.%.%.%.%.%.d+d+d+d+d+d+d+%.%.%.%.%.%.%.T.T.T.T.T.T.d+%.6+1.T )+:+0+p %.d+T.d+T H.T.H.H.H.H.6+H.H.H.H.H.H.H.T.T.T.T.T.T.T.%.%.%.%.%.%.T.T.T.T.T.T.T.T.T.T.T.T.T.T.6+6+H.H.H.T.T.%.d+%.T.H.T.d+6+n.,+1.n.` H.d+d+d+d+d+d+%.H.H.H.H.H.H.H.H.H.H.H.H.H.d+d+d+%.T.H.H.H.H.6+6+6+H.T.d+d+d+d+d+d+%.6+6+6+6+6+6+H.H.H.H.6+6+6+H.H.H.H.T 6+O.S h.,+7+H.6+T.%.T.T.H.6+6+T H.H.H.H.T.T.T.T.T.H.H.6+6+H.T.T.%.%.d+d+O.O.O.O.O.O.O.%.%.%.%.%.%.T.T 6+6+H.T.%.%.` 1.{.d+d+<.T 6+%.n.%.` 6+6+T.T.T.T.T.T.T.T.T.T.T.T.T.T.T.T.T.T.T.T.T.T.T.T.T.T.T.H.6+6+6+6+H.H.T.T.T.T.T.T.H.H.H.H.H.H.H.T.H.H.6+6+H.H.)+1.n.n.3 ~.` n.n.,+,+n.n.n.7+7+7+7+7+7+7+T T T 6+6+6+T 7+7+7+7+7+7+6+6+6+6+6+6+6+7+7+7+7+7+7+7+7+7+7+7+7+7+7+T T T 6+6+6+6+6+6+6+6+6+6+H.)+i H.n.T T 7+7+7+T T T 6+7+7+7+7+7+7+7+7+7+T T T T T T T T T T T T T T T T T T 7+T T 6+T T 7+7+7+7+T T 6+6+7+7+7+7+7+7+T T d+7+] 3.%.n.)+)+)+)+Y.,+)+c.c.c.c.c.c.)+Y.Y.Y.Y.Y.Y.)+)+)+)+)+)+)+Y.Y.Y.Y.Y.Y.Y.Y.Y.Y.Y.Y.Y.Y.Y.Y.Y.Y.Y.Y.Y.Y.Y.Y.Y.Y.Y.)+)+Y.n.7+,+)+",
"O L I I I G L L G I I I G G I I I I I I G G G G G I I I I I I I I I G G G G G G G G G G G G G G L L L L L L O L I R L N m+q+ .P H G F O L G G G G I I G G G G G G G G G G G G G G L L L L L L L G G G G G G G G G G G G G I I G G G G L G L L G I G G I F L I G @.G G G I I I G G G G G G G G G G G G G G G L L L L G G G L G G G G G L G G I I I G G I I I I I I G L L G G G G L G G L I G l j u.O F G H N G G G I I I I I I I G G G G G G G I I I I G G G L L L G I I I I I I G G G G G G G I I I I G G G G G O G I M L G R G G O O L G G G G G G G G G G G G G G G G G G G G G G G G G G L L L G G L L L G G G G G G G G G G G G G I I I I G L L K I F F d+m.h G G I I G L O L L L L L L G G G G G L L L L L L L L L I I I I I I I L L L L L L L L L L L L L L G G G G L L G G G G G G G G G M L F M G I I G G G G L I I I I I I I I I G G G L L G G G G G G G G G G G G G G G G G G G G I I G G G L L I I I I I I I O N I %+&.E G G G G G G G G G G G G G G G G G G G G G G G G G G G G G G G G G G G G G G G G G G G G G G G G G G G G G G G L G G L L L G ",
"O L L G G G G G G L L L G G I I I I I I G G G G G L L G G G G G G G G G G G G G G I I I I I I I I I I I I I I G F L G l >+|+ .R F O L O L L L G G G G G G G G G G G I I I I I I I I I I I I I I I I I I I I I I I I I I I G G L G G G G H L L I I G I O O F I F G O G I I I I G G G G G G G G G G G G G G G I I I I I I I L G G I G G L G I I I I G I I I I I I I G L G G G G I L I I L I L E j 1+L K O H N I I I I I I I I I I I I G G I G G G G G I I I I I H H I I I I I I I I I I I I I I I I I I I I I G I L I I N G L M L F I G G I I I I I I I I I I I I I I I I I I I I I I I I I I I I I I I I I I I I I I I I G G G G G G G G G G G G L O F R N F 6+,.r O G I I G G G G G G G G G G G G L L L L L G G G G G G G G G G G G G G G G G G G G G G G G G G G G G L L L L L L L L L L L F I @.l I M L I I I G G G L I I I I I I I I I G G G G G G G G G G G G G G G G G G I G G G G G I I I G G G G G I I I I I I I M R I 1+++q R L L G G G G G I I I I I I G G G G G G G G G G G G G G G G G G G G G G G G G G G G G G G G G G G G G G G G G L L G G I I I ",
"I I I I I I I I I I G I I I H H H H H H I I I I I I I I I I I I I I I I I I I I I I I I I I I I I I I I I I I I N O I R *.8+(.M N F I I I I I I I I I I I I I I I I I I I I I I I I I I I I I I I I I I I I I I I I I I I I I I I I I I H G G H G G I L O O F G O G I H H H H I I I I I I I I I I I I I I I I I I H I I I I I I I I I I I H H H H I I I I I I I I I I I I I I I I I I G H L h 3.!+I L G H G I I I I I I H H H I I I I I I I I G G G G H H H H H H I I I I I I I H H H H H H H I I I I I I I G H L I I F H F O I N I G I I I I I I I I I I I I I I I I I I I I I I I I I I I I I I H H I I I I I I I I I I I I I I I I G I I I I I I G O L F Y.:.r R F L I H I I I I I I I I I I I I I I I I I I I I I I I I I I I I I I I I I I I I I I I I I I I I I I I I I I I I I I I I G O L N F G L H H H H H I I I I I I I I I H H H H H I I H H H H H H H H H H H H H H H H I I H H I I H H H H H I I I I I I I O O N f+j w K L G I H H H H I I I I I I H H H H H H H I I I I I I I H H H H H H H H H H H H H H H H H H H H H H H H H H H I I I H H G L ",
"H H H H H H H H H H H H H H I I I I I I H H H H H H H H H H H H H H I I I I I I I H H H H H H H H H H I I I I H I H I F *.8+` h l O I I H H H H H H H H H H I G G I I I H H H H H H H H H H H H H H H H H H H H H H H H H H H H H H H H H H H H H H H H I I I H I H H H H H H H H H H H H H H H H H H H H H I I I I I I I H H H H H H H H H H H H H H I I I I I I H H H H H I I I I H G G L g j #+F l L G H H H H H H H H H H I G L G I I I H H H H H H H H H H H H H H H H H H H H H H H H H H H H H H H H H H H H H I H I H H I H H H H H H H H H H H H H H H H H H H H H H H G G G G G G I H H H H H H H H H H H H H H H H H H H H H H I I I G G H H G O d+Z w Y R L I H H H H H H H H H H H H I I H H I I I H H H H H H H H H H H H H H H H H H H I I I G G I H H H H H H H H H H H H H H I H H I H H H H H H H H H H H H H H H H I I I I I I I H H H H I I H H H H H H H H H H H H H H H I I G I I H I I I I H H H I F O g+8 =.g @.F O G H I I H H H H H H I I I I H H H H H H H H H H H H H H H H H H H H H H H H H H H H I I H H H H H H H H H H H H H I ",
"H H H H H H H H H H H H H H H H H H H H H H H H H H H I I I I I I I I I I I I I I H H H H H H H I H H H H H H G I H I N ~+8+` d E R O O O L L L L G G I I G L O O G G G G G I I I H H H H H H I I I I I I I I H H H H H H H H H H H H H H H H H H H H H H H H H H I I I I I I I I I I I I I I I H H H H H H I I I I I I I G G G G G G G I I I I I I I I I I I I I I I H H H H H H I H G O N n 3.;+M P N F G I I I I I I I I I G O O L G G G G I I I I H H H H H H H H H H H H H H H H H H H H I I I I I I I H H H H H H H H H H H H H I I I I I I I I H H H H H H H H H H H H H I I I I I I I G G G G G G G I I I I I I G L L L L L L I I H I I I I I I G F O.Z C f @.N O O L L L L G G L L L G L L G G I G G G G I I I I I I I I I I I I I I I I I H H H I I I I I I I I I I I H H H H H H I I I I I I I I I I I I I I I I I I I I I I I I I I I G G G L L L O L L L L L L L G G G G G G G G G L L L G G H H H H H H H I N F g+8 =.d E R M F L L L L L L L L L O F F O O O O L L L L L L L L L L L L L G I I I I I I I I I I G G G G G G G G G G G I I I I I I ",
"L L L L L L L L L L L L L G G G G G G G G G G G G G G L O O O O O O L L L L L L L L L L L L L L O O L G G I I L G G L R m+} ` n e Y R N M M M N N N N O O O N M N F F F F O O O L L L L L L L L O O O O O O L L L L L L L L L L L L L L G G G G G G G L L L L L L L G G G G G G G G G G G G G L L L L L L L L L L L L L L F F F F F F O O O O O O O O L L L L L L O O O L G G G I I I F M K m 8 (+K f l K N O O O O O O O O O O N M F F F F F O O O L L L L L L L L G G I G G L L L L L L L L L L L L L L L G G G G G G L L L L L L L L G G G G G G L L L L L L L L L L L L L L O O O O O O O F F F F F F O O O O O O O F F F F F F F F O O L G G G O O O N ` Z x d E l R M N N M N N N N M N N M N N F O O F F O O O O O O O O O O O O O O O O O O L L L L O O O O O O O O O L G G G G G G L O O O O O O L L L L L L L O O O O O O O L L L L L L O F F F N N N N N N N N N N F F F F F F F O F F F F F O L L L G G G G F K N ^+@+6.n g @.K R F N N F F F F F F R R R R M M M F F F F F F F F F F F F F F O O O O O O L L O O O O F F F F F F F F O O O O O O O ",
"F F F F F F F F F F F F F F F F F F F F F N N N N N N N F F F F F F N N N N N N N N N N N N N M R M M N O L L O O F N K {+} ` r c E K M R R R R M M M N N N R K R M M M M N N N N F F F F F F F F F F F F F F F F F F F F F F F F F F F N N N N N N N N N N N N N N O O O O O O O O O O O O O N N N N N N N N N N N N N N N N N N N N N F F F F F F N N N N N N N M R R M N O L G O O M R l a @+:+@.d P Y K F F F F F F N N N M K K R M M M M N N N F F F F F F F N N F F F N N N N N N N N N F F F F F F F N N N N N N N N N N N N N F O O O O O O F N N N N N N N N N N N N N M M M M M M N N N N N N N N F F F F F F N N N N N N N R R M N F O L F N M R ` a.v n f @.K R R R R M M M M R K K K K R M N M M M N N N N N N N N N N N F F F F F F N N N N N M M M N N N N N N N N N N N N N N F F F F F F F F F F F F F F F F F F F N N N N N N N N N N N M M M M M M M M M M N N N N N N N N N M M M N N N N F O O F F M @.M ^+@+6.n g Y l K N M M N N N N N N K K K K K R R M N N N N N N N N N N N N N F F F F F F F F F F N N N N N N N N N N N F F F F F F ",
"M M M M M M M M M M M M M N N N N N N N N N N N N N N M M M M M M M N N N N N N N M M M M M M M R R M N O L L F F N M l k } ` r c h l R R R R M M M M R M R l @.l K K K R R R R M M M M M M M M M M M M M M M M M M M M M M M M M M M M N N N N N N N M M M M M M M N N N N N N N N N N N N N M M M M M M M M N N N N N N N N N N N N N M M M M M M M N N N N N N M R R M N O L O M N R K l m @+_+P c E Y K M M M M M M M M M R l @.K K K K R R R R M M M M M M M M N N F N N M N N N N N N N M M M M M M M N N N N N N M M M M M M M N N N N N N N N N N N N N N M M M M M M M N N N N N N N N N N N N N N M M M M M M M M M M M M M R R M N F O L F M R M O.a.=.c f @.K R R R R M M M M R K l l l K R R R K K R R R R R R R R R R R M M M M M M M N N N N M M M R R R R R R M N N N N N N M M M M M M M N N N N N N N M M M M M M M N N N N N N N N N M M M M M M M M M M M N N N N N N N M R R K R R M N F O O O O N R @.M ^+@+/.r e Y l K M R R M M M M M M K K K K K R R M M M M M M M M M M M M M M M M M M M M N N M M M R R M M M M M M M M M M M M M M ",
"M M M M M M M M M M M M M M M M M M M M N N N N N N N M M M M M M M N N N N N N N M M M M M M M R M N F F O L O F N R @.{+z.{.q c h l K R R R R M M M R R R l @.@.K K K K K R R R M M M M M M M M M M M M M M M M M M M M M M M M M M M N N N N N N N M M M M M M M M M M M M M M M M M M M M M M M M M M M N N N N N N N M M M M M M M M M M M M M M N N N N N N N M M R N O G O R N R K l a 8 :+Y c E Y R M M M M M M M R R K @.Y l K K K K K R R M M M M M M M M M N N N N M N N N N N N N R R R R R R M N N N N N N N M M M M M M M M M M M M M N N N N N N N M M M M M M M R R R R R R M M M M M M M M M M M M M M M R R R R R R M M N F O L L O N R M O.a.6.n f @.K R R M R M M M M R K K l l l K R K K K K R R R R R R R R R R M M M M M M M N N N M M M M R R R R R R M N N N N N N M M M M M M M M M M M M M M M M M M M M M N N N N N N N M M R R R R R M M M M M M M M M M M M M M R R K R R M N F L G L O N R l M g+@+/.q d P @.K R K K R R R R R R K l K K K R R R R R R R R R R R R R R R R M M M M M M M M M M M R R R K K K K K K M M M M M M M ",
"M M M M M M M M M M M M M R K K K K K K R R R R R R R M M M M M M M R R R R R R R K K K K K K K K R R M M N F O O N R @.{+z.(.m n h @.l K R R R R M M R R R l Y @.K l K K K R R R M M M M M M M M M M M M M M M M M M M M M M M M M M M R R R R R R R K K K K K K R M M M M M M M M M M M M M R K K K K K K R R R R R R R R R R R R R R M M M M M M M R R R R R R M R K l R N O O M F R l @.s 8 :+Y n P l M M M M M M M M R R K @.Y @.K K K K K R R R M M M M M M R K R R R R K M M M M M M M K K K K K K K R R R R R R R K K K K K K R M M M M M M M M M M M M M K K K K K K K M M M M M M M R R R R R R R M M M M M M R K K K K K K R R M N N F F L N R M d+a.6.n g Y K K R R R R M M R R K R K K K K K K K K K K R R R R R R R R R M M M M M M M M R R R K K K R R R R R R R R R R R R R M M M M M M M N N N N N N N M M M M M M M R R R R R R R R R K K K K K R R R R R R R R R R R R R M R R K R R M R N F O F N M M l N g+@+/.b c E P @.K l l K K K K K K l l l l K K K K K K K K K K K K K K K K R M M M M M M M M M M M R R K l l l l l l R M M M M M M ",
"R R R R R R R R R R M M M M R R R R R R K K K K K K K K K K K K K K K K K K K K K K K K K K K K R K K R M N F M N L R l {+3+%.m n P Y K M M R M N M R K l @.@.@.@.@.l l l l l l l R R R R R R R R R R R R R K K K K K K K R R R R R R R R R R R R R R R R R R R R R R R R R R R K K K K R R R R R R R R R R R R R R R R R K K K K K K K K K K K K K K K K K K K K K K K R M M N O M M M l P s @+(+P q h @.l R R R R M M M K l @.Y @.@.@.l l l l l l K R R R R R R R R R R R R R R R R R R R R R R R R R R R R R R R R R R R R R R R R R R R R R R R R R R R M M M R R R R R R R R R R R R R R R R R R R R K K K K K K K K K K K K K K K K R M N F F L K K N ` Z =.q e E @.l K K R R R R K K l @.l l l l K l @.l l l K K R R R R R R R K K K K K K K R R R K K K K R R R R R R R R R R R R R R R R R R R R R R R R R R R R R R R R R R R R R R R R R R R R R R R K K K K K K K R R R R R R R K K K K K K K M R R M F N M R Y F ^+'+x b c E K R K K R R R R R K l K l l @.l l K l l l l l l l R R R R R R R K K K K K K K R R R R R R R R R R R R R R R R R R R R ",
"K K K K K K K R R R R M M M R R R R R R K K K K K K K K K K K K K K K K K K K K K K K K K K K K R K K R M N F M N L K l {+3+%.m n P Y K M M R M N M R K l @.@.@.@.@.l l l l l l l K K K K K K K R R R R R R K K K K K K K K K K K K K K K K K K K K K K K K K K K K K K K K K K K K K K R R R R R R R R R R R R R R R R R K K K K K K K K K K K K K K K K K K K K K K K R M M N O M M M l P s @+(+P q h @.l R R R R R M M K l @.Y @.@.@.l l l l l l K K K K K K K R R R R R R R R R R R R R R K K K K K K K K K K K K K K K K K K K K K K K K K K K K R R R R M M R R R R R R R R R R R R R R K K K K K K K K K K K K K K K K K K K K K K R M N N F L K K N ` Z 6.q d E @.l K K R R R R K K l @.l l l l K l @.l l l K K K K K K K K K K K K K K K K R R R K K K K K K K K K K K K K K K K K K K K K K K K R R R R R R R R R R R R R R K K K K K K K R R R R R R K K K K K K K R R R R R R R K K K K K K K R R R M F N M R Y F ^+'+x b c E K R K K R R R R R K l K l l @.l l K l l l l l l l K K K K K K K K K K K K K K K K K K K K K K K K K K K K K K K K K K ",
"K K K K K K K K K R R R M R R R R R R R K K K K K K K K K K K K K K K K K K K K K K K K K K K K R K K R M N F M N O K l {+3+d+m n P Y K M M R R M M R K l @.@.@.@.@.l l l l l l l K K K K K K K R R R R R R K K K K K K K K K K K K K K K K K K K K K K K K K K K K K K K K K K K K K K R R R R R R R R R R R R R R R R R K K K K K K K K K K K K K K K K K K K K K K K R M M N O M M M l P s @+(+P q h @.l K K R R R R R K l @.Y @.@.@.l l l l l l K K K K K K K K R R R R R R R R R R R R R K K K K K K K K K K K K K K l l l l l l K K K K K K K K K R R R R M R R R R R R R R R R R R R R K K K K K K K K K K K K K K K K K K K K K K R R N N N L K K N ` Z 6.q d E @.l K K R R R R K K l @.l l l l K l @.l l l K K K K K K K K K K K K K K K K R R R K K K K K K K K K K K K K K K K K K K K K K K K K R R R R R R R R R R R R R l l l l l l K R R R R R R K K K K K K K R R R R R R R K K K K K K K R R R M F N M R Y F ^+'+x b c E l R K K R R R R R K l K l l @.l l K l l l l l l l K K K K K K K K K K K K K K l l l l l l K K K K K K K K K K K K K K ",
"K K K K K K K K K K K R R R K K K K K K K K K K K K K K K K K K K K K K K K K K K K K K K K K K R K K R M N F N N F l l {+5 d+m n P Y K R R K R M M R K l @.@.@.@.@.l l l l l l l K K K K K K K K K K K K K K K K K K K K K K K K K K K K K K K K K K K K K K K K K K K K K K K K K K K R R R R K K K K K K K K K K K K K K K K K K K K K K K K K K K K K K K K K K K K R M M N O M M M l P s @+(+P q h @.l K K K K R R R K l @.Y @.@.@.l l l l l l K K K K K K K K K K K K K K K K K K K K K K K K K K K K K K K K K K K K K K K K K K K K K K K K K K K K R R R K K K K K K K K K K K K K K K K K K K K K K K K K K K K K K K K K K l l K R M N N L K K N ` Z 6.q d E @.l K K R R R R K K l @.l l l l K l @.l l l K K K K K K K K K K K K K K K K R R R K K K K K K K K K K K K K K K K K K K K K K K K K K K K K K K R R R R R R R R R R R R R R K K K K K K K K K K K K K K K K K K K K K K K K K K K R R R M F N M R Y F ^+'+x b c E l R K K R R R R R K l K l l @.l l K l l l l l l l K K K K K K K K K K K K K K l l l l l l K K K K K K K K K K K K K K ",
"l l l l l l l l K K K K R R K K K K K K K K K K K K K K K K K K K K K K K K K K K K K K K K K K R K K R M N F N N F l l m+5 d+m n P Y K R R K K M R K K l @.@.@.@.@.l l l l l l l l l l l l l K R R R R R R K K K K K K K l l l l l l l l l l l l l l l l l l l l l l l l l l l K K K K R R R K K K K K K K K K K K K K K K K K K K K K K K K K K K K K K K K K K K K K R M M N O M M M l P s @+(+P q h @.l l l K K K R R K l @.Y @.@.@.l l l l l l l l l l l l l K R R R R R R K K K K K K K l l l l l l l l l l l l l K R R R R R R K l l l l l l l l K K K R R R R R R R R R K K K K K K K l l l l l l K K K K K K K K K K K K K K l l K R M N N L K K N ` Z 6.q d E @.l K K R R R R K K l @.l l l l K l @.l l l K K l l l l l l l K K K K K K K R R R K K K K l l l l l l l l l l l l l l l l l l l l R R R R R R R R R R R R R R M M M M M M R K K K K K K K K K K K K K K K K K K K K K K K K K K K R R R M F N M R Y F ^+'+x b c E l R K K R R R R R K l K l l @.l l K l l l l l l l l l l l l l l K K K K K K K l l l l l l l l l l l l l l l l l l l l ",
"l l l l l l l l l K K K K K K K K K K K K K K K K K K K K K K K K K K K K K K K K K K K K K K K R K K R M N O N N N l @.m+5 %.m n P Y K R K l K R R K K l @.@.@.@.@.l l l l l l l l l l l l l K R R R R R R K K K K K K K l l l l l l l l l l l l l l l l l l l l l l l l l l l l K K K R R R K K K K K K K K K K K K K K K K K K K K K K K K K K K K K K K K K K K K K R M M N O M M M l P s @+(+P q h @.l l l K K K K K K l @.Y @.@.@.l l l l l l l l l l l l l K R R R R R R K K K K K K K l l l l l l l l l l l l l l K K K K K K l l l l l l l l l l K K K K R R R R R R R K K K K K K K l l l l l l l K K K K K K K K K K K K K @.l l K M M N L K K N ` Z 6.q d E @.l K K R R R R K K l @.l l l l K l @.l l l K K l l l l l l l K K K K K K K R R R K K K K l l l l l l l l l l l l l l l l l l l l R R R R R R R R R R R R R R R R R R R R R K K K K K K K K K K K K K K K K K K K K K K K K K K K R R R M F N M R Y F ^+'+x b c E K R K K R R R R R K l K l l @.l l K l l l l l l l l l l l l l l K K K K K K K K K K K K K l l l l l l l l l l l l l l ",
"l l l l l l l l l K K K K K K K K K K K K K K K K K K K K K K K K K K K K K K K K K K K K K K K K K K K M N F N N N @.l m+5 d+m n E Y K K K l K R R K K l @.@.Y @.@.l l l l l l l l l l l l l K R R R R R R K K K K K K K l l l l l l l l l l l l l l l l l l l l l l l l l l l K K K K R R R K K K K K K K K K K K K K K K K K K K K K K K K K K K K K K K K K K K K K R M M N O N M M l P a @+(+P q h Y l l l K K K K K K l @.Y @.@.@.l l l l l l l l l l l l l K R R R R R R K K K K K K K l l l l l l l l l l l l l l l l l l l l l l l l l l l l l l K K K K R R R R R R R K K K K K K l l l l l l l l K K K K K K K K K K K K K @.l l K M M M O K K M ` Z 6.q d E @.l K K R R R R K l @.@.@.l l l K l @.l l l l K l l l l l l l K K K K K K K R R R K K K l l l l l l l l l l l l l l l l l l l l l R R R R R R R R R R R R R R K K K K K K K K K K K K K K K K K K K K K K K K K K K K K K K K K K R R R N F N N R P N ^+'+v b c h l K K K K R R R R K l l l @.@.@.l l l l l l l l l l l l l l l l K K K K K K K R R R R R R l l l l l l l l l l l l l l ",
"l l l l l l l R R R R R R K @.l l l l K K K l l l l @.l l l l l l l l l l l l l l l K K K K K l l l l l K R N M N M Y l m+3+` s n g P l l K K K K K K l l @.@.Y P P @.@.@.@.@.@.@.@.l l l l K K l l l l l l K R R R R R R l @.@.@.@.@.@.l l l l l l l l l l l l l l l l K K K K K R R R R K K K K K K K K K R R R R R R R l l l l l l l l l l l l l l l K K K K l @.@.@.l K R N N O M F @.P b 8 :+P r h Y R K K K K K K K K l Y Y P Y Y @.@.@.@.@.@.l l l l l l l l l l l l l l K R R R R R R l l l l l l l l l l l l l l l l l l l l l l l l l l l l l l l l l l R R R R R R R K K l l l @.@.l l l l l l l l l l l l l l l l l l l l @.l l K M M N N R @.R O.a.=.r e P @.l l K K K R K K l @.Y Y Y Y @.l @.@.@.@.@.@.@.l l l l l l l l l l l l l l l l l l l l l @.@.@.@.@.@.l l l l l l l l l l l l l l K R R M M M R R R R R R R R K l l l l @.l R R R R R R K l l l l l l l l l l l l l l l l l l l l K R M N N N N K h N ^+<+/.b c h @.l l l K K K R K K @.@.@.Y Y Y @.@.@.l l l l K K l l l l l l l l l l l l l l l l l l l l l @.@.@.@.@.@.l l l l l l l ",
"l l l l l l l l l l l l l l @.l l l l K K K l l l l @.l l l l l l l l l l l l l l l l K K K l l l l l l K R N M N M Y l m+3+` s n g P l l K K K K K K l l @.@.Y P P @.@.@.@.@.@.@.@.l l l l K K l l l l l l K K K K K K K l l l l l l l l l l l l l l l l l l l l l l l K K K K K R R R R K K K K K K K K K K K K K K K K l l l l l l l l l l l l l l l K K K K l @.@.@.l K R M N O M N Y P b 8 :+P r h Y R K K K K K K K K l Y Y P Y Y @.@.@.@.@.@.l l l l l l l l l l l l l l l l l l l l l l l l l l l l l l l l l l l l l l l l l l l l l l l l l l l l l l l K K K K K K K K K l l l @.@.l l l l l l l l l l l l l l l l l l l l @.l l K M M N N R @.R O.a.=.q e P @.l l K K K R K K l @.Y Y Y Y @.l @.@.@.@.@.@.@.l l l l l l l l l l l l l l l l l l l l l l l l l l l l l l l l l l l l l l l l l K K R M M M R R R R R R R R K l l l l @.l K K K K K K l l l l l l l l l l l l l l l l l l l l l K R M N N N N K h N ^+<+/.b c h @.l l l K K K R K K @.@.@.Y Y Y @.@.@.@.l l l l l l l l l l l l l l l l l l l l l l l l l l l l l l l l l l l l l l l ",
"l l l l l l l l l l l l l l @.l l l l K K K l l l l @.l l l l l l l l l l l l l l l l K K K l l l l l l K R N M N M Y l m+3+1.s n g P l l K K K K K K l l @.@.Y P P @.@.@.@.@.@.@.@.l l l l K K l l l l l l K K K K K K K K K K K K K K l l l l l l l l l l l l l l l l K K K K K R R R R K K K K K K K K K K K K K K K K l l l l l l l l l l l l l l l K K K K l l l l l K R M N F R N Y P b 8 :+P r h Y R K K K K K K K K l Y Y P Y Y @.@.@.@.@.@.l l l l l l l l l l l l l l @.@.@.@.@.@.@.l l l l l l l l l l l l l l l l l l l l l l l l l l l l l l l l l l K K K K K K K K K l l l @.@.l l l l l l l l l l l l l l l l l l l l @.l l K M M N N R @.R O.a.=.q e E @.@.l l K K R K K l @.@.Y Y Y @.@.@.@.@.@.@.@.@.l l l l l l l l l l l l l l l l l l l l l K K K K K K l l l l l l l l l l l l l l l K R R R R R K K K K K K K K l l l l @.l K K K K K K l l l l l l l l l l l l l l l l l l l l l l K M M M M M K h N ^+<+/.b c h @.l l l K K K R K K @.@.@.Y Y Y @.@.@.@.@.l l l l l l l l l l l l l l l l l l l l l l l l l K K K K K K l l l l l l l ",
"l l l l l l l l l l l l l l @.l l l l K K K l l l l @.l l l l l l l l l l l l l l l l K K K l l l l l l K R N M N M Y l m+3+1.s n g P l l K K K K K K l l @.@.Y P P @.@.@.@.@.@.@.@.l l l l K K l l l l l l K K K K K K K K K K K K K K l l l l l l l l l l l l l l l l K K K K K R R R R K K K K K K K K K K K K K K K K l l l l l l l l l l l l l l l K K K K l l l l l l K M M F R N Y E m 8 :+P r h Y R K K K K K K K K l Y Y P Y Y @.@.@.@.@.@.l l l l l l l l l l l l l l @.@.@.@.@.@.@.l l l l l l l l l l l l l l l l l l l l l l l l l l l l l l l l l l K K K K K K K K K l l l @.@.l l l l l l l l l l l l l l l l l l l l @.l l K M M N N R @.R O.a.=.q d E @.@.@.l K K R K K l @.@.Y Y Y Y @.@.@.@.@.@.@.@.l l l l l l l l l l l l l l l l l l l l l K K K K K K l l l l l l l l l l l l l l l l K R R R K K K K K K K K K l l l l @.l K K K K K K l l l l l l l l l l l l l l l l l l l l l l K R M M M M K h N ^+<+/.b c h @.l l l K K K R K K @.@.@.Y Y Y @.@.Y Y @.@.@.l l l l l l l l l l l l l l l l l l l l l l K K K K K K K l l l l l l l ",
"l l l l l l l l l l l l l l @.l l l l K K K l l l l @.l l l l l l l l l l l l l l l l K K K l l l l l l K R N M N M Y l m+3+` s n g P l l K K K K K K l l @.@.Y P P @.@.@.@.@.@.@.@.l l l l K K l l l l l l l l l l l l l l l l l l l l l l l l l l l l l l l l l l l l K K K K K R R R R K K K K K K K K K l l l l l l l l l l l l l l l l l l l l l l K K K K l l l l l l K R M F R M P E m 8 :+P r h Y R K K K K K K K K l Y Y P Y Y @.@.@.@.@.@.l l l l l l l l l l l l l l @.@.@.@.@.@.@.l l l l l l l l l l l l l l l l l l l l l l l l l l l l l l l l l l l l l l l l l K K l l l @.@.l l l l l l l l l l l l l l l l l l l l @.l l K M M N N R @.R O.a.=.b d E Y @.@.l K K R K K l @.@.@.Y Y Y Y @.@.@.@.@.@.@.l l l l l l l l l l l l l l l l l l l l l l l l l l l l l l l l l l l l l l l l l l l K R R K K R R R R R R R K l l l l @.@.l l l l l l l l l l l l l l l l l l l l l l l l l l l l l R M M M M K h N ^+<+/.b c h @.l l l K K K R K K @.@.@.Y Y Y @.@.Y Y Y @.@.@.@.l l l l l l l l l l l l l l l l l l l l l l l l l l l l l l l l l l ",
"l l l l l l l K K K K K K l @.l l l l K K K l l l l @.l l l l l l l l l l l l l l l l K K K l l l l l l K R N M N M Y l m+3+` s n g P l l K K K K K K l l @.@.Y P P @.@.@.@.@.@.@.@.l l l l K K l l l l l l l l l l l l l l l l l l l l l l l l l l l l l l l l l l l l K K K K K R R R R K K K K K K K K K l l l l l l l l l l l l l l l l l l l l l l K K K K l K K l l l K R M N K M P E m 8 :+P r h Y R K K K K K K K K l Y Y P Y Y @.@.@.@.@.@.l l l l l l l l l l l l l l l l l l l l l l l l l l l l l l l l l l l l l l l l l l l l l l l l l l l l l l l l l l l l l l K K l l l @.@.l l l l l l l l l l l l l l l l l l l l @.l l K M M N N R @.R O.a.=.b d h Y Y @.l K K R K K l @.l @.Y Y Y Y @.@.@.@.@.@.@.l l l l l l l l l l l l l l l l l l l l l l l l l l l l l l l l l l l l l l l l l @.l K K K K K R R R R R R R K l l l l @.@.l l l l l l l l l l l l l l l l l l l l l l l l l l l @.l R R M R M K h N ^+<+/.b c h @.l l l K K K R K K @.@.@.Y Y Y @.@.Y Y Y @.@.@.@.l l l l l l l l l l l l l l l l l l l l l l l l l l l l l l l l l l ",
"l l l l l l l K K K K K K l l l l l K K K K K l l l l l l l l l l l l l l l l l l l l K K K l l l l @.l l K M M M R @.@.m+3+O.a r f P l l K K K K K K l @.@.Y Y P P @.@.@.@.@.@.@.@.@.l l l l l l l l l l l l l l l l l l @.@.@.@.@.@.@.l l l l l l l l l l l l l l l l l l K K R R R R R K K K K K K K l l l l l l l l l l l l l l l l l l l l l l l l l K K l l l l l l l K K M M R R P E s 8 :+E r f P K K K K K K K K l @.Y Y P Y Y @.@.@.@.@.@.@.l l l l l l l l l l l l l l l l l l l l l l l l l l l l l l l l l l l l l l l l l l l l l l l l l l l l l l l l l l l l l K K l l l l l l l l l l l l l l l l l l l l l l l l l l l K K R M M M M Y M O.a.6.q d h Y @.l l K K K K l @.@.@.@.Y Y Y Y @.@.@.@.@.@.@.l l l l l l l l l l l l l l l l l l l l @.@.@.@.@.@.@.@.l l l l l l l l l l l l l @.l l K K K K K K K K K K K K l l l l l l l l l l l l l l l l l l l l l l l l l l l l l l l l l l l K R R R R K f M ^+'+/.b c f Y l l l K K K K l l @.@.@.Y Y Y @.@.Y Y Y @.@.@.@.l l l l l l l l l l l l l l l l l l l l @.@.@.@.@.@.@.@.l l l l l l ",
"@.@.@.@.@.@.@.@.@.@.@.@.@.l K K K K K K K K K K K K K K K K K K K K l l l l l l l l l l l l l l @.@.Y @.@.l K M M K l Y m+5 %.a q h P K l l l l l l l l @.Y P P P P @.@.@.@.@.@.@.@.@.@.@.@.@.@.@.@.@.@.@.@.l l l l l l l @.@.@.@.@.@.@.@.@.@.@.@.@.@.@.@.@.@.@.@.@.l @.@.@.l K K K K K K K K K K l l l @.@.K K K K K K K K K K K K K K l l l l l l l l l l l l l @.@.@.l l K K R R N l Y E D @+(+h r f h l l l l l l l l @.@.P P P Y Y @.@.@.@.@.@.@.@.@.@.@.@.@.@.@.@.@.@.@.@.l l l l l l l l l @.@.@.@.@.@.@.@.@.@.@.@.@.@.@.@.@.@.@.@.@.@.@.@.@.@.@.@.@.@.@.@.K K K K K K K K K K K K K K K K K K K K K K K l l l @.l l l l l l l l l K K R M M K N P N O.Z 6.r d h @.K K K l K K l l @.@.Y Y Y @.@.@.Y Y Y Y @.@.@.@.@.@.@.@.@.@.l l l l l l l @.@.@.@.@.@.@.@.@.@.@.@.@.@.@.@.@.@.@.@.@.@.@.@.@.@.@.@.l l l l l l l l l l l l l K l @.@.l l K K K K K K K K K K K K K K l l l l l l l l l l l l l l K l K R M M R l f M ^+'+6.m n f Y @.l l l l l l l @.P Y Y Y @.@.@.@.Y Y Y @.@.@.@.@.@.@.@.@.@.@.@.@.@.@.@.@.@.l l l l l l @.@.@.@.@.@.@.@.@.@.@.@.@.@.",
"@.@.@.@.@.@.@.@.@.@.@.@.@.@.l l l l l l l l l l l l l l l l l l l l l l l l l l l l l l l l l l @.@.Y @.@.l K M M K l Y m+5 %.a q h E l l l l l l l l l @.Y P P P P @.@.@.@.@.@.@.@.@.@.@.@.@.@.@.@.@.@.@.@.l l l l l l l @.@.@.@.@.@.@.@.@.@.@.@.@.@.@.@.@.@.@.@.@.@.l l K K l l l l l l l l K K l l l @.@.l l l l l l l l l l l l l l l l l l l l l l l l l l l @.@.@.l l K K R R N l Y E D @+(+h r f h l l l l l l l l @.Y P P P P Y @.@.@.@.@.@.@.@.@.@.@.@.@.@.@.@.@.@.@.@.l l l l l l l l l @.@.@.@.@.@.@.@.@.@.@.@.@.@.@.@.@.@.@.@.@.@.@.@.@.@.@.@.@.@.@.@.l l l l l l l l l l l l l l l l l l l l l l l l l @.@.l l l l l l l l l l K R R M K N P N O.Z 6.r d h @.K K K l l K l l @.Y Y Y Y Y @.@.Y Y Y Y @.@.@.@.@.@.@.@.@.@.l l l l l l l @.@.@.@.@.@.@.@.@.@.@.@.@.@.@.@.@.@.@.@.@.@.@.@.@.@.@.l l l l l l l l l l l l l l K l @.@.l l K l l l l l l l l l l l l l l l l l l l l l l l l l l l K l l K M M R l f M ^+'+6.m n f Y @.@.l l l l l l @.P Y Y Y Y @.@.@.Y Y Y @.@.@.@.@.@.@.@.@.@.@.@.@.@.@.@.@.@.l l l l l l @.@.@.@.@.@.@.@.@.@.@.@.@.@.",
"Y Y Y Y Y Y Y @.@.@.@.@.@.@.l l l l l l l l l l l l l l l l l l l l @.@.@.@.@.@.@.@.@.@.@.@.@.@.@.@.Y @.@.l K M M K l Y m+5 d+a q f E l l l l l l l l @.@.Y P E E E Y Y Y Y Y Y Y @.@.@.@.@.@.@.@.@.@.@.@.@.@.@.@.@.@.@.@.Y Y Y Y Y Y Y @.@.@.@.@.@.@.@.@.@.@.@.@.@.@.l K K K l l l l l l l l K K l l l @.@.l l l l l l l l l l l l l l @.@.@.@.@.@.@.@.@.@.@.@.@.@.@.@.l l K K R R N l Y E D @+(+h r f h l l l l l l l l @.Y P E E P P Y Y Y Y Y Y Y Y Y Y Y Y Y @.@.@.@.@.@.@.@.@.@.@.@.@.@.l l @.@.@.@.@.@.@.@.@.@.@.@.@.@.@.@.@.@.@.Y Y Y Y Y Y @.@.@.@.@.@.@.l l l l l l l l l l l l l l l l l l l l l l l l @.@.@.@.@.@.@.@.@.@.l l l K R R R K N P N O.Z 6.r d h Y l K l l l l l @.@.Y P Y Y Y Y @.Y Y Y Y @.@.@.@.@.@.@.@.@.@.@.@.@.@.@.@.@.@.@.@.@.@.@.@.@.@.@.@.@.@.@.@.@.@.@.@.@.@.@.@.@.@.@.@.K K K l @.@.@.l l l l l l l K l @.@.l l K l l l l l l l l l l l l l @.@.@.@.@.@.@.@.@.@.@.@.@.@.l l l K M R K l f M ^+'+6.m n f Y @.@.@.l l l l l @.P P P Y Y Y Y @.Y Y Y @.@.@.@.@.@.@.@.@.@.@.@.@.@.@.@.@.@.@.@.@.@.@.@.@.@.@.@.@.@.@.@.@.@.@.@.@.@.",
"Y Y Y Y Y Y Y @.@.@.@.@.@.@.l l l l l l l l l l l l l l l l l l l l @.@.@.@.@.@.@.@.@.@.@.@.@.@.@.@.Y @.@.l K M M K l Y m+5 d+s b f E l l l l l l l l @.Y P E E E E Y Y Y Y Y Y Y @.@.@.@.@.@.@.@.@.@.@.@.@.@.@.@.@.@.@.@.Y Y Y Y Y Y Y Y Y Y Y Y Y Y @.@.@.@.@.@.@.@.l K K K l l l l l l l l K K l l l @.@.l l l l l l l l l l l l l l @.@.@.@.@.@.@.@.@.@.@.@.@.@.@.@.l l K K R R N l Y E D @+(+h r f h l l l l l l l l Y P E E E E P Y Y Y Y Y Y Y Y Y Y Y Y Y @.@.@.@.@.@.@.@.@.@.@.@.@.@.l l @.@.@.@.@.@.@.@.@.@.@.@.@.@.@.@.@.@.Y Y Y Y Y Y Y @.@.@.@.@.@.@.l l l l l l l l l l l l l l l l l l l l l l @.@.@.@.Y @.@.@.@.@.@.@.@.@.l l K R R K N P N O.Z 6.q c f Y l l l @.l l l @.Y P P P P Y Y Y Y Y Y Y @.@.@.@.@.@.@.@.@.@.@.@.@.@.@.@.@.@.@.@.@.@.@.@.Y Y Y Y Y Y @.@.@.@.@.@.@.@.@.@.@.@.@.@.K K K l @.@.@.l l l l l l l K l @.@.l l K l l l l l l l l l l l l l @.@.@.@.@.@.@.@.@.@.@.@.@.@.l @.@.K R R K l f M ^+'+6.a r g P Y Y @.l l l l l @.P P P P P Y Y Y Y Y Y @.@.@.@.@.@.@.@.@.@.@.@.@.@.@.@.@.@.@.@.@.@.@.@.Y Y Y Y Y Y Y @.@.@.@.@.@.@.",
"@.@.@.@.@.@.@.@.@.@.@.@.@.@.l l l l l l l l l l l l l l l l l l l l @.@.@.@.@.@.@.@.@.@.@.@.@.@.@.@.Y @.@.l K M M K l Y m+5 d+s b f h @.l l l l l l l @.Y P E h E E @.@.@.@.@.@.@.@.@.@.@.@.@.@.@.@.@.@.@.@.@.@.@.@.@.@.@.@.@.@.@.@.@.@.Y Y Y Y Y Y Y @.@.@.@.@.@.@.@.l l K K l l l l l l l l K K l l l @.@.l l l l l l l l l l l l l l @.@.@.@.@.@.@.@.@.@.@.@.@.@.@.@.l l K K R R N l Y E D @+(+h r f h l l l l l l l l Y P E E E E P @.@.@.@.@.@.@.@.@.@.@.@.@.@.@.@.@.@.@.@.@.@.@.@.@.@.@.l l @.@.@.@.@.@.@.@.@.@.@.@.@.@.@.@.@.@.@.@.@.@.@.@.@.@.@.@.@.@.@.@.l l l l l l l l l l l l l l l l l l l l @.@.@.@.@.Y Y @.@.@.@.@.@.@.@.@.@.l K K R K N P N O.Z 6.q c f P l l l @.@.l @.@.Y P P P P P Y Y Y Y Y Y @.@.@.@.@.@.@.@.@.@.@.@.@.@.@.@.@.@.@.@.@.@.@.@.Y Y Y Y Y Y @.@.@.@.@.@.@.@.@.@.@.@.@.@.l l l l l l l l l l l l l l K l @.@.l l l l l l l l l l l l l l l l @.@.@.@.@.@.@.@.@.@.@.@.@.@.l @.@.l R R K l f M ^+'+6.a r g P Y Y Y l l l l l @.P P P P P P Y Y Y Y Y @.@.@.@.@.@.@.@.@.@.@.@.@.@.@.@.@.@.@.@.@.@.@.@.Y Y Y Y Y Y Y @.@.@.@.@.@.@.",
"@.@.@.@.@.@.@.@.@.@.@.@.@.@.@.@.@.@.@.@.@.@.@.@.@.@.@.@.@.@.@.@.@.@.@.@.@.@.@.@.@.@.@.@.@.@.@.@.@.@.Y @.@.l K M M K l Y m+5 O.s b g h @.l l l l l l l Y Y P E h h E @.@.@.@.@.@.@.@.@.@.@.@.@.@.@.@.@.@.@.@.@.@.@.@.@.@.@.@.@.@.@.@.@.@.Y Y Y Y Y Y Y @.@.@.@.@.@.@.l @.@.l l K K K K K K K K K K l l l @.@.@.@.@.@.@.@.@.@.@.@.@.@.@.@.@.@.@.@.@.@.@.@.@.@.@.@.@.@.@.@.l l K K R R N l Y E D @+(+h r f h l l l l l l l l P P E h E E P @.@.@.@.@.@.@.@.@.@.@.@.@.@.@.@.@.@.@.@.@.@.@.@.@.@.@.l l @.@.@.@.@.@.@.@.@.@.@.@.@.@.@.@.@.@.@.@.@.@.@.@.@.@.@.@.@.@.@.@.@.@.@.@.@.@.@.@.@.@.@.@.@.@.@.@.@.@.@.@.@.@.@.@.Y Y Y Y @.@.@.@.@.@.@.@.@.l K K K K N P N O.Z 6.q c f P @.l l @.@.@.@.Y Y P E E P P P Y Y Y Y Y @.@.@.@.@.@.@.@.@.@.@.@.@.@.@.@.@.@.@.@.@.@.@.@.Y Y Y Y Y Y @.@.@.@.@.@.@.@.@.@.@.@.@.@.l l l l l l l l l l l l l l K l @.@.l l l @.@.@.@.@.@.@.@.@.@.@.@.@.@.@.@.@.@.@.@.@.@.@.@.@.@.@.@.@.@.l R K K l f M ^+'+6.a r g P Y Y Y @.l l l l @.P E E P P P P Y Y Y Y @.@.@.@.@.@.@.@.@.@.@.@.@.@.@.@.@.@.@.@.@.@.@.@.Y Y Y Y Y Y Y @.@.@.@.@.@.@.",
"Y Y Y Y Y Y @.@.@.@.@.@.@.@.@.@.@.@.@.@.@.@.@.@.@.@.@.@.@.@.@.@.@.@.@.@.@.@.@.@.@.@.@.@.@.@.@.@.Y Y Y @.@.l l M R K l Y m+3+d+s b g h @.@.@.@.@.@.@.@.Y P P E E E E Y Y Y @.@.Y Y P Y Y Y Y Y @.@.@.@.@.@.@.@.@.@.@.@.@.@.@.@.@.@.@.@.@.Y Y Y Y Y Y Y @.@.@.@.@.@.@.l @.@.@.l l K K K K K K K l l @.@.@.@.@.@.@.@.@.@.@.@.@.@.@.@.@.@.@.@.@.@.@.@.@.@.@.@.@.@.@.@.@.@.l l l K K M N K K Y P w @+(+E b g E @.@.@.@.@.@.@.@.P P E h E E E Y Y Y Y Y Y Y P Y Y Y Y Y @.@.@.@.@.@.@.@.@.@.@.@.@.@.@.@.@.@.@.@.@.Y Y Y Y Y Y @.@.@.@.@.@.@.@.@.@.@.@.@.@.@.@.Y Y Y @.@.@.@.@.@.@.@.@.@.@.@.@.@.@.@.@.@.@.@.@.@.@.@.@.@.@.@.@.@.@.@.@.@.@.@.@.@.@.l K K R K K P R ` a.6.q c f P @.@.@.@.@.@.@.Y P E E E E E E P Y Y Y Y Y Y Y Y Y Y Y Y Y Y @.@.@.@.@.@.@.@.@.@.@.@.Y Y @.@.@.@.@.@.@.@.@.@.@.@.@.@.@.@.@.@.l l l l l l l l l K K l l l l l l @.@.@.@.l l @.@.@.@.@.@.@.@.@.@.@.@.@.Y Y Y Y @.@.@.@.@.@.@.@.@.@.l @.l K R R K l f M ^+'+=.m r g P @.@.@.@.@.@.@.@.P P E E E E E E P P Y Y @.@.@.Y Y Y Y Y Y Y @.@.@.@.@.@.@.Y Y Y Y Y Y Y Y @.@.@.@.@.@.Y Y Y Y Y Y Y ",
"Y Y Y Y Y Y Y @.@.@.@.@.@.@.@.@.@.@.@.@.@.Y Y Y Y Y Y @.l l l l l l @.@.@.@.@.@.@.@.@.@.@.@.@.@.Y Y Y @.@.@.l M R K l Y m+3+d+s b g h @.@.@.@.@.@.@.@.P P P E E E E E P Y @.Y Y P E P P P P Y Y Y Y Y Y Y Y @.@.@.@.@.@.@.Y Y Y Y Y Y Y Y Y Y Y Y Y Y Y Y Y Y Y Y Y @.@.@.@.@.@.@.l l l l l l @.@.@.@.@.@.@.@.@.@.@.@.@.@.l l l l l l l @.@.@.@.@.@.@.@.@.@.@.@.@.@.@.l l l K K M F l K Y P w '+(+E m g P Y @.@.@.@.@.@.@.Y P E h E E E E P P P P Y P E P P P P Y Y Y Y Y Y Y Y Y Y Y Y Y Y Y Y Y Y Y Y Y Y Y Y Y Y Y Y Y Y Y Y Y Y Y Y Y Y Y Y Y Y l @.Y P P @.l @.@.@.@.@.@.@.Y Y Y Y Y Y Y @.@.@.@.@.@.@.@.@.@.@.@.@.@.@.@.@.@.@.@.@.@.@.@.l K R R l P K ` a.6.r c f P @.@.@.@.l @.@.Y P E E E E E E E P Y Y Y Y Y Y Y Y Y Y Y Y Y @.@.@.@.@.@.@.@.@.@.@.Y Y P Y Y Y Y Y Y Y Y Y Y Y Y Y Y Y Y Y Y @.l l l l l l l l K K l l l @.@.@.@.@.@.@.@.@.@.@.@.@.@.@.@.@.@.@.@.@.@.Y Y Y Y @.@.@.@.@.@.@.@.@.@.@.l l K R R R l f M ^+'+=.m r g P @.@.l @.@.@.@.Y P E E E E E E E E E P Y @.@.Y Y Y Y Y Y Y Y Y @.@.@.@.@.@.Y P Y Y Y Y P Y Y Y Y Y Y Y Y Y Y Y Y Y Y ",
"Y Y Y Y Y Y Y @.@.@.@.@.@.@.@.@.@.@.@.@.Y P P P P P P @.l l l l l l @.@.@.@.@.@.@.@.@.@.@.@.@.@.Y Y Y @.@.@.@.M R K l Y m+3+d+s b g h @.@.@.@.@.@.@.@.P P P E E E E E P Y Y Y Y P E P P P P Y Y Y Y Y Y Y Y @.@.@.@.@.@.@.Y P P P P P P Y Y Y Y Y Y Y Y Y Y Y Y Y Y @.@.@.@.@.@.@.l l l l l l @.@.@.@.@.@.@.@.@.@.@.@.@.@.l l l l l l l @.@.@.@.@.@.@.@.@.@.@.@.@.@.@.@.l l l l K N l K P P w '+(+E m g P Y @.@.@.@.@.@.@.Y P E h E E E E E P P P P P E P P P P Y Y Y Y Y Y Y Y Y Y Y Y Y Y Y P P P P P P P Y Y Y Y Y Y Y Y Y Y Y Y Y P P P P P P P @.@.Y Y Y @.@.@.@.@.@.@.@.@.P P P P P P Y @.@.@.@.@.@.@.@.@.@.@.@.@.@.@.@.@.@.@.@.@.@.@.@.l K R R l P K ` a.6.q c f P @.@.@.@.l @.@.Y P E E E E E E E P P P P P P P Y Y Y Y Y Y Y @.@.@.@.@.@.@.Y @.@.@.Y P P Y Y Y Y Y Y Y Y Y Y Y Y Y P P P E P Y @.l l l l l l l l l l l @.@.@.@.@.@.@.@.@.@.@.@.@.@.@.@.@.@.@.@.@.@.@.Y Y Y Y @.@.@.@.@.@.@.@.@.@.@.@.l K K R R l f M ^+'+=.a q g P Y @.@.@.@.@.@.Y P E E E E E E E E E P P Y Y Y Y Y Y Y Y Y Y Y @.@.@.@.@.@.Y P Y Y Y Y P Y Y Y Y Y Y Y Y Y Y Y Y Y Y ",
"Y Y Y Y Y Y Y @.@.@.@.@.@.@.@.@.@.@.@.@.Y Y Y Y Y Y Y @.l l l l l l @.@.@.@.@.@.@.@.@.@.@.@.@.@.Y Y Y @.@.@.@.M K l l Y {+3+d+s b g h @.Y Y Y Y Y Y Y P P P E E E E E E P Y Y P P E P P P P Y Y Y Y Y Y Y Y @.@.@.@.@.@.@.P P P P P P P Y Y Y Y Y Y Y Y Y Y Y Y Y Y @.@.@.@.@.@.@.@.@.@.@.@.@.@.@.@.@.@.@.@.@.@.@.@.@.@.@.l l l l l l l @.@.@.@.@.@.@.@.@.@.@.@.@.@.@.@.@.l l l K N l K P h w '+(+E m e E Y Y Y Y Y Y Y Y Y P E h E E E E E E P P P E E P P P P Y Y Y Y Y Y Y Y Y Y Y Y Y Y Y P P P P P P P Y Y Y Y Y Y Y Y Y Y Y Y Y Y P P P P P P Y @.Y Y Y @.@.@.@.@.@.@.@.@.Y Y Y Y Y Y Y @.@.@.@.@.@.@.@.@.@.@.@.@.@.@.@.@.@.@.@.@.@.Y Y l K K R l P K ` a.6.q n g E @.@.Y @.l @.@.Y P E E E E E E E P P P P P P P Y Y Y Y Y Y Y @.@.@.@.@.@.@.Y Y @.Y Y P P Y Y Y Y Y Y Y Y Y Y Y Y Y P P P P P Y @.@.@.@.@.@.@.@.l l l @.@.@.@.@.@.@.@.@.@.@.@.@.@.@.@.@.@.@.@.@.@.@.@.Y Y Y Y @.@.@.@.@.@.@.@.@.@.@.@.l l K K R l f M ^+'+=.a q e P Y Y @.Y @.@.@.Y P E E E E E E E E E E P Y Y P P Y Y Y Y Y Y Y @.@.@.@.@.@.Y P Y Y Y Y P Y Y Y Y Y Y Y Y Y Y Y Y Y Y ",
"Y Y Y Y Y Y Y @.@.@.@.@.@.@.Y Y Y Y Y Y @.@.@.@.@.@.@.l l l l l l l Y Y Y Y Y Y Y Y Y Y Y Y Y Y Y Y Y @.@.@.@.R K l @.P {+3+d+s b g h @.Y Y Y Y Y Y Y P P P E E E E h E P P P P P E P P P P Y Y Y Y Y Y Y Y Y Y Y Y Y Y Y P P P P P P P Y Y Y Y Y Y Y Y Y Y Y Y Y Y Y Y Y Y Y Y Y @.@.@.@.@.@.Y Y Y Y Y Y Y @.@.@.@.@.@.@.l l l l l l @.Y Y Y Y Y Y Y Y Y Y Y Y Y Y Y @.@.@.@.l l M K K h h w '+(+E m g E Y Y Y Y Y Y Y Y Y P E h E E E h h E E E P E E P P P P Y Y Y Y Y Y Y Y Y Y Y Y Y Y Y P P P P P P P Y Y Y Y Y Y Y Y Y Y Y Y Y Y Y Y Y Y Y Y Y Y @.@.@.Y Y Y Y Y Y Y Y Y @.@.@.@.@.@.@.Y Y Y Y Y Y Y Y Y Y Y Y Y Y Y Y Y Y Y Y Y Y Y Y @.l K R l P K ` a.6.b n g E Y Y Y @.l @.@.Y P E E E E E E E P P P P P P P Y Y Y Y Y Y Y Y Y Y Y Y Y Y Y Y Y Y P P P Y Y Y Y Y Y Y Y Y Y Y Y Y Y Y P Y Y @.l @.@.@.@.@.@.@.l @.@.@.@.Y Y Y Y Y Y Y Y Y Y Y Y Y Y Y Y Y Y Y Y Y Y Y Y Y Y @.@.@.Y Y Y Y Y Y Y Y @.@.l K K K l f M ^+'+=.a q e E Y Y @.Y @.@.@.Y P E E E E E E E E h E P P P P P Y Y Y Y Y Y Y Y Y Y Y Y Y Y P Y Y Y Y P P Y Y Y Y Y Y Y Y Y Y Y Y Y ",
"Y Y Y Y Y Y Y @.@.@.@.@.@.@.Y Y Y Y Y Y @.l l l l l l @.@.@.@.@.@.@.Y Y Y Y Y Y Y Y Y Y Y Y Y Y Y Y Y @.@.@.@.R K @.@.P {+3+d+s b g h @.@.@.@.@.@.@.@.P P P E E E E h E P P P P E E P P P P Y Y P P P P P P Y Y Y Y Y Y Y Y P P P P P P Y Y Y Y Y Y Y P P P P P P P Y Y Y Y Y Y Y @.@.@.@.@.@.Y Y Y Y Y Y Y @.@.@.@.@.@.@.@.@.@.@.@.@.Y Y Y Y Y Y Y Y Y Y Y Y Y Y Y Y Y @.@.@.@.@.M K l h f w '+(+E m g P Y @.@.@.@.@.@.@.Y P E h E E E h h h E E E E E P P P P Y P P P P P P P P P P P P P P P P P P P P Y Y Y Y Y Y Y Y P P P P P P Y @.@.@.@.@.@.Y Y @.@.@.Y Y Y Y Y Y Y Y Y l l l l l l @.Y Y Y Y Y Y Y Y Y Y Y Y Y Y Y Y Y Y Y Y Y Y Y Y @.l K R l P K ` a.6.b n g E Y Y Y @.l @.@.Y P E E E E E E E E P P P P P P Y Y Y Y Y Y Y Y Y Y Y Y Y Y P Y Y Y P E E P P P P P P P P P P P P P P Y P P Y Y @.@.@.@.@.@.@.@.@.@.@.@.Y Y Y Y Y Y Y Y Y Y Y Y Y Y Y Y Y Y Y Y Y Y Y Y Y Y Y @.@.@.Y Y Y Y Y Y Y Y Y @.l l K K l f M ^+'+=.a q e E Y Y Y Y @.@.@.Y P E E E E E E E E h E E P P P P Y Y Y Y Y Y Y Y Y Y Y Y Y Y P Y Y Y Y P P P P P P P P Y Y Y Y Y Y Y ",
"Y Y Y Y Y Y Y @.@.@.@.@.@.@.Y Y Y Y Y Y Y Y Y Y Y Y Y Y P P P P P P Y Y Y Y Y Y Y Y Y Y Y Y Y Y Y Y Y @.@.@.@.R K @.@.P {+3+d+s b g h @.@.@.@.@.@.@.@.P P P E E E E h h P P P E E E P P P P Y Y P P P P P P Y Y Y Y Y Y Y Y @.@.@.@.@.@.Y Y Y Y Y Y Y P P P P P P P Y Y Y Y Y Y Y Y Y Y Y Y Y Y Y Y Y Y Y Y @.@.@.@.@.@.@.P P P P P P P Y Y Y Y Y Y Y Y Y Y Y Y Y Y Y Y Y @.@.@.@.M K l f f w '+(+E m g P Y @.@.@.@.@.@.@.Y P E h E E E h h h E E E E E P P P P Y P P P P P P P P P P P P P P @.@.@.@.@.@.Y Y Y Y Y Y Y Y P P P P P P P P P P P P P P Y @.l l Y P Y Y Y Y Y Y Y Y Y Y Y Y Y Y Y Y Y Y Y Y Y Y Y Y Y Y Y Y Y Y Y Y Y Y Y P P Y @.l l R l P K ` a.6.b r g h P Y Y @.l @.@.Y P E E E E E E E E E E E E E E Y Y Y Y Y Y Y Y Y Y Y Y Y Y P P Y Y P E E P P P P P P P P P P P P P P E E E E P Y Y Y Y Y Y Y Y @.@.@.Y Y Y Y Y Y Y Y Y Y Y Y Y Y Y Y Y Y Y Y Y Y Y Y Y Y Y Y @.@.@.Y Y Y Y Y Y Y Y Y @.@.l l K l f M ^+'+=.a b d E P Y Y Y @.@.@.Y P E E E E E E E E h h E P P E E Y Y Y Y Y Y Y Y Y Y Y Y Y Y P Y Y Y Y P P P P P P P P Y Y Y Y Y Y Y ",
"Y Y Y Y Y Y Y Y Y Y Y Y Y Y @.@.@.@.@.@.@.@.@.@.@.@.@.@.Y Y Y Y Y Y @.@.@.@.@.@.@.@.@.@.@.@.@.@.@.@.@.@.@.@.@.R K @.Y h k 3+` s q e h P Y @.@.@.@.@.@.E E h h h h h E E E E E E E E E E E E P E E E E P P P Y Y P P P Y Y P P P P P P P P P P P P P E E E E E E E P P Y @.@.@.l l @.@.@.@.Y Y Y @.@.@.@.@.@.@.@.@.@.@.@.@.@.Y Y Y Y Y @.@.@.@.@.@.@.@.@.@.@.@.@.@.Y Y Y Y @.@.@.@.K @.K h f D @+_+E b e f Y Y Y Y Y Y Y P E E E h h h h E E E E E E E E E E E E P E E E E P P P Y Y Y Y Y Y Y P P P P P P P P P P P P P E E E E E E E P P P E E P P Y Y @.@.Y P E @.@.@.@.@.@.@.@.@.@.@.@.@.@.@.@.@.@.@.@.@.@.@.@.@.@.@.@.@.@.@.@.@.@.Y Y P Y @.l K l @.P l 1.M.6.m r d h E P P Y Y Y Y P E h h h h E E E E E E E E E E E P P P P P P P P P P P P E E E P E E E E E E E E E E E E E E E E E E E E E E E E Y @.Y Y Y @.@.Y Y Y Y Y Y Y Y Y Y P Y Y Y @.@.@.@.@.@.@.@.@.@.@.@.@.@.@.@.@.@.@.@.@.@.@.@.@.@.@.Y Y @.l l l K @.e R g+'+6.s b d E P Y Y Y Y Y Y P P E E E E E E E E E E E E E E E P P P P P P P P P P P P P E E E P P E E E E E E E E E E P P P P P P ",
"P P P P P P P P P Y Y Y Y Y Y Y Y Y Y Y Y Y Y Y Y Y Y Y Y Y Y Y Y Y Y Y Y Y Y Y Y Y Y Y Y Y Y Y Y Y Y Y Y Y Y R K @.P h k 3+` s r d h P P Y Y Y Y Y Y h h h h h h h E E E E E E E E E E E E E E E E E E P P P P E E E P P E E E E E E E E E E E E E E E E E E E E E P P Y Y @.@.Y Y Y @.@.@.Y Y Y Y Y Y Y Y Y Y Y Y Y Y Y Y Y Y Y Y Y Y Y Y Y Y Y Y Y Y Y Y Y Y Y Y Y Y Y @.@.@.@.K @.K h f D @+_+E b d f Y P P Y Y Y P P E E E h h h h E E E E E E E E E E E E E E E E E E P P P P P P P P P E E E E E E E E E E E E E E E E E E E E Y @.Y Y Y Y @.Y Y Y Y Y P P Y Y Y Y Y Y Y Y Y Y Y Y Y Y Y Y Y Y Y Y Y Y Y Y Y Y Y Y Y Y Y Y Y Y Y Y P Y @.l K @.@.P l {.M.=.b r e f P Y Y Y Y Y P E E h h h h E E E E E E E E E E E E E E E E E E E E E E E E E E E E E E E E E E E E E E E E E E E E E E E E E E E Y Y P P Y @.@.Y Y Y Y Y Y Y Y Y P P P Y Y Y Y Y Y Y Y Y Y Y Y Y Y Y Y Y Y Y Y Y Y Y Y Y Y Y Y Y Y Y @.l l l K Y e K g+'+6.s b e E P Y Y Y Y Y Y P E h E E E E E E E E E E E E E E E E E E E E E E E E E E E E E E E E E E E E E E E E E E E E E E E E ",
"P P P P P P P P P Y Y Y Y Y Y Y Y Y Y Y Y Y Y Y Y Y Y Y Y Y Y Y Y Y Y Y Y Y Y Y Y Y Y Y Y Y Y Y Y Y Y Y Y Y Y K l Y P E {+3+` s r d h P P Y Y Y Y Y Y h h h h h h h E E E E E E E E E E E E E E P P E E E E E E E h h E E E E E E E E E E E E E E E E E E E E E E E P P P P P P E E P Y Y Y Y Y Y Y Y Y Y Y Y Y Y Y Y Y Y Y Y Y Y Y Y Y Y Y Y Y Y Y Y Y Y Y Y Y Y Y Y Y Y @.@.@.@.K @.K h f D @+_+E b d f Y P P Y Y Y P P E E E h h h h E E E E E E E E E E E E E E E E E E P P P P P P P P P E E E E E E E E E E E E E E E E E E E E P P P E E P Y P P Y Y Y Y Y Y Y Y Y Y Y Y Y Y Y Y Y Y Y Y Y Y Y Y Y Y Y Y Y Y Y Y Y Y Y Y Y Y Y Y Y P Y @.l K @.@.P l {.M.=.q n g E Y Y @.Y Y Y P E E h h h h E E E E E E E E E E E E E E E E E E E E E E E E E E E E E E E E E E E E E E E E E E E E E E E E E E E P P E E P Y Y Y Y Y Y Y Y Y Y P P P P Y Y Y Y Y Y Y Y Y Y Y Y Y Y Y Y Y Y Y Y Y Y Y Y Y Y Y Y Y Y Y @.l l l K Y e K g+'+6.s b e E P Y Y Y Y Y Y P E h E E E E E E E E E E E E E E E E E E E E E E E E E E E E E E E E E E E E E E E E E E E E E E E E ",
"E E E E E E E P P Y Y Y Y Y Y Y Y Y Y Y Y Y Y Y Y Y Y Y Y Y Y Y Y Y Y Y Y Y Y Y Y Y Y Y Y Y Y Y Y Y Y Y Y Y Y l l Y P E m+5 ` s r d h P P Y Y Y Y Y Y h h h h h h h E E E E E E E E E E E E E E P P E E E h E E h h h h E E E E E E E E E E E E E E E E E E E E E E P E E E E E h h E P Y Y Y Y Y Y Y Y Y Y Y Y Y Y Y Y Y Y Y Y Y Y Y Y Y Y Y Y Y Y Y Y Y Y Y Y Y Y Y Y Y @.@.@.@.K @.K h f D @+_+E b d f Y P P Y Y Y P P E E E h h h h h h h h h h E E E E E E E E E E E E P P E E E E E E E E E E E E E E E E E E E E E E E E E E E E h h f f h E E P P Y @.Y Y Y Y Y Y Y Y Y Y Y Y Y Y Y Y Y Y Y Y Y Y Y Y Y Y Y Y Y Y Y Y Y Y Y Y Y Y P Y @.l K @.@.P l {.M.=.q n g E Y @.@.Y Y Y P E E h h h h E E E E E E E E E E E E E E E E E E E E E E E E E E E E E E E E E E E E E E E E E E E E E E E E E E E E E h h E P Y Y Y Y Y Y Y Y Y P P P P Y Y Y Y Y Y Y Y Y Y Y Y Y Y Y Y Y Y Y Y Y Y Y Y Y Y Y Y Y Y Y @.l l l K Y e K g+'+6.s b e E P Y Y Y Y Y Y P E h h h h h h h h E E E E E E E E E E E E E E E E E E E E E E E E E E E E E E E E E E E E E E E E E ",
"E E E E E E P P P Y Y Y Y Y Y Y Y Y Y Y Y Y Y Y Y Y Y Y Y Y Y Y Y Y Y Y Y Y Y Y Y Y Y Y Y Y Y Y Y Y Y Y Y Y Y l l Y P E {+5 ` s r d h P P Y Y Y Y Y Y h h h h h h h E E E E E E E E E E E E E E P P E E E h E E E h h E E E E E E E E E E E E E E E E E E E E E E E E E E E E h h h E P Y Y Y Y Y Y Y Y Y Y Y Y Y Y Y Y Y Y Y Y Y Y Y Y Y Y Y Y Y Y Y Y Y Y Y Y Y Y Y Y Y @.@.@.@.K @.K h f D @+_+E b d f Y P P Y Y Y P P E E E h h h h h h h h h h E E E E E E E E E E E E P P P E E E E E E E E E E E E E E E E E E E E E E E E E E P P E h E E P P P Y Y @.Y Y Y Y Y Y Y Y Y Y Y Y Y Y Y Y Y Y Y Y Y Y Y Y Y Y Y Y Y Y Y Y Y Y Y Y Y Y P Y @.l K @.@.P l {.M.=.q n g E Y @.@.Y Y Y P E E h h h h E E E E E E E E E E E E E E E E E E E E E E E E E E E E E E E E E E E E E E E E E E E E E E E E E E E E E h h E P P Y Y Y Y Y Y Y Y P P P P Y Y Y Y Y Y Y Y Y Y Y Y Y Y Y Y Y Y Y Y Y Y Y Y Y Y Y Y Y Y Y @.l l l K Y e K g+'+6.s b e E P Y Y Y Y Y Y P E h h h h h h h h E E E E E E E E E E E E E E E E E E E E E E E E E E E E E E E E E E E E E E E E E ",
"P P P P P P P P P Y Y Y Y Y P P P P P P P P P P P P P P P P P P P P P P P P P P P P P P P P P P P P P P P P Y K l @.P h k 3+` s r d h P E P P P P P P h h h h h h h E E E E E E E E E E E E E E E E E E P P P P E E E E P E E E E E E E E E E E E E E E E E E E E E E E E P P P P P Y @.@.Y Y P P P P P P P P P P P P P P P P P P P P P P P P P P P P P P P P P P Y Y Y Y @.@.@.@.K @.K h f D @+_+E b d f Y P P Y Y Y P P E E E h h h h E E E E E E E E E E E E E E E E E E P P P P P P P P P E E E E E E E E E E E E E E E E E E E E Y @.Y Y Y Y @.Y Y Y Y Y Y P P P P P P P P P P P P P P P P P P P P P P P P P P P P P P P P P P P Y Y P Y @.l K @.@.P l {.M.=.b n e h P Y Y Y Y Y P E E h h h h E E E E E E E E E E E E E E E E E E E E E E E E E E E E E E E E E E E E E E E E E E E E E E E E E E E P E E E E P Y Y Y Y Y Y Y Y Y P P P P Y Y P P P P P P P P P P P P P P P P P P P P P P P P P P P Y Y @.l l l K Y e K g+'+6.s b e E P Y Y Y Y Y Y P E h E E E E E E E E E E E E E E E E E E E E E E E E E E E E E E E E E E E E E E E E E E E E E E E E ",
"Y Y Y Y Y Y Y P P Y Y Y Y Y P P P P P P P P P P P P P P P P P P P P P P P P P P P P P P P P P P P P P P P P Y R K @.P h ).5+` s r d h P E P P P P P P h h h h h h h E E E E E E E E E E E E E E h E E E P P P P P P P P P E E E E E E E E E E E E E E E E E E E E E E E P P Y @.@.@.@.@.@.@.Y P P P P P P P P P P P P P P P P P P P P P P P P P P P P P P P P P P Y Y Y Y @.@.@.@.K @.K h f D @+_+E b d f Y P P Y Y Y P P E E E h h h h E E E E E E E E E E E E E E E E E E P P Y Y Y Y Y Y Y E E E E E E E E E E E E E E E E E E E E P Y P E P P Y Y Y @.@.Y P E P P P P P P P P P P P P P P P P P P P P P P P P P P P P P P P P P P Y Y P Y @.l K @.@.P l {.M.=.m r d f E P P Y Y Y P E E h h h h E E E E E E E E E E E E E E E E E E E E E E E E E E E E E E E E E E E E E E E E E E E E E E E E E E E P P E E P Y Y Y Y Y Y Y Y Y Y P P P P Y Y P P P P P P P P P P P P P P P P P P P P P P P P P P P Y Y @.l l l K Y e K g+'+6.s b e E P Y Y Y Y Y Y P E h E E E E E E E E E E E E E E E E E E E E E E E E E E E E E E E E E E E E E E E E E E E E E E E E ",
"E E E E E E P Y Y Y Y Y Y Y P P P P P P P P P P P P P P P P P P P P Y Y Y Y Y Y Y E E E E E E E E E E P P Y @.K K @.P h {+3+1.D q c f E Y @.@.@.@.@.@.E E h f f f h h h E E E h h h E E E P P E E E E E E E E E E E E E E E E E E E E E h h h h h h h E E E E E E E E E E E E E P Y Y Y Y Y Y P P P P P P P P P P P P P P P P P P P P P E E E E E E E P P P P P P P E E P P Y Y @.K P l h f D 3.:+E b d e E Y Y Y Y Y Y P E E f f f f f E E E E P P E h h h h h h h h E E E P P E E E E E E E E E E E E E E E E E E E E E h E E E E P P E E E E E E P P Y Y Y P P P P P P P P P P P P P P P P P P P P P P P P P P P P P P P P E E E E P P P P Y @.l l @.E l 1.a.6.b n g h P P P P P P P E h h h h f f f h E E E E E E E E E E E E E E h h h h h h h P P E E E h E P P P P P P E E E E E E E E E P P P P Y E E E E E E E P P Y P P E E P P P P P P P P P P P P P P P P P P P P P P P P P P P P P P E E E E Y Y @.l l l l Y e R /+'+z a q c f E P P P P Y @.Y E h f f f f h h h E E E E E E E h h E E E h h h h h h h h h E P @.@.P E E E P P P P Y E E E E E E E ",
"P P P P P P P Y Y Y Y Y Y Y P P P P P P P P P P P P P P P P P P P P Y Y Y Y Y Y Y E E E E E E E E E E P Y Y @.K K Y P E {+3+1.D q c f E E P P P P P P E E h f f f h h E E E E h h h h h h E E E E E E E E E P P P P P P P E h h h h h h E E E E E E E E E E E E E P P P P P P P Y Y Y Y Y Y Y P P P P P P P P P P P P P P P P P P P P P E E E E E E E P P P P P P E E E P P Y Y @.K P l h f D 8 _+E b d g P P P P P P P P E E f f f f f h h h h E E E E E E E E E E E E E P P P P P P P P P P P P P P P P P E E E E E E E E E E E P P P P P P P P P P P Y Y Y P P P P P P P P P P P P P P P P P P P P P P P P P P P P P P P P E E E E P P P Y Y @.l l @.E l 1.a.6.b n g h P P P E E P P E E E h h f f h h E E E E E E E E E E E E E E E E E E E E E P P P E E E E E E E E E E E E E E E E E h h E E E E P P P P P P P P P P Y Y P E E P P P P P P P P P P P P P P P P P P P P P P P P P P P P P P E E E E Y Y l l l l l Y e R /+'+z a q c f E P P P P Y Y Y P h f f f f h h h E E E E E E E h E E E E h h E E E E E E E E Y @.@.P E h h E E E E P E E E E E E E ",
"Y Y Y Y Y Y Y Y Y Y Y Y Y Y P P P P P P P P P P P P P P P P P P P P Y Y Y Y Y Y Y P P P P P P P P E E P Y @.@.K K Y P E {+3+1.D q c f E h E E E E E E E E h f f h h E E P P E E h f h h h h E P P P P P P P Y Y Y Y Y Y Y E h h h h h h P P P P P P P P P P P P P P Y Y Y Y Y Y Y Y Y Y Y Y Y Y P P P P P P P P P P P P P P P P P P P P P P P P P P P P P P P P P P E E P Y Y @.l K P l h f D @+_+h b d f Y E E E E E E E P E h f h h h f h h h E E P P P P P P P P E E P P P P Y Y Y Y Y Y Y Y Y Y Y Y Y Y P P P P P P P E E P P P P Y Y Y Y Y Y Y Y Y Y @.@.Y P P P P P P P P P P P P P P P P P P P P P P P P P P P P P P P P E E E P P Y Y @.@.l l @.E l 1.a.6.b n g h P P E h E P P P E E h h f h h E P P P P P P P P P P P P P P P P P P P P P P P P P E E E E E E E E E P P P P P P P E h E E E E E Y Y Y Y Y Y Y P Y Y Y P E E P P P P P P P P P P P P P P P P P P P P P P P P P P P P P P P E E E Y Y l l l l l Y e R /+'+z a q c f E P P P P Y Y P P E h h h h E E E P P P P P P P E E P P E E E P P P P P P P P Y @.@.Y P E h h E E E E P P P P P P P ",
"l l l l l l @.@.@.@.@.@.@.Y P P P P P P Y Y Y Y Y Y Y Y Y Y Y Y Y Y Y Y Y Y Y Y Y P P P P P P P P P P P Y @.@.K K Y P E {+3+1.D q c f E E E E E E E E P E h h h h E P P Y Y Y P E E P P P P Y Y Y Y Y Y Y Y @.l l l l l l Y P P P P P P Y @.@.@.@.@.Y Y Y Y Y Y Y Y l l l l l l @.@.@.@.@.@.@.Y Y Y Y Y Y Y Y Y Y Y Y Y Y Y Y Y Y Y Y Y P P P P P P P Y Y Y Y Y Y P P P Y Y @.@.l K P l h f D @+_+h m d f Y P P P P P P P P E E E E P E E P P P P Y Y @.@.@.@.@.@.P P Y Y Y Y @.@.@.@.@.@.@.@.@.@.@.@.@.@.@.Y Y Y Y Y Y P P P Y Y Y @.@.l l l l l l Y Y @.@.@.Y Y Y Y Y Y Y Y Y Y Y Y Y Y Y Y Y Y Y Y Y Y Y Y Y Y Y Y Y Y Y P P P P E E P Y @.l @.@.l @.E l 1.a.6.b r e h E E h f E P P P P E h h h h E P P P P P P P P P Y Y Y Y Y Y @.@.@.@.@.@.@.@.Y Y Y P P P Y Y Y Y Y Y Y Y Y Y Y Y Y P P P Y Y Y Y @.l l l l l @.Y Y @.Y Y P P Y Y Y Y Y Y Y P P P P P P Y Y Y Y Y Y Y Y Y Y Y Y Y Y Y Y P P P P E Y Y l l l l l Y e R /+'+z a q c f E P P P Y P P P E P P P P P Y Y Y P P P P P P P P P Y Y P P P @.@.@.@.@.@.Y Y Y Y Y Y Y P P P Y Y Y Y Y Y Y Y Y Y Y ",
"l l l l l l l @.@.@.@.@.@.Y P P P P P P Y Y Y Y Y Y Y Y Y Y Y Y Y Y Y Y Y Y Y Y Y Y Y Y Y Y Y Y P P P Y @.l @.K K Y P E {+3+1.D q c f E P Y Y Y Y Y Y P P E h h E E P Y Y @.Y Y P Y Y @.@.@.l @.@.@.@.@.@.@.@.l l l l l l @.@.@.@.@.@.@.@.@.@.@.@.@.@.@.@.@.@.@.@.@.l l l l l l l @.@.@.@.@.@.Y Y Y Y Y Y Y Y Y Y Y Y Y Y Y Y Y Y Y Y Y Y Y Y Y Y Y Y Y Y Y Y Y Y P P P Y @.@.@.l K P l h f D @+_+h b d f Y Y Y Y Y Y Y Y P P E P P Y Y Y Y @.@.@.l @.@.@.@.@.@.@.Y Y Y @.@.@.@.@.@.@.@.@.@.@.@.@.@.@.@.@.@.@.@.@.@.@.@.Y Y Y @.@.@.@.l l l l l l l Y @.@.l @.@.Y Y Y Y Y Y Y Y Y Y Y Y Y Y Y Y Y Y Y Y Y Y Y Y Y Y Y Y Y Y Y Y P P P E P @.l l l @.l @.E l 1.a.6.b r e f E E E h E P P P E E h h h E E P Y Y Y Y Y Y Y Y @.@.@.@.@.@.@.@.@.@.@.@.@.@.@.@.@.Y Y Y l l l l l l @.@.@.@.@.@.@.@.@.@.l l l l l l l l l l l Y @.@.@.Y P P Y Y Y Y Y Y Y P P P P P P Y Y Y Y Y Y Y Y Y Y Y Y Y Y Y Y Y P P P P Y Y l l l l l Y e R /+'+z a q c f E P P Y Y P E E E P Y Y Y @.@.@.@.Y Y Y Y Y Y Y P Y Y @.Y Y Y @.@.@.@.@.@.@.Y Y Y Y Y Y Y @.@.l l l l @.@.@.@.@.@.@.",
"l l l l l l l @.@.@.@.@.@.Y P P P P P P Y Y Y Y Y Y Y Y Y Y Y Y Y Y Y Y Y Y Y Y Y Y Y Y Y Y Y Y Y P Y Y @.l l K K Y P E {+3+1.D q c f E P Y Y Y Y Y Y Y P E h E E E Y Y @.@.@.Y Y Y Y @.@.@.@.@.@.@.@.@.@.@.l l l l l l l @.@.@.@.@.@.@.@.@.@.@.@.@.@.@.@.@.@.@.@.@.l l l l l l l @.@.@.@.@.@.Y Y Y Y Y Y Y Y Y Y Y Y Y Y Y Y Y Y Y Y Y Y Y Y Y Y Y Y Y Y Y Y Y Y P P Y Y @.@.l l K P l h f D 8 :+E b d g P P P P P P P P P P P P Y @.@.Y Y @.@.@.@.@.@.@.@.@.@.@.@.@.@.@.@.l l Y Y Y Y Y Y Y Y Y Y Y Y Y Y @.@.@.@.@.@.@.@.@.@.@.l l l l l l l l l @.@.l l l @.@.Y Y Y Y Y Y Y Y Y Y Y Y Y Y Y Y Y Y Y Y Y Y Y Y Y Y Y Y Y Y Y Y P P E P @.K K l @.l @.E l 1.a.6.m r d f E E h E E P P E E h h h h E P Y Y Y Y Y Y Y Y @.@.@.@.@.@.@.@.@.@.@.@.@.@.l l @.@.@.@.@.@.@.@.@.@.@.@.@.@.@.@.@.@.@.@.@.@.l l l l l l l l l l @.@.@.@.Y Y P Y Y Y Y Y Y Y P P P P P P Y Y Y Y Y Y Y Y Y Y Y Y Y Y Y Y Y Y P P P Y Y l l l l l Y e R /+'+z a q c f E P P Y Y P E E E P P P P Y Y Y Y Y Y Y Y Y Y Y Y Y @.@.@.Y Y @.@.@.@.@.@.@.@.Y Y Y Y @.@.@.@.@.l l l @.@.@.@.@.@.@.",
"@.@.@.@.@.@.@.@.@.@.@.@.@.Y P P P P P P Y @.@.@.@.@.@.@.@.@.@.@.@.@.Y Y Y Y Y Y Y Y Y Y Y Y Y Y Y Y Y Y @.l l K l Y P h k 3+1.s b c g E E P P P P P P Y P E E E E E Y Y @.@.@.Y Y P P Y Y Y Y @.@.@.@.@.@.@.@.@.@.@.@.@.@.Y Y Y Y Y Y Y @.@.@.@.@.@.@.@.@.@.@.@.@.@.@.@.@.@.@.@.@.@.@.@.@.@.@.@.@.@.@.@.@.@.@.@.@.@.@.@.@.@.@.@.@.@.@.@.Y Y Y Y Y Y Y @.@.@.@.@.@.Y P Y Y @.@.l l K P l h f D 3.(+P b d e E E E E E E E E P P P Y Y @.@.P P Y Y Y Y @.@.@.@.@.@.@.@.@.@.@.l l l Y Y Y Y Y Y Y Y Y Y Y Y Y Y @.@.@.@.@.@.@.@.@.@.l l l @.@.@.@.@.@.@.@.@.l l l @.@.@.@.@.@.@.@.@.@.@.@.@.@.@.@.@.@.@.@.@.@.@.@.@.@.@.@.@.@.Y Y Y Y P P E P @.K K l @.l @.E l 1.a.6.m r d f E E E P P P P E h h h h h E P Y Y Y Y Y Y Y Y @.@.@.@.@.@.@.@.@.@.@.@.@.@.l l l @.@.@.@.@.@.@.@.@.@.@.@.@.@.@.@.@.Y Y Y Y @.@.@.@.@.@.@.@.@.@.@.@.@.@.@.Y P @.@.@.@.@.@.Y P P P P P P Y @.@.@.@.@.@.@.@.@.@.@.@.@.@.Y Y Y Y P P Y Y @.l l l @.Y d R /+'+z a q c g E P P Y Y P E E E P E E E E P P P Y Y Y Y Y Y Y Y Y @.@.@.Y Y @.@.@.@.@.@.@.@.Y Y Y Y @.Y Y Y Y @.@.@.@.@.@.@.@.@.@.",
"Y Y Y Y Y Y Y @.@.@.@.@.@.@.Y Y Y P P P E E E E E E E E E E E E E E P P P P P P P P P Y Y @.@.@.P P P P P Y @.Y Y @.g f ].3+T.n b n d f h E E E E E E E h f e e h Y h h E E E E P Y Y Y Y Y Y Y Y Y Y Y Y Y @.l l l l l l @.Y Y Y Y Y Y Y Y Y Y Y Y Y Y Y Y Y Y Y Y l l l l l l @.Y Y Y Y Y Y P E P P P Y Y Y Y P P P P P E E E E E E E E E E E E E P @.@.@.Y Y P P Y Y Y @.l l @.@.P @.g e w '+;+K b n d h P P P E h h E Y Y Y Y Y Y Y Y Y Y Y Y Y @.@.@.@.@.@.@.Y Y Y Y Y @.@.Y Y Y Y Y Y Y Y Y Y Y Y Y Y Y Y Y Y Y Y Y P P P Y Y Y Y Y Y Y Y Y Y Y Y Y Y Y Y Y P P E E E E E P P Y Y Y Y Y P P P P P P P P P P P P P P P P P P P P Y Y Y Y @.l K @.Y f K b.a.y n c d e h E P P P P P E E h f h h E P P P P P P P P P P P P P P P P P P P P P P P Y Y Y P P P P P P P P P P Y Y Y Y Y Y Y P P P P P P P @.l l l l l @.Y Y Y Y P E P Y P P P P P P P P P P P P E E E E E E E P P P Y Y @.@.Y Y Y Y Y @.@.P Y @.@.@.P P E q R !+8 6.m r n d g h E E h h E E E E Y Y Y Y Y Y Y Y Y Y Y Y Y Y Y Y Y P P P Y Y Y Y Y Y Y @.@.l l @.@.Y Y P P P P P P Y Y Y P P E E ",
"P P P P P P P P P P P P P P P E E E h h P Y Y P P E E E P P P P P P E E E E E E E h h E E E E E h h h h h E P h h P d g ].3+T e n e e f h E E E E E E P E h f g f E E E E P P P P Y Y Y Y Y Y P E E E E E E P P P P P P P Y Y Y Y Y Y Y Y Y Y Y Y Y Y E E E E E E E P P P P P P Y Y Y Y Y Y Y P P P P P Y Y E E h h h h h E E E E E E E E E E E E E E E E P P Y Y P E E E P Y Y Y Y E Y e d w @+!+R r c d g E E E E E E E E E E E E E P Y Y Y Y Y Y Y P P P P P P P E E P P P P Y Y Y Y Y Y Y E E E E E E P Y Y Y Y Y Y P h h h E E E P Y Y Y Y Y Y Y Y Y Y Y Y Y P P P P E E E h h h h E E E h h h h h h E E E E E E E P Y Y Y Y Y Y P P P P Y @.@.E P g K (.,.D c c c d g h E P P E h f f g f f h h E E P Y Y Y Y Y Y Y Y Y Y Y Y Y Y Y Y Y Y Y Y Y Y Y Y P P P Y Y Y Y Y Y P P P P P P P P Y Y Y Y Y Y P P P P P P P @.Y Y Y P P P P P P P P P E h h h h h h E P P P P P P P P P P P P P E E E E P P P P Y Y @.@.Y E f q R #+3.x n n d e f h E E E E E P P P P P P P P P P @.@.@.@.@.@.Y Y Y Y Y Y Y Y Y Y Y Y Y Y Y @.l l @.Y Y Y @.@.@.@.@.@.Y Y Y P P P E ",
"h h h h h h h h h h h h h E P P P P P P E E E E h h f h h h h h h h P P P P P P P P E E E E h h P P P P E E P f h E e h k 5 H.c c g d e g f f f f f f g f h h f h h h h h h E E E E E E E E E E E E E E E E h h h h h h h E E E E E E E E E E E E E E E E E E E E E h h h h h h E E E E E E E E h E E E P P E E P P P P P E E E E E E E E E E E E E E E P P P Y Y Y P P P P P P E P f E d c w 8 !+R r d d e g g f f f h h f f f f f f h E E E E E E h h h h h h h f f f h h h h E E E E E E E f f f f f f f E E E E E E E E E E P P P E E E E E E E E E E E E E E h h E E E E E E E E E P P P P P P P P P P P P P P P P P E E E E E E h h h h h h h f h d l (.~.y e d c d g f h h h f g e e g g g g g f f h h h h h h h h h h h h h h h h h h h h h E E E h h h h h h h h h h h f f f f f f h h h h h h h h h h h h h E E E E E E h h h h h h h h E P P P P P P E h h h h h h E E E h h h f h E E E E P P h E E E E E h f r R ;+8 y e d e g f h E h f f h h h h h f f f f f f E E E E E E E E E E E E E E E E E E E E E P Y Y P P E E E E E E E E Y Y Y P P P P ",
"g g g g g g g f f f f f f h E E E E E E P Y Y P P E E P Y Y Y Y Y Y P E E E E E E E E E h h f h E P P P E h h e g h d h k 5 %.b r e c e e e e e e e e e f E P E P E g f f f f h h f f f f f f h E E E E E E E E E E E E E h f f f f f f f f f f f f h E E E E E E E E E E E E E h h h h h h h E E P P P Y Y E h E E E P P E E E E E E E P P P P P P P E E E E E h h E E P E h h h P g E d e s @+;+l q d e e d e e g g g g f f f f f f f f f f f f f f f f f f f f f f f f h h h h h h h h h h f f f f f f f f f f f f f f f f h h h E h h h h h h h h h h h h h h E E E P P P P P P P P Y Y P P P P P P P P P P P P P P P P P P P P P E E E E E h f h P e l {.,.v d d d d g f f g e e g f h h f f f f g g f f f f f f f f f f f f f f f f f f f f f h f f f g g f f f f f f f g g g g g g g f f f f f f f h E E E E E E h h h h h h h h h E E E E P P P P P P P P E E E E E E P P P P E E h f f h h h E E E E h h h h h h c M ;+'+x d c d e g f h f f f f f h h g g g g g g g f f f f f f f f f h h h E h h h h h h h h E E E E h f f f f f f f f f f f f f f f ",
"g g g g g g g f f f f f f h E E E E P P @.K K l K K K R R R R R R R l l l l l l l Y Y Y P P P Y Y @.@.@.Y E E f f E e E ~+} O.D b e c e e e e e e e e E Y @.Y E h f g g g f f f f g g g g g g f f f f f f f h h h h h h h f g g g g g g g g g g g g g f f f f f f h h h h h h h h h h h h h h E P P Y Y Y Y P P Y Y @.@.@.l l l l l l l l l l l l l l @.@.Y P P E P Y @.@.Y P h E Y f P g h b @+_+h s n d d e e e e g g g f f f f f f f g g g g g g f f f f f f f f f h h h h E h h h h h h h f f f f f f f g g g g g g g f h h h h E h h h h h h h h h h h h h h P P P Y @.@.l @.l l l l K K l l l l l l l @.@.@.@.@.@.@.@.@.@.@.@.@.@.@.@.@.Y E h h Y g l ` ~.6.n n c d e e e e e e f E Y Y P E E h f g f f f f f f f f f f f f f f f f f f f f f h f f f g g g f f f f f f g g g g g g g f f f f f f f h h h h h h h f h h h E E E E P P Y @.@.@.l l l l l l @.@.@.@.@.@.@.@.l l l @.@.@.P P P P Y Y Y @.Y P E E E E h c M ;+'+6.q r n c e g g f f f h h h E f f f f f f f g g g g g g g f f h h E E E h h h h h h h E E E E h f f f f f f f f g g g f f f f ",
"n n n n n n n c c c c c c c e e g g f f h h h E E P Y Y Y Y Y Y Y Y @.@.@.@.@.@.@.P P P Y Y Y Y Y @.@.@.P h h g g f c h m+z.` x D q m n c n n n n n n f h h g c n c n n n n c c c c c c c c c c c c c c c c c d d d d d d c c c c c c c c c c c c c c c c c c c c c d d d d d d d e e e e e e e g g g g f f h E E P Y @.@.l l l l l l l Y Y Y Y Y Y Y Y Y Y Y Y Y @.l l l @.P h f f c g c e a @+c+d C m r r c c c n n n n c c c c c c c c c c c c c c c c c c c c c c d d d d d e e e e e e d c c c c c c c c c c c c c c d d d e e e d n n n n n n d e e e e e e e g g f h h E Y Y @.@.@.@.l @.@.@.@.@.@.@.@.@.@.@.@.@.Y Y Y Y Y Y Y P P Y P E g e d h n Y ` $.|.D a q n n n r n n r n e h h f g e c n n c d d d d d d d d d d d d d d d d d d d d e d d d d c c d d d d d d d d d d d d d d d d d d d d d d d d d d d d e e e g g g g g f h h E Y @.@.@.@.@.@.@.@.@.@.@.@.@.Y P Y Y Y @.@.@.@.@.@.l l l l @.E f g g g f r R !+'+|.D a b q n c d e e e e g g g e e e e e e e e e e e e e e d d e e g f g e e e e e e e g g g e e d e g g g g g g e e g g f f f ",
"a a a a a a a a a a a a a a a a a m m b b b q r r n n n n n n n n n n c c c c c n n n c c c d d c c d c n b q b a b a a }.5+` v =.s D m m a a a a a a b q q b m a m s a a a m m m m m m m m m m m m m m m m b b b b b q q m m m m m m m m m m m m m m m b a a s m b b b b b b b b b b b b b b b b q q q q q r r n n c c c n n n n n n c e e e e e e d c c d d d e e e g g e n r q r a q m b C @+n+n v D a m b m m a a a a a a a a a a a m m m m m m m a a a a a a a a m m m m b q q q q q q q a a a a a a m m m m m m m a s s s a a s a s s s s s s m b b b b b b b b b q r r r n n n c c c c c c c c c c c c c c c c c e g g g g g g e e e e c r q a c s h <.Z 9.x y s m b m m m a a a m q r r r q m a a m b b b b b b b b b b b b b b b b b b b b q q b b b m b b b b b b b b b r r m b b q b b b q q b q q q q q q q b q q q q r r q r r n n c c d d d d d d e g g g g g g d d e e g g g g g g g g f f h g d n q q r n a l !+8 8.y D s m b r n r q q q q q q r r r q q q q r r r r r r r q q q r n n r q q q q q q q q r r r q q r r r r r r n q b q q q q r ",
"C C C C C C C y y y C C C C y y y y y y y y w w D D D D D D D D D D D D D D D D D s s s s s s s s D D w w w w D x y a v ' 3+1.z =.D x w w y y y y y y w w w w w w w y y w w w D D y y y w w w w w w w w w w y y y y w w w y y y y y y y w w w w w w w y a x w x w D w w w w w w w y y y y y y y y w w w w y w D s s s D D D D D D D D s a a a a a a s D D D D D D D D D D D D D D y C y D x z 8 j+c =.y w w y y y y y y y y y y y y y y y y y y y y w D D D D D D w y y y y y y w D D D D D w y y y w w w w w w w w w w D C C y y m w y y y y y y y w w w w w w w w w w w w w w D D D s s s s s s s s s s s s s a a a a a s s s s s s a a a s s s s y s x g B a.g.=.v x C w w D w w w w w w w D D D D D D D D D D D D D w w w w w w w D D D D D D D D D D D D D w w w w w w w D y w s x y y a D y w s a D w D D D D D D w w w w w w D D D D D D D s s s s s s s s s a a a a s s s s a a a a a a a a a a a a a s D w w y x 6.g _+U i.C y w D s a a s D D D D D D a a a s s s s D D D D s s s D D D D D D D s s s s s s s s s s s s s a s s D s s s s s s D D D D ",
"6.6.6.6.6.6.6.6./././././.6.6.6.6.6.6.6./.z /././.6.6.=.v v v v v v v =.6.6.6.=.v 6.6.6.6.6.6.6.6.6.=.=.=.=.=.v 6.z /.C & 2+N.|.=.6.9.v v 6.6.6.6.6.6.=.=.=.=.=.=.=././.6.6.6.=.=.6.6.6.=.=.=.=.=.=.=.=.=.=.6.6.6.6.=.=.=.6././././././.=.=.=.=.=.=.=.|.|.=.=.z 6.v 6.6.6.6.6.6.6.6.6.6.6.6.6.=.6.=.=.=.6.=.6.=.=.v =.=.6.=.=.=.=.=.=.=.=.=.=.=.=.=.=.v v v v v v v v v v v v v v 6./.=.x 6.8.3.n+a 0.6.x z /././././././.6.6.6.6.6.6.6.6.6.6.6.6.6.6.6.6.6.6.6.6.6.6.6.6.6.6.6.6.6.6.6.6.6.6.6.6.6.6.=.=.=.=.=.=.=.=.=.v z =.8.8.x C /.6.6.6.6.6.6.6.6.6.6.6.6.6.6.6.6.6.6.6.6.=.=.=.v v v v =.=.=.=.=.=.=.6.6.=.=.=.=.=.6.6.6.6.6.6.6.=.6.6.6.6.=.=.z v m e.a.k.z /.6.6.=.=.=.=.=.=.=.=.=.=.=.=.=.=.=.=.=.=.=.=.=.=.=.=.=.=.=.=.=.=.=.=.=.=.=.=.=.=.=.=.=.=.=.=.=.=.=.=.=.=.v 6.8.6.v /.|.6.6.z /.=.6./.6.6.6.6.6.6.6.=.=.=.=.=.=.=.=.=.=.=.=.=.v x x x x x x v v x x x v v v v v x x x x x x x x x x x x x v v =.=.x C 9.b X.3.q.v /.6.=.v v v v v v v v v v x x x x v v v =.v v v v x v =.=.=.=.=.=.=.6.6.6.6.6.6.=.x x x x x x v v =.=.=.=.v v x v v v v =.",
"a a a a a a a s s s a a a a s s s s s s s s s s a a a s s s s s s s s s s D D s s s s s s s s s s s a a a a a D m a C r _.q+<.c y w n s D a a a a a a a a a a a a a s s a a a a a s a a a m m a a a a a a a a a a a a m m m m m m m m m m m m m m m m q x w m n a y a a a a a a m m m m m m m m a a s s a m a m m b b m a a a a a a a a a a a a a a a m m m m m m m m m m m m m m a s m b m D U ]+h m y D r a a a a a a a a a a a a a a a a a a a a a m m m m m m m m m m m m m m m m m m m m s a a a a m m m m m m m m s a s C h v D q m m m m m m a a a a a a a m m m m m m m a m m m b b m m m m m m m m a a a a m m a s s s s s s s s s a a a m b d D r N.P.z a a a a m m m m m m m m m m m m m m m m m m m m m m m m m m m m m m m m m m m m m m m m m m m m m m m m m m s q b a a s n m a a a a a D m m m m m m m m m m m m m m b b b b b b b m m m m m m a a m b m m a a a a m m m m q q q q q q b a a m m m m D D q Y ;+&./.q m b q r r r n n n n n n n n n n r r r r n n n n n c c n n n n n n n n n n n n n n c c c c c c n n r r r r n n c n n n n n ",
"r+r+r+r+r+r+r+F.F.r+r+G.G.r+F.F.F.F.F.F.F.r+r+r+r+r+r+r+G.G.G.G.G.G.F.r+o+j+o+r+F.r+r+r+r+r+r+r+F.F.r+r+r+G.o+r+o+n+a+X.] S K.r+p+F.F.G.F.p+p+p+p+p+p+F.F.F.F.F.F.F.r+r+r+r+r+r+r+p+p+p+F.F.F.F.F.F.F.F.F.F.p+p+p+p+F.F.F.p+p+p+p+p+p+p+F.F.F.F.F.F.p+p+(+c+X.w.F.o+r+r+r+r+r+r+r+F.F.F.F.F.F.r+F.p+a+a+F.r+F.r+r+r+r+r+F.r+r+r+r+r+r+r+F.F.F.F.F.F.F.r+r+r+r+r+r+r+r+r+r+r+r+r+F.F.F.F.G.r+F.Z 2.l+o+F.v.F.F.F.F.F.F.F.F.p+p+p+p+p+p+p+p+p+p+p+p+p+r+G.G.G.G.G.G.r+F.F.F.F.F.F.r+r+r+r+r+r+r+p+p+p+F.F.F.F.F.F.F.F.F.F.p+r+v.n+(+r+G.r+F.F.F.F.F.F.r+r+r+r+r+r+r+r+r+r+r+r+r+r+p+p+p+p+F.F.r+r+r+r+r+r+r+r+r+r+r+r+G.G.r+F.F.F.F.F.F.p+F.F.F.r+r+G.B.c+v.l+&+s+o+r+r+r+F.F.F.F.F.F.F.F.F.F.F.p+p+p+p+p+p+p+p+p+p+p+p+p+F.F.F.F.F.F.F.p+p+p+p+p+p+p+p+p+p+p+p+p+F.F.F.F.F.F.F.a+o+o+a+r+l+X.F.r+G.G.r+F.F.r+r+r+r+r+r+r+F.F.F.F.F.F.F.F.F.F.F.F.F.F.F.F.F.F.F.F.F.p+F.F.F.F.p+p+p+p+F.F.F.F.p+p+p+p+p+p+p+p+p+F.F.r+r+G.l+B.X.o P.j+C.r+G.o+o+o+o+G.r+r+r+r+r+r+G.o+G.G.G.r+r+F.F.F.r+r+r+r+F.F.F.F.F.F.r+G.G.G.G.G.G.G.r+r+r+r+r+r+G.G.r+r+r+r+G.r+r+r+r+F.F.F.",
"S.S.S.S.S.S.S.S.S.S.S.k+k+k+S.S.S.S.S.S.S.S.*+*+u.u.u.S.k+k+k+k+k+k+*+S.=+Q.=+S.*+k+k+k+k+k+k+k+k+k+k+S.S.k+e.=+*+S.1+e.Q.e+6+k+u.e.u.S.*+*+*+*+*+*+*+%+f+f+f+f+f+%+1+1+%+%+%+%+%+*+*+*+*+*+S.S.k+k+k+k+k+k+*+*+*+*+*+S.S.S.S.S.S.S.S.S.S.S.S.S.S.S.S.S.D.&.r+Q.=+!+%+%+%+%+%+%+%+1+1+1+1+1+1+u.*+*+*+*+*+*+u.u.*+*+*+u.u.%+%+%+%+%+%+%+u.u.u.u.u.u.*+k+k+k+k+k+k+k+k+k+k+k+k+k+S.S.S.*+*+S.S.,+N.%+^+Q.S.g+*+*+*+*+*+*+*+*+*+*+*+*+*+*+*+*+*+*+*+*+1+%+%+%+%+%+%+1+1+1+1+1+1+1+u.*+*+*+*+*+*+*+*+*+*+*+S.S.S.S.S.S.S.S.*+u.S.%+t+h.Q.g+1+1+1+1+1+1+%+%+%+%+%+%+%+f+f+f+f+f+f+f+1+1+1+1+u.u.1+f+f+f+f+f+f+f+f+f+f+f+%+%+u.*+*+*+*+*+*+*+*+*+*+*+*+*+%+f+S.Q.e.d+Q.S.S.S.S.S.S.S.S.S.S.S.S.S.S.S.S.S.S.S.S.S.S.S.S.S.S.S.S.S.S.S.S.S.S.S.S.S.S.S.S.S.S.S.S.S.S.S.S.S.S.S.S.S.S.1+u.*+S.k+v.<+[ 1+S.S.*+u.*+*+*+*+*+*+*+*+S.S.S.S.S.S.S.k+k+k+k+k+k+S.S.S.S.S.S.S.*+*+S.k+S.S.*+*+*+S.S.S.S.k+*+*+*+*+*+*+*+u.*+*+*+S.S.*+;+1+e._+c+!+/+^+^+g+g+^+^+/+/+/+/+/+/+/+/+/+/+!+!+!+!+!+!+!+/+/+/+/+^+^+^+^+^+^+^+/+/+/+/+/+/+/+/+/+/+/+/+/+^+^+/+/+/+/+^+/+/+/+/+!+!+!+",
"G G G G G G G G G G G G G G G G G G G G I I G G L L L G G G G G G G I G L L L G I I I I I I I I I I I G G G G L G F L I L F F F O G G M F G G G G G G I I I I I I I I I I I I G G L L G G G G I I I I I I I G L L G G G I I I I I I I I I I I I I I I N e+K.k.K I L I I I I I I G G G G G G G L L G I I G L L L G G G L L I I I I I I G G G G G G G I I I I I I I I I I I I I I I I I G L G I K O I O O F L G G G G G G G G G G G G G G G G G G G G G I I I I I I G G G G G G G G G G G G G G L L G G G G I I I I I I I L G O f A %.O O G G G G G G I I I I I I I I I I I I I I G G G G I I I I I I I I I I I I I I I I I G G G G G G I I G G G G G I N I N O O h G G G G G G I I I I I I I I I I I I I I I I I I I I I I I I I I I I I I I I I I I I I I I I I I I I I I I I G L G L M m+|+$ N G G L L I G G G G G G G I I I I I I I I I I I I I I I I I I I I I I H H H I I I I I H H H H I I I I I I I G G G G G G G O F L H F l G I H H H I I I I I I I I I I G G G G L L I I I I I H I L L L L L L G I I I I I I H H H H H H H H I I I I I I H H I I I I I ",
"G G G G G G G G G G G L L G G G G G G G I I I G G G G G G G G G G G I G L O L G I L L L L L L G G G G L L L O L I L I L N G L G F O L I G G G G G G G G G G G G G G G G G L L L L L L G G G G G G G G G G G G G G G G G I G G G G G G G I I I I I I G O *+W 8.M G L G G G G G G G I I I I I I G L G I I G G G G I I I G G L L L L L L L I I I I I I I G G G G G G G G G G G G G G I I G L G I I I L O I H O I I I I I I I G G G G G G G G G G G G G G G G G G G G I I I I I I I G G G G G G G G G G G G G I I I I I I G G I M f Z %.L G I I I I I I G G G G G G L G G G G G G G I I I H H H H I I I I I I I G G G G I I I I I I I I I I I I I G G G I L I I I M H G G G G G G G I I I I I I I G G G G G G G G G G G G G I I I I I I I G G G G G G G G G G G G G G G G I I I I I I G O l k 3+W.N L I G G I I I I I I I I I I I I I I I G G G G G G G I I I I I I I G I I I I I I I I I I I I G G G G G G G G G G G G G L L F N I M O H I I I I I G G G G G G G G I I I I I I G G G I I I I I H H H H H H I I I I I I I I I I I I I I I G G G G G I I I G G G L L ",
"I I I I I I I I I I I I I H H H H H H H H H H H H H H H H H H H H H I I I I I I I H H H H H H H H H H H H H H H H H H H H H H H H H H H H H H H H H H H H H H H H H H H H H H H H I I I I I I I I I I I I I I I I I I I I H H I I H H H H H H H H I L K g+!.0.N H I H H H H H H H H H H H H H I I I I H H H H H H H H H H H H H H H H I I H H H H I I H H H H H H H H H H H H H H H H H H H H I I I I H H H I I I I I I H H H H H H H H H H H H H H H I I I I I I H H H H H H H H H H H H H H I I I I I I H H H H H H H H I L g Z %.G L I H H H I H I H H H H H I H H H H H H H H H H H H H H H H H H H H H I I I I I I I I I I I I I H H H H H H H I I I I I I I H H H H H H H H H H H H H H I I I I I I I I I I I I I H H H H H H H H H H H H H H H H H H H H I I I H H H H I H I I N m+z.Y.O L H I I H H H H H H H H H H H H H H H H H H H H H H I I I I I I H H H H H H H H I I I I I I H H H H H H H H H I I I H H G G G I I I I H H H H H H H H H H H H H I I I I I I I I I I I I I I H H H H H H H I I I I I I I I I I I I I H H H H H H H H I I I I G O ",
"G G I I H H H I I I I I I I H H H H H H H H H H H H H H H H H H H H H H H H H H H H H H H H H H H H H H H H H H H H H H H H H H H H H H H H H H H H H H H H H H H H H H H H H H H H H H H H H H H H H H H H H I I I I I I I I I I I H H H H H H I O M g !+-.0.K H H H H H H H H H H H H H H H I I H H H H H H H H H H H H H H H H H H H I H H H H H I H H H H H H H H H H H H H H H H H H H H I I H H H H H H H H H H H H H H H H H H H H H H H H H H H H H H H H H H H H H H H H H H H H H H H H H H H H H H H H H H H H I G f a.O.L O I H H H H H I H H H H H I H H H H H H H H H H H H H H H H H H H H H H H H H H H H H H H H H H H H H H H H H H H H H H H H H H H H H H H H H H H H H H I I I I I I I I I I I I I H H H H H H H H H H H H H H I I I I I I I I H H H H H H H G G M m+} ,+M F I I I H H H H H H H H H H H H H H H H H H H H H H H H H H H H H H H H H H H H H H H H H H H H H H H H H H H I I H H H I I I I H H H H H H H H H H H H H H H H H H H H H H H H H H H H H H H H H H H H H I I I I I I I I I I I I I H H H H H H H H H H H I L F ",
"N O G H H H H H H H H H H H I I I I I I I I I I I I I I I I I I I I I I I I I I I G G G G G G G I I I I I I I I I I I I I I I I I I I I I I I I I I I I I I I I I I I I I I I I I G G G G G G G G G G G G G I H H H H H H G L O O L G G L L L L F K P q ;+-.0.P G I H H H H H H H H H H H I I H H H H H H H H H H H H H H I I I I I I I H H H H H H H H H H H H H H H H H H H H I G G G G G G H H H H H H H H H H H H H H I I I I I I I H H H H H H H H H H H H H H H H H H H H H H H H H H H H H H H H H H I I H H H H I I I f a.` F F G H H H H H I I H H H I I H H H H H H H I I I I I I I H H H H H H H H H H H H H H H H H H H H I I I I I I I H H H H H H H H H H H H H H I I I I I I I I I I I I I I I I I I I I I I I I I I I I I I I I I I G G G G G G G G G I I I I I G F N @.k } T l R L G G H H H H H H H H H H I I I I I H H H H H H H H H H H H H I I H H H H H H H H H H H H I I I I I I I H H H H H H H I I H H H H H H H H H H H H H H H H H H H H H H H H H H H H H H H H H H H H H H H H H H H H H H H H H H H H I I H H H H H H H H H I L N ",
"K M O G H H H I I I I I I I G G G G G G G G G G G G G O O O O O O O O O O O O O O F F F F F F F O O O O O O O O O O O O O O O O O O O O O O O O O O O L L L L L L L L L L L L L O F F F F F F F F F F F F F N N N N N N N N M M M M N N N N M M K E g b ]+>.0.g N O I I I I I I I I I I G G G L O L L L G G L O O O O O O O O O O O O O L L G G L L O O O O O O O O O O O O O O F F F F F F F O O L L L G G L L L L L L L L L L L L L L O O O O O O L L L L L L L L L L L L L L L L L L L L L L L L L L L L G G G I I I I I G g a.1.M M O G H I I H G G I I I G G L L L L L L L G G G G G G L O O O O O O L L L L L L L L L L L L L L G G G G G G G L L L L L L L L L L L L L L L L L L L L L L L L L L L L L L L L L L L L L L L L L L L L L L L L L O O O F N N N N F F F F N N @.Y f ].z.H.P @.F L G I H H H H H H H I G G G L L L L L L L L L L L L L L L L O O O L L L L L L L L L L L G G G G G G G G L L O L L G O O O O L L L L L L L L L L L L L L L L L L L L L L L L L L L L L L G G G G G G G G G G G G G G G G G G G G G G G G I I I I H H H I O R ",
"Y K N L G L L O O O O O O O F F F F F F F F F F F F F N M M M M M M N N N N N N N N N N N N N N M M M M M M M M M M M M M M M M M M M M M M M M M M M N N N N N N N N N N N N N N M M M M M M M M M M M M M R R R R R R R K K K l K K R M R K l @.h e q (+-.0.e K M L L L L L L L G G L O O F N M N N N N F N N N N N N N M M M M M M M M N N F N M M N N N N N N N N N N N N N M M M M M M M M M N N N N F N N N N N N N N N N N N N N N N N N N N N N N N N N N N F F F F F F F F F F F F F N N N N N N N F O O L G G G G F e a.` K l N O L L G G L O L L L O O F F F F F F F F F F F F F F N N N N N N N N N N N N N N N N N N N N F F F F F F F N N N N N N N M M M M M M N N N N N N N N M M M M M M M M M M M M M N N N N N N N N N N N N N N N N M M R K K K R R M M R R K P h e [.5 %.h Y N O O L G G G G G G G L L O F F N N F F F F F F N N N N N N N N N N N N F F N N N N N N N F F F F F F F N N M M N N N M M M M N N N F F F F F F F F F F F F F N N N N N N N N N N N N N N F F F F F F F N N N N N N N N N N N N N F F O O O O L L L G I I F K ",
"P @.M O L O F F F F F F F F N N N N N N N N N N N N N R R R R R R R M M M M M M M N N N N N N N R R R R R R R R R R R R R R R R R R R R R R R R R R R R R R R R R R R R R R R R R R R R R R R R R R R R R R R R R R R R R K l l l K K R M R l @.@.E f q :+-.0.g R M O O O O O O O L L O F N N M M M N N N N M M M M M M M R R R R R R R M N N N N N M M M M M M M M M M M M M M M M M M M M M M M N N N N N N N N N N N N R R R R R R R M M M M M M N N N N N N N N N N N N N N N N N N N N N N N N N N N N N N F F L L G G M c Z d+K Y M F O O O L F F O O O F F N N N N N N N N N N N N N M M M M M M M M N N N N N N N N N N N N N N N N N N N N N N N N N N N M M M M M M M R R R R R R R R R R R R R R R R R R R R R R R R R R R R R R R R R R R R K l l @.@.l K K R K K K l E E g _.5 %.f P M N N O O L L L L L O O F N N M R R N N N N N N N N N N N N N M M M M M N N N N N N N N N N N N N N N N N N M M N N N R M M M N N N N N N N N N N N N N N N N N N N N N N N N N N N N N N M M M M M M M M M M M M M M M M M M M M N N N F F F F N F L G G N l ",
"P @.R F O O F O O O F N N N R R R R R R R R R R R R R R R R R R R R R R R R R R R M M M M M M M R R R R R R R R R R R R R R R R R R R R R R R R R R R K K K K K K K R R R R R R R K K K K K K R R K K K K K K K K K K K K l l @.l l K K M K K l @.E g b _+^.g.d R K N F O O F O O O F N M M M M M M M M M M M R R R R R R R R R R R R R M M M M M M M N M M R R R R R R R R R R R R R R R R R M M M M M M M M M M M M M M R R R R R R R R R R R R R M M M M M M M M M M M M M M M M M M M M M M M M M M M M M N N N O L G L M r :.1.R Y R N F O O O O F F F N N M M M M M M M M M M R R R M N N N N N N N N N N N N N N M M M M M M M M R R R R R R M M M M M M M M M M M M M R R R R R R R R R R R R R R M M M M M M M R R R R R R R R R R R R R R K K l l l @.@.l l K K R R K l P E d ].5+%.h f R M N O O O O O O O O N N N M M R R M M M M M M M M M M M M M R R R R R M M M M M M M M M R R R R R R R M M M M M M M R M M M M M N N N N N N N M M M M M M M M M M M M M M N N N M M M M M M M M N N N M M M M M M M M M M M M M N M M M M M N N N L I I F @.",
"Y l R N O O O L O F N M M R R R R R R R R R R R R R R R R R R R R R R R R R R R R R R R R R R R R R R R R R R R R R R R R R R R R R R R R R R R R R R K K K K K K K R R R R R R R K K K K K K K K K K K l l K K K K K K K l l @.@.l K K R K K l @.h d m :+2.g.c R @.M F O O F O L F N M M M M R R R R R R R R R R R R R R R R R R R R R R R R R R R R R R R R R M R R R R R R R R R R R R R R R R R R R R R R R R R R R R R R R R R R R R R R R R R R R K K K K R M M M M M M M M M M M M M M R R R R R R R R N N N F G G L N r :.(.M P R M F O L O L O O F N M R M M M M M M M M R R R R R M R R R R R R M M M M M M M R R R R R R R R R R R R R R R R R R R R R R R R R R R R R R R R R R R R R R R R R M M M M M R R K K K K K K K K K K K K K K K K l l l @.@.l l l K R R K K Y E c 4.5+%.E e R M N O O O O O O O O N N M M M R R M M M M M M M R R R R R R R R R R R R R R R R R R R R R R R R R R R R R R R R R R R R R R R R R R R R R R R R R R R R R R R R R R R R R M M M R R R R R R R M M M M R R R R R R R M M M M M M N M M R R M N F N L I I F @.",
"P l R N O O O O O F N M R R R R R R R R R R R R R R R R R R R R R R R R R R R R R R R R R R R R R R R R R R R R R R R R R R R R R R R R R R R R R R R K K K K K K K R R R R R R R l l l l l l l K K K l l l l l l l l l l l @.@.@.l K K R K K l @.h d m :+2.g.c R @.M F O F F O O F N M M R M R R R R R R R R R R R R R R R R R R R R R R R R R R R K K K R R M M M R R R R R R R R R R R R R R R R R R R R R R R R R R R K K K K K K K R R R R R R R R K K K K R R R R R R R R M M M M M M M R R R R R R R K M N N N L I G F n ,.(.M P K M F O O O O O F F M R R M M M M M M M K R R M R R K R R R R R R R M M M M M M R R R R R R R R R R R R R R R R R R R R R R R R R R R R R R R R R R R R R R R R R R R R R K K K K K K K K K K @.@.@.@.@.@.@.l l l l @.@.@.@.l l K K R K K Y E c 4.5+%.E e R M N F O O O O O O O M M M M R R R M M M M M M M R R R R R R R R R R R R R R R R R R R R R R R R R R R R R R R R R R R R R R R R K l l l l l l K R R R R R R R R R R R R R M M R R R K K l l l K K K K R R R R R R R R R R R R R M M R R R M M F F O G G N l ",
"P @.R N F F F O F N M M R R R R R R R R R R R R R R R R R R R R R R R R R R R R R R R R R R R R R R R R R R R R R R R R R R R R R R R R R R R R R R R K K K K K K K R R R R R R K l l l l l l l K K l l l @.l l l l l l l @.@.@.@.@.l K R K K l @.h d m :+2.g.c R @.R N O F F F O F N M R R R R R R R R R R R R R R R R R R R R R R R R R R R R R R R K K K R R R R R R R R R R R R R R R R R R R R R R R R R R R R R R R K K K K K K K R R R R R R R K K l l K K K K K K K K K R R R R R R R R R R R R R R K M M M N L G G F n ,.(.M P K M F O O F O O F N M R R R R R R R R R l K M M R K K M M M M M M M R R R R R R R R R R R R R R R R R R R R R R R R R R R R R R R R R R R R R R R R R R R R R R R K K K K l l l K K K K K K K l l l l l l l l l l @.@.@.@.@.@.l l K K K K Y E c 4.5+%.h e K R N F O O O F F F F M M M R R R R R R R R R R R R R R R R R R R R R R R R R R R R R R R R R R R R R R R R R R R R R R R R R R R R R R R R R R R R R R R R R R R R R R R R R R R R K K K @.l l l l K K R R R R R R K K K K K K K R M R R R R M F F N L L N l ",
"P @.K M F F F F F N M R R K K K K K K K K K K K K K K K K K K K K K K K K K K K K K K K K K K K K K K K K K K K K K K K K K K K K K K K K K K K K K K K K K K K K K K K K K K K K l l l l l l l l l l l @.@.l l l l l l l @.@.Y Y @.l l R K K l @.h d m :+2.g.c R @.R N F F N F O N M R R R R K K K K K K K K K K K K K K K K K K K K K K K K K K K K R R R K K l l K K K K K K K K K K K K K K K K K K K K K K K K K K K R R R R R R R K K K K K K K K l l l l K K l l l l l l R R R R R R R K K K K K K K K R M M N L G G F r ,.(.M P l R N F F F F F F N M R K R R R R R R R l K R M R K K R R R R R R R R R R R R R K K K K K K K K K K K K K K K K K K K K K K K K K K K K K K K K K K K K K K K K K K K K l l l l K K K K K K K l l l l l l l l @.@.@.@.Y Y Y @.l l K K l K Y E c 4.5+%.h d K R M F O O O F F N N M R R R R K K R R R R R R R K K K K K K K K K K K K K K K K K K K K K K K K K K K K K K K K K K K K K K K K R R R R R R R R K K K K K K K K K K K K K R R K K K K K l K K K K R R K K K K K K K l l l l l l R R R K K R R N N N O L N @.",
"E Y K M N F F F F N M R K K K K K K K K K K K K K K K K K K K K K K K K K K K K K K K K K K K K K K K K K K K K K K K K K K K K K K K K K K K K K K K K K K K K K K K K K K K K K l l l l l l l l l l @.@.@.@.l l l l l l @.Y Y Y @.@.l R K K l @.h d m :+2.g.c R @.R N F N N F F N M R K K R K K K K K K K K K K K K K K K K K K K K K K K K K K K K R R K K l l l K K K K K K K K K K K K K K K K K K K K K K K K K K K R R R R R R K K K K K K K K K l l l l K K K K K K K K R R R R R R R K K K K K K K l R R M N O L L N q :.<.R E l R N F F F F F N M M R K R R R R R R R K K K K K K K K K K K K K K R R R R R R K K K K K K K K K K K K K K K K K K K K K K K K K K K K K K K K K K K K K K K K K K K K K l l l l l l l l l l l l l l l l l @.@.@.@.Y Y Y Y Y @.l l K l K Y E c 4.5+d+h d K K M N O O F F N N M R R R R K K K R R R R R R R K K K K K K K K K K K K K K K K K K K K K K K K K K K K K K K K K K K K K K K K K K K K K K K K K K K K K K K K K K K K K K K K K K l l K K K R R R R K K K K K K K K K K K K K R R K K K R R M N F L L M Y ",
"E Y K M N N N F F M M R K K K K K K K K K K K K K K K K K K K K K K K K K K K K K K K K K K K K K K K K K K K K K K K K K K K K K K K K K K K K K K K K K K K K K K K K K K K K l @.@.@.@.@.@.@.l l @.@.@.@.@.@.@.@.@.@.@.Y Y Y Y @.@.l R K K l @.h d m :+2.g.c R @.R M F N N N F N M R K K K K K K K K K K K K K K K K K K K K K K K K K K K K K K K l l l K K K K K K K K K K K K K K K K K K K K K K K K K K K K K K K l l l l l l K K K K K K K K l l @.@.l K K R R R R R R K K K K K K K K K K K K K K l R R R M O O O M q Z '.K E l R N F F N F F N M R K K K K K K K K K K K l @.l K R R R R R R R R K K K K K K K K K K K K K K K K K K K K K K K K K K K K K K K K K K K K K K K K K K K K K K K R R R K K K K l l l l l l l Y Y Y Y Y Y Y @.@.@.Y Y Y Y Y Y @.@.l l l K Y E c 4.5+d+f d l K M N O O F F N M R R R R K K K K K K K K K K K K K K K K K K K K K K K K K K K K K K K K K K K K K K K K K K K K K K K K K K K K K K K K K K K K K K K K K K K K K K K K K K K K l l l l l K K K K K K K K K K K K R R R R R R R R K K K R R R M F G G M P ",
"E @.R M M N F N F N M R K K R R R R R R R R R R R R R K K K K K K K R R R R R R R R R R R R R R K K K K K K K K K K K K K K R R R R R R R R R R R R R R R R R R R R R R R R R R K K l l l l @.l K l l K l @.Y Y Y Y Y Y Y Y Y P P Y @.@.l K l @.@.h c a :+2.k.g E K R M F N N N F N M R K l l K R R R R R R K K K K K K K R R R R R R R R R R R R R K K K K K K K R R R R R R R R R R R R R R R R R R R R R R R R R R R R K K K K K K K K K K K l l l l l l l l l l l l l l l l K K K K K K K K K K l K K K K R M R M O L L M r ,.(.R h @.K M N F N F F N M R K K R R R R R R R R R K K R R R R R R R R R R R R R R R R R R R R R R R K l l l l l l R R R R R R R R R R R R R R R R R R R R R R R R R R R K K l l l l @.@.@.@.@.@.@.@.l l l @.@.@.@.@.@.@.@.Y Y Y P Y Y @.@.l K @.Y f d _.5+d+h e K K M F F F O F N M R R R R R K K K R R R R R R K l l l l l l K R R R R R R R R R R R R R R R R R R R R R R R R R R R R R R R R R R R R R R R R R R R R R R R R R R R R R R l l l l l l l l l l l l l K R R R R R R R R R R R R R K K K K K K K R N F O G F Y ",
"h @.R M M N F N N N M R K l K K K K K K K K K K K K K K K K K K K K K K K K K K K K K K K K K K R R R R R R R R R R R R R K K K K K K K K K K K K K K K K K K K K K K K K K K K K K l l l l @.l K @.l l K @.P P Y Y Y Y P Y P P P Y @.@.@.K l Y @.E c s :+2.f.f f K R N F N N N F M M R K l l l K K K K K K R R R R R R R K K K K K K K K K K K K K K K K K K K K K K K K K K K K K K K K K K K K K K K K K K K K K K K K K K K K K K K K K K K l l l l l l l l l l l l l l l l K K K K K K K K K l l l K K K M M R M O L O R b :.<.K f Y K M N F N F F N M M K K K K K K K K K K K K K K K K K K K K K K K K K K K K K K K K K K K K K K K K K K K K K K K K K K K K K K K K K K K K K K K K K K K K K K K K l l l @.@.@.@.@.@.@.@.@.l l l @.@.@.@.@.@.@.Y Y Y Y P Y Y @.@.l K Y Y g d [.3+d+h e K K M F F F O F N M R R R R K K K K K K K K K K K K K K K K K K K K K K K K K K K K K K K K K K K K K K K K K K K K K K K K K K K K K K K K K K K K K K K K K K K K K K K K l l l l l l l l l l l l l l K K K K K K K K K K K K K K K K K K K K R N F O G F Y ",
"h @.R M M N F N N N M R K l K K K K K K K K K K K K K K K K K K K K K K K K K K K K K K K K K K R R R R R R R R R R R R R K K K K K K K l l l l l l l K K K K K K K K K K K K K K K l l l l @.l l @.@.l l @.P P Y Y Y Y P P P P P P Y @.@.K l Y @.E c s :+2.f.f f K R M F N N N F M M R K l l l K K K K K K K R R R R R R l l l l l l l K K K K K K K K K K K K K K K K K K K K l l l l l l l K K K K K K K K K K K K K K K K K K K K K K K K K l l l l l l l l l l l l l l l l l l l l l l l K K l l l K K K M M R M O L O R q :.<.K f Y K M N F N F F N M M K K K K K K K K K l l l l l l l K K K K K K K K K K K K K l l l l l l l l l l l l l l l l l l l l l K K K K K K K K K K K K K K K K K K K K K K l l l @.@.@.@.@.@.@.@.@.l l @.@.@.Y Y @.@.Y Y Y Y P P Y Y @.@.l K Y Y g d [.3+O.f e K l R F F F O F N M R R R K K K K K K K K K K K l l l l l l l l K K K K K K K K K K K K K l l l l l l l K K K K K K K K K K K K K K K K K K K K K K K K K K K l l l l l l l l l l l l l l l l l l l l l K K K K K K K K K K K K K K K K K K K K R N F O G N Y ",
"h @.R M M N F N N N M R K l K K K K K K K K K K K K K K K K K K K K K K K K K K K K K K K K K K l l l l l l l l l l l l l K K K K K K K l l l l l l l K K K K K K K K K K K K K K K l l l l @.l l @.@.l l Y P P Y Y Y Y P P P E E P Y @.@.K l Y @.E c s :+2.f.f f K K M F N N N F M M R K l l l K K K K K K l l l l l l l l l l l l l l K K K K K K K K K K K K K K K K K K K K l l l l l l l K K K K K K K K K K K K K K K K K K K K K K K K K l l l l l l l l l l l l l l l l l l l l l l l K K l l l K K K M M R M O L L M r ,.{.R h Y K M N F N F F N M M K K K K K K K K K l l l l l l l K K K K K K K K K K K K K l l l l l l l Y Y Y Y Y Y Y l l l l l l l K K K K K K K K K K K K K K K K K K K K K K l l l @.@.@.@.@.@.@.@.@.@.@.@.@.Y Y Y Y Y Y Y Y P P P Y Y @.@.l K Y Y g d [.3+O.f d l l R N F F O F N M R R K K K K l l K K K K K K l Y Y Y Y Y Y l K K K K K K K K K K K K K l l l l l l l K K K K K K K K K K K K K K K K K K K K K K K K K K K l l l l l l l l l l l l l l l l l l l l l K K K K K K K K K K K K K K K K K K K K R N F O G N Y ",
"h @.R M M N F N N N M R K l l l l l l l l l l l l l l K K K K K K K K l l l l l l l l l l l l l K K K K K K K K K K K K K l l l l l l l l l l l l l l l l l l l l l l l l l l l K K l l l l @.l l Y Y @.@.Y P P Y Y Y Y P P E E E P P Y @.K l Y @.E c s :+2.f.f f K R M F N N N F M M R K l l l l l l l l l K K K K K K K l l l l l l l l l l l l l K K K K K K K K l l l l l l l l l l l l l l l l l l l l l l l l l l K K K K K K K K K K K K l l l l l l l l l l l l l l l l l l l l l l l K K l l l K K K M M R M O L O R q :.(.K f Y K M N F N F F N M M K K K l l l l l l l l l l l l l l l l l l l l l l l l l l l l l l l l l @.@.@.@.@.@.@.l l l l l l l l l l l l l l l l l l l l l l l l l l l K K l l l @.@.@.@.@.@.@.@.@.@.@.Y Y Y Y Y Y Y Y P P P P P Y Y @.@.l K Y Y g d [.3+O.g d l @.R N F F O F N M R K K K l l l l l l l l l l l @.@.@.@.@.@.l l l l l l l l l l l l l l l l l l l l l l l l l l l l l l l l l l l l l l l l l l l l l l l l l l l l l l l l l l l l l l l l l l l l l l l l l l l l l l l l l l K K K K K K K R N F O G N Y ",
"h @.R M M N F N N N M R K l l l l l l l l l l l l l l K K K K K K K l l l l l l l l l l l l l l K K K K K K K K K K K K K l l l l l l l l K K K K K K l l l l l l l l l l l l l l K l l l l @.@.@.Y Y @.@.Y P P Y Y Y Y P E E E E E P Y @.K l Y @.E c s :+2.f.f f K R N F N N N F M M R K l l l l l l l l l K K K K K K K K K K K K K K l l l l l l l K K K K K K l l l l l l l l K K K K K K l l l l l l l l l l l l l l K K K K K K K K K K K l l l l l l l l l l l l l l l l @.@.@.@.@.@.@.K K l l l K K K M M R M O L F K b Z <.K f Y K M N F N F F N M M K K l l l l l l l K K K K K K l l l l l l l l l l l l l l l K K K K K K K K K K K K K K K K K K K K l l l l l l l l l l l l l l l l l l l l K K l l l @.@.@.@.@.@.@.@.@.Y Y Y Y Y P P Y Y P P P E P P Y Y @.@.l K Y Y g d [.3+O.g c l @.K M F F O F N M R K K l l l @.@.l l l l l l l K K K K K K l l l l l l l l l l l l l l K K K K K K K l l l l l l l l l l l l l l l l l l l l l l l l l l l K K K K K K K l l l l l l l l l l l l l l l l l l l l l l l l l l l K K K K K K K R N F O G N Y ",
"h @.R M M N F N N N M R K l l l l l l l l l l l l l l K K K K K K K l l l l l l l l l l l l l l @.@.@.@.@.@.@.@.@.@.@.@.@.l l l l l l l K R R R R R R l l l l l l l l l l l l l l K l l l l @.@.@.Y Y @.@.Y P P Y Y Y Y P E E h h E P P @.K l Y @.E c s :+2.f.f f K R N F N N N F M M R K l l l l l l l l l @.@.@.@.@.@.@.R R R R R R R l l l l l l l K K K K K K l l l l l l l K R R R R R R l l l l l l l l l l l l l l K K K K K K K K K K K l l l l l l l l l l l l l l l l @.@.@.@.@.@.@.K K l l l K K K M M R M O L L M r ,.(.K f Y K M N F N F F N M M K K l l l l l l l R R R R R R K l l l l l l l l l l l l l K R R R R R R K l l l l l l R R R R R R R l l l l l l l l l l l l l l l l l l l l K K l l l @.@.@.@.@.@.@.@.@.Y Y Y Y P P P Y P P P E E E P Y Y @.@.l K Y Y g d [.3+O.g c @.@.K M F F O F N M R K l l l @.@.@.l l l l l l l l l l l l l l l l l l l l l l l l l l l R R R R R R R l l l l l l l l l l l l l l l l l l l l l l l l l l l K R R R R R R l l l l l l l l l l l l l l l l l l l l l l l l l l l K K K K K K K R N F O G N Y ",
"h @.l l N O N N M R K l l @.l l l l l l l @.@.@.@.@.@.@.@.@.@.@.@.@.@.@.@.@.@.@.@.@.@.@.@.@.@.l K K K K K K K l l l l l l K K K K K K K K K K K K K K K K K K K K K K K K K K K K K l l @.Y Y Y @.@.@.@.@.@.@.Y Y Y Y P P P P E E P Y Y @.K l @.@.E c m _+^.r.e E l K M N O O F N M R R K K l @.@.@.@.@.@.@.@.@.@.@.@.@.@.@.@.@.@.@.@.@.@.@.@.@.@.@.@.@.@.@.@.@.@.@.@.@.@.@.@.@.@.@.@.@.@.@.@.@.@.@.@.@.@.@.@.@.@.@.@.@.@.@.@.@.@.@.@.@.@.@.@.@.@.@.@.Y @.@.l l l l l l l l l l l l l l l l l K K K K K K K K K K R M N O F M a Z ` K h @.K R N F F F N M R K K K l l l l l l l @.@.@.@.@.@.@.l l l l l l l @.@.@.@.@.@.@.@.@.@.@.@.@.@.@.@.@.@.@.@.@.@.@.@.@.@.@.@.@.@.@.@.@.@.@.@.@.@.@.@.l K K K K K K K K K K K K K @.@.@.@.Y Y Y @.@.@.@.Y Y Y Y P P P P E E E P P Y @.l l P P e d [.3+%.q E Y @.K M F F F F M R R l l l l l l l @.@.@.@.@.@.@.@.@.@.@.@.@.@.@.@.@.@.@.@.@.@.@.@.@.@.@.@.@.@.@.@.@.@.@.@.@.@.@.@.@.@.@.@.@.@.@.@.@.@.@.@.@.@.@.@.@.@.@.@.@.@.@.@.@.@.@.@.@.@.@.@.@.@.@.@.@.@.@.@.@.@.l l l l l l l K K K K K K K K K K K K K K M N F O M h ",
"h Y @.l N O N N M R K l l @.l l l l l l l l l l l l l l l l l l l l l l l l l l l l l l l l l l K K K K K K l l l l l l l l K K K K K K K K K K K K K K K K K K K K K K K K K K K K l l @.Y Y Y Y Y Y Y Y Y Y Y Y Y P P P P P E E P Y Y @.K l Y @.E c a _+^.r.e E @.l R N F F F N M R R K l l l l l l l l l l l l l l l l l l l l l l l l l l l l l l l l l l l l l l l l l l l l l l l l l l l l l l l l l l l l l l l l l l l l l l l l l l l l l l @.@.@.@.l l l l l l l l l l l l l l l l K K K K K K K K K K R M N O F M s Z ` l h @.K R N N F F N M R K K K l l l l l l l l l l l l l l l l l l l l l l l l l l l l l l l l l l l l l l l l l l l l l l l l l l l l l l l l l l l l l l K K K K K K K K K K K K K @.@.@.@.Y Y Y @.@.@.Y Y Y Y Y Y P P P E E E P P Y @.l l P P e d [.3+T.q E P @.K M N F F N M R R l l l l l l l l l l l l l l l l l l l l l l l l l l l l l l l l l l l l l l l l l l l l l l l l l l l l l l l l l l l l l l l l l l l l l l l l l l l l l l l l l l @.@.@.@.@.@.@.l l l l l l l K K K K K K K K K K K K K l R N F L M h ",
"f Y @.l N F M N M R K l l @.l l l l l l l l l l l l l l l l l l l l l l l l l l l l l l l l l l l l l l l l l l l l l l l l l l l l l l l l l l l l l l l l l l l l l l l l l l l l l @.@.Y Y Y Y Y Y Y Y Y Y Y Y P P P P P E E E P P Y @.l @.Y Y E c a _+^.l.e E @.l R N F F N M R R R K l l l l l l l l l l l l l l l l l l l l l l l l l l l l l l l l l l l l l l l l l l l l l l l l l l l l l l l l l l l l l l l l l l l l l l l l l l l l l l l l @.@.@.@.@.l l l l l l l l l l l l l l l l l l l l l l K K M N F N M s a.1.l h Y l R M N F F N M K K l l l l l l l l l l l l l l l l l l l l l l l l l l l l l l l l l l l l l l l l l l l l l l l l l l l l l l l l l l l l l l l l l l l l l l l l l l l l l @.@.@.@.Y Y Y @.@.Y Y Y Y Y Y Y P P P E E E P P Y @.l l P P e d [.3+T.q E P @.K M N N N N M R K l l l l l l l l l l l l l l l l l l l l l l l l l l l l l l l l l l l l l l l l l l l l l l l l l l l l l l l l l l l l l l l l l l l l l l l l l l l l l l l l l l @.@.@.@.@.@.@.l l l l l l l l l l l l l l l l l l l l @.K M F L M E ",
"f Y @.l M F M N M R K l l @.l l l l l l K K K K K K K K K K K K K K K K K K K K K K K K K K K K l l l l l l l @.@.@.@.@.@.l l l l l l l l l l l l l l l l l l l l l l l l l l l l @.@.@.Y Y Y Y Y Y Y Y Y Y Y Y P P P E E E E h E E P P Y l @.Y Y E c s c+^.l.e h Y l R N F F N M R R K l l @.l K K K K K K K K K K K K K K K K K K K K K K K K K K K K K K K K K K K K K K K K K K K K K K K K K K K K K K K K K K K K K K K K K K K K K K K K K K l l l @.@.@.Y @.@.@.@.@.@.@.@.@.@.@.@.@.@.l l l l l l l l l l K M N F N R D a.1.@.f Y l R M N N N M R K l l l l l l l l l l K K K K K K K l l l l l l l K K K K K K K K K K K K K K K K K K K K K K K K K K K K K K K K K K K K K K K K K l l l l l l l l l l l l l @.@.@.@.Y Y Y Y Y Y Y P P P Y Y P P P E E E P P Y @.@.l P P e d [.3+T.q E P @.K M N N N N M R K l l l l l l l K K K K K K K K K K K K K K K K K K K K K K K K K K K K K K K K K K K K K K K K K K K K K K K K K K K K K K K K K K K K K K K K K K K K K K K K K K K @.@.@.@.@.@.@.@.@.@.@.@.@.@.l l l l l l l l l l l l l Y K R N O M E ",
"g P Y @.M F M N M R K l l @.l l l l l l l l l l l l l l l l l l l l l l l l l l l l l l l l l l l l l l l l l @.@.@.@.@.@.l l l l l l l l l l l l l l l l l l l l l l l l l l l l Y Y Y Y Y Y Y P P P P P P P P P P E E E E h h h E P P Y l @.P Y h n s _+!.q.e f Y l K M N N N M R K K l @.@.l l l l l l l l l l l l l l l l l l l l l l l l l l l l l l l l l l l l l l l l l l l l l l l l l l l l l l l l l l l l l l l l l l l l l l l l l l l l l l @.@.@.@.@.@.@.@.@.@.@.@.@.@.@.@.@.@.l l l l l l l l l l K R M F M R D a.1.@.f Y @.K M N N N M R K l l l l l l l l l l l l l l l l l l l l l l l l l l l l l l l l l l l l l l l l l l l l l l l l l l l l l l l l l l l l l l l l l l l l l l l l l l l l l l @.@.@.@.Y Y Y Y Y Y P P P P Y Y P P P E E E P P Y @.l l P P e d [.3+T.q E P @.K M M M N M R K l l l l l l l l l l l l l l l l l l l l l l l l l l l l l l l l l l l l l l l l l l l l l l l l l l l l l l l l l l l l l l l l l l l l l l l l l l l l l l l l l l l @.@.@.@.@.@.@.@.@.@.@.@.@.@.l l l l l l l l l l l l l Y l R N O M h ",
"g P Y @.M N R N M R K l l @.l l l l l l l l l l l l l l l l l l l l l l l l l l l l l l l l l l @.@.@.@.@.@.@.@.@.@.@.@.@.@.@.@.@.@.@.@.@.@.@.@.@.@.@.@.@.@.@.@.@.@.@.@.@.@.@.@.@.P Y Y Y Y Y Y P P P P P P P P P E E E E h h h h E E P P @.Y P P h n s _+!.f.g f Y @.K M N N M R K K l l @.@.l l l l l l l l l l l l l l l l l l l l l l l l l l l l l l l l l l l l l l l l l l l l l l l l l l l l l l l l l l l l l l l l l l l l l l l l l l l l @.@.@.@.l l @.@.@.@.@.@.@.@.@.@.@.@.@.@.@.@.@.@.@.@.@.@.@.l K R M N M R D M.{.@.f Y @.K R M N M M R K l @.@.l l l l l l l l l l l l l l l l l l l l l l l l l l l l l l l l l l l l l l l l l l l l l l l l l l l l l l l l l l l l l l @.@.@.@.@.@.@.@.@.@.@.@.@.@.@.@.@.Y Y Y Y Y P P P E P Y Y P P P E E E P P Y @.l l P P e d [.3+T.q E P @.K M M M M M R K l l l l l l l l l l l l l l l l l l l l l l l l l l l l l l l l l l l l l l l l l l l l l l l l l l l l l l l l l l l l l l l l l l l l l l l l l l l l l l l l l l l @.@.@.@.@.@.@.@.@.@.@.@.@.@.@.@.@.@.@.@.@.@.@.@.@.@.@.@.K R M F R f ",
"g P Y @.R N R N M R K l l @.l l l l l l @.@.@.@.@.@.@.@.@.@.@.@.@.@.@.@.@.@.@.@.@.@.@.@.@.@.@.@.@.@.@.@.@.@.@.Y Y Y Y Y Y @.@.@.@.@.@.@.@.@.@.@.@.@.@.@.@.@.@.@.@.@.@.@.@.@.@.@.Y P P Y Y Y Y P P P P P P P P P P E E E h h h h h h E P P @.Y P P f n s _+-.f.e h P l K M N N M R K K l l @.@.@.@.@.@.@.@.@.@.@.@.@.@.@.@.@.@.@.@.@.@.@.@.@.@.@.@.@.@.@.@.@.@.@.@.@.@.@.@.@.@.@.@.@.@.@.@.@.@.@.@.@.@.@.@.@.@.@.@.@.@.@.@.@.@.@.@.@.@.@.@.@.@.@.@.@.@.Y @.@.@.l l @.Y Y Y Y Y Y Y Y Y Y Y Y Y @.@.@.@.@.@.@.@.@.l l R M N M R D a.{.@.f P @.K R M M M M K l l @.@.l l l l l l l @.@.@.@.@.@.@.l l l l l l @.@.@.@.@.@.@.@.@.@.@.@.@.@.@.@.@.@.@.@.@.@.@.@.@.@.@.@.@.@.@.@.@.@.@.@.@.@.@.@.@.@.@.@.@.@.@.@.@.@.@.@.@.@.@.@.@.@.Y Y Y Y Y P P P E E E Y P P P P E E E P P Y @.l l P P e d [.5+%.q E P @.K M M M M M R K l l l l l l l l @.@.@.@.@.@.@.@.@.@.@.@.@.@.@.@.@.@.@.@.@.@.@.@.@.@.@.@.@.@.@.@.@.@.@.@.@.@.@.@.@.@.@.@.@.@.@.@.@.@.@.@.@.@.@.@.@.@.@.@.@.@.@.@.@.@.@.@.@.@.@.@.@.@.@.@.@.@.@.@.@.@.Y Y Y Y Y Y Y @.@.@.@.@.@.@.@.@.@.@.@.@.@.K R M F K g ",
"g Y @.@.K N M N M R K l l l @.l K K l l @.@.@.@.@.@.@.@.@.@.@.@.@.@.@.@.@.@.@.@.@.Y Y Y Y Y Y @.l l l l l l l l l l l l l @.@.@.@.@.@.@.@.@.@.@.@.@.@.@.@.@.@.@.@.@.@.@.@.Y Y Y Y Y Y Y Y P P P P P P P P P P P P E E E E h h h h h h h E @.@.E E f n s :+!.f.n E E l K R M N N M R K l @.@.@.@.l l K K l @.@.l l l l l l Y Y Y Y Y Y Y @.@.@.@.@.@.@.l l l l l l l l l @.@.@.@.@.@.@.@.@.@.@.@.@.@.@.@.@.@.@.@.@.@.@.@.@.Y Y Y Y Y Y @.l l l l l l @.l l l l @.Y @.@.@.@.@.@.@.@.@.@.@.@.@.@.@.@.@.@.@.@.@.@.l K l l R M N K m :.{.l e P @.R M M M N R l l l @.P @.l l K l l @.l l l l l l @.@.@.@.@.@.@.@.@.@.@.@.@.@.@.l l l l l l l l l l l l l l l l l l l @.@.@.@.@.@.@.@.@.@.@.@.@.@.@.@.@.@.@.@.@.l l l l @.@.@.@.Y Y Y P P P E E E E E E E E E E h h h h E E E P Y @.Y E P c n [.5+%.e e E @.l K M M M M R K l l l l l l l l @.@.@.@.@.@.@.l l l l l l @.@.@.@.@.@.@.@.@.@.@.@.@.@.l l l l l l l @.@.@.@.@.@.@.@.@.@.@.@.@.@.@.@.@.@.@.@.@.@.@.@.@.@.@.@.l l l l l l l l l l l l l @.@.@.Y Y Y Y Y Y Y Y Y Y Y @.@.@.@.@.@.Y Y Y Y @.@.@.@.@.K N L M g ",
"g Y @.@.K M R N M K l l l l @.l l K l @.@.@.@.@.@.@.@.@.@.@.@.@.@.@.@.@.@.@.@.@.@.@.@.@.@.@.@.l l l l l l l l l l l l l l @.@.@.@.@.@.@.@.@.@.@.@.@.@.@.@.@.@.@.@.@.@.@.@.Y Y Y Y Y Y Y Y P P P P P P P P P P P P E E E E h h h h h h h E @.@.E E f n s :+!.f.n E E l K R M N N M K l l @.@.@.@.@.l K l l @.K K K K K K K @.@.@.@.@.@.@.@.@.@.@.@.@.l K K K K K K l l l @.@.@.@.@.@.@.@.@.@.@.@.@.@.@.@.@.@.@.@.@.@.@.@.@.@.@.@.@.@.@.l l l l l l l @.@.l l @.@.Y @.@.@.@.@.@.@.@.@.@.@.@.@.@.@.@.@.@.@.@.@.Y @.@.@.@.K M N K m :.{.l e P @.K M M M M R l l l @.P @.l l K l l @.K K K K K K l @.@.@.@.@.@.@.@.@.@.@.@.@.l K K K K K K l l l l l l l K K K K K K K @.@.@.@.@.@.@.@.@.@.@.@.@.@.@.@.@.@.@.@.l l l @.@.@.@.Y Y Y Y P P P E E E E E E E E E E h h h h E E E P P Y Y E P c n [.5+%.e e E @.l K M M M M R K l l l l l l l l @.@.@.@.@.@.@.l l l l l l @.@.@.@.@.@.@.@.@.@.@.@.@.@.l l l l l l l @.@.@.@.@.@.@.@.@.@.@.@.@.@.@.@.@.@.@.@.@.@.@.@.@.@.@.K K K K K K K l l l l l l l @.@.@.Y Y Y Y Y Y Y Y Y Y Y @.@.@.@.@.@.Y Y Y Y @.@.@.Y l R M F R h ",
"g P @.Y K M R N M K l @.@.@.@.l l l l @.@.@.@.@.@.@.@.@.@.@.@.@.@.@.@.@.@.@.@.@.@.l l l l l l l @.@.@.@.@.@.@.@.@.@.@.@.@.@.@.@.@.@.@.@.@.@.@.@.@.@.@.@.@.@.@.@.@.@.@.@.@.Y Y Y Y Y Y Y P P P E E E E E E E P P P E E E E h h h h h h h E @.@.E E f n s :+!.f.n E E @.K R M M M R K l @.Y @.@.@.@.l l l @.@.l l l l l l l l l l l l l l @.@.@.@.@.@.@.l l l l l l l l l @.@.@.@.@.@.@.@.@.@.@.@.@.@.@.@.@.@.@.@.@.@.@.@.@.l l l l l l l @.@.@.@.@.@.@.@.@.@.@.@.Y Y Y Y Y Y Y Y @.@.@.@.@.@.@.@.@.@.@.@.@.@.Y @.@.Y @.K R N K m :.{.l e P @.K R M M R K l l l @.P @.@.l l l @.@.l l l l l l l @.@.@.@.@.@.@.@.@.@.@.@.@.l l l l l l l l @.@.@.@.@.@.l l l l l l l @.@.@.@.@.@.@.@.@.@.@.@.@.@.@.@.@.@.@.@.@.@.@.@.@.Y Y Y Y Y P P P E E E E E E E E E E E h h h h E E h E P Y Y E P c n [.5+%.e e E @.l K R M M M K K l @.@.@.@.@.@.@.@.@.@.@.@.@.@.@.@.@.@.@.@.@.@.@.@.@.@.@.@.@.@.@.@.@.@.@.@.@.@.@.@.@.@.@.@.@.@.@.@.@.@.@.@.@.@.@.@.@.@.@.@.@.@.@.@.@.@.@.@.l l l l l l l @.@.@.@.@.@.@.@.@.@.Y Y Y Y Y Y Y Y Y Y Y @.@.@.@.@.@.Y Y Y Y @.@.@.Y K R R M R Y ",
"e P Y Y l M R M R K l @.@.@.@.@.l l @.@.@.@.@.@.@.@.@.@.@.@.@.@.@.@.@.@.@.@.@.@.@.l l l l l l l @.@.@.@.@.@.@.@.@.@.@.@.@.@.Y Y Y Y Y Y Y Y Y Y Y Y Y @.@.@.@.@.@.@.@.@.@.Y Y Y Y Y P P P E E E E E E E E E P P P E E E E h h h h h h h E @.@.E E f n s :+!.f.n E E @.l R R M M R K l @.Y Y Y Y @.@.l l @.@.Y Y Y Y Y Y Y l l l l l l l Y Y Y Y Y Y Y Y Y Y Y Y Y @.l l @.@.@.@.@.Y Y Y Y Y Y Y Y Y Y Y Y Y Y Y Y Y Y Y @.l l l l l l l @.@.@.@.@.@.@.@.@.@.@.Y P Y Y Y Y Y Y Y Y Y Y Y Y Y Y Y Y Y Y Y Y Y @.l l @.l R M N K m :.{.l e E Y K R R R R K l l l @.Y Y @.l l l @.Y Y Y Y Y Y Y Y @.@.@.@.@.@.@.Y Y Y Y Y Y Y Y Y Y Y Y Y @.@.@.@.@.@.@.Y Y Y Y Y Y Y Y Y Y Y Y Y Y Y Y Y Y Y Y @.@.@.@.@.@.@.@.@.@.Y Y Y Y Y P P P P E E E E E E E E E E E E h h h h h h h E P Y Y E P c n [.5+%.e e E @.l K R R R R K l @.@.@.@.@.@.@.@.Y Y Y Y Y Y @.@.@.@.@.@.@.@.Y Y Y Y Y Y @.@.@.@.@.@.@.@.@.@.@.@.@.@.Y Y Y Y Y Y Y Y Y Y Y Y Y Y Y Y Y Y Y Y Y Y Y Y Y Y Y Y Y Y Y Y Y Y @.@.@.@.@.@.@.@.@.@.Y Y Y Y Y Y Y Y Y Y Y Y Y Y Y Y Y Y Y Y Y @.@.@.P K M R R R Y ",
"e P Y Y l R K M R l @.@.@.@.Y @.@.@.@.Y @.@.@.@.@.@.@.@.@.@.@.@.@.@.@.@.@.@.@.@.@.l l l l l l l @.@.@.@.@.@.@.@.@.@.@.@.@.Y Y Y Y Y Y Y Y Y Y Y Y Y Y @.@.@.@.@.@.@.@.@.@.Y Y Y Y P P P E E E E E E E E E E P P P E E E E h h h h h h h E @.@.E E f n s :+!.f.n E E @.l K R R M R l @.Y Y Y Y Y Y @.@.@.@.Y @.l l l l l l l l l l l l l Y Y Y Y Y Y @.l l l l l l l l l @.@.@.@.Y Y Y Y Y Y Y Y Y Y Y Y Y Y Y Y Y Y Y Y Y l l l l l l l @.@.@.@.@.@.Y Y @.@.@.Y P Y @.@.@.@.@.@.Y Y Y Y Y Y Y Y Y Y Y Y Y Y @.K K l K M N N K m :.{.l e E Y l R R R R l @.l l l Y Y Y @.@.@.Y Y l l l l l l l @.@.@.@.@.@.@.Y Y Y Y Y Y @.l l l l l l @.@.@.@.@.@.@.l l l l l l @.Y Y Y Y Y Y Y Y Y Y Y Y Y Y @.@.@.@.@.@.@.@.Y Y Y Y P P P P P E E E E E E E E E E E E E h h h h h h h h E P Y E P c n [.5+%.e e E @.l K R R R R K l @.@.@.@.@.@.@.@.Y Y Y Y Y Y Y @.@.@.@.@.@.Y Y Y Y Y Y Y @.@.@.@.@.@.@.@.@.@.@.@.@.@.Y Y Y Y Y Y Y Y Y Y Y Y Y Y Y Y Y Y Y Y Y Y Y Y Y Y Y @.l l l l l l @.@.@.@.@.@.@.@.@.@.Y Y Y Y Y Y Y Y Y Y Y Y Y Y Y Y Y Y Y Y Y @.@.@.Y K R R M R P ",
"e E Y P l R K M R l @.@.@.@.Y @.@.@.@.Y @.@.@.@.@.@.@.@.@.@.@.@.@.@.@.@.@.@.@.@.@.@.@.@.@.@.@.@.@.@.@.@.@.@.@.@.@.@.@.@.@.Y Y Y Y Y Y Y Y Y Y Y Y Y Y @.@.@.@.@.@.@.@.@.@.Y Y Y Y P P E E E E E E E E E E E P P P E E E E h h h h h h h E @.@.E E f n s :+!.f.n E E Y l K R R R K l @.Y Y P Y Y Y @.@.@.Y Y @.@.@.@.@.@.@.@.@.@.@.@.@.@.Y Y Y Y Y Y Y @.@.@.@.@.@.@.l l @.@.@.@.Y Y Y Y Y Y Y Y Y Y Y Y Y Y Y Y Y Y Y Y Y @.@.@.@.@.@.@.@.@.@.@.@.@.Y Y Y @.Y Y E Y @.@.@.@.@.@.Y Y Y Y Y Y Y Y Y Y Y Y Y Y @.l l @.l K M N K m :.{.l d h Y l K R K K l @.l K l @.Y Y @.@.@.Y Y @.@.@.@.@.@.@.@.@.@.@.@.@.@.Y Y Y Y Y Y @.@.@.@.@.@.@.@.@.@.@.@.@.@.@.@.@.@.@.@.@.Y Y Y Y Y Y Y Y Y Y Y Y Y Y @.@.@.@.@.@.Y Y Y Y Y P P P P P E E E E E E E E E E E E E E h h h h h f h h E P Y E P c n [.5+%.e e E @.l K K R R R l @.@.@.@.@.@.@.@.@.Y Y Y Y Y Y Y @.@.@.@.@.@.Y Y Y Y Y Y Y @.@.@.@.@.@.@.@.@.@.@.@.@.@.Y Y Y Y Y Y Y Y Y Y Y Y Y Y Y Y Y Y Y Y Y Y Y Y Y Y Y @.@.@.@.@.@.@.@.@.@.@.@.@.@.@.@.@.Y Y Y Y Y Y Y Y Y Y Y Y Y Y Y Y Y Y Y Y Y @.@.@.Y l K M O M f ",
"e h P Y l R K R K l @.Y Y Y Y Y @.@.@.Y Y @.@.@.@.@.@.@.@.@.@.@.@.@.@.@.@.@.@.@.@.Y Y Y Y Y Y Y Y Y Y Y Y Y Y Y Y Y Y Y Y Y Y Y Y Y Y Y Y Y Y Y Y Y Y @.@.@.@.@.@.@.@.@.@.Y Y Y P P P E E E E h h h h h h h E E E E E E E h h h h h h h E @.Y E E g n s :+!.f.n h E Y @.l R R R K l @.Y P P Y Y Y @.@.@.Y Y Y Y Y Y Y Y Y Y Y Y Y Y Y Y Y Y Y Y Y Y Y Y Y Y Y Y Y @.@.@.@.@.@.@.Y Y Y Y Y Y Y Y Y Y Y Y Y Y Y Y Y Y Y Y Y Y Y Y Y Y Y Y Y Y Y Y Y Y Y Y Y Y Y P P Y @.@.@.@.@.@.Y Y Y Y Y Y Y Y Y Y Y Y Y Y P Y Y Y @.K R M R m :.{.@.d h Y l K R K K l @.@.l l @.Y Y @.@.@.Y Y Y Y Y Y Y Y Y @.@.@.@.@.@.Y Y Y Y Y Y Y Y Y Y Y Y Y Y Y Y Y Y Y Y Y Y Y Y Y Y Y Y Y Y Y Y Y Y Y Y Y Y Y Y Y Y @.@.@.@.@.@.Y Y Y Y P P P P P E E E E h E E E E E E E E E E h h h h f f f h E P P E h d n _.5+%.c e E Y l K K R R K l @.@.Y Y Y Y Y Y Y Y Y Y Y Y Y Y Y Y Y Y Y Y Y Y Y Y Y Y Y @.@.@.@.@.@.@.Y Y Y Y Y Y Y Y Y Y Y Y Y Y Y Y Y Y Y Y Y Y Y Y Y Y Y Y Y Y Y Y Y Y Y Y Y Y Y Y Y Y Y Y Y Y Y Y @.@.Y Y Y P Y Y Y Y Y Y Y Y Y Y Y Y Y Y Y Y Y Y @.@.@.@.@.K M O R g ",
"e h P @.K K K K l l @.Y Y Y Y Y Y Y Y Y Y Y Y Y Y Y Y Y Y Y Y Y Y Y Y Y Y Y Y Y Y @.@.@.@.@.@.Y Y Y Y Y Y Y Y Y Y Y Y Y Y Y Y Y Y Y Y Y Y Y Y Y Y Y Y Y @.@.@.@.@.@.Y Y Y Y P P P E E E E E E E E E E h h h h h h h h h h f f f f f f f f Y P h h g n s ]+^.i.c f P P @.l K K K K @.@.Y Y Y Y Y Y Y Y Y Y Y Y @.@.@.@.@.@.Y Y Y Y Y Y Y Y Y Y Y Y Y Y Y Y Y Y Y Y Y Y Y Y Y Y Y Y Y Y Y Y Y Y Y Y Y Y Y Y Y Y Y Y Y Y Y Y Y Y Y Y Y Y Y Y Y Y Y Y Y Y Y Y Y Y P P Y Y Y Y Y Y Y Y Y Y Y Y Y Y Y Y Y Y Y Y Y P P P Y @.K K l R a Z 1.@.e h P @.l K l K K l @.Y Y @.Y Y Y Y Y Y Y Y Y Y Y Y Y Y Y Y Y Y Y Y Y Y Y Y Y Y Y Y Y Y Y Y Y Y Y Y Y Y Y Y Y Y Y Y Y Y Y Y Y Y Y Y Y Y Y Y Y Y Y Y Y Y @.@.@.@.@.@.Y Y Y P P E E E E E E E E E E E E h h h h h h h h h h h f f f f h E E E g e q ].2+%.q d E h @.l K K K K l @.Y Y Y Y Y Y Y Y Y Y Y Y Y Y Y Y Y Y Y Y Y Y Y Y Y Y Y Y Y Y Y Y Y Y Y Y Y Y Y Y Y Y Y Y Y Y Y Y Y Y Y Y Y Y Y Y Y Y Y Y Y Y Y Y Y Y Y Y Y Y Y Y Y Y Y Y Y Y Y Y Y Y Y Y Y P P P E P Y Y Y Y Y Y Y Y Y Y Y Y Y Y Y Y @.@.@.@.@.l K K M K h ",
"e h P @.K K K K l l @.Y Y Y Y Y Y Y Y Y Y Y Y Y Y Y Y Y Y Y Y Y Y Y Y Y Y Y Y Y Y Y Y Y Y Y Y Y Y Y Y Y Y Y Y Y Y Y Y Y Y Y Y Y Y Y Y Y Y Y Y Y Y Y Y Y Y Y Y Y Y Y Y Y Y Y P P P E E E E E E E E E E h h h h h h h h h h f f f f f f f f Y P h h g n s ]+^.i.c f P P @.l K K K K @.@.Y Y Y Y Y Y Y Y Y Y Y Y Y Y Y Y Y Y Y Y Y Y Y Y Y Y Y Y Y Y Y Y Y Y Y Y Y Y Y Y Y Y Y Y Y Y Y Y Y Y Y Y Y Y Y Y Y Y Y Y Y Y Y Y Y Y Y Y Y Y Y Y Y Y Y Y Y Y Y Y Y Y Y Y P P P P P P P P P P P P P P P P P P P P P P P P P P Y @.K K K R a a.{.@.e h P @.l K l K K l @.Y Y @.Y Y Y Y Y Y Y Y Y Y Y Y Y Y Y Y Y Y Y Y Y Y Y Y Y Y Y Y Y Y Y Y Y Y Y Y Y Y Y Y Y Y Y Y Y Y Y Y Y Y Y Y Y Y Y Y Y Y Y Y Y Y Y Y Y Y Y Y Y Y Y P P E E E E E E E E E E E E h h h h h h h h h h h f f f f h E E E g e q ].2+%.q d E h @.l K K K K @.@.Y Y Y Y Y Y Y Y Y Y Y Y Y Y Y Y Y Y Y Y Y Y Y Y Y Y Y Y Y Y Y Y Y Y Y Y Y Y Y Y Y Y Y Y Y Y Y Y Y Y Y Y Y Y Y Y Y Y Y Y Y Y Y Y Y Y Y Y Y Y Y Y Y Y Y Y Y Y Y Y Y Y Y Y Y P P P E E P P P P P P P P P P P P P Y Y Y Y @.@.@.@.l K K M K h ",
"e h P @.K K K K l l @.Y Y Y Y Y Y Y Y Y Y Y Y Y Y Y Y Y Y Y Y Y Y Y Y Y Y Y Y Y Y Y Y Y Y Y Y Y Y Y Y Y Y Y Y Y Y Y Y Y Y Y Y Y Y Y Y Y Y Y Y Y Y Y Y Y Y Y Y Y Y Y Y Y Y Y P P P E E E E E E E E E E h h h h h h h h h h f f f f f f f f Y P h h g n s ]+^.i.c f P P @.l K K K K @.@.Y Y Y Y Y Y Y Y Y Y Y Y Y Y Y Y Y Y Y Y Y Y Y Y Y Y Y Y Y Y Y Y Y Y Y Y Y Y Y Y Y Y Y Y Y Y Y Y Y Y Y Y Y Y Y Y Y Y Y Y Y Y Y Y Y Y Y Y Y Y Y Y Y Y Y Y Y Y Y Y Y Y Y Y P P P P P P P P P P P P P P P P P P P P P P P P P P Y @.K R K K s M.{.l g h P @.l K l K K l @.Y Y @.Y Y Y Y Y Y Y Y Y Y Y Y Y Y Y Y Y Y Y Y Y Y Y Y Y Y Y Y Y Y Y Y Y Y Y Y Y Y Y Y Y Y Y Y Y Y Y Y Y Y Y Y Y Y Y Y Y Y Y Y Y Y Y Y Y Y Y Y Y Y Y P P E E E E E E E E E E E E h h h h h h h h h h h f f f f h E E E g e q ].2+%.q d E h @.l K K K K @.@.Y Y Y Y Y Y Y Y Y Y Y Y Y Y Y Y Y Y Y Y Y Y Y Y Y Y Y Y Y Y Y Y Y Y Y Y Y Y Y Y Y Y Y Y Y Y Y Y Y Y Y Y Y Y Y Y Y Y Y Y Y Y Y Y Y Y Y Y Y Y Y Y Y Y Y Y Y Y Y Y Y Y Y Y Y P P P E E P P P P P P P P P P P P P P P Y Y Y Y @.@.l K K M K h ",
"e h P @.K K K K l l @.Y Y Y Y Y Y Y Y Y Y Y Y Y Y Y Y Y Y Y Y Y Y Y Y Y Y Y Y Y Y Y Y Y Y Y Y Y Y Y Y Y Y Y Y Y Y Y Y Y Y Y Y Y Y Y Y Y Y Y Y Y Y Y Y Y Y Y Y Y Y Y Y Y Y Y P P P E E E E E E E E E E h h h h h h h h h h f f f f f f f f Y P h h g n s ]+^.i.c f P P @.l K K K K @.@.Y Y Y Y Y Y Y Y Y Y Y Y Y Y Y Y Y Y Y Y Y Y Y Y Y Y Y Y Y Y Y Y Y Y Y Y Y Y Y Y Y Y Y Y Y Y Y Y Y Y Y Y Y Y Y Y Y Y Y Y Y Y Y Y Y Y Y Y Y Y Y Y Y Y Y Y Y Y Y Y Y Y Y Y P P P P P P P P P P P P P P P P P P P P P P P P P P Y @.K R K K D M.{.l g h P @.l K l K K l @.Y Y @.Y Y Y Y Y Y Y Y Y Y Y Y Y Y Y Y Y Y Y Y Y Y Y Y Y Y Y Y Y Y Y Y Y Y Y Y Y Y Y Y Y Y Y Y Y Y Y Y Y Y Y Y Y Y Y Y Y Y Y Y Y Y Y Y Y Y Y Y Y Y Y P P E E E E E E E E E E E E h h h h h h h h h h h f f f f h E E E g e q ].2+%.q d E h @.l K K K K @.@.Y Y Y Y Y Y Y Y Y Y Y Y Y Y Y Y Y Y Y Y Y Y Y Y Y Y Y Y Y Y Y Y Y Y Y Y Y Y Y Y Y Y Y Y Y Y Y Y Y Y Y Y Y Y Y Y Y Y Y Y Y Y Y Y Y Y Y Y Y Y Y Y Y Y Y Y Y Y Y Y Y Y Y Y Y P P P E E P P P P P P P P P P P P P P P P P Y Y Y @.l K K M K h ",
"e h P @.K K K K l l @.Y Y Y Y Y Y Y Y Y Y Y Y Y Y Y Y Y Y Y Y Y Y Y Y Y Y Y Y Y Y P P P P P P P Y Y Y Y Y Y Y Y Y Y Y Y Y Y Y Y Y Y Y Y Y Y Y Y Y Y Y P P P P P P P Y Y Y Y P P P E E E E E E E E E E h h h h h h h h h h f f f f f f f f Y P h h g n s ]+^.i.c f P P @.l K K K K @.@.Y Y Y Y Y Y Y Y Y Y Y P P P P P P P Y Y Y Y Y Y Y Y Y Y Y Y Y Y Y Y Y Y Y Y Y Y Y Y Y Y Y Y Y Y Y Y Y Y Y Y Y Y Y Y Y Y Y Y Y Y Y Y Y Y Y Y Y Y Y Y Y Y Y Y Y Y Y Y Y Y P P P P P P P P P P P P P P P P P P P P P P P P P P Y @.K K K R s a.{.@.e h P @.l K l K K l @.Y Y @.Y Y Y Y Y Y Y Y Y Y Y Y Y Y Y Y Y Y Y Y Y Y Y Y Y Y Y Y Y Y Y Y Y Y Y Y Y Y Y Y Y Y Y Y Y Y Y Y Y Y Y Y Y Y Y Y Y Y Y Y Y Y P P P P P P Y Y Y P P E E E E E E E E E E E E h h h h h h h h h h h f f f f h E E E g e q ].2+%.q d E h @.l K K K K @.@.Y Y Y Y Y Y Y Y Y Y Y Y Y Y Y Y Y Y Y Y Y Y Y Y Y Y Y Y Y Y Y Y Y Y Y Y Y Y Y Y Y Y Y Y Y Y Y Y Y Y Y Y Y Y Y Y Y Y Y Y Y Y Y Y Y Y Y Y Y Y Y Y Y Y Y Y Y Y Y Y Y Y Y Y Y P P P E E P P P P P P P P P P P P P P P P P P Y Y @.l K K M K h ",
"e h P @.K K K K l l @.Y Y Y Y Y Y Y Y Y Y Y Y Y Y Y Y Y Y Y Y Y Y Y Y Y Y Y Y Y Y P P P P P P P Y Y Y Y Y Y Y Y Y Y Y Y Y Y Y Y Y Y Y Y Y Y Y Y Y Y Y P P P P P P P Y Y Y Y P P P E E E E E E E E E E h h h h h h h h h h f f f f f f f f Y P h h g n s ]+^.i.c f P P @.l K K K K @.@.Y Y Y Y Y Y Y Y Y Y Y P P P P P P P Y Y Y Y Y Y Y Y Y Y Y Y Y Y Y Y Y Y Y Y Y Y Y Y Y Y Y Y Y Y Y Y Y Y Y Y Y Y Y Y Y Y Y Y Y Y Y Y Y Y Y Y Y Y Y Y Y Y Y Y Y Y Y Y Y Y P P E E E E E E E E E E E E E E E E E E E E E P P P Y @.K K l R a Z 1.@.e h P @.l K l K K l @.Y Y @.Y Y Y Y Y Y Y Y Y Y Y Y Y Y Y Y Y Y Y Y Y Y Y Y Y Y Y Y Y Y Y Y Y Y Y Y Y Y Y Y Y Y Y Y Y Y Y Y Y Y Y Y Y Y Y Y Y Y Y Y Y Y P P P P P P Y Y Y P P E E E E E E E E E E E E h h h h h h h h h h h f f f f h E E E g e q ].2+%.q d E h @.l K K K K @.@.Y Y Y Y Y Y Y Y Y Y Y Y Y Y Y Y Y Y Y Y Y Y Y Y Y Y Y Y Y Y Y Y Y Y Y Y Y Y Y Y Y Y Y Y Y Y Y Y Y Y Y Y Y Y Y Y Y Y Y Y Y Y Y Y Y Y Y Y Y Y Y Y Y Y Y Y Y Y Y Y Y Y Y Y Y P P P E E E E E E E E E E E E E E E E E P P P P Y @.l K K M K h ",
"e f E Y l l l l l @.@.Y Y Y Y Y Y Y Y Y Y Y Y Y Y Y Y Y Y Y Y Y Y Y Y Y Y Y Y Y Y P P P P P P Y Y Y Y Y P P P Y Y Y Y Y Y Y Y Y Y Y Y Y Y Y Y Y Y Y Y P P P P P P P Y Y Y Y P P P E E E E E E E E E E h h h h h h h h h h f f f f f f g f P P h f e r D ]+^.k.n f P P @.l l K K l @.@.Y Y P P Y Y Y Y Y Y Y Y Y P P P P P Y Y Y Y Y Y Y Y Y Y Y Y Y Y Y Y Y Y Y Y Y Y Y Y Y Y Y Y Y Y Y Y Y Y Y Y Y Y Y Y Y Y Y Y Y Y Y Y Y Y Y Y Y Y Y Y Y Y P P P P P P Y Y P P E E E E E E E E E E E E E E E E E E E E E P Y Y Y @.l K @.R b a.{.@.e h Y l l l l l l @.Y Y P P Y Y Y Y Y Y Y Y Y Y Y Y Y Y Y Y Y Y Y Y Y Y Y Y Y Y Y Y Y Y Y Y Y Y P Y Y Y Y Y P P P P Y Y Y Y Y Y Y Y Y Y Y Y Y Y Y Y Y P P P P P P P P Y P P E E E E E E E E E E E E E h h h h f f h h h h h f f f f h P E h f d r _.5+d+n d h h Y @.l K l l @.@.@.Y Y Y Y Y Y Y Y Y Y Y Y Y Y Y Y P P P Y Y Y Y Y Y Y Y Y Y Y Y Y Y Y Y Y Y Y Y Y Y Y Y Y Y Y Y Y Y Y Y Y Y Y Y Y Y Y Y Y Y Y Y Y Y Y Y Y Y Y Y Y Y Y Y Y Y Y Y Y Y Y Y P P P P E E E E E E E E E E E E E E E E E P P P P Y Y l K l R l E ",
"d g h Y @.@.@.l @.Y Y Y Y Y P P P P P P P P P P P P P P P P P P P P Y Y Y Y Y Y Y P P P P P P Y Y P P P P E P Y Y Y Y P P P P P P P P P P P P P P P P P P P P P P P P P P P P P P E E E h h h h h h h h h h E E E h h h h f f h h f g g f h E h f d r D (+2.f.n g E P @.l l l l l @.@.Y P P E Y Y Y Y Y Y Y Y Y Y Y P P P P P P P P P P Y Y Y Y Y Y Y Y Y Y Y P P P P P P P P P P P P P P P P P P P P P P P Y Y Y Y Y Y Y Y Y Y Y Y Y Y P P P P P P P P P P P P P E E E E E E E E E E E E E E E E E E E E E P Y @.Y Y l K @.l m M.{.@.d h @.l l l K @.@.@.Y P P E Y Y Y Y Y Y Y P Y Y Y Y P P P P P P P P Y Y Y Y Y Y Y Y Y Y Y Y Y Y E P Y Y Y P E P P P P P P P P P P P P P P P P P P P P P P P P P P P P P P E E E E E E E E E E E h h h h h h h f f f f f f f f g g f h P E f h n r [.5+` c c f h P @.l l l @.@.@.@.@.@.Y P P P Y P P P P P P Y Y P P E E P P P P P P P P Y Y Y Y Y Y Y Y Y Y Y Y Y Y P P P P P P P Y Y Y Y Y Y Y Y Y Y Y Y Y Y Y Y Y Y Y Y Y Y Y Y Y Y Y P P P P P P P P P P P P P P E E E E E E E E E E E E E E E P P P P Y Y l K K M K h ",
"d g E Y @.@.@.l @.@.@.Y Y Y P P P P P P P P P P P P P P P P P P P P Y Y Y Y Y Y Y P P P P P P P Y P P P P E P Y Y Y Y P P P E E E E E E E E E E E E E E E E E E E E P P P P P P P E E E E h h h h h h h h h h h h h f f f g f f f f f f f h E h f d r D (+2.f.n g E P @.l l l l l @.@.Y Y P P P P P P P P P P P P Y Y Y Y P P P P P P P Y Y Y Y Y Y Y P P Y Y Y Y P P P P P P P P P P P P P P P P P P P P P P P P P P P P P P P P P P P P P P P P P P Y Y P P P P E E E P P P Y P P P P P P P E E E E E E E P @.@.Y Y l M l Y D a.O.@.c h @.l l l K @.@.@.Y P P P P P P P P P P P P Y Y Y P P P P P P P P P P P P P P P P P P Y Y Y @.Y P P E P P P P P P P P P P P P P P P P P P P P P P P P P P P P P P P P P P E E E P P P P P P P h h h h h h h f f f f f f f f f f f h E E f h n r [.5+O.c c f E P @.l l l @.@.@.@.@.@.Y P P P Y P P P P P P P P Y Y P P E P P P P P P P P P P P P P P Y Y Y Y Y Y Y P P P P P P P P P P P P P P P P P P P P P P P P P P P P P P P P P P P P P P P P P E E E E E E E E E E E E E E P P P P P P E h h h E E E @.Y Y K F K d ",
"d f E Y l l l @.@.l @.@.Y Y Y Y Y Y Y Y Y Y Y Y Y Y Y Y Y Y Y Y Y Y Y Y Y Y Y Y Y P P P P P P P Y P P P P E P Y Y Y Y P P E E E E E E E E E E E E E E E E E E E E E P P P P P P P P E E E E h h f f f f f f h h h f f f f g g g g f h h f h h h g c r D (+2.f.n g E P @.l l l l l @.@.@.Y Y P P P P P P P P P P P Y Y @.@.P P P P P P P Y Y Y Y Y Y Y P P Y Y Y @.Y P P P P P P P P P P P P P Y Y Y Y Y Y Y P P P P P P P P P P P P P P E E P P Y Y Y @.Y Y P P P E E E P Y @.@.P P P P P P P P P P P P P P P @.@.@.@.l M l Y D a.` l d h Y l l l K l @.@.@.Y P P P P P P P P P P P Y Y Y P P P P P P P P P P P P P P P E E P P Y @.l Y Y E E E P Y Y Y Y P E E E P P P P P P P P P P P P P P P P P P P P Y P P P P E E P P P P P P P h h h h h h h h h h f f f f f f f h h E E f h n r [.5+O.d d h E P l l l l @.@.@.@.@.@.Y P P P Y Y Y Y Y Y Y P P Y Y Y P E E P P P P P P P P P P P P P Y Y Y Y Y Y Y P P P P P P P P P P P P P P P P P P P P P P P P P P P P P P P P P P Y Y Y Y Y Y Y E E E E E E E P P P P P P P P P P P P P E h h E E E P E P @.K N @.c ",
"e f E @.l l l @.l l l @.Y Y Y Y Y Y Y Y Y Y Y Y Y Y Y Y Y Y Y Y Y Y Y Y Y Y Y Y Y P P P P P P P Y P P P P E P Y Y Y Y P P P E E E E E E E E E E E E E E E E E E E E P P P P P P P P P P E E E E h h h h h h h h h h h f f f g g g f h E h h h f g d n D (+2.f.n g E P @.l l l l l l @.@.Y Y P P P P P P P P P P P Y Y @.@.P P P P P P P Y Y Y Y Y Y Y P P Y Y Y @.Y P P P P P P P P P P P P P Y Y Y Y Y Y Y P P P P P P P P P P P P P P E E P P Y Y Y @.@.Y Y P P P P P Y @.l l Y Y Y Y Y Y Y P P P P P P P P @.l @.@.K R @.K a M.(.l e h Y l l l K l l @.@.Y P P P P P P P P P P P Y Y Y P P P P P P P P P P P P P P P P E P P Y @.l Y Y E E E P Y Y Y P P E E E P P P P P P P P P P P P P P P P P P P P Y Y Y P P P E E E E E E E E E E E E E E E E E h h f f f g f h h E E h f h n r [.5+O.d d h E Y l l l l @.@.@.@.@.@.Y P P P Y Y Y Y Y Y Y P P Y Y Y P E E P P P P P P P P P P P P P Y Y Y Y Y Y Y P P P P P P P P P P P P P P P P P P P P P P P P P P P P P P P P P P Y Y Y Y Y Y Y E E E E E E P P P P P P P Y Y Y Y Y Y Y Y P Y Y Y Y Y E K M R R @.g ",
"e f P @.l l l @.l K K l @.Y Y Y Y Y Y Y Y Y Y Y Y Y Y Y Y Y Y Y Y Y Y Y Y Y Y Y Y Y Y Y Y Y Y Y Y P P P P E P Y Y Y Y P P P P P P P P P P P P P P P P P P P P P P P P P P P P P P P P P P E E E E E E E E E E E E E E h h h f g e g f h h h h g e d n D (+2.f.n g E P @.l l l l l l l @.@.Y Y Y P P P P P P P P Y Y Y Y Y P P P P P P P Y Y Y Y Y Y Y P P Y Y Y Y P P P P P P P P P P P P P P Y Y Y Y Y Y Y P P P P P P P P P P P P P P P P P P P P Y @.@.Y Y Y Y Y Y Y @.@.@.l @.@.@.@.@.@.@.Y Y Y Y Y Y Y Y l l @.l K R @.K m M.(.l e h @.l l l K K l l @.@.Y Y P P P P P P P P P Y Y Y P P P P P P P P P P P P P P P P P P Y Y Y @.Y P P P P P P P P P P P P P P P P P P P P P P P P P P P P P P P P P Y Y Y Y P P P E E E E E E E E E E E E E E P E E h f f f g f h E E h h f h n r [.5+d+e d E P Y l l l l @.@.@.@.@.@.Y P P P Y Y Y Y Y Y Y Y P Y Y P P E P P P P P P P P P P P P P P Y Y Y Y Y Y Y P P P P P P P P P P P P P P P P P P P P P P P P P P P P P P P P P P Y Y Y Y Y Y Y P P P P P P Y Y Y Y Y Y Y Y @.@.@.@.@.@.@.@.@.l l l l Y M F M R l h ",
"e h P @.K K K @.l R R K @.Y @.@.@.@.@.@.@.@.@.@.@.@.@.@.@.@.@.@.@.@.Y Y Y Y Y Y Y l l l l l l @.Y P P P P E P Y Y Y Y P P Y @.@.@.@.@.@.@.@.@.@.@.@.@.@.@.@.@.@.@.Y P P P P P P P Y Y P P P E E P P P P P P P Y P P P P P P h f e g f h E E h g e d c D (+2.f.n g E P @.l l l l l K l l @.Y Y Y @.@.@.@.@.@.@.Y Y Y P P P P P P P P P P Y Y Y Y Y Y Y @.Y Y Y P P P P P P P P P P P P P P P P Y @.@.@.@.@.@.@.@.@.@.@.@.@.@.@.@.@.@.@.Y Y Y P P E E P Y Y Y @.@.l l l l @.@.@.@.@.@.@.@.@.@.@.@.@.@.@.@.@.Y Y l l l l K R @.@.a a.` Y c h @.l l l K K K l l @.Y Y Y @.@.@.@.@.Y P P Y Y Y P P P P P P P P Y @.@.@.@.@.@.Y Y Y Y Y Y P E P Y Y Y P E E E P P P Y P P P P P P P P P P P P P P P P P P P P P Y Y Y Y Y P P P Y Y Y Y Y P E E E E E E E P P E h h f g g f E E E h h f h n r [.5+d+e e E P Y K l l l @.@.@.@.@.@.Y P P P Y @.@.@.@.@.@.@.Y P P E E P P P P P P P P Y @.@.@.@.@.@.Y Y Y Y Y Y Y P P P P P P P @.@.@.@.@.@.@.@.@.@.@.@.@.@.@.@.@.@.@.@.@.@.@.@.@.@.@.@.@.@.@.@.@.@.@.@.@.@.@.@.@.@.@.@.@.@.@.@.@.@.@.@.@.@.@.@.@.l l l l K l l l R @.e ",
"c g E Y @.l R K K K K l @.Y Y Y Y Y Y Y @.@.@.@.@.@.@.@.l l l @.@.@.@.@.@.@.@.@.@.@.@.@.@.@.@.@.Y Y Y Y Y P Y @.@.@.@.Y Y @.@.@.@.@.@.@.@.Y Y Y Y Y Y l l l l l l l Y Y Y Y Y Y Y P P P P P P P P P P P P P P P P E E E E E h f g f h E P E f g e c r w _+2.f.b E h P Y @.l l l l K K l @.@.Y @.@.@.@.@.@.@.@.@.@.@.Y Y Y Y Y Y Y Y Y P P P Y Y @.@.@.@.@.@.@.Y Y Y Y Y Y Y Y Y Y Y Y Y Y Y Y @.@.@.@.@.@.@.Y Y Y Y Y Y Y @.@.@.@.@.@.@.Y Y Y Y Y Y Y Y Y Y Y Y @.@.@.@.@.@.@.@.Y Y Y Y Y Y Y l l l l l l l @.l l @.@.l K K Y m :.{.@.c h Y l l l l l l K l @.Y Y Y Y Y Y Y Y Y Y Y Y Y Y Y Y @.Y Y Y Y @.@.Y Y Y Y Y Y @.@.@.@.@.Y Y Y P Y Y Y Y P Y Y Y Y @.@.@.Y Y Y Y Y Y Y Y Y Y Y Y Y @.@.@.Y Y P P Y @.Y Y Y P P Y Y Y Y Y Y Y P P P E E E E P E E E h h f g g f h E P E g f c n }.5+d+r d g E P l l l l l l l l l @.Y Y Y @.@.Y Y Y Y Y Y @.@.@.@.@.@.@.@.@.@.@.@.@.@.@.Y Y Y Y Y Y @.@.@.@.@.@.@.Y Y Y Y Y Y Y Y Y Y Y Y Y Y Y Y Y Y Y Y Y Y Y Y Y Y Y @.@.@.@.@.@.@.@.@.Y Y P P P @.@.@.@.@.@.@.@.@.@.@.@.@.@.@.@.@.@.@.@.@.l @.@.@.l l @.@.@.@.l Y d ",
"d f P @.l K R K K K l l @.@.Y Y Y Y Y Y @.@.@.@.@.@.@.@.Y Y Y Y P P Y Y Y Y Y Y Y @.@.@.@.@.@.@.P P P P P P P P P P P P P P P P P P P P P E E E E E E P Y Y Y Y Y Y Y Y Y Y Y Y Y @.@.@.@.@.@.Y Y Y Y Y Y Y Y Y P P P P E h h f f f h h P E f g e n q y _+^.k.m P f P Y @.l l l l K l l @.@.Y Y Y Y Y Y Y Y Y P P P P P P E E E E E E E E P Y Y @.@.l @.@.@.@.@.@.Y P P P P P P E E E E E E E @.@.@.@.@.@.@.Y Y Y Y Y Y Y @.@.@.@.@.@.@.@.@.@.Y Y Y Y Y Y Y Y Y Y Y Y Y Y Y Y Y @.@.@.l l l l @.@.@.@.@.@.@.l l l l l l K R Y m ,.(.l d f Y @.@.l l l l K K l @.Y P P P P P P P Y Y Y Y Y Y Y Y P P P P Y Y Y Y Y Y Y Y @.@.@.@.@.@.@.P E E E E E E P P P P P P P E E E E E E P P P P P P P Y @.@.Y Y P P Y Y Y Y Y P P Y Y Y Y Y Y Y Y Y Y Y P P P E E E h h h f g g g f h P E e f d n 7.2+%.r e e E E @.l l l l l l l Y Y P E P Y Y P P P P P P P Y Y Y Y Y Y Y Y Y Y Y Y Y Y Y Y Y Y Y Y @.@.@.@.@.@.@.E E E E E E E E E E E E E P Y Y Y Y Y Y Y Y Y Y Y Y Y Y Y Y Y Y Y Y @.@.Y Y P P P Y Y Y Y Y Y Y Y Y Y Y Y Y @.@.@.@.@.@.@.l @.@.@.@.@.l @.K K K K @.g ",
"e E Y @.@.@.l l @.@.@.@.Y Y P P P P P P P Y Y Y Y Y Y P E E E h h h P P P P P P P Y Y Y Y Y Y Y P P P P P P P P P P P P P P P P P P P P E h h h h h h h h h h h h h P P P P P P P Y Y Y Y Y Y P P P P P P P P P P P E E E h f f g g g f h h h h f c q w _+^.k.m E f E P Y @.@.@.@.l @.@.Y Y P E E E E E E E Y Y Y Y Y Y Y E E E E E E E E E P P Y Y @.Y Y Y Y Y Y E h h h h h h E E E E E E E Y Y Y Y Y Y Y Y Y Y Y Y Y Y Y Y Y Y Y Y Y @.@.Y Y P P P P P P P P P Y Y Y Y Y Y Y @.@.@.l l l l Y Y Y Y Y Y Y @.@.l l K K K R Y m :.<.@.d h P Y P Y @.@.l l l @.@.Y P P P P P P P P P P P P P P P P E E E P P P P P P P P Y Y Y Y Y Y Y E h h h h h h h h h h h h h E E E E E E E E E E E E E E P P P P P P Y Y Y P P P P P P P P P P P Y P P P P P E E h h h h f g e g g f f h h g f c q ' 2+%.n g g P E Y @.@.@.@.@.@.@.P P E E E P P P P P P P P P E E E E E E E E E E E E E P Y Y Y Y Y Y Y Y Y Y Y Y Y E E E E E E E E E E E E E E P P P P P P Y Y Y Y Y Y Y E E E E E E E @.Y Y Y Y Y Y Y Y Y Y Y Y Y Y Y Y Y Y Y Y @.@.@.@.@.@.@.@.Y Y Y Y @.@.K R K K @.f ",
"d f h E h h E P P P P P E E E E E E E E E E E E E E E P P P P E E E P P P P P P P E E E E E E E Y Y Y Y Y Y P P P P P P P P P P P P P P P P P P P P P E E E E E E E E E E E E E E h h h h h h f f f f f f f f h h f f f f f f g e e g g f f h E f d q D :+!.i.m P g f h E P P P P P P E E E E h h h h h h h P Y Y Y Y Y Y E E E E E E E h h h E E E E E E E E E E E E E E E E E E E E E E E E E E E E E E E P P P P P P P E E E E E E E Y P P P P P E E E E E E E E P P P P P P P P P P Y Y Y Y Y Y Y Y Y P P P Y Y @.l l K Y a :.<.@.d h E h h h P P P Y Y Y P P E E E E E E E E E E E E E E P P E E P P P E E E E E E E E E E E E E P P P P P P P E E E E E E E E E E E E E E h h h h h h h E E E E E P P P P P E E E E E E E E E E h h h f f f f h h f f f f g e g g g g g f e g n b = 2+%.n g g P h E P Y Y Y Y Y P P E E E E E E E E E E E E E E E E E E E E E E E E E E P P P P P P P E E E E E E E E E E E E E E E E E E E E E E E E E E E E P P P P P P h h h h h h h E P P P P P P P P P P P P P P P P P P P P Y Y Y Y Y Y Y Y P P P P Y P @.@.@.@.P d ",
"e h E E h f h h h h h h h h f f f f f f h h h h h h h P P P P E E E P P P P P P P h h h h h h E P P P P P P E E E E E E E E E E E E E E E P P P P P P E E E E E E E h h h h h h h f f f f f f f g g g g g g f f f f f g g f g g e g f f g g f f g c b D :+!.i.b Y h h h E E E h h h h h h h h h h h h h h h E E E E E E E h h h h h h h f f f h h h h h h h h h h E E E E E E E h h h h h h h h h h h h h h E E E E E E E h h h h h h h E E E P P Y E h h h h h h h E E E E E E E E E P P P P E E E E E E E h h E E P P Y @.P a :.<.l e h E h f f h h h E E E E h E E E E E E E f f f f f f h P E E E E P E f f f f f f h h h h h h h E P P P P P P E E E E E E E h h h h h h h E E E E E E E h E E E E E E E E E h h h h h h h h h h f f f g g g g f f f f g g g g f f f g e g d e q m = 2+%.r g f P E E E E E E E E E h h h E h h h E E E E E E P P P P P P P P P P P P P P E E E E E E E h h h h h h h h h h h h h h h h h h h h h f f f f f f h E E E E E E E h h h h h h h h h h h h h E E E E E E E E E E E E E E P P P P P P P P E E E E P E Y @.Y @.E d ",
"E Y l @.Y Y P h h E E E P P P P P P P P P P P P P P P Y Y Y Y P P P P Y Y Y Y Y Y P P P P P P P P P P P P P P P P P P P P P P P P P P P P P P P P P P E E E E E E E h h h h h h h f f f f f f f g g g g g g f h h f f f f g g g g f E E f g e e c q m w _+^.g.q @.P Y Y Y Y E h h E E P P P P P P P P P P P E E E E E E E E E E E E E E P P P P E E E P P P P P P P P P P P P P E E E E E E E P P P P P P P P P P P P P P P P P P P P P E E E h h h f g g g g g g f f f f f f f h h E E E E P h h h h h h h h h h h E E E P h s :.(.K f P Y Y E h h h h E P P P E P P P P P P P P P P P P P P P P P P P P P P P P P P P P P P P P P P P P P P P P P P P P P P P P E E E E E E P Y Y Y Y Y Y Y P P E E E E E h h h h f f f g g g g g g f f f f g g g g g g g e e g h h E h g e e c c b a = 5+%.n f E l Y Y E E E E E E E h h E P E h E P P P P P P P Y Y Y Y Y Y Y Y Y Y Y Y Y P P P P P P P P P P P P P P E E E E E E E E E E E E E E P P P P P P P P P P P P P P P P P P P P h h h f f f f f f f f f f f f f f f f f h h h h h h h h h h f h h h h Y Y P Y h c ",
"P @.K K l l @.P P Y Y @.@.@.@.@.@.@.@.@.l l l l l l l K K K K l l l @.@.@.@.@.@.@.l l l l l l l l l l l l l l K K K K K K K K K K K K K @.@.@.@.@.@.@.@.@.@.@.@.@.@.h h h h h h f g g g g g g e e e e e e e g f f g g g e g g g f h P Y f g c n r b a y c+^.g.r K @.R R K l Y E P Y Y @.@.@.@.@.@.@.@.@.@.@.@.@.@.@.@.@.@.l l l l l l l @.@.@.@.@.Y @.l l l l l l l l l l l l l l l l l l l l l l l l l l l @.@.@.@.@.@.@.l l l l l l l @.Y E f g e g g g g g g g f f f f f f f g g g g f f f f f f f f f h E E E E E E E E f D ,.{.R E l R R @.P P E E P Y Y Y Y Y Y Y Y Y Y Y @.@.@.@.@.@.l R K K K K K K @.@.@.@.@.@.l l l l l l l @.@.@.@.@.@.@.l l l l l l l l l l l l l l l l l l l l @.@.Y P P E E h h h h f f f g g g g g g g g g e e e e e g g g e e e g h E P E f e d n n m a ' 3+H.d E Y R l K Y P P P P P P Y @.l K l @.Y Y Y Y Y Y Y @.l l l l l l l l l l l l l l @.@.@.@.@.@.l l l l l l l l l l l l l l l l l l l l l @.@.@.@.@.@.@.@.@.@.@.@.@.@.@.@.@.@.@.@.P E E h f f f f f f f f f f f f f f f f f g g g g g g f h f f f h h g h E h h g q ",
"c g E E h f h E E E E Y l l @.@.Y Y Y Y Y @.@.@.@.@.@.@.l l @.@.@.@.@.@.Y P P P P Y Y @.@.@.Y Y @.@.@.Y Y P Y l l l l l l @.@.@.@.@.@.@.Y Y Y Y Y P P P P E h h f g d d d d d d d e e d c c d c n n n n n n c c n n n n n n c c d e g g d c c n q m a v j+2.f.h n E E h h f f f h P Y l l l @.P P P P P P P Y Y Y Y Y Y Y l @.@.@.@.@.@.Y Y Y Y Y Y Y P P Y Y @.@.l l l @.l l K l l l l l l l @.@.@.@.@.@.@.@.@.@.Y Y Y Y Y Y Y @.@.@.@.P P h g d c d e d d d d e e d c c c d e d c c c d d d d d e e g g f g f h h f f f h r C a.{.Y c P Y l @.P E h h E P Y @.@.@.Y P E E P P l l l l l l l @.@.@.@.@.@.@.l @.Y P Y Y Y Y Y Y Y Y Y @.@.@.@.@.@.@.@.@.@.@.@.@.@.l l l l l l l @.@.@.@.@.@.@.Y P E h f g e e e e e e e n n n n n c c n n n n n n n n n c c c c d g e e d c n n r D s s . 3+%.r g e h f E E h f f E P Y l @.@.Y Y P P P P Y Y Y @.@.@.@.@.@.@.@.@.@.@.@.@.@.@.Y Y Y Y Y @.l @.@.@.l l l l l l l l l l @.@.@.@.@.@.@.@.@.@.@.@.@.@.Y P Y Y Y Y Y @.@.@.Y P E h E f e d d c n e e d d d e d n n c c d d d d d e e d d e g e g g g g f e g f f e r ",
"D m q r q q q r r r r c e e d d d d d d c n n n n n n n n n n n n n e e d c c c c r n c c c r r n n r r r r r r r r r r r c d d d d d d d d d c c c c d d c c n r r b b b b b b b b m a a a m a a a a a a a m m a a a m m s D s s a a a m b b b a D w s (+5.s.0.e s n n r r r n c d e g g g e n q q q q q q c d d d d d d e e e d e e e c c n n n n n c c c c d d c r r r r n n n n n n n n n r q q q q q q n n r r r r r c c c c d d d n n r q m a m b m m m m b a a a a a m m b b b b b b b a m m b b q q b b q q r q a q h c m.e+h s a m b b m a r n c c d e e e d d c c c d c c c c c c d d d d d d d e e d d c c d d d d d d d d e e e e e e e g e e e d d d d c c n c d d n n n n n n d e d c n n r q b b b b b b b m m m a a a a a a a a a a s s a a a a a b m m a a s s b q y b = V.O.m r q n r c n r q q r n d g g e d c c n n n n n n n c d d d d d d c n n r n c d c n r r n n c c c c c d d d e e e e e e e d d d d d d n b b b b b b n c c c c d d c n c c c n n r b m m m a s a m b b b a a b b b b b b b m m m m m m b q r r r n n n r r c c n b ",
"x y D D w w D s D D D s a s w w D D D D D D D D D D D D D D D D D D s s D D D D s w w D s D w D s s a a m m m b b b b b b a s s s s s s D D D w w w w D s D D w w w y y y y y y w w w y C C y y y y y y y y C C C x C y y D D D D D D D x C w w y x v /.n+5.q.z e y D w w w w D w w D s s s s D w w w w w w D D D D D D D s D D D D s s a a s D D D D D D w w w w s m m q q b b s D D D D D D a m m m m m m a a s s s s s a s s D D D D s D D w w y w w w y y w w y C w w w w y y y y y y y y y y w w D D D w w w w D s a s x |.M.b.c y s a m m s D w w w w w w w D s s s D w w s s s s s s s s s s s s s D D D s D w w D D D D D D D s s s s s s s s s s D D D D a s D D s s s D D D D D D D D D D D w w y y y y y y y y y y C C x C D D D D D D D w w y y C C y y y y w w w D D a |.x > 5 ` y D y s w D s s D D s s a s s D D w w w s s s s D D D s s s s s s s D w w D a m s D D D D w w D D s s s a a s s s s s s D D D D D D D s a a a a a a D w w w w w w w D D s a s s s w y y w w y C w s s D y y w w w w y y w D w y y w D w w w w w D D D w w s a s D ",
"z 6.=.=.6.=.=.=.=.=.=.6.=.6.6.6.6.=.=.v =.=.=.=.=.=.=.=.=.=.=.=.=.=.v =.=.=.v v x =.=.=.=.=.=.=./././.6.6.=.6.6.6.6.6.6.6.v x x x x x x =.=.=.=.6.6.6.=.v =.=.=.=.=.=.=.=.=.=.=.=.=.=.6.6.6.6.6.=.=.=.=.=.=.6.6.6./.6.6.=.6.6.6.6.6././.z /.=.v v 6./.z l+^.r.6.0.v v =.=.=.=.v =.=.=.v v v v =.=.=.=.=.=.=.=.=.=.=.=.=.=.v v =.=.=.v v x x v v v =.=.v =.=.6.6.6././.6.=.v =.6.=.v v v v v v 6././././././.6.6.6././././.=.=.6.6.6./.6.=.=.=.=.=.=.=.v =.=.=.=.v 6.6.=.v v =.6.=.=.=.=.=.=.=.=.=.=.v v v v v =.6.6.=.x x =.w s a.(.m |./.6.=.6././.=.=.=.=.6.6.6.=.v x x v =.6.v v v v v v v x x x x x x =.6.=.v v =.6.6.=.=.=.=.=.=.=.v v v v v v v v v =.=.=.=.v v =.=.v v v =.=.=.=.=.=.=.=.=.=.=.=.=.6.6.6.6.6.6.6./.6.6.6.=.=.=.v v v v v v v v =.=.=.6.6.6.6.=.=.v v v 6.8.C =.w $ b+(.x v =.x =.=.v v v v v =.=.v =.=.=.6.6.=.x x v v =.=.=.x x x x x x v v =.6.=.v C v v v =.=.6./.=.=.=.v v v x v v v v v v =.=.=.=.=.=.=.6.6.6.6.6.6.6.=.=.=.=.=.6.6.6.=.=.=.=.=.=.v =.6.=.v v v =.=.v v =.=.=.x x v v =.=.v v =.=.=.=.v =.6.=.=.=.v v v v v x x C x ",
"C y y C C C y C y y y C C C y y y w w D w y y y y y y y y y y y y y D w w w w D D w y y y y w w w w w D D D D w w w w w w D D D D D D D D w w w w y y y y y y y y y w w w w w w w w y y y y y y y y y y y y w D w y y w w D s s s s s s y y D D D w w x :+2.r.m C s w w y y y w D D D w w w w y y y y y y y w w w w w w w D D w w w D D w w w y y w w D D w w w y y y w D D D w w w w w w w w w w w w w w w s s s D D D w w w y y y C C y y y y y y w w y y y y w C C y y y y y w w w w w w w y y y y y y y y C C C y w D w D /.A {.m y D D D D D D D D D w w y y w D D D D w y w w w w w w w D D D D D D w y w D D w w y y y y y y y w w w w w w w D D D w w w w w w y y y w w y y y y y y y y y y w w w w y y y y y y C C y w D D s y y y y y y y y y y y y C C y y y w D D y D D v a }.z.%.s D y s w w y y w w w y y w w w w y y w w w w y y y w D D D D D D w y w w y w w y y w D w y C y y y w w w w w w w w w w w w w w w w w w D D D D D D D D D w w y y y y y y y C x w y C y w w w w w y C y w D D D D D w w y y w w w w y y y y w w w w w D D D D s a ",
"u.*+*+u.1+u.*+u.*+S.S.*+u.1+u.u.1+1+1+1+u.*+*+*+*+*+*+*+u.u.u.u.u.u.*+u.1+%+%+1+1+S.*+u.u.u.*+*+%+%+%+%+%+%+%+1+1+1+1+1+1+u.u.u.u.u.u.u.*+*+u.u.u.1+1+%+%+%+1+1+1+1+u.u.u.u.u.u.*+k+S.*+*+*+*+*+u.u.u.u.u.u.*+S.*+1+1+%+%+%+%+%+1+1+1+u.*+u.u.1+u.*+*+u._ b+G.#+f+S.u.1+1+1+1+u.*+*+u.1+1+1+u.u.u.u.u.u.u.u.1+1+1+1+1+1+1+*+u.u.1+u.u.*+1+1+u.u.u.*+*+u.u.u.u.u.u.1+1+1+1+1+u.u.*+*+*+*+*+*+*+u.1+1+1+1+1+1+1+1+1+1+%+%+%+*+*+*+*+*+*+*+S.*+*+*+u.u.*+*+*+u.u.*+*+u.1+1+u.u.u.*+u.u.u.u.u.u.u.u.u.u.u.u.u.u.u.*+*+*+*+*+u.1+k+g+m.0 1+1+u.1+1+1+1+u.*+u.u.u.u.u.1+u.u.1+1+1+%+1+*+*+*+*+*+*+*+u.u.u.u.u.u.1+1+%+1+1+u.u.1+1+1+1+1+1+1+u.u.u.u.u.u.u.*+*+u.u.u.1+1+*+*+u.u.u.*+*+u.u.u.u.u.u.u.u.u.u.u.u.u.u.u.u.u.u.u.u.1+1+u.u.u.u.u.*+*+*+*+*+*+*+u.u.u.u.*+*+*+*+*+*+*+S.S.u.e.f+f+%+p+'+[ S.1+f+*+u.u.1+u.*+S.S.*+*+1+1+1+1+1+u.u.u.u.u.u.u.u.u.u.u.u.u.u.u.u.u.*+S.*+1+%+%+u.S.k+k+*+u.u.u.*+*+*+*+*+u.u.u.u.u.u.u.1+1+1+1+1+1+1+1+1+1+1+1+1+*+*+*+u.u.1+%+1+u.*+*+*+*+*+S.*+1+u.*+*+*+*+*+*+*+u.*+u.1+1+1+1+u.u.1+1+*+k+k+*+1+1+1+u.u.u.u.*+*+S.*+1+%+u.k+",
"r+r+r+F.p+F.r+F.r+G.o+G.r+F.r+r+r+F.F.p+F.F.F.F.F.F.F.F.p+p+p+p+p+p+G.r+F.p+a+a+a+G.r+F.p+F.r+o+j+o+o+G.G.r+r+r+r+r+r+r+r+r+F.F.F.F.F.F.r+G.G.r+r+r+F.F.F.F.F.F.r+r+r+r+r+r+r+r+G.o+o+G.r+r+G.r+F.F.F.F.F.F.o+j+o+r+F.p+p+r+r+r+G.o+j+j+X.o+r+F.r+G.j+j+a+F.F.!+w.X.r+r+r+r+r+r+o+o+r+F.p+F.r+p+p+p+p+p+p+p+F.F.F.F.F.F.F.G.r+F.F.r+r+r+v.v.a+p+F.r+r+F.r+r+r+G.G.G.G.r+r+r+G.o+G.r+r+r+r+r+r+r+r+r+r+r+r+r+G.G.G.G.r+r+F.a+p+p+p+F.F.r+G.G.r+r+F.F.r+r+F.F.F.F.r+F.p+p+a+p+F.r+r+r+r+r+r+r+r+F.F.F.p+p+p+p+F.r+G.o+G.r+G.r+G.v.) ;.X.o+r+F.F.F.F.r+r+r+r+r+r+r+r+r+F.p+a+a+p+F.F.F.F.F.F.F.F.F.F.F.F.F.F.F.F.p+p+p+r+G.G.r+r+r+r+r+r+r+r+r+r+r+r+r+G.G.r+r+r+F.F.r+F.F.p+F.r+r+p+p+p+p+p+p+r+o+o+o+o+G.G.G.G.G.G.G.G.G.o+o+G.r+F.p+p+r+r+r+r+r+r+r+p+F.F.r+r+r+r+r+r+r+r+r+r+p+j+p ;+a+w.x.B.o+F.p+o+G.G.p+p+r+o+o+G.r+F.F.F.F.r+r+F.a+a+a+p+p+p+F.F.F.F.F.F.F.p+p+r+r+F.v.w.B.a+r+G.G.r+p+p+F.F.F.F.r+r+r+r+r+r+r+r+r+F.F.F.F.F.F.r+r+r+r+r+r+r+G.o+G.G.r+F.p+a+p+F.G.o+o+o+G.r+p+F.r+F.p+p+F.G.o+r+p+p+p+F.F.F.r+r+p+p+r+j+j+r+a+F.r+G.G.G.G.o+o+j+o+r+p+F.o+"};
