/* XPM */
static const char *Bricks[] = {
/* columns rows colors chars-per-pixel */
"32 32 117 2 ",
"   c #4E1F15",
".  c #551F14",
"X  c #562015",
"o  c #5C2216",
"O  c #562218",
"+  c #5C2418",
"@  c #622417",
"#  c #652518",
"$  c #6A2719",
"%  c #6E2819",
"&  c #732A1A",
"*  c #5E1C26",
"=  c #56172A",
"-  c #581729",
";  c #5D192C",
":  c #621B2D",
">  c #651C31",
",  c #6B1D33",
"<  c #721F36",
"1  c #761F38",
"2  c #7A1F39",
"3  c #732035",
"4  c #7B2336",
"5  c #762038",
"6  c #7B213A",
"7  c #7C6346",
"8  c #812636",
"9  c #83223E",
"0  c #89233F",
"q  c #872440",
"w  c #8B2542",
"e  c #912745",
"r  c #836A4C",
"t  c #866E50",
"y  c #8F7656",
"u  c #8E7555",
"i  c #8B7254",
"p  c #8C7658",
"a  c #927859",
"s  c #93795A",
"d  c #947B5B",
"f  c #937C5A",
"g  c #907A5C",
"h  c #907B5D",
"j  c #937C5C",
"k  c #967C5C",
"l  c #967D5D",
"z  c #977D5D",
"x  c #977E5D",
"c  c #967F5D",
"v  c #977E5E",
"b  c #957C5C",
"n  c #957E60",
"m  c #96805F",
"M  c #97805E",
"N  c #9A815F",
"B  c #98805F",
"V  c #998162",
"C  c #9B8363",
"Z  c #9C8362",
"A  c #9C8461",
"S  c #9D8462",
"D  c #9C8662",
"F  c #998264",
"G  c #988365",
"H  c #9A8465",
"J  c #9B8567",
"K  c #9C8465",
"L  c #9F8765",
"P  c #9C8666",
"I  c #9B8464",
"U  c #9F8964",
"Y  c #9F8768",
"T  c #9F8969",
"R  c #9D886A",
"E  c #9F8B6C",
"W  c #A18966",
"Q  c #A18966",
"!  c #A28A68",
"~  c #A38B68",
"^  c #A38D69",
"/  c #A38C6A",
"(  c #A68F6B",
")  c #A18B6D",
"_  c #A38D6D",
"`  c #A28E6F",
"'  c #A58F6F",
"]  c #A38C6C",
"[  c #A7926D",
"{  c #A8916C",
"}  c #AA936F",
"|  c #A38E70",
" . c #A79170",
".. c #A59171",
"X. c #A89373",
"o. c #A89476",
"O. c #AA9573",
"+. c #AE9972",
"@. c #AE9973",
"#. c #AE997A",
"$. c #AE9979",
"%. c #B39F77",
"&. c #B19B75",
"*. c #B29E7E",
"=. c #B4A078",
"-. c #B6A17A",
";. c #B7A37A",
":. c #B3A07F",
">. c #B5A282",
",. c #B8A585",
"<. c #BCA989",
"1. c #C0AF8E",
"2. c #C0AF8F",
"3. c #C3B085",
"4. c #C7B796",
"5. c #D1C3A2",
"6. c #D1C3A2",
/* pixels */
"i y c +.=.[ U %.=.=.^ c ^ X.R r G _ h i i p h E | O.$.G ) } f S ",
"y < < < < < 5 5 < 5 5 5 6 9 8 4 6 q w w w w e e e e 9 w 9 w 9 q ",
"c > , , < < 1 < 1 1 1 1 1 1 < < 5 5 1 1 2 9 0 w w 9 9 1 1 2 9 5 ",
"S > > , , < < < < < , , , , , , , < < 1 2 2 6 6 2 1 < < 1 5 2 1 ",
"S : ; : , , < < , , , , , , : : : , < < 1 1 < < , > > < 1 2 1 < ",
"d : ; ; : > , , , , > , , > : ; ; : : , < < , > > > , , < < 1 < ",
"N ; ; ; ; : : : : : ; : : ; ; ; : ; : : : > > > > > , , > , , , ",
"c : * * * : : : * * * : : : ; : : : : > : ; : > : : : : : : , , ",
"c s s s s c K ( =.m r t J J K V K ..R V K _ 4.5.} ! ! Z W W c c ",
"# @ & & & & & & & & & & & & & & 1.X . . . o o @ & & & & & & & & ",
"o @ % & & % % & & & & & & & & & ' X . . @ @ . @ % & & % & # o o ",
"o @ # % % % % & & & & $ $ % & $ j X X o @ o . @ % & & & % $ @ o ",
"o o @ # $ % % % & % % $ $ $ $ @ b . o o o o o @ $ & & & % $ @ o ",
"o o o @ # # $ $ % $ $ $ # # $ @ c . o o o o o @ $ % & & % $ @ o ",
"o o o o @ @ @ # # # # @ @ @ # @ K X o o o o o @ @ $ % % % # @ o ",
"X X X o o o o o o o o o o o o o >.. X o o o o o o o + @ + O     ",
"r r r r y s m K S K 1.5.:.c c O.*.c r 7 r ! ' $.V N s y r 7 7 7 ",
"r , , < < , , < < < 5 5 5 5 6 6 6 6 5 1 < < 5 5 5 5 < 5 < < 5 6 ",
"s , > > , > : , , , < 1 5 5 5 5 5 5 < , , , 3 3 < < < < < < 5 5 ",
"i > ; - ; ; ; ; : ; > , , < < < , > > > > > , < < , , , , , < 1 ",
"i : ; ; ; ; ; ; ; ; = ; > , , > > : > : > : > < , , > : > , < 5 ",
"s > ; ; ; ; ; ; ; ; ; ; : > : > > : > > > > > > , > : ; : , < 1 ",
"s > ; ; ; ; : ; > ; ; ; ; ; , > > > : : : : : : : : : : : , < 5 ",
"b , ; = = = ; ; : , > ; ; : > : : : : : * : : : : : ; ; > : 3 3 ",
"c V V &.3.+.W W ! &.O.>.$.$.1.X.*.>.*.$.>.<.,.O.' K c c c c c c ",
"# % & & % $ $ % % % % % % $ & & ,.. @ . @ @ o o o o . . @ @ @ @ ",
"o o o @ @ @ $ % & & & & & % & & $.X X o o o o @ @ @ o o # % @ o ",
"@ o o o o o o o % & & % % % & $ Y X o X o o . . @ o o @ $ % % # ",
"$ @ @ @ o o o o @ $ % % % % % @ V . X . . . . . X o o $ % & & % ",
"$ $ # @ @ o o o o # $ % % & & $ n . . . . . . . . . o # % & & % ",
"$ # # @ @ @ X X o @ # $ % & & & ..  . . . . . . . X o o @ # $ $ ",
"o o o o X       . X . + O O O # ...             . . X X X o o o "
};
