/* XPM */
static const char *brick[] = {
/* columns rows colors chars-per-pixel */
"256 256 185 2 ",
"   c #534D3C",
".  c #635637",
"X  c #605538",
"o  c #675A3B",
"O  c #6B5E3C",
"+  c #6E603D",
"@  c #73643E",
"#  c #79683E",
"$  c #655A43",
"%  c #6A5E40",
"&  c #6F6243",
"*  c #736543",
"=  c #776946",
"-  c #7D6C42",
";  c #736648",
":  c #766A49",
">  c #7C6D4A",
",  c #7E704B",
"<  c #6C6554",
"1  c #6D6758",
"2  c #6F6959",
"3  c #756C57",
"4  c #716B59",
"5  c #7D7256",
"6  c #7C725A",
"7  c #816F42",
"8  c #857244",
"9  c #8A7645",
"0  c #8E7A46",
"q  c #85744B",
"w  c #88764A",
"e  c #8D7A4B",
"r  c #927D47",
"t  c #947E49",
"y  c #847653",
"u  c #877855",
"i  c #8D7C52",
"p  c #81765B",
"a  c #867A5A",
"s  c #8B7D5A",
"d  c #917F51",
"f  c #96804A",
"g  c #9B844B",
"h  c #9F894D",
"j  c #8F8056",
"k  c #8F815C",
"l  c #958254",
"z  c #9A8653",
"x  c #9D8954",
"c  c #94845B",
"v  c #998659",
"b  c #9B8A5B",
"n  c #A38B4D",
"m  c #A88E4F",
"M  c #A9904F",
"N  c #A38C53",
"B  c #A88E50",
"V  c #A18D5B",
"C  c #A69054",
"Z  c #AD9352",
"A  c #A5915B",
"S  c #AB955B",
"D  c #AF985D",
"F  c #B09653",
"G  c #B59B54",
"H  c #B99E55",
"J  c #B49C5B",
"K  c #B89F5A",
"L  c #BBA155",
"P  c #BDA359",
"I  c #8E8262",
"U  c #948661",
"Y  c #968963",
"T  c #9C8C62",
"R  c #9F8F68",
"E  c #A08F61",
"W  c #A39264",
"Q  c #AA9663",
"!  c #AD9964",
"~  c #A69569",
"^  c #AA9768",
"/  c #AD9A69",
"(  c #B39E63",
")  c #B29E6A",
"_  c #B6A165",
"`  c #BDA563",
"'  c #BCA563",
"]  c #BDA663",
"[  c #BEA662",
"{  c #BEA663",
"}  c #BDA560",
"|  c #B8A264",
" . c #B8A365",
".. c #BAA365",
"X. c #B8A367",
"o. c #BAA366",
"O. c #BBA565",
"+. c #BBA566",
"@. c #BAA567",
"#. c #BCA565",
"$. c #BDA664",
"%. c #BDA665",
"&. c #BEA664",
"*. c #BEA764",
"=. c #BCA666",
"-. c #BDA666",
";. c #BDA766",
":. c #BEA766",
">. c #BBA463",
",. c #B7A268",
"<. c #B7A36D",
"1. c #B6A26A",
"2. c #B8A368",
"3. c #BAA568",
"4. c #BBA568",
"5. c #BAA569",
"6. c #BAA56B",
"7. c #BCA668",
"8. c #BDA768",
"9. c #BCA669",
"0. c #BDA769",
"q. c #BEA768",
"w. c #BEA769",
"e. c #BDA76A",
"r. c #B8A46E",
"t. c #BBA569",
"y. c #BEA968",
"u. c #BDA96A",
"i. c #BEA96B",
"p. c #BBA770",
"a. c #BDA973",
"s. c #C0A458",
"d. c #C0A65D",
"f. c #C0A65C",
"g. c #C1A658",
"h. c #C3A859",
"j. c #C6AB5B",
"k. c #C3A85F",
"l. c #C2A85C",
"z. c #C4AA5D",
"x. c #C7AC5E",
"c. c #C5AA5A",
"v. c #CAAD5B",
"b. c #CEB15C",
"n. c #D1B45E",
"m. c #C0A761",
"M. c #C0A762",
"N. c #C0A763",
"B. c #C0A764",
"V. c #C0A766",
"C. c #C0A762",
"Z. c #C1A861",
"A. c #C2A960",
"S. c #C3AA61",
"D. c #C1A963",
"F. c #C1A863",
"G. c #C3AA63",
"H. c #C4AB61",
"J. c #C6AD62",
"K. c #C1A964",
"L. c #C2A964",
"P. c #C2A965",
"I. c #C3AA65",
"U. c #C1A966",
"Y. c #C2AA67",
"T. c #C3AB67",
"R. c #C4AD67",
"E. c #C3AA63",
"W. c #C9AF62",
"Q. c #C0A968",
"!. c #C1AA69",
"~. c #C2AB69",
"^. c #C2AA6A",
"/. c #C3AD6B",
"(. c #C3AC6B",
"). c #CCB263",
"_. c #C7B16D",
"`. c #C9B26B",
"'. c #D2B761",
"]. c #D4B961",
"[. c #D9BD62",
"{. c #C3AE71",
"}. c #C6B271",
"|. c #CBB472",
" X c #DCC263",
/* pixels */
"G P P P ( | 5.| M.5.R c | k.M.#.#.5.8.5.5.#.#.#.#.{ A.A.A.A.A.H.J.A.H.A.A.U.{ #.{ #.#.V.{ >.{ { { >.{ { { >.#.| | | | >.>.( >.>.{ { | ( >.>.>.| U.#.| { >.J >.A b /.J.z.{ | | 5.5.5.| | 5.| | 5.| 8.5.5.+.+.#.| +.+.+.| >.{ { >.>.#.#.>.>.>.>.{ { M.P P { { #.>.{ >.{ { >.{ M.{ >.{ { { { >.>.( ( { { >.c c | U.V.>.>.>.{ V.>.>.{ { >.#.( #.{ >.#.| #.#.| #.>.>.{ >.>.{ ( { >.{ | ( >.>.>.{ { J >.>.{ { P >.J K P P P P { P P P K f.K P P P K F G Z 8 - F Z Z Z Z M Z F F F F Z Z m M F m Z F G Z Z Z M Z F Z M F G Z Z F G G H ",
"G G G G G K | ( | 2.W c 5.>.>.| +.+.+.+.+.+.+.+.+.+.| +.#.V.#.U.#.#.#.#.#.+.+.(.#.+.#.#.#.#.#.| #.#.#.+.| | | #.| | +.| #.>.>.| >.>.>.#.#.| | +.{ V.#.#.>.>.U.Q b /.M.P { #.8.5.8.+.#.| 5.| 5.5.5.5.#.#.| | +.| #.| | | >.#.>.>.>.{ { >.{ #.>.>.{ A.f.M.#.5.8.8.#.+.#.U.+.| +.(.#.#.#.>.#.#.+.| | #.#.| c k | U.8.+.+.>.#.V.>.>.{ | >.>.>.{ #.>.| ( 5.8.Q ( U.>.#.#.>.#.>.#.>.#.#.( { { ( { { >.{ >.>.{ >.A.>.{ J P P >.P >.P >.J K K f.K K J K x.H 8 8 P G F G G G Z G G L H G G F F G M G G G F G G G G G G F Z G G F G F G F ",
"F G F F F K J Q Q ) R k 2.( ( | | | | | +.+.| 5.8.| | #.#.8.+.5.8.8.+.+.#.+.| | (.+.| | +.#.#.| | #.#.#.| #.>.#.| #.>.{ { { >.{ >.{ >.>.V.>.>.{ A.P M.#.| #.V.Q v (.>.( | +.8.u.(.+.(.| | #.+.5.| | +.#.| | >.#.| | | | >.>.{ >.>.>.>.>.P >.>.>.P P P { #.| 5.| 8.8.(.(.#.5.| +.U.#.#.>.+.#.#.| +.#.{ >.c s | U.8.+.#.#.+.V.>.>.U.| #.#.>.>.V.#.#.5.5.| ( #.R.>.{ #.#.{ >.{ >.#.{ >.>.#.>.( { { { { { { { >.U.{ P { P P P >.{ { A.{ f.P f.K N J z.G - 8 g.G Z Z G P G Z Z F G L Z G G G Z G G H G G L F F G H G G G G G G G F G ",
"F F F F Z G ( / / 1.W U 5.1.| | | | | | | 5.2.2.8.8.8.8.8.5.| 2.( 8.5.#.#.| | ( | | | >.>.>.>.| | | | #.>.>.( J J J J J J P J J J J J >.| >.( >.{ P >.{ >.{ #.Q c 8.+.( | | ( | >.>.>.#.| | #.| | 5.#.#.| #.>.#.>.#.>.#.#.>.>.( | | J >.J J J J K K K P #.(.(.(.(.U.U.V.#.#.>.( { { >.>.>.#.#.| ( #.U.{ c j ( A.#.{ >.>.U.U.{ { U.#.U.#.V.V.V.U.U.#.#.V.#.V.U.{ { { V.>.{ >.{ #.M.{ { { { >.M.J A.A.{ ( V.U.U.{ M.U.{ A.{ >.U.J A.{ P P f.k.P P c.G - 9 L G G G Z G P G F F G G G G G H G G F Z G G G G G G G G G Z F G F F G H ",
"F F G F G J ( / ) 6.R a 1.5.1.5.5.5.5.2.5.5.5.| 8.5.8.5.8.5.u.8.8.8.8.8.8.2.| ( | | | | | +.| | | ( ( | | ( { | ( | | ( ( ( >.>.| | ( | ( ( ( ( ( ( ( ( ( >.#.! v 8.u.#.| | ( | #.| | | | >.>.| | #.#.+.#.#.>.>.>.>.{ { ( >.>.S { | >.>.P P P J J P P J K J J J K J J K S J K K P J P J P P J >.K K A.| j j ( P P P G G G P F S k.F G P G P P P G P P H K G G P G P G G K K K K G P P K K K P K K P P J K P K K P K K P K P K K S P P G F L F G h.G * 7 G H G G Z F G F G G G G Z H G G G G F F F F G F G G G G G Z M H n Z F H ",
"G F G G H G ( 1.) ) R a / ) 1.5.5.5.5.5.5.5.2.5.5.5.5.5.5.5.2.2.8.5.5.8.8.5.2.5.2.5.5.+.| 8.| | 2.2.8.| | | +.+.5.5.| 5.5.| #.#.| | | | +.| | +.| | | | | | (.! v (.8.5.5.5.| +.#.#.| | +.| #.>.| | #.#.>.#.#.>.>.>.{ { >.#.| | V.>.>.>.>.>.#.>.J J >.P P J J J P P J P P J P J K P P K P P K P P J H.| c j +.A.K G L H F g.G F L H G P L G G G L G P G G H L G H g.G G G G G G G P G G G H H G G Z L Z G P G F P G Z G G G H G G G L G Z L G G c.F - * G G F G F Z F F G F G F F G G G Z G G G F F F F Z G G G G F Z G H F G G ",
"G F G F Z G ( ) 1.1.T c 1.1.2.5.2.8.5.5.2.2.5.5.5.5.5.8.5.5.2.5.8.1.5.u.5.8.5.8.5.5.5.8.5.5.5.5.8.2.8.8.5.8.| | 5.5.5.5.5.| 8.#.+.5.5.#.#.+.| 5.8.5.| | | ( /.! b (.5.5.5.+.+.+.#.+.| +.| >.#.#.>.#.#.#.| | U.| | +.V.( >.#.| | >.>.{ >.>.>.{ >.>.>.>.P { ( P >.>.>.J M.P J >.M.P J P P J P P P P J U.2.s k 8.E.K L P L G P P H H P H L L G G H P H G H G G P F F g.F L H G H L F L F F F L L L G F P F F P H G H G G G G G G G G F H H F L H G c.G - & G H G G F n G G m F G F G Z G F F F G F F G G G F F G G G F F G G G G H ",
"F G G F F J ( 1.1.6.W c 6.5.2.2.5.(.8.5.5.5.8.8.8.5.5.5.5.5.8.5.8.5.5.2.5.8.8.8.5.8.+.8.5.+.8.8.8.5.5.8.5.5.5.5.8.+.5.5.5.5.8.5.#.| +.#.#.#.| | 8.8.5.| #.( (.Q v (.5.| 5.+.U.| +.| | #.>.{ >.U.>.>.V.#.#.#.#.#.( >.U.>.>.#.#.>.>.>.>.{ >.#.( { >.{ >.>.>.>.>.P { J >.M.P P >.P M.K P k.K P P P P K U.| a a 8.E.K P P P H L H G P L H L P L G L L L H P F H L F F G Z P F F G L H G F G G H H L G F P L G G G G G G H G G G G L H F n G G H L F c.G 8 = G H G G F Z G G F F G F G G F G F G F F F G F F G F Z F G F G G G Z H G ",
"F Z G G F J ( ( ( 1.W c e.5.5.5.5.8.5.5.5.8.8.5.8.5.5.5.8.u.5.5.5.5.8.5.5.8.5.5.8.5.5.5.5.5.+.5.5.5.| | | 5.8.5.8.5.8.5.8.5.5.5.u.#.+.#.#.#.y.| | #.#.+.#.>.#.Q c u.(.5.| | V.V.>.>.#.#.>.V.( V.#.>.#.| #.u.| #.| >.#.>.>.{ ( #.>.{ >.( >.{ >.{ { ( >.>.{ { >.>.J P P P P P { >.P P J f.K P P P P J H.| a s 5.A.P L L P L L H G G L P G g.H L H G H L L G P g.G G G G P G G G P H G G H L L G G F Z G g.H F H G G G G G F F H F L L F F Z H G F c.F - 7 P G G G G G G G G Z F G F F G H F F F F Z G F Z F G Z Z H Z F G F F G G ",
"F G G G F K J D J ( T c 6.6.6.i.e.5.5.i.5.i.i.i.i.8.5.i.i.i.i.i.5.i.e.i.i.i.u.8.8.8.8.5.8.8.8.5.8.(.| | 8.u.8.2.5.8.8.5.5.u.| | | u.+.#.| | #.#.+.| +.+.#.>.U.! v u.8.| | | #.V.>.>.{ | >.>.>.{ #.>.| ( 5.8.Q ( U.>.#.#.>.#.>.#.>.#.#.( { { ( { #.>.{ >.>.{ >.A.>.{ K P P P >.>.P P J K K f.K K J J A.#.s s | A.P h.L L L H H L G G H P P H L G G P G L G H g.F L F H H L G F g.G G G Z g.P G L G Z G g.H F g.H G F G H G H G m H P H H F G G n g.M @ - g.G G G G G F L G Z n H n Z F L F G G F F G G F F G F Z G F F G F G F G ",
"F Z G F G G G F K ( W U 6.e.6.i.i.i.(.i.(.(.(.{.(.e.i.(.6.a.{.{.i.i.(.(.{.(.(.(.(.(.u.u.(.u.u.8.8.(.u.u.u.u.5.| 5.( 8.8.u.(.5.5.| | u.#.#.#.#.u.8.5.u.+.| >.`.Q c (.8.5.8.#.+.V.>.>.U.| V.#.>.>.V.#.#.5.5.| ( #.R.>.{ #.#.{ >.{ >.#.#.>.>.#.>.( #.{ { { { { { >.U.{ P { P P >.>.M.P H.P f.f.f.K x D P R.c j | M.P g.g.H P P L H g.L P L P P L L G g.G P G L P H G L L L L G F H L G L Z G L L L G G G G G G L H G G G G G P L F G P G G L G H Z g.M @ 8 P G F H F G M G L G Z G F G G G F G G F F Z G F G G G F G F F G Z P L G ",
"G F H G G L G G J | W k 1./ Y T W R W R W W W W ~ ^ / ) <.<.) <.) ) 6.p.1.1.1.6.{.(.(.(.(.{.{.{.{.}././.(.(.(.{.{.(./././.(.(.(.5.5././.(.(.(.(.(.8.8.(.u.5./.| W (.i.i.8.8.(.(.#.#.U.U.U.U.U.#.#.(./.8.8.(.u.(./.V.#.U.U.+.#.+.V.U.U.V.#.#.#.#.U.( U.U.#.( U.R.U.V.U.U.{ U.U.#.U.J R.A.>.M.P W.P J J /.b v #.E.f.P h.P P P v.g.L g.P L P g.g.L g.g.P P L g.g.L G L L H g.H L H G G L L L G L g.P H L H H P G L P G G G L H P G G g.G G L G H G c.Z * 9 c.L G H G G G G P G G G Z L L H G G L L G G H G G P G H H G Z G H H P P ",
"L P H G Z G J D V W Y k R T Y Y U T Y T U U Y Y U U I U U U U U U U Y U U Y Y Y Y R T W T W W W W ~ / / / / / ) 1.1.1.6.1.1.1.6.e.6.5.i.5.5.i.5.i.i.1.5.(.8.( / ) 6.6.i.(.5.i.8.(.(././.(.(.(.u.(.(.5.5.i./././.(././.`.(.8.(./././.(./.(.(.u./._.+.u././.| 8./.(.(././././././.(.+.#./.{ >.{ W.U.J #./.E b /.`.).).).J.P P A.f.H.J.z.P f.z.x.c.v.P c.z.f.f.z.f.f.z.k.k.g.z.x.P g.g.z.c.c.g.g.c.g.z.g.g.g.c.g.g.c.h.h.h.g.g.j.g.L c.c.g.g.c.c.g.g.F e t c.g.g.c.G g.c.P H c.j.g.G c.g.P P P h.P g.g.P g.Z g.g.g.P H G P c.g.L L ",
"0 0 9 0 9 l b T T R Y Y W W W W W W ~ Q W W ~ ~ R W R R Y Y R R R R R R Y Y T T Y Y Y Y Y U U U U U U U U U k k k U U U c c c c U c c Y Y Y Y Y c T Y Y b Y Y Y U U U T W T T E T T T E T E E E W E T T W E W Q W W W Q W ~ E W ~ Q W E W W W Q W V E E W b T E T b Y T b T T b T b b b b A b V b v S A b b E V b b A V b b b x V A N A A S Z N Z N A Z Z Z D A A A S A Z D D S J J J D J Z D S A S D A A Z S N S Z S Z Z Z n Z M Z Z Z M Z F m n t f q g f n Z t f n 0 9 n n g 9 n n f f f M f g g t n f n g n g g g g f f t 0 ",
"h g g x N A Q / ! / ^ / / / Q / / Q / Q / / ( ( / / / / ^ / / / / ^ / / ^ ^ / / ( / Q ! / / R T W ^ Q W W W W T T R R T T E E E T T b T T Y Y Y Y U b c T T T T U U U U c U Y T Y c c c c c c b c b Y Y T b b b c c b c j c c c c c b b c c b c c c b b c c U Y T c c c Y c c b b Y c b c v b v j b V b b b c c b b b l v l l i b v l l d d e d e l i i e e e e e e e e e e q q q q q i q q q q q q y q q q q q q q > > , q q 8 > 7 8 8 7 - 7 - 8 w w q 8 8 7 - 7 7 7 - - 7 - - 8 - - 7 - - 7 8 8 7 7 7 7 - 7 - - 7 7 8 7 8 r g ",
"J ( | | ( ( ( ( ) | ( ( ( / ( ( ( ( ( ( ( / / ( ! ( ( 1.1.1.) ) ) 1.) ( 1.5.8.| 8.| ( +.+.( / ) ) 5.1.2.1.1.2.| | ) ) 1.! | | ( ( ( ! ( ( ( ( Q Q Q Q ! ( ! / ( / Q Q / / Q Q Q Q W Q Q Q Q A W A A Q Q Q Q A A A Q Q A A Q A A V A A ! A V b S A A S Q V b b b W V A V V b V V V V b V V V b S A S A A S S V V A A V A S A A D V A A A A N N Z N A N Z V V x V N N z z z z l z l v v x V v x x v l l v l l l l d l l l f g g x x N n n g g g n g g n n g g g f g f t g g g f f g g f f g g g g t f f f f f f f t f f t f f N J ",
"| ( ( 1.( | ( ( ( ! / / ( / ( / / ( ( ( / Q / ( Q Q / ( ( ) ) Q Q Q Q / / ( ( ( ! ( ( ( U.( / ) 1.1.( ( ( | | | ( | | ( | | ( | | | ( ( | | | | | 5.5.#.( | ( | 5.5.+.| | | | #.+.( ( | #.>.>.( ( >.>.>.>.{ >.#.>.{ { | ( { { J J J J J J ( | D ( P J J ( ( ( ( ( ( ( ( ( ( ( >.J J J J >.>.J J P P J J P P P P P P P J >.{ P P K P f.P f.f.f.f.J P K S P P P g.P P g.g.P L G G F J J J F F S K J S F K F F G G G F G F F Z F G Z Z G F F F Z G G F F F F G F L G F F G G G H L H L L H G G G G P P H H G G G H G L L Z G F S | ",
"1.( 1.) ( 1.| 1.| ( ( ) 1.1.1.) ( ( ) 1.( ( 1.1.1.1.2.1.1.1.1.1.1.1.1.1.) ) ) ) ! ( ( ( +.! c U W e.( / ( ( ( ( ( ( ( ( ( ( ( ( ( ( | ! Q ! ( ( ! ! ( ( ! ( ! S Q ( ( Q A ( ( ( ( ( Q D ( >.( >.| >.>.>.J ( ( J >.( J ( J J P K K J S D D J P J K P P J J J P P >.>.K >.J { P P A.K P P J P P K J P K D J K f.K P J P J K J K F F K F J J G G G Z F G G G G G G G G F G P G h.G N N F G G G G H H G H L G F F G L G G G G F F n n n F F Z Z G G G Z g n M F F G Z F H G F Z F G F G Z G M Z Z n F F Z G G F Z F F L G Z G g V ( ",
"1.1.1.| | 2.1.1.2.| 1.) 1.1.( 1.1.1.( 1.1.1.1.1.1.2.1.1.1.1.6.1.1.6.1.1.1.1.1.1.1.1.) ) 5.2.c 3 W {.1.1.1.( ( 2.| | | | ( ( | ( | ( 5.| +.| ( | | | ( | ( | ( ( ( ( ( ( ( ( ( ( ( ! D ! ( ( ( ( ( ( ( ( ( ( ( ( D >.( ( >.J J K S P K N N A.J J J D A A K J J J J J J J J J K S K J J K D J S J S D P K Z J K J Z J J J K J F P F G F F S G K F F F G G F G G F F G G G F n c.F 8 9 P m Z F Z Z F F F F M G Z Z G F M Z F Z F F F n F Z Z F Z F F Z f Z F Z Z Z n f G G Z n Z F m F Z Z n G F Z m M n Z F F F Z F F Z Z F 7 b | ",
"1.2.| 1.| 1.1.5.1.| 5.1.1.1.1.1.1.1.1.6.2.1.1.1.5.5.1.5.1.<.1.1.1.1.1.1.1.r.1.1.1.1.1.1.5.i.Q 6 ~ }.e.5.5.| 5.5.2.2.2.8.2.2.5.5.2.2.8.u.5.2.| 2.2.| 2.5.| | 5.+.5.| 5.5.5.5.| | ( | | 5.( ( ( ( | | | | +.+.| #.{ >.>.>.| >.J J Z P J x l U.P P J J J P K P K P P P P J P P J J P K K P J P K P P K K K P K K P J K P K F P K P K J G G S G F F J G G F G G G G G F G G G g c.c.9 r c.G Z G Z F G F G F n P G Z G G Z Z Z Z H G F G F Z F G Z Z G F n F g.Z Z G F Z G G F Z Z F G Z F G Z Z Z G n F G F F Z F Z Z H Z G g.9 A 1.",
"1.1.| 2.1.) 1.| | 5.( ) 5.1.1.1.1.1.1.5.2.1.2.1.1.5.1.1.1.2.1.5.1.1.1.1.1.) 1.1.1.1.1.5.1.e.Q p ~ {.6.1.2.1.2.2.1.5.2.2.5.5.5.2.2.| 2.5.5.5.5.5.8.2.2.5.8.8.8.8.| | 5.5.5.| | 5.5.| | | 8.5.5.5.5.#.| 5.5.+.| | #.>.{ >.>.>.>.J J P P x x E.P J J J K M.P P J { P P P J P P P P P P P P J { P P P P K J K P P P K K K J F P G G P G G K P K F G G G G G F H L H G G F L G n v.v.9 r g.G G G G F G G G F F F G H H H G G Z F L Z G G G F F F Z G G F Z G P F Z G H G G G F M G F F Z Z F G F F G Z F G F F F Z Z Z H M G g.w Q 1.",
"5.| | | 5.( 1.1.1.| 1.| 5.1.1.1.1.1.5.1.1.1.e.1.1.1.1.1.1.5.2.6.1.1.1.1.1.1.1.6.6.1.1.1.6.8.Q p / {.e.5.2.| 2.2.| 5.5.5.8.5.5.5.5.5.5.5.5.5.8.8.8.5.8.8.5.5.5.5.8.8.5.8.+.#.| 5.5.5.5.5.5.u.(.+.| +.+.#.+.| | | #.>.#.>.>.>.>.{ J P >.x V E.P P P >.>.P P K P P P K P P K P P P P P P J J K P P P K K K P K k.P K K P J G P P G G G H K P P F K H G G H G G L G G G G F G n b.v.7 g h.F H G G G F F F G G Z F G L H G G F F G M G G G F G G G G G G Z F L F Z F G Z G H F Z G G Z m G G F F F G F F Z G F F F M G G Z L g.8 W | ",
"2.( | | | ( | 5.| | 2.5.| 1.1.1.1.1.1.1.1.1.1.) 1.6.1.1.5.6.1.1.1.1.6.6.1.1.6.6.6.1.| 2.1.u.~ 6 ^ }.(.| | +.5.| 5.5.| | 5.5.| 5.+.8.5.5.+.+.+.| +.5.8.8.5.5.| 5.5.8.u.(.+.(.| +.#.+.5.| | +.#.| +.| #.| | | | | >.>.U.{ >.>.D | J P P v A J A.P P { P >.J P J P P P P P P P P P P P P K P P K P P P K K K F f.K K K P P P G P P L G G G H P H K G P H G G G L G G G H G Z Z n.c.7 r c.Z H G G G F Z Z F L G Z Z Z G L Z G G G Z G G G F G L F F G G Z Z H G G F G G F F G G G F F F F G G F F G Z Z n G n G G F F G n L g.w Q | ",
"| ( ( +.| | | 5.2.| | 5.| | 2.1.1.1.1.1.1.5.1.1.1.1.1.1.5.1.1.1.1.6.1.1.1.6.6.1.1.5.1.| 5.(.~ 3 ) |.8.1.| 5.5.5.5.5.5.5.| 5.5.5.5.| | 5.5.5.8.+.| 8.5.5.5.5.| 5.5.| ( #.| #.#.+.#.#.| | 5.#.#.| +.>.#.>.#.>.#.#.>.>.{ >.>.>.( J J P { l V P P P P P { P { P P J P P P P K P P P J K P J J P P P K P P P F K P G G K G K P G G H P G G G H L G G G G L H G G g.L G M H L M Z ].L - g c.G G G G L G G F Z G L G F Z F G G G G G F G Z M G G G F G Z H Z F H G F Z H G F Z F F Z H F F Z F G F Z G G Z Z G n n G G G G n L L e ! | ",
"| | ( 5.| | | 8.( ( | 1.2.| 1.5.5.| 2.1.1.5.5.1.1.1.5.1.1.5.1.5.1.5.5.2.1.5.e.5.1.1.1.1.2./.W 6 / |.5.| ( | 5.5.5.| 5.8.5.5.+.#.u.5.| 5.5.| 5.5.5.5.5.| 5.+.+.#.#.+.| +.| | >.>.>.#.| ( 8.#.+.#.#.>.>.>.>.{ { ( >.{ >.{ >.>.>.>.K P A.l N H.P P P P P P { k.f.K P P P P P K K P K K P P K P K P K P J K K P P P P H G P P G H H H H H G L H F G g.F G G G G P g.F G G L Z n [.H O Z h.G G G F G H G G Z H G G G G G G n G G F G F G Z Z L F G G Z F M G L G F F F F G F Z F F G G F F Z G F Z Z F Z F Z G M F F Z G M L L 0 S | ",
"1.( 2.| | | | +.| | | 2.1.( | 5.| | 2.5.1.1.1.1.1.1.5.| 1.5.5.5.1.1.1.2.1.2.1.1.1.1.1.1.1.(.~ 6 / |.8.| | +.+.| | #.| | +.+.+.#.#.| | 5.| 5.5.8.5.5.#.+.#.#.+.V.#.+.+.+.+.V.>.V.#.#.#.( | (.#.| #.#.>.>.{ { { >.{ { >.{ { >.| J K P A.s A R.P K f.P J J P f.P P K P P P K K P P P K P K K P P K K K K J P g.P L P G L G G P P G G H K G L L G F G L G G G G G L H F G H F n '.F + Z c.F G F F G G F G F G G G F G G G Z G F F G F F F n H Z G G H F Z G H G G G Z G F F F F G F F F G F G F Z Z F Z F F G G F n n L m c.L e A ( ",
"5.1.2.( | | ( | | | | /.2.( 1.2.| 1.5.5.5.1.1.1.1.5.1.5.5.1.2.5.1.1.1.1.5.1.5.6.1.1.5.1.1.(./ 6 ~ }.8.| | #.#.| +.#.+.| #.| | #.#.#.#.#.+.| #.#.#.| #.#.| +.#.V.#.>.#.#.>.{ #.>.{ #.#.( ( (.5.5.#.V.>.{ { >.{ >.{ { >.{ | { J J J P { u A J.f.K P P J J D K P P P K P P J J k.K P P P P K P P P P P K J K P H H H P g.G G G P G H H G G H G H G G P G G G F L H H G G G G M n.Z @ Z c.F G G G G G G G G G G G G G F G G G Z G G G G G Z G H F Z G Z G F G M G H M H G G G F F G F F F F F F G F Z Z H F F F G Z Z G n L H 8 V 1.",
"2.1.1.( | | | | | | | | ( ( 1.2.2.2.| 1.1.1.2.2.| 5.| 5.1.1.5.5.1.5.5.1.1.1.5.5.5.5.| 1.1.8.( 6 ^ }.8.| >.#.V.( >.#.#.>.+.+.| >.>.+.| | | #.| | #.#.| #.| | >.>.{ >.>.| >.>.#.#.>.#.#.#.8.8.b ( #.V.>.{ { >.{ J >.>.>.>.>.>.>.P J { P s A A.P P K f.P P P J P P P P P P P J P P P K K J f.P P G P P K J P P P F H g.P F G G P H H L H G H G L G F G G P H G H L G H L G F M '.Z * G g.G G G G F G G G G G G L G F G H F G F F G G G F Z H G G F Z F H G G m Z G M H F G Z G G G F Z G F Z Z G Z Z Z F Z F G F F M F F g.H 7 x 5.",
"1.1.( ( | 5.| | | 5.| | | | 1.5.5.8.( / 1.| 5.5.| 5.| 2.1.| 1.2.1.5.1.1.5.5.5.5.5.5.| 5.1.5.) 5 Q /.u.#.>.{ >.>.>.>.>.>.>.>.>.>.>.>.>.#.#.| | | | #.+.#.+.| >.>.>.#.#.| ( { >.#.>.>.#.#.8.8.c ! /.#.{ >.>.>.>.>.{ >.>.{ >.>.>.>.J M.J l A A.P K P P P P P P P K K P P P P P K P K P K G P P P H P P P G P P H Z P P F N G H L G H G L L G G G L G F G L L G G F H G P G G n b.Z * F g.G G G G G G G G G G F H H G G G G F G G G G F G Z G F G F Z F F G F F F G M F G G Z F F F F Z G F Z Z F F G F F Z M H F F F F M c.G - l 8.",
"1.1.| ( | | ( | | | | | | | | | | 5.| ( 1.| 1.5.2.1.2.2.| 2.2.2.1.1.5.1.5.5.6.5.5.2.| 5.1.2.( 5 / /.8.>.>.| >.{ #.| >.>.>.>.{ V.{ >.>.#.>.>.#.#.>.| +.+.>.>.>.>.| { V.{ >.{ >.>.{ >.{ >.| 5.A 8.>.>.>.>.J >.>.>.>.P >.>.P >.>.J J H.J l A A.P P K P P P P P P P P K P P P P P P K K P P G P P P G P G G P K G L K L P P L P G P g.G G H G G G G H G L G G G G H L G G L F n n.C O F c.G F F G F G G G H H F M G L G G G Z G G G F G G H Z G F G G Z G G F F G H Z F F G F F F F F F G G F F Z F F G Z F F Z F G G F n g.G 7 l 5.",
"1.1.| | | | | | | | | | | | | | | | 1.2.2.| | +.2.| | 2.2.| | 2.2.5.1.2.1.2.1.2.5.2.| 1.5.8./ y ( /.+.( >.>.| ( >.>.>.{ >.>.>.{ V.>.>.>.>.#.>.{ >.>.>.>.>.>.>.#.{ >.{ { >.{ { >.>.#.#.V.#.U.| V.#.| >.P H.P { >.P P { { P P J J J { S l A ).k.P P P P P G P K K P P G P g.P P P P K G P G H P P K G P G H L G H H H L L H L G Z L H H P G G g.L L G G L L G G L G G G P G Z n.g % G g.G n G G G G Z H F G G n M G H G G Z Z G Z F L G G G G Z G G F G G G F G G F G Z G F F Z F F M G G Z G Z Z G G F G G F Z G G F n h.G - x 2.",
"1.1.1.| ( | | | | | | | | ( | | 5.( | | | | | 2.5.| | | | | +.2.1.1.1.2.1.2.2.5.5.| | | 5.5./ u ( /.#.>.{ >.>.>.>.>.>.{ { | { >.{ { >.{ >.>.>.>.#.>.>.>.{ #.>.>.{ >.>.>.>.{ { >.>.#.{ { >.V.>.>.{ >.>.>.R.>.>.P P P P P P P >.J S >.S v A J.k.K K K P P P P P P P P K H P H P P G f.P P G P P G G P P F c.G G H H G L H L G G Z F G G G F P L G G L G G G P H H G L H H F m b.N & P g.G G H G G Z G G G F L G G G G G G G G F F F G G F H G F F G G G F G G G Z F Z Z G H Z F F F Z F F G F Z F M G F F G F F G F F n v.G 7 A 5.",
"5.1.| | ( ( | ( ( | | | ( | | | | | | | | | 5.| | | | | | | 5.| 2.| 2.5.| | 2.5.5.5.| | | 5.! s ( /.#.{ >.>.#.>.>.| >.{ >.>.>.>.>.>.>.>.>.>.{ { >.#.{ >.>.>.{ >.{ { >.J P { { >.>.>.| >.| >.>.>.>.>.>.P P >.>.P P P P P >.>.P P D | v v S J.k.K P K P P P P P P P P P H P P P P G P P L P P P P G G P F P L G L H H L L L H H P L H L G F g.G G G L L H G P H G L G G g.L F v.z = b.P Z H H H G G G G H F H G P L F H G F G F G G G F F G G G F G G H G G G G F F Z m Z H G Z H F F Z F G F Z G Z F F Z F Z G G G F n b.G 8 D 2.",
"5.5.( ( ( ( | | | | ( ( | | | | | | | 5.+.+.5.| | | 5.| | | +.+.2.| | | 5.2.+.+.+.5.| | 5.8.( c | /.U.#.>.#.V.{ >.>.>.{ >.{ { { { >.{ { { >.>.{ >.#.#.{ #.>.{ { >.{ { >.{ { U.{ { | >.#.{ { >.>.{ P P P M.{ J >.P P P P A.>.P >.D ( b l A ).P P P K P G P P F P P P P g.L G s.P P P P L P P P H H H P L P L L g.g.L G L G L L H H g.g.G G L L G G G L G F P H H L G G P G G z.w ; P L Z G P H H G G H G G F F G H n L L F G G G G G G G G F F H F F G F F H G G L G G G Z L G G G G G G Z G Z F G F G F F M F H G G n j.G 8 ( 5.",
"1.1.| | ( | ( | | ( | | | | 5.5.5.| 5.| 5.8.( 5.5.5.5.8.5.5.2.5.5.2.5.5.8.8.2.5.8.u.i.1.( ) 1.1.5././././.(.(.(.(.U.V.V.#.V.y.y.#.U.V.V.V.V.V.#.>.>.{ U.#.+.{ V.V.>.R.#.#.V.U.#.| #.V.V.U.{ { { P M.{ { U.>.V >.{ M.P K { { J ( J ( V.b S ).P P P P f.P P P P P P P P f.P P P P P P P P P P P P P P P G P L P H L H P P G G P P G G c.P L L H H H H L G G g.G H L F g.P F G J , > P P Z H L g.L G H g.g.L G F H G G P g.G G G P L G G H L G F H H Z H G G L G Z L g.G H P G H H G H H P G G G G G G P G H L G L L G F v.F 9 ( | ",
"/ ( ( J ( ( ( ( ( ( ( ( ( ! Q Q Q ! ! Q ( ( ( ( ( / ! / ( ( ( ( ) ( ( ( ( | 2.8.(.1.j E T W T W W / Q 1.1.5.2.| 5.(.(.u.(.#.5.5././.(.#.(.U.(.(./.u.| (.8.5.(.(./.( (./././.(./.(.(./.(././.R.R.R.R.R.R.U.(.U.U.E.E.U.{ E.U.>.>.( | | A S ).A.P P A.f.f.J.f.f.P A.H.f.f.P P H.A.M.P A.J.J.P P P H.P f.f.P P P P K P P f.P P K P K S f.f.K f.f.g.g.g.g.P g.g.s.g.g.L c.z.K A.>.b l H.W.P g.g.c.s.g.L c.g.h.c.L j.c.g.c.c.g.h.g.P g.L F c.g.g.c.H P P P P P g.c.Z G c.g.g.P H P P L L L c.g.g.g.h.P H g.c.G L c.P c.g.P b.H n >.( ",
"! ( S S D D S J D D S A V b b b b v b l b b b b b b b b b b b b b b b v v v v v b b a E s c Y c k U Y c k c c c c v v v b b b v b b b b b V A A Q V W Q W W Q Q Q Q Q / ! Q W / / Q ( ( ( | ( | ( | | | | ( +.5.| ( | >.V.>.U.#.A A Q W Q `.R.#.U.R.E.H.).H.M.>.U.E.{ U.M.>.A.{ >.{ ( { { >.>.{ { P { M.P P { H.J A.P A.A.f.P P A.J A.A.J P P P P f.P P f.P k.P K P J P J D S S A A J S A Z N A A A Z N N N N Z Z N N Z N C n n Z n n Z M g F n n n n n f n M r f n n n g n g g g f t g f f f f f t t f t 0 t r g g g g g g S D ",
"l t t l l z l l l l v v b A D D S S S A D A S A A V V A A V V V V V b b b b b b b A A A V A W T T b b T b b b b v v b b b b b v b b b v b b b v v l v l l l c v v b c v j c c c c b c c c c c c v c c c c s c v c l l l v l b b b c b a v v c l s l l l l l l l v l l v l l l v l l i d l l l l v l v x v v v l l x v l z z v v x v v v z z l l l l l l l l d i l d i i i l i s s i i i i i i i q e e e e e e q q e q w w q q w w q 8 9 0 8 8 9 9 9 8 8 8 8 8 8 8 8 8 7 7 8 8 8 8 9 8 8 8 7 8 7 7 8 8 7 8 8 7 7 7 7 8 8 8 8 9 t ",
"g f f g g g N N N N A x V J J K K K K K J J J J J J J J ( J ( ( ( ( ( ( ( J J J J J J ( >.( ( ( ( ( ( ( D ( ( D D J J J D D D D J J S S S A A A A A A A A D A S V V V V V V W b b b b V V b b b v b b v b b b b b v b v b x b b b b v b b b v l l b v v l b v v v l l v b v l l l l v N l v v x z x z x V x x l v z z x z z z x x z l l x z l z z z z z l l l l d l l l l x v v v v x v v v v v v v z z z z z x z g x x N z g g g g f f g g f f g g g f g g f t f t t t f t t t t t t t t t t r t t t t t t t r t t t t t t f f ",
"F F F G G F G F G G K A d J J S J D S J S D D J D J D J J ( J ( J ( ( ( >.>.>.{ >.>.P >.J J { >.{ { { >.{ { >.{ P P { P P P P >.P P P P >.P P P M.P K P J J D J J J J D J ( J ( ( ( D D S J D D D A D S D S S A S A D D K S A A S A A S J J J D S J S S A J J D J S S J J K J D J K K K S F F F G F G G K K J K F Z S Z F Z F F F Z Z Z Z Z Z Z Z S Z Z N N Z Z Z Z Z Z Z A Z Z Z Z Z S Z F J J J S F S F G Z F F F F F Z M Z F Z Z F Z Z F Z F Z F G G F F F F G F F F F Z Z Z Z Z Z Z Z Z Z Z M Z Z Z Z Z M M Z Z Z Z M Z Z G ",
"P P P P h.g.L G L P P x i >.P D J J D J J J D D S S S S A S A S Q ! S S S A S S S S D D ( ( J ( | D ( J ( J J J >.J J J J J J J J P J J J A.P P P P P P P P g.F S D J P P P P >.J P P P A.A.P P A.P P f.f.f.P P P P P P K K P J P P P J K P P P P f.P k.f.f.z.k.f.P P P P P P P g.g.f.g.P g.P g.G H j.c.f.f.P h.c.g.g.g.c.g.g.L P c.c.h.g.P g.g.g.g.P G c.g.L P g.g.g.P L g.g.G g.g.L G G G G F G F Z F F Z n F F F Z G F L G H H H G P L G G g.g g G P Z H g.P P P g.P g.g.g.L c.h.h.P L L H P P L P g.g.g.L P P P G P g.g.g.g.",
"F F G G G F Z S G K S y y `.| J ( ( J ( ( ( | ( ( ( | | ( ( ( | ( ( ( ( ( ( ( ( ( ( ( ( | | ( | ( ( ( ( ( ( ( | ( ( ( ( ( ( ( ( ( ( ( ( ( ( ( J J J J D J Z v.P w V P K K K J J J J P J J K J K K P K K P K F K P P G F F J F J J K F F K P K K G P G K F A K K N Z Z Z Z K F G G S S G Z F G H Z n H F w l K P G G G G P H G F Z H G G G L G L H G L F L G G G G L H L G G F G L L H n f g n f n n n Z F Z n Z Z F Z F F G G G Z G Z G H G F c.M O f g.Z Z G G F F G G G G F n H H G H G F Z G L F G F G H G F Z G Z F G G G H ",
"H G H G G S Z K G P S u u /.( ( >.| ( | >.#.| | | | 1.| ( | ( 5.1.2.2.| | +.| 2.| 5.+.| | | | | 5.| | | | | | +.| | | | | | +.| ( | 5.( ( | | | | >.( ( J Z z.).> x { >.J >.J ( J J J J J J J J J J J J J K J J D K K J K K K K J K K J J K J J F K F K S Z J J J S J J D K P K J J D K K G F G G n g.).> q A.f.G G G L L G G H G G G G L L G L H G G L L G G L H H H G G L G H G F L L G L L H H G G P L L L P H G G G L G G G G L G G H G Z g.g.8 f c.G Z L F G F G G H G F G G L F G G F G F G H G F G L G G F G G F H G H P ",
"H G H L G J D K P A.S i s (.( ( | >.( | >.>.| | ( ( | | | | | | 5.5.( | 8.8.2.5.5.5.5.5.| 5.| 5.5.5.5.5.| 5.5.5.5.| 5.5.| 5.8.+.| 1.5.1.5.5.5.| 5.| +.>.J D k.'.e b R.#.>.#.>.>.{ >.>.>.>.>.( >.>.J P >.P J >.P J P P P P P P >.J { P P P P J P P P P P P P P P P P J P J J { >.K P A J f.P J P P Z c.)., i R.A.L H P L L G H L s.L H G g.g.L L P L L L g.L L G H L L G F H H g.L H G P g.g.L P P P G G P P H L P G P G L g.L H G H H H L G Z H L 9 n c.G G L G H H G G P G G F Z g.G G L F G G H G G F F H L L G G G G H L L G ",
"G G H P K J J J P P ( s j /.>.| >.| >.>.>.>.| | | | ( | 5.8.| 5.5.5.| 5.5.5.+.8.5.5.5.5.5.5.8.+.+.5.5.8.5.5.5.5.5.5.| 5.8.8.8.8.+.8.+.+.| 5.5.8.5.+.#.>.| D P '.i b /.V.#.#.{ { { { { A.{ { { { { #.>.{ >.>.>.{ { { P >.P P P P >.P P P P P P M.{ P { P P { >.>.>.M.P { P J >.P >.J J P { P K P K Z c.).q y R.P G H H L L L G L g.P G L L P P P L L P g.P H L L G L P L G H G H P H G G P P G L G P H G H H L H G L P G F P H H H F P L L G n G G 9 n c.L G G H G H F H H L G G F L P Z P G F G G G G G H G G H Z H H G H G L G ",
"G F G P P P P K P P >.l i /.>.| | | >.| | >.>.| | ( | | +.#.+.| | 5.5.8.| | | 8.5.5.#.#.+.#.#.+.#.#.+.#.#.5.5.5.5.| +.8.8./ ( (.5.8.8.5.5.5.| 8.| | +.#.>.D K ].l l /.{ #.#.{ { { { { { A.{ { { #.{ >.{ #.#.{ #.{ >.{ >.{ M.{ { { P { { { M.P P P P M.M.P P { >.>.{ >.P M.P J P P >.P P { P K P K N v.'.q i ).J Z g.g.L L g.L P P L L h.P L g.L L G g.c.g.L L P L P P G P P P L g.H L H G P G H G P L H H G L H G P L G G H H P H G L P L H g G G 8 Z c.L H G L L L G H G G L L F Z g.G L H G G G L G G G G G H F G H G H L H L ",
"G G K J P P J K P P | s y /.{ | ( >.>.>.>.| >.>.| +.#.| +.#.#.#.+.5.5.5.5.u.5.5.+.#.#.| | #.+.#.#.#.+.+.#.+.#.#.5.5.5.8.5.( | 5.5.5.5.| 5.5.+.#.#.+.#.| ( J K ].v l R.#.#.{ { M.{ { >.>.{ { { { { { { #.{ { >.( { >.>.{ P P M.P P P P P P P { { { >.P P P { A.{ >.{ { P A.P J { { { P { { P P K G Z b.).> i `.f.P P P g.L P g.L P P L g.g.h.L L g.G L L L P H g.L P L H L G P L L L P P G L G L G L L P L G L L L L G P L G H P G H P P G L g H F - F j.G H P H G H G H P G L L G Z L P L G G F L G L G G G G G H L F G H H G L ",
"G G G K P P K P K P J l y `.{ J | ( | #.>.| | | | | | | | | #.#.+.| +.#.+.+.| | #.#.#.| | >.#.>.>.>.#.| +.| | #.| +.5.5.5.8.8.5.5.| 5.+./.#.+.#.#.+.#.+.>.J K ].V b R.U.{ >.{ M.{ M.{ { { M.A.{ A.A.{ { M.>.>.>.>.>.{ { { { A.P >.P P P P P P { M.{ P P { A.{ { P J { { A.P { P A.P P A.f.P P J G Z b.W.> i ).k.c.g.P g.P P g.L L g.P H L g.P P G G g.H L H H P P L L G P G L L L L P P G L L L H L L L G G P G H L G H H H G g.H G H P G G f L Z - F c.H G L H G H G L L G H L L F H L P L L F G L G G L G G L G L G G L H L L ",
"G G G H H P G G K P { l y /.>.J >.>.>.>.>.>.( >.>.>.>.>.#.+.>.| | | #.| | | +.+.#.| | >.#.#.#.>.>.>.>.>.>.+.#.| | #.#.+.#.#.#.(.#.#.+.+.#.#.| | +.| | | >.J K [.N b R.V.{ { { { { { >.{ M.M.M.P >.M.>.{ M.M.{ U.M.{ { M.>.{ J.{ { { { P P { { P { { P P P P f.P { >.P { { M.f.P P P P f.P P K P P Z v.W., i R.P P P g.g.P L g.P P g.L L H L c.P G L L H g.P H P P P P H L P P L L P H P L G L g.P L P P L G H H P P L L H P G H P L L L P F g g.n - F j.L G L H L H F L H G L L L Z G L G G L F F g.G F L G G F H L G L L G P G ",
"P P H G G G G G H K P l y U.>.| { >.| ( >.| >.| >.>.>.| >.>.#.#.+.#.+.>.#.#.| | | >.#.#.{ { >.>.{ >.>.>.+.>.>.>.#.| #.#.| #.| +.#.+.| +.| | +.>.#.#.>.>.( J K ).N v R.V.{ { { M.M.P { P >.M.{ { { M.A.{ >.A.A.{ { A.M.A.P >.{ A.P { { M.P A.P f.P P f.f.P P f.f.P { { { A.P P P P P K K P P K K P Z b.W.> i ).f.g.L g.g.P g.L g.L g.L g.G Z g.g.g.g.L L G g.L H L L P L G P L L L L L P G H G g.P P H L g.L F L H H H H H H L G G Z P G P M n g.n 7 F c.H G H G L G H L H F L H L H G L G F L F Z L G L G H G G G G G G H G L H ",
"G L G H G L L L L K >.v y { { ( >.| ( >.>.>.>.>.>.{ >.| | >.#.>.>.#.>.>.#.>.>.>.>.#.#.| >.>.>.>.{ { >.{ >.{ { >.#.#.>.>.#.#.>.>.>.| | #.>.>.>.>.{ { { >.| P P A.x v R.{ { { >.P { A.M.M.A.M.{ M.M.M.M.M.M.P M.P P M.P M.{ P { P P P f.P P P P P P P P P P f.P f.P P P P A P K P f.f.P P P P f.K P B b.W.> l ).P P L g.g.P L L g.P P g.g.g.L L L g.g.L P H g.P H L P P P G P L P P G G c.G H H P g.L G H H H G L P H H G H L H H H G G g.P Z f g.n 7 H c.G L L L L L G G L H H H L L G G G G G H G G G L G G H L G F H H G H G Z ",
"F G H G F Z G G P K P b i #.U.J | | >.>.| ( { ( >.>.>.>.>.#.>.>.>.>.>.>.#.>.>.>.V.>.>.>.{ >.>.#.{ { >.>.#.#.{ { >.>.>.>.#.>.{ >.>.#.>.>.>.>.{ { #.#.{ >.| J J ).v b /.{ A.M.>.M.P M.P P { { { M.M.M.{ P M.{ { M.M.>.P M.M.P { M.P f.H.K f.P P P k.P P P P P P P f.P P P K P P P P f.f.f.P P P P G g n.J.: l ).g.P P P P P L L g.L L L P g.g.L P P P P P H L g.P L P P L L P P G L H L L L G L L g.P G P L H H H L H g.L G H G L H H G L L F g H g 8 L c.L H L P H H L G H L L H H L H H L L G H H G G G G G G G L L H H G L G G ",
"G H G G L G H G P K P x i { M.J >.| >.>.>.J >.>.( ( { { ( { >.>.>.>.{ >.>.{ V.V.>.>.>.>.>.{ { { >.>.>.>.{ >.>.#.| >.>.>.>.>.{ >.{ >.{ >.>.| { { { >.>.>.>.K K ).x x R.U.{ P P { M.P M.M.{ M.A.M.M.M.P M.P { P { M.{ { P P P { P P K f.P P f.P P P f.P P P f.P P f.f.P P f.P f.P K P P P P P P P P n n.k.: x ).c.g.P P P P P P g.L L g.g.g.g.P P P P P L g.H P P L L g.H L L P G L g.P L g.H H g.P H G L H L L L G G L P L P L L L H H L G L G L t 9 G g.L P P G G L L G G G G G G G H L H G G H H G G G H H G Z H H L G H L G G ",
"G G G G L P G K P K J b i >.{ P >.J P P J | >.>.>.{ { >.( >.>.{ >.>.>.>.{ { { ( >.>.>.>.>.A.P P >.>.>.>.>.>.>.>.>.#.>.#.V.{ #.>.>.{ #.{ >.>.{ { >.>.>.P P K K ).x N R.>.>.M.P P A.P { A.{ { P P P A.M.M.M.{ A.A.P P P P f.P P f.f.P P P f.f.P P P P P P P P P f.P P f.P f.P f.P P P P P P P P P G n '.z.: x ).h.P P g.P L P P g.L G G P P g.L P P H P P P L P G Z P P L L L G g.g.g.G P P L F L P H P P H P L H G H G L G g.G G L H G L G P P g.t 0 G c.G G P n Z g.L H L G L L L G G G G L G H H G G G G G G G G G P H L P G F ",
"G G L G G P K J K J J V q >.A.J P P >.P J M.>.J { { | >.>.>.{ >.>.>.>.>.{ >.>.| >.{ >.{ >.{ >.>.>.>.>.M.M.>.>.{ #.{ >.{ { { >.>.>.>.>.{ >.>.{ A.>.>.>.{ P K P '.z V R.{ { A.P P P P P { { A.f.P P P P P { >.{ { P P f.A.P P P P f.f.P f.P P f.P P P P P P K J P P P P K P P f.P P P g.g.g.P P P G f '.z.; x ).g.P g.g.L P P P g.P P P g.P P P P s.G L P P P L G G g.P L L L G L g.P H P P L H H P L P H H H P L H L G P L g.H L L L H G H P G L r r P h.G G H F H H L G L F Z G G P H G G G G L H G G L L H F L G L g.g.L L H G ",
"F L G L H G F F G F P b q #.{ J P >.{ J J P >.J >.>.>.>.>.>.>.>.{ >.>.{ >.>.>.{ { { | >.>.{ >.>.>.{ M.{ P { >.{ { >.>.{ >.{ >.>.{ >.>.{ { { >.P >.>.>.P P J G ).l V R.M.A.{ P P f.P { K P A.A.P P P P P { A.P A.{ P P f.f.P P P P f.P P P P f.P P P P P P P P f.f.f.P P P P f.g.P P P P P P g.P L n '.z.; V ).H P P g.g.L g.P L L g.L P P g.g.P P P H P P P L L P G g.P H L G L H L L g.g.P L G H L P L P H L L G L G L P P H P L G G L L L L L 0 t g.h.G H H L L G P G H P G H G H G G G L G G G L G G H L Z G P H H G P L G G ",
"F G L G G F Z F G G K x y V.>.>.>.#.>.>.P >.>.>.{ >.>.{ { #.#.{ >.>.>.{ { { { { #.>.>.{ { M.{ { A.P P P R.>.>.{ { { { { M.A.{ M.{ { >.M.>.{ J P { { P J P J G '.z N R.M.{ { P f.f.P A.{ P P P P A.{ P f.P P P f.P f.P f.f.P f.P P P P f.P P P P P P f.f.P P f.P f.f.P P P P P f.P P P P P H P P G F ].f.; A ).g.P g.P g.L L L g.L g.P P P P g.g.P P H L g.P g.G P L H g.H L L L L H G H g.H P H P H g.P L P P P H P L H L H G H H G L H P g.L L 0 f h.j.H L P P H L L L G g.P H L H L G G G H F G L G F Z G G G L G F G L P L L ",
"F F P G G L P P P g.P V v #.#.V.U.#.#.#.U.U.U.V.U.U.U.R.V.U.U.U.M.V.U.U.U.U.U.U.U.#.V.V.V.V.V.V.M.>.{ { >.{ #.#.#.A.A.A.U.M.>.{ >.P P >.>.>.>.P { { P P P P G '.z N A.A.A.A.A.f.f.P M.M.f.P P f.{ P A.A.f.f.{ P f.f.P f.A.f.k.f.k.f.f.f.P k.f.P P P P f.P f.f.P P f.P P k.P P P f.k.f.g.g.P P g.G Z [.P ; D ).g.L g.h.g.P L H h.P P g.g.L P G g.s.P P P g.L g.g.L P L P P L P L g.P P L P P L L H P P L L g.g.P G L H L g.H H P G G L H H P G G * Z c.v.h.g.c.g.g.P H P L L L F P P L P H L H G L L H G G G G L G P G G P G G L ",
"Z F G L P g.g.P g.K J S A | ( D ( ! Q ( ( ( ( ( ( ( ( | ( | | | | +.| ( 8.#.#.#.#.| #.#.#.u.8.(././.U.U.{ U.V.V.#.U.M.{ { { M.M.M.M.A.{ M.U.{ A.M.M.P P A.A.F W.Z S H.H.A.A.H.H.A.A.A.A.A.A.A.A.A.A.A.A.A.E.M.M.A.H.P A.A.A.f.H.H.H.f.H.H.H.H.A.{ { R.A.H.{ f.H.f.H.A.P A.A.A.A.A.f.H.H.k.z.k.z.c.G ].P : J '.v.c.c.c.c.g.g.g.g.c.h.c.c.c.g.g.v.c.g.h.L c.g.g.g.g.P c.g.g.P P P g.g.g.g.g.h.P g.P g.P L Z F g.P L P L P h.P L g.g.P P g.P L G Z * z P g.L s.c.P v.g.g.g.c.g.P g.g.H h.g.g.P H g.L g.g.g.g.g.g.L G P P H g.L L g.",
"P h.g.v.c.j.c.G Z N z l l V b b v l l l l l s l l l l l v v l l l v v l v b b b b b v v b b W W W Q V V V V V A A A S S S S J J J D D D D J J J J J J J P K S K P J J >.{ { { M.M.M.R.E.M.A.A.A.U.J J M.A.E.R.{ { U.A.A.H.R.A.E.R.M.J M.H.H.H.A.U.J U.U.H.>.>.H.J.A.A.A.A.H.E.R.A.{ R.R.R.R.J.A.J.P '.A.i ( A.J f.b.x.b.v.v.x.h.b.v.c.c.v.c.g.v.j.c.v.c.c.c.c.c.c.c.v.c.c.v.c.c.b.c.v.c.c.c.c.v.v.c.g.c.P c.c.g.v.v.v.L c.j.c.c.v.c.c.v.b.v.H P d q S z e F G g v.c.G c.h.g.P c.c.P j.h.c.c.g.v.c.c.g.P c.j.v.c.g.c.c.h.j.c.j.c.",
"0 r f f f t f g g x z z x N N N N A N N V V A A N A V A V V x x V V N N b x x N x x V b V Q / Q / Q A A V x V b V x x V x x x V V x V N x z z z v l l l l f z z g x z l l l z z z z z x x x x x x x N N x x v x x l x x v x v v x v x v x x x v x v z l l l v v x x v x x x b b b b b v x x x l l l z x v V V v z Z A Z Z Z A N A N N N N A N N N A A N Z Z Z N Z F Z Z M N Z n Z Z Z Z Z Z Z F G F F G F G Z n n Z F F F F F F F G F F G G Z A x l l v i x v e 0 0 q e 9 8 9 0 9 r 0 0 0 t f f g n g t g n n m M Z Z g g g 0 0 ",
"e e e t e t f g N Z S S S F F F F F F F J J J J J J F D S F F F F F F F J D J D F F F J J ( T 6 W (.( J J J J J J J J J S S F F J F F J J Z Z S S Z Z Z A Z Z Z Z Z Z A Z A A C N N x x x z z z N z x N z z z x x z l N z f z z g z Z A A x x x x z z f f z N V l x x x z z z v x x v x v l z z z f f z x z v v v l l e e d t l e t t e t e e e e e e e e w w e w 9 9 9 0 0 e q q w w w 8 8 8 8 8 8 q 8 8 8 8 7 - 7 7 8 8 7 - 7 7 7 8 7 7 8 0 e d l l i i i i i e e e w w q w q 8 8 8 8 8 9 8 8 9 9 9 8 8 8 8 8 8 8 9 8 8 8 8 8 ",
"C Z F F S F S S F G G H G G L G G G G L G F F F G L G G G H H H G H L H G G G K H L L H P V.Y < 3 }./.A.f.f.P f.f.P f.P P P f.f.g.P P P P P P P g.g.g.g.P g.g.g.g.g.P P g.g.g.g.g.g.P P g.L P P P H H L H L H P P L H L H G H H F G P P D J K P H G F F Z F F F Z Z Z Z Z Z Z Z Z A Z Z Z Z N Z Z Z Z M N N N N N N N g g N N n N n N N N n n N N N N N N n n n n n n n n n n N n n n n g g g g g g g f f f g g f f f f f f f f f f f f f g g n n n n N z z z z z g x g n n g g g g g g g g f g g g f f g g f f f f g g g g g n ",
"G H G P P P P H G G G G F F F F F G G G G G F F G F F F G G G G F F G G H G G F F F F F ].W.W 6 4 {.U.P J J J J F J J K J S F Z Z J S A F K K J G G G G G G H H H H G G P H G H P P P P P g.g.P g.v.g.c.g.g.c.g.c.s.s.g.g.c.g.h.c.c.v.K $ J v.c.h.c.g.h.c.c.g.g.g.c.g.c.c.c.P g.g.g.g.g.g.c.c.c.c.j.c.c.c.c.c.g.c.g.g.g.P g.g.g.g.g.h.h.h.g.P g.g.g.P P L L P L L P L L G G G G G G G F F F F Z Z F Z Z F F F F F F Z F Z Z F Z Z F Z Z Z Z Z Z Z Z Z F F F F F F Z Z n n Z Z F Z Z Z Z Z Z Z Z Z M M Z F Z Z Z F Z F G G F G G ",
"L H H H P L P L L G H G G H G G G P G G P G H P P G P L P H G H H H H L P G H H H G G G '.J.b 6 2 1./.>.J P P J K J J P J J P J K K J K K J J K J J J K K J F F K J S J J D S G G G F F F F S F F G F F F F F F F F F F F F G G G G b.S   v k.G L P L G G G G L G G G H L G L P g.P L G L G G G G H G P P P L G P P H L P P G G H G G P P P L P L P P L P g.g.g.g.g.c.L P H c.c.g Z g.g.g.g.P L H G P g.g.H s.P P P P g.g.c.g.G G c.c.g.c.h.g.g.L H G G G G G G G G P H P L L h.g.P g.P g.g.P G L G L L P c.P L g.H n M Z Z g.L ",
"P H L P P P H P P L H G H P P G P P K G H P P P G P P P P P P P P s.P P P P P P P P G G ].H.T 6 4 p._.#.P >.>.P P P P M.>.P P >.M.P P P P P M.P P P J P P J J P K K P P P P J J K P P K J J K K K K J K P P P K G P P L K G H G G G ].P $ x W.g.L G g.L L H H L H H G Z P H P G L g.H H L G H g.L H G G G L L Z L L H G L L L G G H H H H L L G G G H H G G H G G G G Z L H c.c.8 t n F n n f Z G G P H L H L H G L L G H G L Z m P P G H L L H L L G G G M g r 7 - Z G H G G L H G H G F G H G L L G H G L P G L P G G f r H G ",
"H P P P L G L P P P G L s.K P P P P P P P P P P P P g.P P P P P P P P P P P g.P P P L G ].A.W 6 4 a._.#.>.>.{ P P M.M.P >.>.{ >.{ >.P P M.P P P >.P { P P P J J P P P >.{ P P P P P M.P P P P P P P P P P P P P P P f.f.P P g.H L H ].P ; V ).c.G G L P g.g.P g.g.g.P L L P P g.P P L g.L G G P P g.P g.L H g.G L g.P L L L P g.P P P L P H L P P P H P P L H G H G G G L G P g.8 h g M Z Z F G H P L F G L H G P P L P L H H H G P L G G L L H G L L L P g.G G Z F g.H G L G H L H L L L F L H L H L G G P G G H L g.c.m f H F ",
"G G P P L L L g.L L G H P H P P H H L g.P P P g.P g.P P P P g.P P P g.g.P g.P H P P H G ].k.E 6 1 a.|.#.{ { { P M.{ { >.>.>.P P { { M.M.P J P >.{ A.P P P { >.{ >.P K P A.{ P P { P P P P P { P { M.P P P P P P P P P P P P P L G G [.H ; V ).c.g.g.L g.g.g.g.g.g.g.h.g.g.g.g.P g.g.g.c.g.P P g.g.L P g.g.P g.g.g.g.L g.P H P P P P c.P P P L g.g.h.P H g.P P P P L P P P G Z G 8 g v.c.P g.g.L P L g.P L P P L g.g.P L P c.G F P P P P P G P L g.P P L G g.P P L g.P L L P L G G L G G g.G H H g.G H H G L G G L P G v.n g H H ",
"G G P L G P L H G L H L G P P H L H L g.G H g.P H H H P P P P P P P g.P P g.H P P L L G n.x.b 6 2 a._.V.{ >.P { { >.{ { M.M.P P P >.P { P P M.P { A.K P { P { { P P P A.P P { { P P P P >.{ P { { P P P P P f.f.f.f.f.P P P P L H G [.L = l ).c.g.g.P g.g.g.g.g.g.g.h.g.g.P P P g.g.g.g.g.L L g.c.P L g.g.P P L c.L L P g.L P P P L P g.g.h.g.P P c.g.P g.g.P g.L g.P g.L Z G G 8 n b.c.L P g.H P g.g.g.g.H P P P L F F P h.g.H P g.L P c.G L L P g.P L L g.P L L L L H P P P G G H H L L G P H P L L L L L L H L g.Z v.g n G G ",
"G G G G L L L H H L L L H H L P L L L L H L P H L P P g.H g.g.P P P P L P P P P P L L G n.z.V p 4 p._.#.>.{ { { P { { M.{ >.P P >.>.P P { M.>.P P { P P P P P P P J P P P P { P P P P M.P P P P P f.P f.f.P P f.P P f.P P P P H G G [.H > l ).g.g.g.g.g.g.g.g.g.g.g.g.g.h.g.g.P g.g.g.g.g.g.P L g.g.L P g.P P L h.P g.P g.g.g.P P g.P L G L v.P L g.g.g.g.L P v.P g.P g.P m F S * g n.c.L c.P g.P g.g.g.P P g.P g.g.P g.P H g.L P P L L L L g.P L g.P P P P G c.P H L G L H g.L P H G G P L L L G g.g.L P H L L L g.Z v.f n G G ",
"G F H H L H P G H L L H H L H P P L L L G H L P g.L L P L g.P L P L L L P P L L g.L G G n.c.S a 4 p._.U.{ P P { { { { M.P P >.{ P { P P P >.{ { P P P P P P P P P P P P P P P P P P P f.f.P P P P P P f.P P P P P P P k.g.P P L G G ].g.> l ).g.P h.c.g.g.P g.g.g.g.g.g.g.g.c.g.g.P g.c.g.g.g.g.h.g.P g.g.P P P h.P L G c.g.P g.P P g.P G G P g.G g.g.g.g.P G g.g.g.L P P n g.K & n b.c.P g.L g.g.g.h.g.P P L P g.P P P P P P L P P g.G L L L P P H L L P L G L g.H G P g.L H P P L G L P G g.L F Z h.G L H L L H L G c.r n F L ",
"G G F H L L L H G P L L L L H L H L L H H g.L P H L L P P G P H P g.P L P P P L g.L G G n.g.A p 3 6._.#.>.{ { P P P P P P >.>.P >.{ P P P { { { P P f.P P P P P P f.k.P P P P P P P P P P f.P P P P f.f.P P P P P P P f.g.P g.L L F '.g.> l ).c.g.P P P P g.g.g.P P c.g.g.L g.c.g.P g.c.g.L L g.g.g.g.P c.g.P g.g.g.P P g.g.g.g.P P g.g.F H g.g.P P L g.g.g.P g.P g.P L L M L J = Z n.h.g.g.L g.P P P P L h.P P P g.g.L P c.g.H L P h.L g.L P H g.P L g.L g.L L L g.G G P L G L L L L L G F G H G F g.P H L H F L P H c.0 Z F L ",
"H G H G H L G H L P G L G G H G H P L G P g.H L L P P L L P L P P g.L P P P g.L P P L G n.c.S a 3 6._.{ >.{ { { { >.>.>.P P { { >.{ P P P P { P P P P P P P P P P P P P P P P f.P P P P P P P f.f.P P P P P P P f.f.P K g.P P g.P H ].L = l W.c.P h.g.g.c.g.g.g.H L g.P P P g.c.g.P g.g.g.g.L g.g.g.P L P g.g.g.g.G g.g.h.g.g.g.P g.P h.G P h.g.P P P g.P L P c.L L P g.G f P S * Z n.c.P g.h.g.L g.P P P H j.P L P L L g.g.c.g.H F G P L P L L g.P H P L L L L H P L P L g.L G g.H L L G g.L P L H L P H P G G H c.H c.9 F L G ",
"G G H G G H G G P L G H P P G G L P L L P L L L L P L P L P P g.P L P g.g.L P L P H L G b.v.A a 3 i./.>.>.P P P { { { P A.f.P J P { A.{ { { P P P P P P P P P P P P P P f.P P P P P P P P P P P P P K P P P P P P g.g.P P P L H G G [.g.8 l W.g.L g.g.g.c.g.g.g.G g.c.P g.P G v.c.L P g.P g.H P h.h.P P P L P P g.g.g.g.g.g.g.g.g.g.g.c.g.g.c.g.g.g.P g.g.L P g.P P g.g.L n g.Z * Z b.c.g.P g.h.L P g.L H H c.P P L H G L P h.P L P H L L L L L P g.g.L L L L L L L H P P G P L G g.L H F P P P P L L L H L H G F c.H h.9 Z H G ",
"G G K H G P L H P L G G g.G H L H g.L H G L P P L P g.L L P P P G L g.g.P L L g.P L H H b.c.A y 6 {./.{ P P P P { { M.P P K P P P P J P f.P P f.P P f.P P P P P P P P P P P P P P P P P f.f.f.P P f.P P P P P P P P z.g.g.g.L L G F ].c.8 l W.c.g.h.g.g.g.g.g.g.g.g.c.g.g.g.F G c.h.P g.G L h.g.P g.P P g.L g.g.H L g.g.g.c.P g.g.g.g.c.h.P g.c.P g.g.g.P P g.g.c.P g.h.L Z c.N * F b.c.P L P h.g.P P h.P h.h.g.L P g.g.P G g.P g.g.g.L P g.P P G P g.g.L L g.L H P H P L Z H L G P L L g.G H H L L H L L L P L G g.H P 8 F G L ",
"L P P G L L H H L H H L H G g.L L G P G H P L P P P L L L L g.P P P g.P L L g.L P P H G b.v.V 5 6 (.U.>.P P P P P { P P P f.f.K P P P P P P P P f.f.P P P P P P P P P f.f.P P P P P P P P P P P P P P P P P P P g.P P P g.g.g.L H F '.c.8 x ).g.c.g.g.g.c.g.h.g.g.g.g.c.g.c.c.g.g.c.c.g.P g.g.h.g.P g.g.c.g.L g.L H g.P g.g.P g.h.g.P g.g.g.g.g.g.P g.P H L P g.P P L G Z M c.g 8 P b.g.L P P g.g.g.L g.P g.g.L L g.P P g.L P g.g.P P L L c.L L L L P g.P L P L L P L L P H G L g.H L L H L H L G L G P G H L P L P H P 8 Z F H ",
"H P P H L L H G L P L H H L g.L H G L H L P P L P L P P H L g.H g.L L H L L g.L P L G G n.v.A 5 6 i./.{ P P { P P P P P P P P K P P f.P P P P P P P P K K P P P P P P P K P P P P f.P P P P P P P P P P g.g.g.P g.g.g.g.s.g.g.P L G ].g.- z ).g.h.h.P g.c.g.g.g.g.g.P g.P P h.c.g.P c.g.g.c.h.g.c.g.g.P g.g.P g.c.P P g.g.P g.g.g.P g.g.g.g.g.L P h.h.g.g.g.g.P g.g.F F Z g P f * P b.g.L L g.g.g.g.g.P P G c.P P g.P L g.P L h.g.P g.L L P P g.g.L G c.g.L L G L L H L L g.H L c.L L g.G G L L H P H P H L L L L c.L P 8 F L G ",
"G J K G H P L F L P L H H L P H H P Z G L h.g.F G g.g.P L L L P g.H H P L P g.g.g.P H F v.j.A y 5 e.(.{ P { P P P P P K P P P P P f.P P P P P P P P P K K P P P P P P P P P P P P P P P P P P P P P P P g.P P P P P g.g.P P P P L G ].g.- z ).c.h.g.g.g.g.P P g.g.g.g.g.h.c.g.g.g.P g.g.g.g.L g.g.h.c.g.g.g.g.g.g.P g.c.g.g.g.g.g.c.g.h.g.g.P g.P g.g.P g.g.g.P g.g.c.P H g.v.g 0 P b.g.P L P P P g.g.g.L G H P h.g.L P L g.G g.g.L P g.g.L P P P H G g.g.L P P H L P P G L G L L L L P L H L H L g.L G L H L L F g.P L 9 G G G ",
"G G H F H L L P G G L L G H L L L P L P P P g.G P g.g.L L P g.L L L g.g.P L g.g.g.L H F h.v.D y p 8.U.M.P P P P P P P P P P P P f.f.P P f.P P P P P P P P P P P P P P f.P P P P P P P P P f.P f.P P P P g.P g.g.g.P g.c.g.g.P P L G ].g.- x v.c.g.c.h.c.c.c.g.g.c.g.h.h.P g.g.g.g.g.g.P P g.G P g.L P c.g.g.P c.g.g.g.P h.g.g.g.P L g.g.h.g.g.g.g.P g.P g.g.g.g.g.P c.G G G c.f t g.b.H Z H g.P g.P P g.g.h.P G g.c.L L g.g.L P L L L h.P P P g.P H G L P Z P g.L L L P L L H L L P G G P G g.L P P H L L L G L G L g.H 9 G H G ",
"F L L L L L P g.F G P g.G H P H L g.P P g.P g.P P h.P L c.P g.P g.g.g.g.H P P g.P L L G c.n.S > u 5.V.{ P f.f.P P P f.P f.f.f.P P P P P P P P P P P P P P P P P P P P K f.P P P P P f.P P P P P P P P K f.g.g.P P g.P g.g.g.g.s.L G ].c.* N v.c.c.h.h.c.g.h.c.g.h.L c.c.g.P g.g.c.h.g.g.g.g.h.P P g.H c.c.g.h.g.g.h.h.H h.g.g.g.c.g.P g.g.H h.g.g.g.g.g.g.g.g.g.g.P g.P Z g g.0 7 g.b.s.g.g.P P P P P g.g.g.g.P P G g.P P g.g.g.L L P P P P L h.P P L g.g.G L g.H H g.P H H H H g.H H G H L H L G P H L P P H L H P P H 0 G P G ",
"Z G P P s.L s.g.P g.c.g.f.f.f.P f.z.z.f.P P f.f.f.f.P g.v.g.k.P k.f.z.f.g.g.z.g.g.c.g.G b.].F q s | U.M.A.A.H.f.A.A.A.H.A.A.A.A.{ { M.A.A.k.f.P f.f.f.f.P f.k.k.P A.f.P f.f.f.k.k.P P f.P f.k.f.f.f.f.f.k.P k.f.f.f.f.f.c.g.g.P L H ].c.- A W.c.c.c.c.g.g.h.c.c.c.c.h.j.g.c.c.g.c.c.g.c.c.c.c.g.h.g.g.c.c.g.g.c.g.g.c.h.g.c.h.g.g.c.P g.c.c.c.h.g.c.g.P g.c.h.g.g.g.c.h.G m L 9 9 g.b.g.h.h.g.P g.g.P P g.g.c.c.L F P g.g.g.g.g.L h.g.g.P g.L g.g.P P P g.P g.g.P F P g.L L G H g.L g.P P P H P G L P G P P G L L L P L t L P H ",
"G G F H g.P P G P P K P J P P J J P { K >.P { P A.P H.J.H.P A.A.A.A.A.J.).W.W.).J.H.x.P b.[.S q V >.P M.P P P P { P >.{ { P M.{ >.J >.{ >.{ P P A.A.A.P A.H.P A.A.A.A.M.A.H.H.J.J.W.A.A.A.A.H.J.R.R.R.J.W.R.J.W.).).).A.W.).v.v.c.g.].c.w J ).W.v.v.).v.b.v.v.v.v.v.L P b.v.v.v.v.c.c.c.v.c.j.v.c.c.c.j.v.v.c.v.c.c.c.c.c.c.c.c.c.c.h.c.c.c.c.g.g.c.P P c.j.j.c.c.c.c.c.g.g.g.0 n H h.c.c.c.j.c.c.g.P g.v.g.P c.h.h.P c.c.P g.P g.c.g.c.P g.g.g.h.c.g.H g.P g.g.g.P g.h.c.g.g.L g.c.g.P g.g.P g.h.h.g.g.P g.L g.h.G L P f g.P P ",
"G G P A.A.P P P P P J S x l d i i l l l l l l l l l l l l l l z z v v x V x x x x z z f N Z J z S J D S A A A A S b > V S A A A V V V V N A A A J S J J J A J J D S S ( S ( J J J >.( ( >.{ >.>.>.>.( | #.( J J J >.>.v A P P P G G H G N S J J J J J J K P J K P K S G g.P g.g.c.g.g.h.g.g.g.c.h.c.c.c.j.v.c.v.v.v.v.v.b.n.b.v.v.v.b.v.v.v.v.b.c.c.v.v.c.v.v.c.c.b.c.v.c.c.P r Z j.b.v.c.c.c.b.h.c.c.c.b.c.g.c.v.v.c.v.b.j.v.c.h.v.c.b.c.c.c.v.g.v.v.j.c.h.h.c.c.c.g.c.c.c.c.j.g.v.v.g.c.P c.v.j.P c.v.g.g.v.j.b.F g.H g g.P P ",
"g l v l l l v x v x z V N A A N A N N V N V V x x x z z z x z V N V v l v l l l l l l t e r f z x x z x z z z z x V x x z l z z N N z z z z z z l z z z l l z v v v l v l l d l l i i i i i i i i i i i d i i i i d d i i e i e w 9 9 9 e t e e e q e w e e e e w 0 0 0 9 9 9 9 9 0 0 0 0 0 0 0 r f t r t r f f f f f f f g g g g f n n g g g n n m M M M g Z Z Z G F P P F L f n F P G H G g G G G L H G G F H G H H G F G G G F L G G G P G F F F G G H L G F F P F M Z Z G Z F M G F Z f 9 r r 9 g G G F H G n f n g r f g g ",
"z x z z z x x V N N N N Z J F S S Z Z Z S Z Z Z Z C N Z N Z Z Z A N N N N N N N N N N Z N N n N N Z Z Z Z Z Z Z Z Z F F Z Z Z Z Z F F Z Z Z B n n n n g x N N g x N N N z z x z z x x x x z z z z N z x x z x V V N N z z z g h g g n n n n n n n f n g g h h g g n n n n g n n g f g g g f f g g g g g f f f t f t t f t r r f t t t t 0 0 0 0 0 9 9 9 0 0 0 0 r r r f f r t t 0 9 9 9 0 0 9 9 9 9 9 0 9 9 9 8 8 8 8 9 8 8 8 9 9 9 8 8 8 8 9 0 8 9 0 9 9 0 r 0 9 0 0 9 9 9 9 9 9 8 8 9 8 8 8 8 8 8 8 8 8 8 9 r 8 8 9 0 f t f f ",
"B N C Z Z Z S S Z S F G G Z Z G H L Z g F P L L H G H L G G H G G G G G H H G H L G G H L H G L L L F L G L L H L L P P L L P L P P g.g.g.g.g.P L L L H G G G G H H P H G G G F F Z F Z F Z F Z Z F Z Z F Z Z F Z Z F F Z F F F F F F F G F F G F G G G G G G G G G G G G L G G G F G G G G G G G G G G H H G F G G G G F G G F G G G G F F F Z Z Z Z Z Z Z M Z Z M m n n n n n n n n n n n n n n n n g g g g n n g g n g g g g g g g g g g g n n g n f f f f f f g n g g g n n g g f g f f g g g g g g g g n n n n n n n n n n ",
"G G G L G G G G F G Z G c.h w H g.P G H G L G H H L P L H L L G L H H H L P P P g.H L P L L P L P L G G H L H H G G G G G F G L G F G F F Z H L g.g.g.c.h.c.c.c.L F G h.c.c.c.c.c.v.c.v.v.v.c.c.c.P g.c.c.c.c.c.c.j.g.g.v.c.c.j.c.c.c.c.v.c.c.j.v.j.c.c.c.j.j.v.j.c.c.v.j.v.j.v.v.v.v.v.v.b.b.b.v.v.b.b.g.c.v.v.v.b.v.v.v.v.j.v.v.j.v.c.v.b.v.v.j.c.j.c.c.c.c.c.h.g.P L P P P g.g.g.P P g.g.h.g.P g.g.g.g.P g.g.g.P P L L H L L L G G L L L H P P L H G G H H H H P g.H G G G H G G G G G F G G H H H H H L L P L L P L H L G G ",
"G G L L G H H G G G F G b.Z w P P P L G L P H L H H L L H L H L H H L G L P L L H G L G H P H G L L L G G L L L H G L L G H L L H H G G H H H L L H G G G G G P G 8 9 g.L G P H L P g.H L P G L g.P P L L P P L L c.G Z P G H H H H H G L H H H G L P L G H G H H L G G H G L L H H L L P L L L L P P v.n g G G G G G G G L G G G H G G F G H H P P H L L H g.P L L L g.L L L P g.P g.g.g.g.g.g.P g.g.g.g.c.g.P g.g.h.g.c.g.g.g.h.h.g.c.c.H g.g Z c.v.c.g.v.c.c.c.c.c.c.h.H G F L g.g.P P P g.P L h.g.P P L P G G H G L L P P P ",
"G F G G H G G L L L L P v.C w P g.P L L g.g.g.g.P g.P P L L L P P L L L g.L P G L g.L H P g.L L L L P P g.P g.g.L P P L P g.P g.P P L L P g.g.P L L L L L P P b.b.8 q v.g.P P P P P L G H P G L H H g.P P P P P L P g.g.P P P P H L H G L L G H G G G H L P H L P g.L L L L P g.L P g.H G P P P H P G v.n n g.H H H G F G G P H G H P L G Z G G H G F H G G H G G H H H H Z G G G G G G G G G G G H G F F G H F Z H G G L G H G G G F g.H Z v.0 n G L P G G G G H F G L L G H G G H G H H L H G F H G G G G F Z F G F G G F G H ",
"G G L L L G P L L P H L v.N e k.c.h.P P g.P g.g.g.L L P P g.g.g.P H L g.g.P P L g.h.P g.g.g.g.P g.P g.g.g.L g.g.g.g.g.P g.g.g.g.g.g.g.g.c.g.g.g.g.g.L P P P g.b.c.7 w '.v.c.c.h.P L G H g.g.g.g.g.g.g.g.g.g.g.P g.g.g.g.g.g.g.g.P P g.g.G P g.g.P L L P g.g.g.h.g.g.g.h.c.g.g.c.g.H P g.g.g.P g.g.g.P b.n n c.g.P P L L L F L P P P P P P P P L P L P P P P L L H P P P g.L H P L L H L P P H P P L H H G P L L H P P G P P L G L H G L H Z b.f F P G P L P P G H L G Z P G L P P L L L P P G L G G L L G L H G L G L L L G L H ",
"L H P L L H g.G L L G P b.N e z.g.L P g.g.g.g.P P P P P g.c.g.g.g.g.g.g.g.g.g.g.c.P g.P P g.g.g.g.g.g.g.g.g.g.g.g.P g.g.g.h.g.g.g.h.g.g.g.P P g.g.g.g.h.g.P P b.c.q e '.c.c.h.c.g.g.g.g.c.c.h.h.c.c.c.c.c.c.h.g.c.c.h.g.g.c.g.h.g.g.h.g.L h.P h.g.h.c.g.g.c.g.h.c.c.g.g.c.c.c.g.g.g.g.P c.c.g.g.c.h.g.b.n M h.g.L P g.g.g.L L g.g.g.g.g.g.g.g.g.g.g.P g.g.g.g.g.P g.g.L g.g.P h.P L P P P L L g.g.P L L L P P P H H g.P L L g.H P L L G L G n.t G c.g.P P P g.P L g.L G L P P P L P L g.L g.L L L G L P G G g.L P G L H H L P L ",
"L L P L L H L L L L L P c.N r z.P L P P g.L g.P P P P g.g.g.g.g.g.g.g.c.g.P g.h.c.P g.g.g.g.g.g.g.g.g.g.g.g.h.g.g.c.g.g.h.g.g.g.L g.P g.g.g.h.h.g.c.c.g.g.g.P b.v.q q '.c.c.c.c.c.c.c.c.c.c.c.c.c.c.c.c.c.c.c.c.c.c.c.g.c.j.c.c.c.c.c.c.h.c.h.h.c.c.g.g.P g.h.g.g.h.c.c.c.c.c.c.c.h.c.g.c.h.h.g.j.c.c.v.n Z c.h.g.g.g.c.c.P P L g.g.g.g.g.c.c.g.g.g.g.P P g.g.g.P P g.P P P g.g.h.g.P P g.P H g.P g.g.P g.P P P P P P P P L L P L g.g.P H H n.0 G h.g.g.g.G g.g.L L P P L P g.L H L P P H G L L L L L P L F P L P L L P H L P L ",
"H L L L P H P P P P L L c.n r g.c.c.P g.L P g.P h.L P c.P P g.h.P g.g.h.L P g.g.h.P P g.P g.g.L P g.g.g.g.g.g.g.c.h.c.g.g.g.g.h.g.h.g.g.g.h.h.c.g.h.h.c.g.P P b.v.q , '.v.c.c.c.h.c.c.c.c.c.c.c.c.c.P c.g.g.g.c.c.c.c.c.g.g.h.h.h.g.c.h.c.c.c.g.g.c.h.h.g.c.c.c.g.h.c.g.g.c.g.c.g.g.c.h.c.c.c.g.c.g.g.n.n F c.h.g.g.L P c.g.P g.g.g.g.g.P P g.g.h.g.h.P P g.h.g.P g.g.c.P P g.g.H j.P L P g.L H P H g.P P g.P P g.P L P P g.P g.P g.P h.G G n.0 G c.g.P L L g.g.g.g.g.L G g.P g.L L P P L H L H P L L P P G P L P P H g.L L g.L ",
"H P L G L L L P L L P P c.h f c.h.g.L g.P P g.g.s.L g.c.L P g.g.P g.g.g.P g.g.g.g.L g.P c.c.L g.h.c.h.g.g.g.g.g.h.g.g.P g.g.c.c.c.c.c.g.g.g.h.c.h.g.g.g.g.P L v.v.q > '.j.c.c.c.h.c.c.c.c.c.c.c.c.g.G c.c.c.c.g.c.c.c.g.c.h.c.h.c.c.c.c.c.h.c.h.c.h.c.c.c.c.c.h.c.c.h.g.g.c.c.c.c.c.c.c.c.c.c.c.c.g.g.v.n F v.h.g.g.g.g.c.g.g.g.g.c.P g.P L P g.g.g.g.g.g.L g.h.g.P P h.g.g.P P G P g.L g.P P P P P L P G g.g.H P h.g.P g.G P h.G P P g.F Z b.7 F v.h.g.P P g.L P P P P L P P L g.L L P H L P H P L L H P G L L L H F h.H L P P ",
"L g.L L g.g.L P H L H P c.g f c.g.g.P c.g.L g.g.P P g.g.P g.c.h.g.g.c.P P P g.c.P g.g.h.c.g.P h.c.h.h.P g.P g.h.h.g.g.g.g.g.g.g.h.c.c.g.g.g.c.h.c.g.c.g.g.g.P b.b.q , '.v.c.c.c.c.c.c.c.c.c.c.c.c.c.c.c.c.c.c.c.c.c.c.c.c.c.h.g.h.c.c.g.g.c.h.g.g.c.g.g.c.h.c.c.c.c.c.c.c.c.c.P g.c.h.c.c.c.c.c.h.g.j.g.g F v.g.g.g.g.G g.h.g.g.H g.c.g.h.g.g.c.g.g.g.g.P P P g.g.P P P g.c.g.L g.P P P g.g.L P L g.P L L L P P G g.g.P P G Z v.P L P g.F Z b.7 Z c.P c.g.P G c.g.P P g.g.L P L g.H P g.L L g.P H P P H L L H P L Z G g.H L L L ",
"G P L L h.G G P g.L H P c.g g c.P h.L g.H L g.P P L c.P g.g.h.g.g.P g.g.g.g.g.h.g.g.g.c.P P h.g.g.g.g.g.c.g.c.g.P g.g.g.g.c.c.c.g.g.g.c.c.g.c.g.c.h.g.g.g.g.H b.b.q > ).v.c.h.g.c.c.c.c.c.c.c.c.j.j.c.c.c.h.c.c.c.c.c.h.c.c.h.g.g.h.c.c.h.c.c.h.g.c.h.g.c.j.c.c.c.c.c.g.g.c.c.g.c.c.c.c.c.c.c.g.c.c.h.c.g F c.g.g.P c.g.P P g.c.c.P P P c.g.g.P c.g.h.g.h.g.P P P P c.P G j.c.L P g.g.g.g.g.g.P P P g.G P P L g.L P P P L P H P g.g.P h.P G n.9 G c.P g.c.g.H H g.L g.g.g.L g.g.g.P H L g.L P g.P H c.P H L P g.L H H g.G L L L ",
"L P P P L L P P g.L G g.c.f g c.g.g.P L L P g.L P P c.G g.g.g.g.P P g.g.P g.g.g.g.g.g.P H g.g.g.g.h.g.g.g.c.c.g.g.g.g.g.g.c.g.h.h.c.h.h.g.g.c.P c.c.g.g.c.g.L n.v.w > '.v.c.P g.h.h.c.c.c.c.g.c.c.c.c.c.c.c.c.c.c.c.c.c.c.c.c.c.c.h.h.c.c.h.g.c.c.c.h.c.h.c.c.c.c.c.c.c.c.c.c.c.c.j.c.c.h.c.g.g.h.h.g.v.n G j.c.g.g.P g.g.P P c.c.P g.P g.g.g.P P g.P P g.g.P g.P g.P c.P P g.P g.P g.G F P g.g.g.g.L P G s.g.g.s.L P L P P P L G L L G P g.c.9 H c.g.L g.P h.g.g.g.P g.P L P L g.g.G H g.g.L L L M P g.L H G P P G H g.H L P P ",
"H H P g.G P g.L P H g.g.c.f g c.g.g.g.g.g.g.g.P g.g.g.P P g.g.g.P h.g.g.L g.g.g.g.h.c.L g.c.g.c.g.g.P P g.h.c.g.h.c.h.h.h.g.c.c.g.h.c.g.g.g.g.g.h.h.c.c.h.g.P n.v.q : '.b.c.c.c.c.c.c.c.c.c.c.c.c.c.c.j.c.c.c.c.c.c.c.j.c.c.c.c.c.c.g.c.c.c.g.P g.g.c.h.c.g.P L h.c.c.c.c.c.c.c.c.c.P c.c.g.g.c.c.c.g.v.n G c.g.g.g.g.g.g.g.L g.h.P P g.g.g.g.g.g.g.g.P P g.P c.c.c.L c.g.g.P g.g.P P M n g.L g.P g.P g.P H L g.P L P h.P L P H G L P H G g.c.9 P c.h.g.g.L P g.P P P P L L g.P L g.P L L L L L G F P P H G L P g.L P G G L P L ",
"L G G L L P c.g.P H P g.c.t n v.P g.P g.P H g.P g.g.g.P P g.g.h.g.g.g.g.g.g.g.g.h.g.g.L g.c.g.g.g.P g.h.c.c.P H h.c.c.c.c.g.g.h.c.g.g.c.h.g.g.c.g.g.P g.c.g.P n.v.q : '.v.c.c.c.c.c.c.c.c.h.c.c.h.c.g.g.c.c.h.c.h.g.g.h.c.c.c.c.c.c.c.c.g.c.c.g.h.c.c.c.c.g.c.g.P c.v.c.c.g.g.c.c.c.c.g.c.h.g.c.c.g.g.v.n G c.g.g.g.g.g.g.g.L P g.g.g.g.P g.h.g.c.g.g.P g.h.P L P c.g.P g.g.h.g.g.g.g.P L L H P P P P P g.L L P P P G g.P P P P P P P L H g.g.9 P c.g.g.g.g.L L L L L g.P P P g.L g.g.P P P g.P P L L g.H G H H g.g.L F G L P P ",
"P P L L g.g.g.g.G L P P h.t n c.g.P g.g.L g.g.L g.g.P h.g.g.P c.P G P g.g.g.g.g.h.P g.g.g.g.g.c.P h.g.g.c.g.g.g.c.c.g.g.g.g.h.h.h.g.c.c.c.g.h.h.g.c.c.h.c.g.L b.).q ; '.v.c.g.c.c.c.c.c.c.c.c.c.c.c.c.c.g.g.c.j.c.h.c.c.c.h.g.c.h.h.H g.c.c.c.c.c.g.c.c.c.c.g.g.g.g.L c.c.c.h.c.G L v.c.c.c.c.P g.c.g.j.g H c.g.g.g.c.g.g.g.P P g.c.c.g.g.g.g.g.g.g.P g.g.c.h.g.P H P c.L P g.g.g.P P g.h.P P g.g.g.P P P g.L g.P L P P g.P h.P P h.P P G h.g.9 g.c.g.P H g.P P P P g.L P g.g.g.G G g.L L P G g.P g.G L P L L G F g.P H H P P L ",
"P P P G g.P P L L P P g.g.0 g j.P P g.P P g.P H h.g.g.g.g.P g.c.P H P c.c.g.g.g.L P c.g.g.g.g.g.g.c.G H g.g.c.c.c.g.g.g.h.g.c.c.g.g.c.g.c.g.h.h.c.c.c.c.g.g.L b.b.q ; '.b.c.g.c.c.g.c.c.c.c.c.c.c.c.c.c.g.c.c.c.h.c.c.c.c.g.g.g.c.c.P g.c.c.c.g.g.g.c.c.c.c.c.c.c.c.P c.c.c.j.c.g.c.c.c.c.c.c.g.c.g.h.c.g H c.g.P g.c.g.g.g.g.c.g.g.g.g.P g.c.g.g.h.g.g.L P g.c.P g.g.g.g.P g.P c.g.L L P L G P L c.g.L P g.P G G P P P P L g.g.L P L g.G h.g.t g.c.P c.P g.g.P P P g.P H L L g.L L P L H P L L H L P L H H P P H L P G H g.L P ",
"L L L P P H P P P P c.L g.0 g b.g.g.g.g.g.g.P L g.P P g.g.g.g.P L g.h.g.g.g.g.g.P c.c.g.g.h.h.g.c.h.G P g.g.g.g.g.g.g.c.c.g.h.g.g.g.c.c.c.c.g.c.h.c.c.g.h.g.L v.v.w = '.v.c.g.g.c.c.c.c.c.c.c.c.c.j.g.c.j.c.h.g.c.c.c.c.c.c.c.c.h.c.g.g.h.c.c.c.g.g.c.c.g.h.c.c.c.c.c.c.c.c.j.c.c.c.c.c.c.c.g.c.c.g.g.c.n P c.g.L P g.g.g.c.g.P g.P h.P P g.P P g.g.g.g.P P g.g.g.g.g.g.g.P g.L P g.P g.P P g.g.P P h.g.P P g.g.L g.P g.P P g.g.G F P L G c.c.t g.c.g.g.g.g.g.P g.P g.g.P P H P H L g.g.P L g.P g.H P c.L L P P L g.P L L P P P ",
"L L P P P P g.g.P g.g.P c.r n b.g.g.P g.g.P g.g.g.L g.c.L P h.g.c.c.g.g.c.c.g.g.g.g.g.g.g.g.h.g.h.c.c.c.h.g.c.g.g.h.h.c.c.c.g.g.c.g.c.c.g.c.g.h.g.c.g.g.g.g.P v.n.t > '.v.c.c.g.c.c.c.h.c.c.c.c.P c.c.c.c.c.c.c.c.c.c.c.c.c.c.c.c.c.g.h.c.c.g.c.c.c.c.c.c.c.g.c.c.c.c.c.c.c.c.c.c.g.g.c.c.c.g.h.c.g.g.c.n g.h.g.g.c.P h.H h.c.g.g.P g.g.h.P g.c.h.g.g.g.g.g.g.g.g.g.g.g.g.c.j.g.P g.P P g.g.P P g.P P g.g.L L P P P P P P L H P Z P P P G c.h.t c.g.g.g.P L g.P g.P P L g.L c.L L L P g.c.g.g.P g.P G g.P L L L L P g.L h.g.g.g.",
"P g.P P L P g.h.h.g.c.c.g.t M b.g.v.v.h.g.c.c.j.g.g.c.c.G g.c.j.c.c.g.L v.g.H g.v.j.c.c.c.c.c.c.j.j.c.g.c.c.c.j.c.c.c.c.c.c.c.c.c.v.c.j.j.j.c.c.c.c.c.c.c.c.c.b.b.f > ).b.v.v.c.c.c.j.v.c.v.v.c.P c.c.c.c.c.j.c.g.c.j.j.c.v.c.c.j.c.c.j.j.c.c.c.c.v.c.j.j.j.c.j.v.c.c.c.c.c.c.v.v.v.j.h.v.j.v.c.c.c.c.c.m c.v.c.c.j.c.c.P P c.c.c.c.g.c.c.g.g.c.c.c.h.c.g.h.h.h.c.c.P g.P G g.c.c.g.g.P g.g.g.P P g.P P c.P g.h.P P c.P g.g.P P L g.P g.H j.P r h.h.c.g.h.L g.c.g.g.P g.P P g.P g.g.g.L P g.P P g.g.g.g.g.P P L L P P G P g.g.g.",
"s.g.g.P g.g.h.c.c.c.c.c.h.n Z n.c.j.g.c.c.c.v.c.c.v.c.c.h.c.j.j.j.v.c.c.z.z.g.c.b.c.j.j.v.b.v.v.v.v.v.x.v.v.c.c.b.v.v.v.v.v.v.v.b.b.v.b.v.j.v.v.v.b.b.v.b.v.v.n.n.f > J.'.n.b.b.v.v.b.b.b.b.n.v.b.b.b.b.b.b.b.b.v.b.v.v.v.v.c.b.v.v.b.c.b.b.b.b.b.b.v.v.b.b.n.n.b.b.v.b.b.b.v.n.n.v.c.v.j.b.b.b.n.n.b.c.n v.b.v.b.b.b.b.b.c.j.b.v.b.v.b.v.c.v.b.b.j.h.v.v.v.v.c.c.n.v.v.v.g.h.c.j.v.c.c.c.h.c.v.c.c.h.c.c.c.c.c.j.g.c.c.c.c.v.g.v.c.v.g.L b.P g c.c.c.c.c.c.c.c.g.g.c.c.h.c.j.c.c.c.g.P H L c.h.h.g.g.g.g.P P g.g.P P P g.g.P g.",
"G L H G H G H G F Z Z m n g 0 g g t f t f f f f g g g g g f g g g x g x g x N N N n N N N N N N Z Z Z Z Z C N N Z Z Z Z Z Z Z Z F Z Z F F F F F F F G G G G F L h.N > z K F Z Z Z Z F F Z G G G G G G G G H G G H H L L L g.g.g.g.h.c.g.L g.P g.h.g.H P g.P G P g.c.g.c.c.g.g.c.g.g.P c.P L g.g.c.c.c.F f F F F K n F P G F g.P H L L g.P H H g.g.L L P g.h.g.h.n F c.v.c.v.v.h.c.c.v.c.j.g.h.h.c.c.c.h.c.v.j.v.v.v.v.v.v.n.n.j.v.b.b.g.P n.c.G h.b.b.b.b.j.j.g.b.c.v.v.v.g.j.j.h.c.g.h.g.h.P h.g.P g.P P P P L P L H H G H H H ",
"n n n g g n g g g g f f g g g f t f f g g f f f f f f f f f f f f f f f t f t r r r r t t f r r f t r f f t t r 0 r r t r r 0 0 0 0 9 0 9 0 0 0 9 9 9 9 8 9 9 9 t f f t t 0 0 r 0 0 0 9 9 9 9 9 0 0 9 9 0 9 0 0 9 9 r r 0 r t 0 0 0 0 0 9 9 0 0 9 8 9 9 e 0 e q q 8 8 9 9 w 8 q q q q w q 8 8 9 8 9 r f r e 0 0 e 0 0 0 w e e w w 0 w 0 9 9 0 0 9 0 9 0 9 9 0 r 9 8 0 0 0 r f 0 r 0 0 0 r r 0 0 r 0 r 0 0 r r 0 0 9 0 r 0 r 0 0 0 0 0 0 0 r 9 t t g f g g f f r f g f f f g n g f f g f f g g n g f f g g g g g n n g g n g g g ",
"g g n n n n n n n M Z F F G G G G G H L L G F Z H L H L L L H G G H H G G H G G G G G G G G F Z F G G G G G F F Z F F F F F Z Z Z Z Z Z Z Z Z Z Z Z n M n Z Z Z Z Z F F Z Z Z Z Z Z Z Z Z F F Z Z F F F F F F F F G G G F F Z m n M n M n n n g n n n g g g g g g g g g g g f f f f g g g g g g n n n n n n n n n m Z n n n n n g n n n n n n n g g n n g n n n n g g g g g g g f f f f f g f f f f f f f t f t t t t r 0 0 0 0 t t r t r t f f f f t t t f f t f t f r t t r f f f f f f f f f f g g f g f g g g n n g n n g g ",
"L H L P P L P L P P P P H P L g.L M L P G H L G L P L G P L H G c.g.P L P g.g.P g.c.c.c.g.h.c.P Z n P c.c.c.c.c.c.c.c.g.c.h.g.c.j.c.c.c.c.g.g.g.g.h.g.g.c.c.c.h.g.g.c.c.c.g.c.c.c.P g.c.c.L G c.c.P g.L L P P L L g.H G H L L P g.g.H G g.c.c.g.g.g.g.g.g.g.H G P P L P L P P P P P P g.g.g.g.g.g.g.P P g.P P g.P g.h.g.L g.g.g.P L L P P g.g.g.P P g.g.g.P P g.P L P g.L L L L L L L G G G G G G G G G G G G G G F G G F G F F G F G G G H H H H G G L G H L L L H L H L H G H H L H L H L L H H L L L L H L L H L g.Z P g.L P ",
"L L P L L P P L L P G G G G L P L P L H P P P P G H P H G H P g.G G H P P P H G P P P G G H L L F 0 P P P P P P g.g.H H g.g.g.c.g.P g.h.g.g.h.c.g.g.c.g.g.g.g.P h.g.g.P g.g.g.g.g.g.g.g.g.L L c.g.L g.g.g.h.c.g.g.P g.P L G P h.c.c.c.n 9 m g.g.g.g.g.c.c.g.c.c.c.c.c.c.c.c.c.c.c.g.g.c.c.c.c.c.c.c.g.g.g.c.h.g.c.c.g.c.g.g.c.j.c.c.c.c.c.j.j.h.c.c.v.c.v.c.c.v.b.v.v.v.v.n.F Z g.c.c.j.j.j.v.c.j.c.v.c.c.v.v.j.c.j.v.v.v.v.c.v.v.b.v.c.v.c.v.c.c.c.g.g.v.j.v.j.c.c.j.c.c.c.c.v.h.c.h.c.g.g.h.g.g.P P P g.P P P L P g.n H g.P L ",
"G G G G G G H G G H L g.P L P L P P G L P P L g.P P P P P g.g.P F L g.g.P L L L P L L G P P P L F 9 G P g.g.g.h.g.g.g.g.g.g.c.c.P P g.g.P g.g.g.g.g.g.h.g.g.g.P g.g.L P g.g.g.g.g.g.P g.g.g.h.h.g.g.g.h.h.c.g.h.g.P g.c.g.c.c.c.g.g.v.G f P c.P P P P H H G P g.g.P g.P P L P P P P L P P P P P L P L L L H P P P P P P P P g.g.g.P P P P P P L g.g.P P P L L L P P g.g.g.b.G . g c.g.P H H P G P H G H H L L H G m Z Z F F M F F Z L G F n Z G F F G Z G G H H F G G Z G G M F G G G G G G G F G G G G G G F F F H P g H P G F ",
"G g.P G G L L P g.P P P g.P L g.h.G g.g.P g.P P g.P P g.g.g.h.P P P g.c.g.P P P P g.g.c.P g.c.g.F 8 L P c.c.c.c.c.h.c.c.c.h.c.g.P g.c.c.h.c.c.h.c.h.g.g.g.c.c.c.c.c.h.g.c.h.g.c.c.h.c.c.g.g.g.c.g.h.v.c.c.h.c.c.c.g.c.h.c.P h.g.g.c.b.Z g v.c.g.g.g.g.P P P P P g.g.g.g.g.g.g.g.P P g.g.g.P P P L L g.h.g.g.g.g.g.h.g.g.g.g.g.g.g.g.P L P g.H G P H g.L L g.g.g.g.g.g.H H v.c.8 n c.g.P P H H P L L L G L P P L G F Z m Z M g n n Z H G G H G H G G L G f G G F Z G H Z Z G Z G F H G G G G G G L G H H G H G G G L H f G g.L L ",
"H P G P g.g.L g.g.g.g.c.g.P P g.P G c.g.P g.P g.g.g.g.g.g.g.c.g.L P h.c.P P c.h.g.h.g.g.L g.v.g.H 0 H P g.c.c.c.g.g.c.h.c.c.c.g.c.c.c.g.c.h.c.c.c.g.h.c.c.c.c.c.c.c.c.j.j.c.j.v.v.c.c.c.c.c.c.c.j.c.c.c.c.c.c.c.j.c.v.j.c.c.c.c.c.c.n.Z f c.c.c.c.c.g.h.g.h.g.P g.c.g.c.c.g.g.g.c.c.g.g.g.L g.P g.c.c.j.g.c.h.c.g.c.g.g.g.h.c.c.g.g.g.g.L c.h.G G P c.g.g.P G L c.c.c.G H n.g.- n v.c.g.P P L P P g.g.P L P L P L L P P P g.h.g.G P P L L L P P L P g.P F G P H Z G L P L L G G H G P H P H H G H L L H G L L H G L G 0 g.c.g.L ",
"L P P P P g.P P g.c.g.h.L L P g.g.g.g.P P h.g.g.g.g.P g.P g.g.g.g.c.c.c.g.g.g.c.g.h.j.g.g.g.g.g.L r L h.c.c.c.c.c.j.c.c.c.c.h.h.c.c.c.c.c.c.c.c.g.c.c.h.c.c.c.v.c.j.j.c.c.c.v.j.c.j.g.c.c.c.c.j.c.P c.c.c.c.j.c.j.j.c.c.c.c.c.c.c.v.n.F t c.c.g.c.c.c.g.g.c.c.c.g.c.g.g.g.c.c.g.c.c.c.c.c.c.c.c.h.c.c.g.h.c.h.g.g.c.g.c.c.P G P c.c.c.c.c.g.c.h.g.g.c.h.j.h.G G g.P v.g.L b.g.7 Z v.h.h.P G P g.P g.P P P P P g.P g.P h.P g.g.g.P L g.P L H L h.L L P g.L g.P P P L g.P P G P P L G L P L P L H H H H G L H L P G g.G 9 H c.g.P ",
"g.g.P P g.c.P c.P P P P L g.g.g.g.P P g.g.g.P g.g.g.P g.g.g.c.P h.h.g.c.P g.c.g.g.c.c.H g.g.g.g.L 9 L c.c.c.c.c.P g.h.c.c.v.c.c.c.c.c.c.v.c.c.c.c.c.c.c.c.c.c.c.c.j.j.j.c.c.c.j.c.c.c.j.j.c.P j.c.c.c.c.c.c.c.c.v.c.h.c.c.c.c.c.c.j.b.Z r v.v.h.c.c.c.c.c.c.c.g.g.c.h.c.c.h.g.c.c.c.c.c.c.c.c.c.c.c.c.h.g.c.c.g.P g.g.h.c.g.g.g.g.g.c.h.g.g.g.c.g.g.g.P g.c.g.L g.P g.h.c.n.h.8 F v.g.g.g.P P g.P P P g.g.g.g.P P P P P P P g.P P P L g.L P P g.P P H g.L P H P P H P L L H L L P G H H G H H L g.P L G G H G L G g.P 0 L c.c.c.",
"H G L g.c.P L c.H G P g.P c.g.P h.h.g.g.g.g.g.g.g.g.c.g.g.c.g.P c.g.h.g.g.g.c.g.g.c.H P g.g.h.g.L 7 H v.c.c.c.c.g.v.v.c.c.c.c.c.c.c.c.c.j.c.g.c.c.c.c.c.c.j.c.c.c.c.c.j.c.j.j.j.c.c.c.g.g.c.v.j.c.c.c.c.c.c.g.g.j.c.c.c.c.c.c.c.c.j.b.Z t c.v.g.g.c.c.c.g.c.c.c.h.c.c.c.c.c.h.c.c.c.c.c.c.c.c.c.j.c.c.c.c.h.c.c.c.g.g.c.c.j.v.c.c.P c.h.c.c.g.c.c.c.h.c.g.c.c.c.h.c.c.P P n.c.8 F v.h.g.P g.c.c.g.P g.g.P L h.g.g.g.g.g.g.P P P G P P P P H L P P H G g.g.H P L P g.P H P L P L L P g.P L G G H G g.H G H G L H H P g.t H g.G L ",
"F G g.g.P L P g.L G g.g.P g.L g.g.L P g.g.P g.h.g.g.P P h.g.g.c.g.g.g.L g.c.c.g.h.g.c.c.g.g.c.g.L - H b.h.c.c.c.c.v.g.c.c.c.c.c.c.c.c.c.g.c.c.c.c.c.c.c.c.j.c.c.j.j.v.j.c.c.h.c.j.j.c.j.j.c.c.c.c.v.v.j.v.c.c.v.v.c.c.c.c.c.h.j.c.j.n.F t c.v.c.c.c.c.c.c.h.c.c.h.h.c.c.c.c.c.c.c.c.c.c.c.c.c.c.c.c.c.c.c.c.c.c.g.c.c.c.h.j.c.c.c.c.c.c.h.c.c.g.c.c.c.c.g.h.c.c.c.c.h.g.P b.h.8 G c.h.g.P L P g.g.P P g.P L g.g.g.g.g.P g.g.g.g.L P P P P g.P P g.P P P L P g.L P H P P P L P P P H L g.g.L H H L L P G P G G H G L g.r F F G G ",
"H G g.c.G g.g.g.L L g.c.g.P P g.L P g.g.g.g.h.h.L g.g.g.g.g.h.c.g.g.g.g.g.g.g.P c.g.h.h.g.g.g.g.H - L v.c.c.c.P g.c.g.c.c.c.c.c.c.h.c.c.c.c.c.c.c.c.c.j.c.c.c.j.j.c.v.c.c.c.c.c.c.j.c.v.j.j.c.c.c.c.c.g.v.j.j.j.v.v.c.v.v.c.c.c.g.g.n.M f c.v.h.h.c.g.c.c.g.c.c.c.h.c.c.c.c.c.c.j.h.c.c.c.c.g.h.c.c.g.c.c.c.c.c.c.c.c.c.g.H h.g.c.c.h.c.g.h.h.c.c.c.c.c.c.c.c.c.c.h.c.c.g.b.g.9 G c.g.g.g.g.P P g.g.P g.P P g.P g.P g.g.P g.g.g.g.P P g.H P L P P H g.g.g.G L g.P H H L g.g.H H h.P G H g.g.L G L L L F h.L H F F L P t H L H P ",
"P P P g.G P g.g.P g.c.g.P P P g.c.P g.h.g.P g.g.g.v.P P c.c.g.g.g.g.c.h.g.h.c.g.g.g.h.g.P g.h.c.H - L b.c.c.c.c.c.c.c.c.c.v.h.c.c.j.c.c.c.c.c.c.h.c.j.c.c.c.c.c.h.j.j.c.c.c.c.c.j.j.j.v.c.c.c.c.j.c.c.v.c.j.c.c.j.h.g.j.c.c.c.c.c.c.n.m r c.c.c.c.c.g.c.g.g.c.c.c.c.g.c.c.c.c.c.g.c.g.j.c.c.c.c.c.c.c.g.c.c.c.c.c.c.c.c.c.h.j.v.c.g.P g.c.j.c.g.c.h.c.c.h.v.v.c.j.c.g.h.g.b.P 9 G c.g.P g.h.g.g.P g.g.g.g.P P g.g.P P g.P g.g.P g.P P g.L P P P P G P L g.P P L P H L L g.P P Z g.G H H P P L G L P L Z H H G G G P L r g.P g.P ",
"P L P g.c.L P g.g.g.g.h.P h.g.g.g.L h.g.g.g.g.g.c.c.G P c.c.g.g.g.P h.c.g.g.P H g.g.g.g.g.g.h.c.G - P b.v.c.h.c.c.c.j.c.c.c.c.v.c.c.c.v.j.c.j.c.h.c.v.j.c.c.c.c.c.j.c.c.j.c.c.v.v.c.j.v.v.j.c.c.j.c.v.j.h.c.c.j.c.c.c.j.j.v.c.c.j.v.n.Z 8 h.v.c.c.c.c.h.h.c.v.c.c.c.c.c.c.c.h.c.c.c.c.g.c.c.c.c.c.c.c.c.c.h.c.h.g.c.c.c.c.c.c.g.c.P g.c.c.P c.c.c.c.c.c.P h.j.P h.c.c.g.h.j.H 9 L c.h.h.g.g.g.g.L g.g.L P g.H g.P c.P L s.L s.P P g.P g.g.L g.L g.P P P L G h.g.P L L P P L P G G n G g.g.g.H F G G L L P P H G G P G 0 h.P P L ",
"H g.g.L P L g.g.P P L g.g.g.L P g.P P G P g.g.g.g.P P g.c.g.P P g.g.c.g.L g.h.h.c.g.c.g.c.g.g.c.G * L v.j.h.c.c.c.c.c.c.c.c.c.c.c.c.c.h.g.c.g.g.c.c.v.g.c.c.c.v.c.c.c.j.j.c.c.c.c.c.v.v.c.c.j.v.j.v.j.c.c.v.j.v.P c.j.c.c.j.c.c.j.c.n.G 8 c.v.c.c.c.c.c.c.c.v.c.h.c.g.g.g.c.h.c.j.c.c.g.c.c.c.c.g.c.c.c.c.c.c.h.g.c.c.c.c.c.g.c.c.c.h.h.g.P P g.c.c.c.h.c.h.c.g.g.h.h.P g.b.P 9 L c.P c.P P g.g.P P g.P P g.g.P L P P P P L s.g.F L P L g.H c.P L P P P L H G g.L P H P H L P P g.G g g.H P G L H P G L G L G L G h.F 0 g.g.L P ",
"L P L P g.P P g.g.P g.c.g.P P g.g.h.g.c.g.g.g.P g.h.g.g.h.g.g.c.c.g.c.H P c.g.c.c.c.c.c.c.g.g.v.G * L c.c.c.c.c.c.c.c.c.c.c.c.c.c.c.c.c.c.j.c.c.c.c.c.c.c.c.c.c.c.c.h.c.c.c.c.c.c.c.j.c.c.v.c.c.c.c.j.c.j.c.c.c.g.c.v.c.j.j.c.c.c.c.n.G 8 c.b.c.h.g.g.c.h.c.h.c.h.c.c.c.c.c.c.g.c.c.c.c.h.c.c.v.c.c.c.c.c.j.c.h.c.c.c.c.c.g.c.c.g.c.c.c.c.c.c.g.c.g.g.c.c.c.c.h.c.c.c.h.c.v.P 9 L c.P g.P L g.g.g.g.g.P P P g.g.g.g.g.P P g.P g.P L g.H g.H P P P P P L L G H L H L P P L H L H P L F G F H H L H L G H L H G H G h.Z r g.P P g.",
"g.P H L L g.L P g.g.g.g.h.P h.g.g.g.P g.g.g.P g.g.L h.g.P g.g.g.h.h.P g.g.g.c.c.P c.g.c.h.g.c.v.G # L b.c.c.c.g.c.h.c.c.c.c.c.c.c.g.g.c.c.c.c.c.c.c.c.c.c.c.c.c.c.c.c.c.c.c.c.c.c.j.c.c.j.j.c.v.v.v.v.c.c.c.g.c.c.v.v.j.j.c.h.j.c.v.n.G - c.v.c.c.c.g.c.c.v.c.c.g.h.c.c.c.c.c.c.c.j.c.c.c.c.c.c.c.g.c.c.c.g.c.c.c.g.c.g.c.c.c.c.c.h.h.c.c.c.c.g.c.c.c.P j.c.c.P c.h.g.P c.j.L 0 L g.g.g.c.g.g.g.g.g.g.P g.P P g.L g.g.g.P P g.P g.P g.P H P P P g.g.P P g.P P L P g.P H P L P L L P P g.P H P L H L L G H H H G G c.M t h.g.H L ",
"P P L P L g.L g.g.P P L g.g.g.L P g.g.g.g.g.g.h.g.g.g.g.g.g.g.P g.c.h.h.v.c.c.g.c.c.P g.c.g.g.v.L - P v.c.c.c.c.c.c.c.c.c.c.c.c.c.g.c.j.j.c.c.j.h.P v.v.c.c.c.c.c.v.c.c.j.j.c.c.c.c.c.j.v.v.c.c.c.c.c.c.j.v.c.c.j.j.v.v.c.c.c.c.c.j.n.G 7 c.v.c.g.g.c.c.c.c.c.g.c.c.c.j.j.c.c.c.c.c.c.c.c.c.c.c.c.c.P j.c.c.c.j.h.g.h.g.c.c.c.c.c.c.c.c.j.c.g.c.g.c.c.g.g.h.j.c.c.h.h.c.c.v.L 0 P c.g.H g.g.g.g.P h.P g.g.g.g.g.P g.g.g.P P P g.g.g.P g.L P g.g.L L P P P g.P G L g.L G g.L L P P P L L L H G L H H P P H H P H G j.n t c.g.P P ",
"P h.P g.P P P L g.P P P g.g.g.P P L L L H g.L P P P P g.c.g.h.c.c.c.g.h.c.c.c.g.c.g.g.g.g.g.g.c.L - L v.v.c.j.j.v.c.c.c.c.c.c.c.c.c.c.v.j.c.c.c.g.g.c.c.v.c.v.c.c.c.c.g.g.c.j.c.c.c.j.g.c.j.j.c.c.c.c.c.c.c.j.c.v.c.j.c.g.c.c.c.h.j.n.G 9 c.v.c.c.c.c.c.c.c.c.h.c.c.c.c.c.v.c.c.v.j.j.c.j.c.c.j.c.P L c.g.c.c.c.c.h.c.c.c.c.g.g.h.c.c.c.v.v.c.c.c.c.c.c.h.h.c.c.c.c.c.g.g.j.G r L c.g.P g.P g.g.P g.P P g.g.g.g.L g.P P g.P P P P g.g.P g.g.L g.c.P g.g.P g.P P L g.L G g.g.P g.L H L P G P L L P H H P P F G H H c.g g c.g.P P ",
"c.v.H g.g.P g.P P L P P g.L P g.h.L H H L L P P g.g.c.h.c.g.h.g.c.g.g.g.v.j.c.v.c.c.c.c.c.j.j.v.P 8 g.n.n.b.b.b.v.v.b.b.v.v.v.v.v.c.b.n.v.c.b.j.j.c.v.v.b.v.v.v.v.v.j.b.v.v.j.v.v.v.j.c.v.v.j.v.v.v.j.v.v.c.g.v.v.v.v.v.v.b.v.c.c.c.n.H 8 g.v.c.g.c.c.j.v.c.c.c.c.c.j.j.c.v.v.j.c.j.c.v.j.v.v.v.c.c.v.v.c.c.g.c.c.c.v.c.c.j.c.v.j.v.b.c.v.c.v.c.c.j.c.j.c.c.c.g.g.c.c.c.c.j.H f c.c.g.g.h.c.c.g.h.c.g.g.g.P g.H P g.g.g.c.g.P P g.P P g.g.g.P L g.g.G g.g.P P g.P g.g.F L g.L P g.L L P G L L L g.P H P G G P H P c.t n v.g.g.g.",
"c.G P g.g.H H L g.g.H L c.g.L P g.P g.L H P P L g.g.g.g.g.P g.L h.g.g.c.b.v.v.c.L v.v.j.v.v.v.v.g.9 L b.b.v.v.v.v.v.v.b.v.b.b.b.b.b.c.v.b.g.b.n.n.b.n.n.n.b.b.b.n.n.n.n.n.n.n.v.n.n.n.n.n.b.n.n.n.n.n.n.'.n.n.n.n.b.n.n.n.n.b.b.b.j.n.P 8 c.n.v.j.j.v.v.v.v.v.v.n.b.b.b.b.b.v.b.v.v.v.j.c.c.j.c.b.v.v.v.v.c.v.v.b.b.v.b.j.v.b.v.c.c.j.v.j.G v.b.v.b.v.b.v.c.c.j.c.v.v.v.c.b.L g c.c.c.c.g.c.c.c.g.c.v.c.h.h.c.c.h.c.c.c.c.g.g.g.h.g.g.c.g.g.c.g.v.h.H g.g.P c.h.h.g.h.P h.g.P g.P P g.g.P g.P H g.g.g.g.g.g.g.L h.c.0 Z c.g.h.g.",
"h.H g.P P L L P P L P g.c.h.h.c.g.h.z.k.g.g.c.F F G F G F G F g Z Z n g g g h n g N Z N N n m Z Z r g n f g f f f f f f r t t f t f 0 t g 0 n n n n Z M Z n n F F F F G G F G H L H L L G L L L P g.L g.g.L g.h.h.g.c.g.g.c.c.c.c.c.c.P f L v.c.c.c.c.c.c.h.g.c.g.g.c.c.c.g.c.c.c.g.c.c.c.c.v.h.c.c.j.v.v.v.v.v.v.v.c.v.j.c.v.v.j.v.h.G b.G v.n.b.v.n.n.b.b.v.b.v.v.v.v.g.g.g.n c.v.v.n.v.v.v.b.c.c.v.v.v.b.b.b.v.c.v.b.v.b.v.v.v.v.v.P j.b.v.g.L b.b.v.v.c.c.c.v.v.v.v.g.c.g.c.c.c.c.v.c.g.c.g.P c.j.j.P v.b.g.v.c.0 F v.c.c.g.",
"H G P H G F F F F n g f g g n h g S N x N N N g f t t r r 0 0 r r r r 0 0 t r r r 0 0 0 9 9 0 r f g g f f f f t f g g f f f f f g g f g f g t t t r r r r t t 0 0 0 9 9 9 0 9 9 9 9 0 0 0 0 9 0 0 0 9 9 9 9 9 9 9 9 9 9 8 9 9 8 9 9 f n n n f f f g f f 0 0 r t t t r t t f f t t f g g g f f g g g g f f t t t t t t t t f g g g f g g g g g g f t g g g n n n g g f g g 0 r f g n n m n n n M M m n M n M Z Z F Z Z F Z F G G H G G Z G F H G Z n G F G G G Z G G G G G H G H L L P H L H L H H L L H F F L L L g.n Z P L P H ",
"t f g f 0 0 0 t g g g g g g Z g g G n f f f n Z F G F F F F F F F F F Z Z Z Z F Z Z F Z Z Z F F F F Z Z Z G F Z G G H G G H H L L L G G G G G G G G G G G G F F G G G F F F F Z Z Z Z Z M M Z Z n n n m m m m n m n n n M n n n n n Z G G Z m M n G L H Z n Z G F F F F F F F F F F F Z Z F F Z Z M n m n n n n n n n n n n n n n n g g g g g g g g g f f g f t r t f f g g f f f g g f r f t r f t t t t 0 0 r 0 0 0 0 0 0 0 0 0 9 9 0 9 9 9 9 0 9 8 9 8 9 9 9 9 8 9 9 9 9 8 8 9 8 9 8 8 9 8 9 9 8 8 7 8 8 8 9 9 9 9 9 9 8 9 0 ",
"n n Z F F Z F G G H L L H H P n g c.P P L H P s.g.g.c.g.g.g.g.h.c.g.P h.c.g.g.g.h.g.c.c.c.g.c.g.g.c.g.c.h.c.c.c.g.P P g.g.g.g.c.g.G G g.c.h.g.L g.c.g.g.c.c.c.h.P P G c.v.v.v.v.v.c.v.j.c.c.v.c.c.h.h.c.g.c.h.g.g.g.g.h.c.g.c.c.c.h.h.c.c.c.h.c.h.v.v.v.j.c.c.b.j.j.c.j.j.c.j.c.j.c.c.j.c.c.j.j.c.c.c.c.c.c.c.g.g.g.g.h.h.g.c.g.g.g.g.g.g.P P P g.g.P L L P P H P P P g.L L P P P L L G L P L H P P P H L L L H G G G G G G G F Z F F F Z F Z F F Z Z Z Z M n n n n n n n n n n g n g n n n n n n n n n g n n n n n n n n n n n ",
"L H L L L F G P g.g.H G H H g.n g v.c.g.H H L P L P g.P G P g.P P g.L P P P L P c.g.g.g.L g.g.H P g.P c.g.g.g.g.g.P g.g.c.g.g.P g.h.c.c.h.c.g.g.P P g.g.g.g.P g.P M t c.g.P P P g.h.c.c.c.c.c.c.v.c.c.j.v.j.c.c.c.j.c.c.j.j.j.j.c.g.c.c.g.P h.c.c.c.g.g.g.g.c.h.h.g.c.c.c.c.c.g.c.h.c.h.c.c.c.c.j.c.j.G n c.n.b.v.v.j.c.c.j.v.j.c.v.j.j.b.b.b.j.v.j.v.b.b.b.b.v.v.v.b.b.c.v.j.v.b.v.v.b.b.v.b.b.n.b.n.v.b.n.v.b.b.b.b.n.v.v.v.v.b.v.b.v.g.c.g.c.c.c.c.j.c.c.g.h.h.g.P g.g.L P g.P P P L L L P P P L L L L H H H L L H L H P P H ",
"L P L L G L H H L L P F L P P n n v.h.g.L g.g.g.P g.g.P P g.P P g.g.P g.h.P g.g.g.g.P g.g.g.c.P g.g.g.g.g.P H g.g.g.g.c.g.g.c.h.h.h.c.c.c.c.g.g.g.h.c.c.h.c.c.c.c.M r v.c.c.g.c.h.g.g.h.g.P g.g.g.c.c.g.g.g.P g.P g.g.g.c.g.g.g.P P P P g.P P P P P P P P P g.P P P H P P P P g.g.g.g.g.g.P P g.P P b.G # P c.P g.g.g.g.g.G H g.g.P P g.P P g.g.P P P P g.P P P g.P P P G G G H H L H P H L P g.h.P P h.c.j.v.g.g.g.g.c.h.P P g.g.c.c.h.g.P n F c.c.g.c.c.j.c.c.h.c.c.c.j.j.c.c.v.c.j.v.v.j.v.P Z n v.v.c.c.j.c.c.c.c.c.c.h.c.c.",
"P h.g.L G g.h.L H P g.L g.P P n M c.c.h.g.c.c.g.g.g.g.P g.g.g.c.c.g.g.c.g.g.c.c.c.g.h.c.g.c.c.g.h.c.g.g.c.P P h.g.c.c.v.h.c.g.c.c.c.j.c.c.c.c.v.b.j.c.c.c.c.j.v.v.n r v.j.c.c.c.c.c.c.c.c.c.c.g.c.c.h.g.g.g.g.h.g.h.g.c.g.P g.g.c.h.h.c.h.P g.c.c.g.g.c.c.c.h.c.g.c.c.g.c.j.c.c.c.h.g.j.c.h.h.c.c.g.n.L # L b.g.g.c.c.g.P G P g.c.h.g.g.g.g.c.c.g.g.g.g.P P L P g.P P g.P g.h.g.g.g.h.g.g.P P L g.g.G F h.P P P P P P H P g.P P g.g.g.g.g.c.f Z c.g.L H P L P g.g.P P g.g.g.g.P g.P g.g.P g.g.c.G Z P L L H H L P L L L P g.g.g.",
"g.h.g.g.g.g.H G P g.c.P g.g.h.g F c.c.c.c.c.P P P c.g.c.c.c.c.g.h.g.c.v.g.c.c.c.c.g.c.g.g.g.g.g.c.c.g.c.c.c.c.g.c.v.v.c.c.c.h.c.c.c.c.c.j.c.c.c.c.c.c.c.c.c.c.j.c.n r b.c.c.c.c.v.j.c.c.j.v.j.c.c.c.h.c.c.c.c.c.c.c.c.c.c.g.g.h.j.c.c.c.c.c.c.g.P h.c.c.c.c.c.j.c.c.c.c.j.c.j.c.c.c.g.c.c.c.c.g.h.c.n.H - g.].v.g.g.c.g.g.c.c.c.v.j.h.c.c.c.g.c.c.g.c.c.c.c.h.h.c.h.g.c.g.h.c.g.h.h.c.c.c.c.g.L g.c.g.P P g.c.g.g.g.g.g.h.c.g.g.c.g.h.c.c.c.t G v.c.h.P h.h.g.g.g.g.g.g.h.g.g.h.c.P L c.g.g.g.c.j.c.g.L L P L L P L g.P P g.g.g.",
"g.g.g.g.P g.P c.P g.g.P g.h.c.g Z v.c.g.c.g.g.c.c.g.c.c.g.h.c.g.c.g.c.c.g.c.c.v.c.c.g.c.c.c.c.c.c.g.g.j.c.c.j.c.c.c.c.h.g.c.j.v.c.c.v.c.c.c.c.j.c.h.c.c.c.c.j.v.v.m f b.j.c.c.c.j.j.c.v.c.c.c.c.j.c.c.c.v.v.j.v.j.c.c.v.c.c.c.c.c.j.j.j.j.v.v.g.c.v.v.c.c.c.j.c.c.c.c.c.c.c.c.v.b.v.c.c.j.c.c.g.P P n.P # g.n.j.c.c.c.c.c.c.c.c.P v.j.c.c.c.h.h.g.c.c.c.v.c.c.c.c.g.L j.c.c.c.c.h.c.h.c.c.j.g.h.c.j.j.c.g.c.c.c.c.c.c.c.h.c.c.g.c.c.c.c.c.c.t G c.c.c.c.g.g.P g.P h.g.h.g.g.P g.c.c.g.L g.P L g.g.g.g.P g.P g.g.L L g.P g.g.g.c.",
"g.g.g.g.P c.g.g.g.g.g.g.g.g.c.g n v.g.g.c.g.c.c.c.g.c.c.c.P c.c.g.c.c.c.c.c.P j.h.g.h.g.c.v.g.g.h.g.c.c.c.c.c.g.c.c.c.c.c.j.v.g.c.j.j.c.j.c.c.v.j.j.c.j.c.c.v.j.b.n 0 b.j.c.c.v.c.c.v.j.j.j.j.j.j.c.c.c.v.v.c.c.c.c.c.c.c.v.j.j.j.j.j.c.c.j.j.v.v.c.j.j.c.j.c.c.v.v.v.v.v.c.c.g.c.c.v.j.j.c.j.c.P P ].H # P b.j.c.j.j.c.c.c.j.c.g.c.c.c.j.j.c.c.c.c.j.j.j.v.v.v.c.h.c.c.c.j.j.j.c.j.c.h.h.j.c.c.c.c.c.c.c.v.j.h.c.c.c.j.c.h.j.v.g.c.c.c.h.v.f L c.h.h.g.h.g.c.g.g.g.g.h.c.g.h.g.g.c.g.g.g.g.g.c.g.g.g.g.g.g.g.g.g.P g.g.h.g.P g.",
"g.g.L P c.h.P g.g.g.g.c.c.L c.g n c.g.c.c.g.L g.g.c.c.c.g.g.c.c.c.c.c.c.c.g.g.c.c.c.c.g.v.h.g.c.g.g.c.c.c.c.c.c.c.c.c.c.c.c.c.j.j.h.c.c.c.c.j.j.j.j.j.v.j.j.v.c.n.g 0 n.v.c.c.c.c.j.j.j.c.c.j.j.j.v.v.j.j.j.j.j.c.c.v.b.v.v.j.c.c.c.c.c.c.c.c.b.j.j.j.v.j.j.c.c.c.v.j.j.c.c.v.c.j.v.c.v.j.j.c.c.h.g.n.P - g.b.c.c.c.v.c.j.c.c.c.c.j.c.c.j.c.j.j.c.c.c.c.g.c.c.c.v.b.c.j.c.c.c.c.c.c.c.c.c.c.j.c.c.c.j.v.c.P j.j.c.c.h.c.c.H h.c.c.c.g.c.h.j.t H h.h.c.g.g.P h.P g.g.g.L c.h.g.g.g.h.g.g.g.g.g.h.L g.h.P c.L g.g.g.h.H L c.c.h.g.",
"g.g.P g.g.P g.g.g.L c.g.P P c.n n v.c.c.h.g.c.g.c.c.g.c.g.g.g.c.c.c.g.g.c.c.h.c.c.c.h.h.c.g.c.c.c.c.c.h.h.c.c.v.g.h.c.c.c.c.c.c.c.h.c.c.j.j.j.j.c.c.j.c.g.h.c.c.n.f t ].c.c.c.c.j.c.j.v.v.v.j.j.v.v.c.j.v.j.j.j.c.c.j.j.c.h.g.c.c.j.c.j.j.j.v.h.c.c.j.j.j.j.j.c.j.j.c.c.v.c.c.c.v.j.g.c.j.j.j.j.c.h.].H - g.n.v.c.j.j.j.j.c.j.c.c.c.c.c.j.c.v.c.c.c.c.c.c.c.g.c.P b.c.v.c.c.c.h.c.c.c.c.c.g.c.c.c.P h.g.c.P P h.c.c.c.c.c.g.g.c.c.c.h.c.c.j.t H c.g.c.h.g.g.h.g.P g.c.g.g.h.g.c.g.g.g.g.g.g.g.P P L g.L c.g.g.P h.h.H F L g.g.c.",
"h.L g.g.c.g.g.g.P P c.g.g.h.c.g n v.h.c.c.c.c.h.c.h.c.g.c.g.g.c.c.g.g.c.c.c.c.c.c.c.h.h.c.c.c.c.c.c.h.c.j.c.c.c.c.j.c.c.c.c.c.c.c.c.v.j.v.c.c.j.j.j.v.j.c.c.c.v.n.f 0 ].j.c.v.c.j.v.j.c.j.j.v.j.j.v.j.j.j.v.c.j.c.c.j.c.c.g.g.c.c.j.c.v.v.j.c.c.j.v.j.c.j.c.j.v.j.c.c.c.v.c.j.v.v.c.j.j.v.j.c.j.c.g.].L 7 g.n.v.c.c.j.v.j.c.j.c.c.h.c.c.j.c.c.c.j.c.c.c.c.c.c.c.h.h.j.c.v.v.v.c.h.j.c.g.c.h.c.c.j.c.c.h.c.j.c.g.h.h.c.c.c.c.c.c.c.c.c.L c.c.t P c.g.h.h.c.g.h.g.G c.c.h.g.g.P g.h.g.g.c.c.g.g.g.g.L g.g.P P g.L g.g.P g.g.g.P P ",
"h.g.c.G P g.c.g.g.g.h.g.P g.v.n n b.P c.g.c.c.c.c.c.h.c.h.c.j.c.c.c.c.h.g.c.c.c.c.c.c.c.g.c.c.g.c.c.c.h.g.g.c.c.h.j.c.j.c.j.c.c.c.c.j.c.c.c.c.c.v.c.c.v.c.c.c.b.b.0 n b.g.v.v.c.j.v.j.c.c.c.v.v.j.c.j.j.j.g.g.j.v.j.j.c.c.c.v.c.c.c.j.j.c.c.j.j.j.j.c.c.j.c.g.v.v.j.j.v.c.c.c.c.c.c.j.c.j.j.c.h.g.g.n.H 7 g.b.c.j.c.j.c.c.j.j.c.c.c.c.j.j.v.c.c.j.v.c.c.c.c.c.c.c.c.c.h.c.c.c.c.h.c.j.h.j.v.j.j.c.j.c.c.c.j.j.c.c.h.g.c.c.c.g.c.g.c.c.g.c.c.f g.c.h.h.P c.c.g.g.P g.h.c.g.P g.P g.g.L L H c.g.g.g.g.g.g.g.P L G P g.P c.P g.g.g.",
"g.h.P G P P P h.P g.g.P P c.j.n n v.c.c.h.c.h.c.g.c.g.c.g.c.c.c.c.c.c.h.g.c.c.c.c.c.g.g.c.c.g.g.g.c.v.g.c.c.c.h.j.g.c.j.j.c.c.c.c.c.c.c.h.g.c.c.j.c.c.v.c.c.v.b.n.7 f c.P g.g.c.c.v.j.j.j.v.v.v.j.g.c.j.c.c.j.j.c.c.c.c.c.c.c.c.c.c.j.c.c.c.c.j.j.c.j.v.j.c.c.j.c.j.v.v.j.j.j.c.v.j.j.j.j.j.j.j.c.h.b.H 8 c.n.v.j.j.c.c.j.j.j.j.j.c.j.v.c.c.j.j.j.j.c.c.c.j.j.c.v.j.c.j.g.g.v.v.c.g.c.j.c.c.c.c.h.c.c.c.c.c.c.c.g.c.g.g.h.c.g.c.c.c.v.g.h.g.f c.c.g.g.P g.c.c.g.h.g.g.c.h.g.g.c.h.g.P L P g.c.g.h.g.g.P h.g.g.g.g.P H g.h.g.g.g.",
"g.P h.P g.g.g.h.g.g.g.g.P g.c.n f v.g.g.c.h.h.c.g.c.g.c.c.c.c.h.g.g.c.c.c.c.c.g.g.h.c.c.j.c.j.c.L c.g.g.c.c.h.c.c.h.v.j.c.h.v.c.c.c.c.c.c.c.v.c.v.c.c.j.c.j.v.b.n.t 0 [.v.c.c.g.g.c.v.j.c.v.j.c.g.j.j.j.c.c.j.j.c.h.c.c.c.h.c.c.c.c.c.c.j.c.h.c.j.c.c.g.c.c.j.j.j.v.j.j.v.v.j.j.c.j.j.j.j.j.c.c.c.c.n.H 8 v.b.j.c.c.j.v.c.c.b.j.j.c.c.j.c.c.j.c.j.j.v.v.j.j.c.c.j.c.g.c.c.h.c.c.c.c.h.c.c.h.c.c.h.h.c.c.h.c.c.c.v.c.c.c.c.c.c.c.c.g.c.h.v.P g c.c.g.g.g.h.c.c.g.g.g.h.g.c.g.g.P c.L g.c.c.g.P L c.g.g.g.P L g.c.g.P g.P c.g.L g.",
"P H g.h.g.g.h.g.h.P g.c.P g.c.n f v.c.c.h.g.c.h.g.c.c.c.j.c.c.g.g.g.g.c.c.h.c.P c.j.c.h.g.g.c.c.c.c.c.c.c.c.c.c.h.c.c.j.P c.c.c.j.c.c.c.c.v.v.v.h.c.c.v.c.c.c.j.n.f 9 '.c.c.c.c.j.v.j.c.j.j.j.j.j.j.j.j.v.c.c.v.c.c.j.c.c.c.c.g.c.j.c.j.j.j.v.j.c.j.v.c.j.v.j.j.v.v.v.v.c.c.j.j.c.v.c.v.j.j.j.c.P c.n.G - c.n.j.j.j.j.j.j.j.c.c.c.c.c.j.v.c.c.j.c.c.c.c.j.c.c.c.c.j.c.c.j.c.c.c.c.c.c.c.c.h.c.c.c.c.v.c.c.c.c.c.g.c.c.c.c.c.c.c.v.c.c.P v.P g c.h.c.h.g.g.g.g.g.g.g.g.g.g.g.g.g.c.g.g.g.g.g.g.L P g.g.g.P L L g.h.g.L P L g.g.g.",
"P g.P c.g.g.h.g.g.g.g.g.P g.v.g g v.c.c.g.c.h.c.c.h.h.c.g.g.c.P P c.c.c.h.h.c.g.c.c.c.c.c.c.c.g.c.c.c.c.c.h.c.g.c.c.c.j.c.v.j.c.c.c.c.c.v.v.c.g.c.v.j.c.c.c.c.j.].f 0 '.v.c.c.v.v.b.c.j.v.c.c.c.j.v.j.j.j.j.j.j.c.v.v.v.j.c.j.j.c.b.v.j.j.j.v.j.j.j.v.v.c.c.j.v.v.j.c.c.c.c.j.v.v.v.b.n.v.c.v.c.h.c.n.G - j.n.j.j.c.c.c.j.j.j.j.c.c.c.c.c.c.c.j.j.c.c.c.c.c.c.v.c.c.v.c.j.c.c.c.g.j.c.c.c.c.j.c.g.c.h.c.g.c.c.c.c.g.c.c.c.c.c.g.c.c.c.g.c.L g v.c.P h.g.g.c.c.g.g.g.c.g.L c.g.h.h.c.g.h.g.g.g.g.L g.c.h.g.g.g.g.g.g.g.P L g.h.g.",
"g.P P L g.P g.g.g.h.g.g.L c.v.n g v.g.g.c.j.g.c.c.h.c.c.g.c.c.c.c.c.c.c.v.h.c.c.c.h.c.c.c.c.c.c.c.c.h.c.g.g.c.c.c.c.c.j.j.v.c.c.c.c.c.c.v.c.c.c.c.h.c.v.j.j.j.b.].f t ].c.j.v.c.v.c.c.v.j.c.c.v.v.v.j.v.v.c.j.v.j.j.c.j.v.j.v.j.v.j.c.c.c.j.j.j.j.j.j.c.c.j.v.j.j.v.v.j.j.v.c.v.v.n.P L n.b.j.g.h.j.n.F - b.b.j.c.c.c.c.j.j.c.c.j.c.j.v.j.j.c.v.j.c.j.c.c.j.c.c.j.c.c.c.c.c.c.c.c.v.j.c.j.c.g.c.c.c.g.c.j.c.c.c.c.c.c.c.c.v.c.h.g.c.c.g.v.H g c.c.g.g.h.P P g.g.g.g.g.g.g.c.g.h.h.h.g.g.h.g.g.g.g.g.g.c.g.g.g.L P g.g.g.g.G g.h.",
"P P g.g.g.g.g.h.c.g.g.g.P h.v.n g v.c.c.c.c.c.c.j.c.v.g.c.c.c.c.c.c.c.c.c.c.c.c.c.c.c.c.c.c.c.c.c.c.j.v.c.j.v.j.j.j.c.v.j.c.c.c.j.c.c.v.c.c.c.c.c.c.v.v.c.c.v.v.n.g t ].v.c.v.v.v.c.j.v.v.c.v.v.c.j.j.j.j.v.v.v.v.v.v.c.c.v.c.c.j.j.c.j.j.j.j.v.v.j.j.v.j.v.v.c.c.j.v.v.v.j.c.j.v.n.O 8 v.v.v.v.c.c.n.F 7 v.b.c.j.c.c.j.j.j.v.g.v.c.c.c.j.j.j.c.c.j.c.j.v.c.c.c.j.c.c.g.v.c.c.c.c.c.g.v.h.j.j.c.j.v.c.c.v.c.g.c.c.v.c.g.g.c.c.c.g.P c.c.b.G n c.c.g.h.c.g.h.g.c.g.c.g.g.g.P c.h.g.h.g.L P g.g.g.g.P L F L P c.g.P g.c.g.H L h.c.",
"g.c.h.c.v.g.c.c.c.c.c.g.g.g.v.n g v.v.b.c.v.b.g.v.b.c.h.v.v.b.c.v.c.v.v.c.c.v.v.v.v.v.c.c.c.v.v.v.j.v.b.v.v.b.b.v.v.c.v.b.v.v.b.b.v.b.b.b.v.b.v.c.c.b.b.b.b.v.v.].n 0 ].v.b.v.v.v.v.b.v.v.b.v.v.b.v.v.v.b.b.b.b.j.v.v.v.b.v.j.c.c.v.v.v.b.v.v.c.c.v.v.v.v.v.v.v.v.b.b.v.v.b.n.b.b.n.F M F Z G c.c.c.].Z 8 v.b.j.v.j.j.j.j.v.v.c.j.j.j.j.j.v.j.j.j.b.v.j.v.c.g.c.j.v.v.c.c.c.j.c.c.c.c.c.c.c.j.c.c.j.v.c.j.c.c.c.c.h.j.c.g.g.c.c.c.c.b.j.n.F n v.c.g.P c.c.c.g.c.c.c.c.h.g.h.g.c.g.g.g.c.c.g.L g.g.g.P F g.g.h.c.h.c.g.g.G P P v.",
"c.v.v.j.v.c.c.c.c.b.j.c.c.v.j.F n v.j.v.v.v.c.c.v.v.c.c.v.c.v.v.v.j.v.j.g.v.v.v.v.c.c.c.c.c.c.c.c.v.c.v.v.v.j.c.c.v.g.v.v.j.b.b.v.v.n.v.b.b.n.v.b.b.n.n.b.b.j.b.].n 0 b.n.n.b.n.n.n.n.n.n.].'.n.b.b.'.n.n.n.'.b.v.n.j.b.n.n.n.v.b.n.b.b.n.n.n.b.b.n.b.n.b.b.n.b.b.v.b.n.b.b.'.v.n.n. X Xv.L c.n.b.c.'.G 0 b.v.v.b.v.b.b.v.v.b.v.b.n.b.b.v.v.v.v.b.b.j.v.v.c.v.b.b.b.b.b.b.b.b.b.v.v.j.v.v.v.v.v.v.v.b.b.b.b.b.v.v.j.v.n.b.j.v.v.b.v.b.c.c.n M b.v.c.g.c.c.v.h.c.j.c.h.g.c.h.h.j.c.c.g.h.v.c.g.g.g.h.h.h.c.c.j.c.c.h.g.g.g.c.g.F ",
"G L g.h.c.c.c.g.g.c.c.c.P c.c.L m g f r 0 t t r r r r 0 0 0 0 0 0 0 0 0 9 0 0 9 9 0 0 0 0 0 0 0 0 r 0 r r 0 r t f t r f t r r r r r t t t t t r t f f f f f f f n g f n g n g n n n n n m M M m m n M n M F F m Z H G L G G G G H H L H H G H L L G L P L G G G g.P P g.H P P G P g.g.n.j.n c.v.P H h.G n v.b.v.c.c.b.b.v.c.c.j.L v.b.b.j.c.v.v.b.c.c.n.v.v.v.b.b.j.v.n.b.n.n.b.v.b.n.n.b.b.v.b.b.b.j.b.n.n.b.n.b.v.v.v.n.b.n.b.n.n.b.L L t G n.b.n.n.b.v.v.b.b.v.v.v.v.b.b.b.v.b.b.c.F c.b.v.c.c.c.c.j.h.g g n P g.g.b.P h.v.c.",
"F F Z F G G G F F F Z g f t r t f g n n n g g g g g g g g g g n n g g n n n n n n n n n n n n n n n M n m n n n n n n n n n n n n n n n n n n n g g n g g g g n n n n g g g g g f f g f t t t t t r t t t r r t t t r r r r r 0 0 r 0 0 0 0 r 0 r 0 0 r r 0 r 0 r t f 0 9 9 0 9 9 9 8 0 f f r r 0 t t g n n g g g f t t t g f f t f t t t f g g f f f g f f f f f f t f f f f f r f t f f f g f g n f f g g g g g f g f n n g g n Z n n F n n F Z Z F F F F G G G F F G G G G G G G G P g.c.c.g.h.c.g.c.n.P n G F P G j.L G H G ",
"0 0 0 0 0 r r 0 9 9 r g g g n n F P P L g.g.P P g.g.P P g.P g.g.g.g.g.L g.g.h.g.g.h.g.g.P g.g.L G G c.c.c.j.c.c.c.h.h.c.c.c.c.c.c.c.c.c.c.c.c.c.c.c.g.g.h.c.c.g.g.g.g.g.g.g.g.g.g.P L H P P P P L L L H G G G G G G G G G G G G G L P P G G G H G G H H G H G G G H H G F F F G G G G H G L H H H L L G H G F G F G F F G H G G G F G G G F F F Z F Z F Z Z Z M Z Z Z Z F F Z Z M m n n n n n n n n n n n g g f f g f f f g f f f f f f g g f r 0 0 9 0 9 9 0 9 9 9 9 9 8 8 8 8 8 8 9 9 9 9 0 0 9 r t t Z G F M f G M g t 0 0 9 ",
"F F G G G H G G F F G L P P P g.g.c.P Z P h.c.g.g.g.c.c.j.h.h.g.c.c.P f g.c.g.P P g.g.g.P g.g.v.n t c.g.c.g.g.g.P g.g.g.g.g.P g.g.F P F F P L L L g.g.g.g.P L g.g.c.h.g.c.h.c.c.c.c.c.h.j.c.c.c.j.c.c.v.c.c.v.v.v.j.v.b.b.c.b.v.v.c.L F g.b.v.n.b.b.v.v.v.v.v.j.v.b.b.v.v.v.v.v.b.v.b.b.b.b.b.b.n.b.b.b.n.b.v.v.v.v.b.v.b.v.v.v.b.v.v.v.b.v.v.v.v.v.v.j.v.v.v.j.v.v.c.v.g.m j.v.j.j.j.c.c.j.c.c.j.c.c.v.g.c.c.g.c.g.g.P g.h.g.P L P P L G G F F F G G F G F F Z Z Z Z Z Z Z Z Z Z M Z F Z Z n Z n Z F Z Z F G n t H Z g n Z Z Z ",
"g.g.h.L G L H g.P L L L L P G P L L G H L P g.P L L P P c.P L L g.g.P g.c.g.P L P g.L g.g.P P b.n 7 g.P P g.L H P g.H H L L P P G F G G F G L L g.g.H L L L P g.P G P P g.P P L g.g.P g.P L P P g.P P g.P P P P P P g.P L P P P L g.Z r c.j.c.g.P g.g.h.g.h.g.g.g.h.c.g.c.h.g.g.g.P P P P g.P G L P P g.P h.g.L L h.g.P g.h.P g.P g.P h.c.h.h.c.g.g.c.h.c.c.c.c.c.c.h.c.G 8 g.v.c.j.j.c.c.j.j.j.c.v.j.Z L n.b.v.v.v.v.v.j.b.v.b.b.v.v.v.b.b.b.b.b.b.v.b.v.v.b.v.v.v.b.b.v.v.v.c.v.b.v.v.v.b.v.b.v.j.j.j.c.c.c.n f g.c.h.g.g.c.c.",
"g.g.P P L P g.g.P P P P P g.L P L L P P P g.g.P P P P g.c.P g.g.g.g.g.c.g.c.g.P g.g.c.P g.g.g.v.n - c.g.g.g.h.g.g.g.g.g.g.g.g.g.g.g.g.c.j.v.c.g.c.g.P g.g.h.h.h.h.G g.g.c.h.P g.g.g.g.g.g.c.g.h.c.g.g.g.g.g.g.g.h.g.g.g.g.P g.g.g.c.Z f n.h.L P g.c.g.g.P P P g.c.g.P P g.g.g.g.g.g.P g.g.g.g.P P g.g.g.h.h.g.L P h.h.h.g.g.P P P g.g.P P g.P P g.P g.P P g.P P P g.h.b.G 8 c.c.g.P P g.g.g.P g.h.h.c.g L c.c.g.c.g.g.h.g.g.h.g.g.g.c.g.P j.j.c.c.c.c.c.c.g.h.g.h.g.c.c.g.h.h.g.g.P g.g.g.P g.g.P g.G P P G g.g f v.h.g.c.c.g.h.",
"P P g.P h.P g.g.g.h.g.g.g.h.g.g.g.h.g.P g.c.g.h.g.g.h.c.c.c.c.c.g.g.h.h.c.g.P g.g.c.c.h.c.c.c.b.n - v.j.g.c.g.P c.g.h.c.g.c.g.c.h.c.h.h.c.h.c.g.c.g.g.g.c.h.c.c.c.c.c.g.c.P g.c.c.c.h.c.c.h.c.c.h.h.h.c.c.c.g.h.c.c.c.c.g.g.c.g.c.c.n g b.c.g.c.c.c.c.g.g.g.c.c.h.g.g.c.c.c.c.c.c.c.c.c.c.c.j.v.c.c.c.g.g.g.g.g.c.c.h.c.c.c.c.c.c.c.c.c.c.c.g.c.c.g.h.g.g.c.c.P g.c.g.b.G 8 c.c.c.c.c.c.c.c.g.c.j.c.g.P g.H c.c.h.h.L g.c.h.h.g.P g.g.g.g.g.g.g.g.c.g.c.g.G P g.h.G H c.P P g.P h.P P P L G P P L P L P P H P f g v.c.h.h.P P h.",
"g.h.g.c.c.g.P g.c.P g.g.g.h.g.c.g.h.c.g.g.h.g.g.P g.g.j.c.g.g.g.g.P c.c.h.c.c.c.g.c.c.c.c.c.c.b.n - v.v.g.c.g.c.c.P c.c.h.g.c.c.c.h.c.c.c.c.c.c.j.c.c.h.c.c.c.c.c.g.c.c.c.g.h.c.c.c.c.c.c.c.g.g.c.c.c.c.c.g.g.c.c.c.c.P g.c.c.c.c.c.Z g v.c.g.c.c.c.c.c.c.c.c.c.g.g.c.c.h.h.c.c.c.c.c.c.c.c.h.c.c.j.j.c.c.c.c.c.c.c.c.g.g.c.c.j.j.c.c.g.g.g.c.c.c.g.P g.h.h.c.c.c.c.h.v.G 0 c.v.c.g.g.h.c.c.g.c.j.c.v.j.c.L g.c.c.c.g.P g.c.h.h.P g.c.g.h.g.g.g.c.g.h.g.h.g.g.P g.P P g.P g.g.g.P c.h.g.P P P H g.g.g.g.g.L h.f g c.c.h.g.g.h.c.",
"L P P g.P h.g.g.g.P g.g.g.g.g.P G g.c.g.g.c.g.g.g.h.g.c.P P c.h.g.g.c.g.g.g.c.c.c.c.h.c.c.c.c.b.M # c.c.g.h.g.c.c.c.c.h.c.g.c.c.c.c.c.c.c.c.L c.c.c.c.c.c.c.c.g.g.h.c.c.c.c.c.g.h.c.c.c.c.h.g.c.c.c.g.c.c.c.c.g.g.c.c.c.c.c.c.c.c.c.Z g v.c.j.c.c.c.c.c.c.c.c.v.c.c.h.c.c.c.c.c.c.c.c.c.h.g.c.c.v.j.c.g.c.c.c.c.c.c.j.j.c.c.c.g.c.g.c.c.c.c.g.c.c.v.c.v.c.c.g.c.c.h.c.v.G r j.b.c.c.j.c.c.g.v.j.c.g.c.c.c.c.c.j.c.c.c.h.g.h.c.h.c.h.h.c.g.c.c.g.c.h.h.h.c.c.c.h.c.j.j.g.h.j.P g.g.g.c.c.c.P g.g.h.g.g.g.g.P h.r n c.g.g.g.g.g.P ",
"P P g.g.g.g.P g.g.c.g.c.P g.g.g.c.g.c.P P g.g.g.h.g.c.c.P h.c.c.h.c.c.h.g.g.c.c.g.c.c.c.c.c.c.n.M # c.v.g.h.c.c.h.j.c.c.c.g.c.c.c.c.c.c.j.c.h.c.c.h.c.c.c.h.c.c.c.c.c.c.c.c.c.c.j.c.c.c.c.c.c.c.c.c.c.c.c.h.c.c.c.c.c.c.c.c.c.c.c.v.Z g b.c.c.j.c.c.c.c.c.c.c.c.c.c.c.c.c.v.c.c.c.c.v.c.c.g.j.c.c.j.v.c.g.j.c.g.c.c.c.c.g.c.c.v.j.c.c.v.c.c.c.c.c.c.g.P c.c.c.c.c.h.h.v.Z g v.v.j.c.c.j.c.c.b.v.c.j.c.c.c.c.j.c.c.c.c.c.j.c.c.h.c.h.h.c.h.j.v.g.c.c.c.c.c.c.h.g.c.c.c.g.g.c.g.g.P g.g.c.g.g.g.g.g.c.g.P P L c.0 m c.h.g.c.g.g.P ",
"g.h.c.P g.c.c.P g.g.g.P P g.g.c.P g.g.L P g.g.g.h.h.c.g.g.c.j.c.P g.c.h.c.c.c.g.c.h.c.c.c.c.c.b.Z # g.v.g.c.c.c.g.c.g.g.h.c.c.g.h.h.c.c.c.c.L h.c.c.h.g.h.c.c.c.c.c.c.c.c.h.c.j.h.g.c.c.c.g.h.c.c.c.c.c.c.c.j.c.c.c.c.c.c.c.c.c.g.c.F f b.c.c.j.c.c.c.c.c.c.c.c.c.c.c.v.c.c.c.c.c.j.j.c.j.j.c.c.c.c.c.c.c.c.c.g.c.c.v.c.c.j.j.c.c.c.c.c.c.j.j.j.c.g.c.c.j.c.h.c.c.c.c.b.F g v.v.j.v.h.c.c.c.j.c.j.c.j.j.c.c.c.c.h.c.c.c.h.h.c.j.j.c.h.c.c.P c.c.c.c.g.c.c.j.j.g.h.c.h.g.h.h.c.c.P L P c.g.c.c.g.P g.g.g.P H j.t Z v.c.g.g.h.h.g.",
"g.g.c.c.c.h.P P h.g.P g.g.c.P g.g.c.g.g.h.c.g.g.h.h.g.g.h.c.c.P g.c.g.c.c.c.c.c.c.h.c.h.c.v.h.n.Z # g.b.g.g.h.P g.j.h.c.c.c.j.c.c.c.v.h.g.c.j.c.h.c.c.c.h.c.h.h.c.c.c.g.c.c.h.c.c.j.c.h.h.c.c.c.c.c.c.g.g.c.c.g.c.c.c.c.c.c.h.h.c.v.Z t b.v.c.c.c.c.c.c.v.j.j.c.h.c.c.v.h.h.c.c.c.c.j.c.v.c.c.c.g.g.c.g.c.c.c.c.c.c.c.c.j.c.c.g.g.c.c.c.j.j.c.c.c.c.c.c.c.c.c.c.h.h.h.v.Z g v.b.c.c.j.j.j.v.c.g.j.c.c.j.j.c.j.j.c.c.c.c.c.c.c.c.h.c.c.c.c.h.c.g.c.j.h.c.c.c.c.c.h.c.c.c.h.h.c.c.c.P P g.h.c.c.g.g.g.h.g.g.L v.n F c.v.g.g.g.g.P ",
"h.g.c.g.g.g.g.h.c.g.g.P c.g.L g.c.c.P g.g.c.g.h.g.c.g.c.g.g.c.g.h.c.g.c.h.c.c.g.g.c.c.c.c.g.g.n.F * g.v.g.c.c.c.c.c.g.g.c.c.c.h.g.c.h.c.c.c.c.c.c.c.c.c.c.c.c.c.g.h.c.c.c.P g.c.c.c.c.c.c.c.c.c.c.c.c.c.c.c.g.c.c.c.c.c.g.g.c.c.g.v.Z r j.c.c.c.h.c.c.c.c.j.v.j.c.c.c.c.c.c.c.h.g.c.c.c.c.c.c.c.c.c.j.c.g.c.c.c.c.c.j.j.c.c.P c.c.c.g.c.g.g.c.c.c.c.c.j.c.c.c.j.c.h.g.j.Z n v.v.c.c.j.c.c.j.v.j.h.c.j.j.h.j.c.j.v.v.c.c.c.c.j.j.c.c.v.c.c.j.j.c.h.c.c.h.h.c.c.g.g.g.g.c.h.h.c.c.c.c.g.c.h.g.h.L L P g.c.c.g.v.n 0 P c.g.c.g.g.g.",
"g.c.c.P g.g.g.g.g.P P g.c.h.g.g.g.g.g.g.g.c.g.P g.c.h.c.c.c.g.g.c.c.c.g.h.c.c.c.c.h.h.c.c.h.v.'.G * L v.c.c.c.c.c.c.h.c.c.j.c.v.h.c.v.c.c.c.g.c.c.c.g.g.c.c.j.c.c.c.h.h.c.g.c.c.c.h.c.c.c.g.h.c.c.c.c.c.c.g.c.c.c.c.c.c.c.c.c.c.h.v.m r b.c.c.c.c.c.c.c.c.g.g.c.c.c.c.g.c.c.c.c.c.c.c.c.c.c.c.j.j.c.v.c.c.j.c.c.c.c.c.c.c.c.c.c.c.c.c.c.h.h.c.c.c.j.c.c.j.c.c.c.g.c.c.v.Z n v.v.j.j.j.j.j.g.c.j.c.c.c.g.j.c.j.c.g.h.v.c.c.h.c.v.c.g.c.c.c.c.j.h.h.c.c.c.g.g.c.c.c.P g.c.h.h.h.h.c.g.h.g.c.h.c.h.g.P g.g.g.g.b.n r g.L L P P g.h.",
"h.c.g.g.c.c.g.P h.c.g.h.g.c.g.P g.g.g.h.g.P P h.c.v.c.c.c.c.P h.c.c.c.h.c.c.c.c.c.c.c.c.c.c.v.n.G @ G v.g.g.P g.c.g.c.c.c.c.c.c.L c.P c.g.c.c.g.g.h.c.c.c.c.c.g.c.c.c.c.c.c.h.h.c.c.c.c.c.c.c.c.c.c.g.c.g.h.c.c.c.c.c.g.h.h.g.c.c.v.M f n.c.c.c.c.c.c.c.c.c.c.c.c.c.c.c.c.c.c.j.c.c.v.c.c.c.c.c.c.h.g.c.c.c.c.c.c.c.j.P c.j.c.c.c.c.c.c.c.c.j.c.c.c.j.c.g.g.c.c.h.c.c.v.M n b.c.c.c.h.j.j.c.c.j.c.c.c.c.j.c.v.c.c.P c.c.c.h.c.g.c.c.h.c.j.c.g.c.c.j.c.c.P P c.c.c.h.c.c.c.g.h.g.h.h.h.g.g.c.c.v.c.g.g.g.g.c.b.g f P L L P g.g.h.",
"h.g.g.h.c.c.P g.h.g.g.g.g.c.L P P g.c.c.g.h.h.h.c.g.L g.h.P g.c.h.c.g.h.h.c.c.c.c.h.c.h.c.c.g.H F * L b.g.g.c.h.c.h.c.c.c.g.c.g.g.g.G g.c.c.c.h.c.c.j.c.c.h.g.c.c.c.h.c.c.c.c.c.c.c.c.c.c.c.c.c.c.c.h.h.c.c.c.c.c.j.c.h.c.c.c.c.g.b.M f b.c.c.c.j.j.c.c.j.j.j.c.c.c.c.g.g.c.v.j.g.c.j.c.c.c.j.c.g.c.c.c.j.v.v.c.c.j.c.c.c.c.v.c.c.c.c.j.j.j.c.c.j.c.g.c.g.h.c.c.c.h.h.b.M M b.c.h.c.c.j.v.v.c.j.j.c.c.c.v.c.j.v.c.c.v.j.j.c.g.h.c.c.c.h.c.h.g.c.c.h.c.c.c.h.c.c.h.c.h.g.h.c.c.c.c.c.h.P g.g.P c.g.L L g.P g.b.f g g.g.h.h.g.g.h.",
"c.g.c.g.g.c.g.g.c.g.h.g.g.h.P P g.c.c.g.L P c.g.g.g.g.g.g.h.g.c.g.c.c.h.c.c.g.g.g.h.c.c.c.v.c.G Z 8 c.c.c.h.c.c.c.c.c.c.c.c.h.c.h.j.v.c.c.h.c.c.c.c.c.c.c.h.g.h.c.c.c.c.g.c.v.c.c.c.c.c.c.h.h.c.h.c.h.c.c.c.c.h.c.c.c.c.c.c.c.g.g.b.M f j.c.c.c.c.c.c.c.c.c.c.c.v.c.c.c.c.c.c.c.c.c.c.h.h.c.c.c.c.c.v.c.c.g.c.c.j.v.j.j.j.c.c.c.c.c.c.c.h.c.c.c.g.h.h.g.c.c.h.h.h.c.h.v.n Z b.j.c.c.c.c.j.j.v.b.v.c.c.c.j.c.c.c.j.h.c.c.c.j.c.c.j.j.j.c.v.c.h.h.c.c.c.c.j.j.c.h.c.c.h.c.h.c.c.c.c.c.c.L P g.L g.c.g.h.g.P c.b.r f h.g.g.c.g.h.g.",
"c.h.c.c.c.g.g.g.g.P g.g.g.c.g.P c.h.g.g.P h.c.g.g.c.g.g.c.c.h.g.h.c.v.g.h.h.h.c.g.g.c.c.c.v.v.G Z 9 j.v.g.L c.c.g.h.c.g.c.c.c.c.j.v.g.c.c.c.c.c.c.c.g.g.c.g.c.c.j.g.c.c.c.c.c.P P c.c.h.c.c.c.c.c.c.c.c.c.g.h.c.c.c.c.c.c.g.g.g.h.v.M f c.c.c.c.c.h.g.c.c.c.c.g.c.c.c.v.c.c.v.c.c.c.c.c.c.v.j.c.c.c.c.v.j.g.g.c.c.c.j.c.j.c.g.c.j.h.c.c.h.c.c.c.c.j.c.c.j.c.h.c.c.c.c.v.n Z v.c.c.c.c.c.v.j.c.g.v.c.c.j.c.c.c.c.j.c.j.c.c.v.j.c.c.j.j.g.h.j.c.c.h.h.c.c.h.c.c.c.c.c.c.h.c.P h.c.g.g.c.g.g.g.g.P c.c.g.g.P c.v.0 g c.P P h.g.P g.",
"c.c.g.g.g.g.g.g.g.P g.g.g.c.h.g.c.P g.g.g.c.h.g.c.c.h.c.c.g.c.g.h.c.c.c.c.c.c.c.g.c.c.j.c.v.b.F n 9 j.v.P g.c.h.g.c.c.c.j.c.g.c.c.g.g.h.c.c.c.g.h.c.c.c.g.h.c.c.j.c.c.c.h.h.h.g.h.j.j.h.c.g.g.c.c.c.c.v.P g.c.c.c.h.h.g.g.h.c.h.c.v.M f v.c.c.h.c.c.c.c.c.c.c.g.c.c.c.c.c.c.v.c.c.c.c.j.c.c.j.c.c.c.c.c.g.v.c.g.c.c.c.c.c.c.c.c.j.j.c.j.j.c.c.c.c.c.g.c.h.c.h.h.h.c.c.c.n Z n.v.v.v.v.v.j.g.P g.j.j.g.j.j.c.j.j.c.c.c.c.c.c.c.c.c.P c.j.g.c.c.c.g.c.c.c.h.c.h.g.c.c.c.c.c.j.h.g.P c.v.c.h.g.c.L P c.g.g.P c.b.9 n c.P g.P P h.c.",
"g.P g.h.h.c.h.c.h.c.c.c.g.c.c.g.c.g.c.g.c.c.g.h.v.g.c.c.c.c.c.c.c.c.c.v.c.c.c.c.c.c.v.c.c.v.b.G n 0 j.c.h.c.v.c.v.v.v.v.c.c.j.v.j.v.c.c.c.v.c.j.c.b.j.c.c.v.j.c.v.c.v.v.v.v.v.c.v.c.c.c.h.c.c.c.v.c.h.j.c.c.c.c.j.c.c.g.c.c.c.c.c.v.n g b.c.c.c.c.c.c.g.v.v.c.c.c.c.v.j.j.h.c.j.c.c.v.c.c.c.c.j.v.j.j.g.c.v.j.j.c.j.j.j.j.j.v.j.h.c.c.c.h.c.c.c.c.c.c.c.g.c.c.h.c.c.g.c.n G n.v.v.b.v.c.c.j.c.j.v.v.c.v.v.c.j.c.c.j.v.j.g.c.j.j.j.L c.c.v.v.c.v.c.c.h.c.v.c.h.c.c.c.c.j.g.c.v.j.h.g.h.c.c.c.c.c.P g.c.c.g.j.v.8 M j.g.g.h.h.h.c.",
"G g.v.c.c.c.c.c.c.c.c.j.c.c.v.c.v.c.c.g.h.c.c.c.c.c.c.v.c.c.c.c.c.c.j.b.b.j.b.v.v.b.b.c.v.].n.G N t v.v.b.b.b.c.j.v.b.b.v.v.v.v.b.b.v.b.b.b.b.v.v.v.v.b.b.c.v.b.b.P v.v.v.v.b.b.v.c.c.b.b.v.v.v.b.v.L c.j.v.b.b.b.j.v.b.b.j.j.j.c.v.m n b.c.c.v.v.v.v.v.v.b.v.c.j.c.j.j.v.v.b.v.j.v.b.v.j.v.v.c.c.v.v.v.v.j.b.v.v.v.v.b.b.v.j.b.v.v.c.j.b.j.c.c.c.v.v.j.v.c.j.c.v.h.c.b.n H n.v.c.b.v.c.v.v.v.c.j.b.v.c.c.c.v.b.c.c.v.b.v.v.v.c.j.v.j.c.c.b.v.j.v.c.c.g.c.j.j.c.c.c.c.c.g.c.c.c.c.g.g.c.c.h.j.c.c.c.c.c.P j.c.8 Z j.g.g.g.c.c.v.",
"g.c.c.c.h.c.c.c.c.v.c.j.c.g.H B Z B g n M Z Z Z Z Z Z Z n m Z m Z Z Z F F F F G G G H G G F M Z n t Z Z m M M n m n n Z Z Z Z Z F Z F F F F Z Z Z n Z Z Z M Z Z Z n n M Z M Z Z Z Z F F F G F F G G G G G L G G L G P P g.h.g.g.g.g.Z G v.j.v.v.b.v.c.v.v.v.v.v.b.b.v.c.P c.c.c.c.j.c.c.j.j.v.v.j.v.v.v.v.v.c.c.c.g.c.h.v.b.v.v.v.v.v.v.b.v.v.v.v.v.v.v.v.c.c.v.j.c.g.g.Z L b.c.n.b.v.j.b.j.v.c.b.b.n.b.v.b.b.v.n.c.c.j.b.b.n.n.b.b.b.v.b.n.].n.b.v.v.b.v.v.b.v.b.b.v.v.b.b.v.c.v.b.v.b.v.j.v.v.v.b.v.v.c.v.g.9 G v.h.c.h.c.c.c.",
"H L G F F Z Z Z F Z M M Z M n g n n n n n n m n n n n n n n n n n n g g g f f t t t t r t r f g n n n g g g n n g g n g f g f f f f f t t f f g f f f t t t t f f t g g g g g g g f f f f f f t t r t t t t f f f f t r t f f f g g m m n f g g n n f n n n n g n g n g f f g g g g g f f g n g f f f g g g f f g g n f f f g g g n n g g n m n n n n g n n n M Z n g n g g n g g n n n Z n Z g n m Z F Z Z F F F Z G M Z G G L H G H F G H L g.g.P P g.P P P g.h.g.g.P g.h.h.g.c.g.h.c.c.c.h.c.c.c.c.c.g.g.h.M g.g.g.g.g.h.g.P ",
"r t g n n n n n n n n n n n Z M F v.c.v.c.c.g.g.g.g.g.g.g.g.g.h.g.g.H g.g.P P g.g.L L P H P c.L L g.g.P L P P G G P P L H H H H G L H H L L P L L G H H H L L H L P h.g.c.c.c.g.L L L H H H H G H H H G G H G F G G F G G Z Z Z Z Z Z Z m n n n n n n n n n n g n M n n M M F F Z Z Z Z Z Z m M M Z M n n n n n n m n n n n n n n g n n n M m M m m M n n n n n n M Z Z Z M n n n n n n g g g g f g g g g f f f f f f g f f f n f g f f t 0 9 0 9 0 r 0 r t 0 r r 0 0 0 r r 0 0 t 0 0 r 0 0 9 r 0 r t f f f n m Z F F Z Z Z n f ",
"G G H P P P P g.P g.g.g.g.c.g.n 0 G n n L c.g.g.c.P g.g.c.g.g.c.h.c.n c.c.c.h.c.g.c.c.v.F L n.G Z g.j.c.c.c.c.G c.v.j.j.j.v.v.v.v.v.j.j.v.v.v.v.v.v.v.v.b.v.c.G P v.F Z H v.c.c.b.v.v.b.b.v.v.v.b.b.b.b.b.v.v.j.v.v.v.v.v.j.v.b.v.v.j.c.c.c.c.v.v.j.j.v.v.j.j.c.j.v.v.v.v.v.v.v.j.j.v.v.j.j.j.v.v.c.c.c.c.j.c.c.c.j.j.c.c.c.c.j.j.c.c.v.c.c.L L g.c.v.b.c.c.v.v.c.c.v.v.c.c.j.c.c.j.c.c.c.g.c.h.g.g.g.g.g.g.g.g.g.g.g.g.g.g.c.h.g.P L H G G G G G G G G G G G G G G F F F Z Z Z Z Z Z M Z M M M Z M n m M n g g n n n n n m Z F ",
"g.g.g.g.P g.g.g.g.P h.g.g.L G n 7 L n @ n.P L L P G L P g.P P P L g.F P g.g.g.L F c.c.c.h.c.c.P H g.c.g.c.c.L G c.c.g.c.h.h.h.g.P h.h.h.g.g.P g.L P h.h.g.c.c.P v.c.n M Z G P H c.h.c.h.c.c.g.h.h.h.h.g.g.g.g.h.g.g.c.c.c.g.c.c.g.h.g.h.g.c.j.j.c.c.j.j.j.v.b.v.b.b.b.v.b.v.v.j.j.v.v.v.v.v.v.v.b.n.P F j.v.b.v.h.v.v.v.v.v.c.v.c.c.v.v.v.c.v.v.v.c.c.c.c.c.c.c.c.c.c.h.c.c.j.c.c.j.j.j.v.j.v.b.v.v.v.c.c.j.v.b.v.b.b.b.v.v.c.c.c.v.v.b.v.c.b.n.n.b.b.b.b.b.b.v.b.b.v.b.b.j.v.v.v.v.v.v.v.v.v.v.v.c.c.c.c.g.g.g.g.P P P g.g.g.g.",
"g.g.g.P g.P c.c.c.g.c.g.h.G G n 0 c.8 g ].g.P g.P P g.g.g.g.g.g.g.c.v.c.c.g.H L g.c.c.c.g.g.g.c.h.c.c.h.c.h.g.g.g.c.c.j.g.c.c.g.g.c.h.g.c.g.g.c.c.c.g.c.g.g.j.v.v.c.n Z L G h.g.c.j.c.c.j.j.c.c.c.c.c.h.c.h.g.c.c.h.h.c.g.P g.g.g.g.P g.g.g.g.g.g.c.g.P g.P h.c.g.H g.P P P P P P g.g.g.g.g.P L g.c.G f v.c.g.c.g.L P P P P P P L P P L L P g.P L L P L L L G L H P L P L L L g.L L L H P H L P P P g.P P g.L L L L P L L H P g.P L g.c.F f g.g.g.P P c.P P P P g.g.g.g.g.c.c.g.P P g.g.g.g.g.L g.c.g.P g.c.v.j.c.c.c.j.g.c.c.c.",
"c.g.g.g.g.g.c.c.c.h.g.c.c.g.L g r v.g c.h.h.g.g.P g.c.c.c.g.g.c.c.g.g.c.c.g.H P c.c.j.c.g.c.c.c.v.c.c.c.c.c.g.c.c.c.c.g.c.c.c.c.c.j.c.c.c.c.c.j.j.c.j.j.c.c.j.j.g.c.g Z P g.v.v.b.b.v.v.j.j.j.j.b.c.c.c.j.j.c.c.c.j.j.c.h.c.c.c.c.c.g.c.j.j.c.c.j.c.j.c.g.c.c.g.g.g.g.g.g.c.g.g.c.j.c.c.c.c.c.g.c.v.G 0 c.j.h.g.h.g.c.c.g.g.c.P g.g.h.g.g.g.c.g.g.h.c.c.g.g.h.g.g.h.h.h.h.h.P c.c.h.h.c.c.g.h.g.g.h.c.c.P g.g.P g.P L L P g.g.g.P P g.c.Z f P P P G G c.P L P L P P H H H P L P L H L L P P L H L P P H G L L L H P G P P c.g.c.",
"c.c.g.g.g.g.c.g.c.h.c.c.h.c.g.g r n.j.g.g.c.h.h.c.c.h.c.g.g.c.c.c.h.c.c.c.v.c.c.c.j.c.c.v.h.g.c.c.c.c.c.c.c.c.j.j.c.c.c.c.j.j.v.j.c.j.j.j.j.j.c.j.j.j.c.c.j.c.j.g.g.g G L j.b.v.b.b.c.j.v.v.v.j.j.v.v.v.v.v.j.j.j.v.j.c.v.j.j.v.j.j.c.j.v.j.j.v.v.j.j.v.j.c.c.c.j.v.j.v.v.j.c.c.c.j.j.j.j.v.j.v.v.n.G 9 c.v.j.j.c.c.v.c.c.j.j.j.c.c.c.c.c.c.c.j.c.c.j.c.h.c.j.c.c.h.h.P c.c.h.c.c.c.c.j.c.c.c.j.c.g.c.c.P c.h.g.g.c.c.c.c.c.g.c.g.c.g.v.Z g c.c.g.g.P P g.g.g.g.g.g.g.g.P g.P g.c.g.g.L P g.g.P g.g.g.g.P g.g.P P g.L P g.g.c.c.",
"H h.g.c.c.c.c.c.c.c.c.h.c.c.c.f t '.g.g.c.c.h.c.c.h.c.c.c.g.c.c.g.c.c.c.c.c.c.c.c.c.c.h.c.v.c.j.c.c.c.c.c.c.c.j.c.c.v.c.c.j.v.j.c.j.j.j.v.j.j.c.j.v.n.v.j.j.v.j.c.c.g c.c.v.v.v.v.c.g.v.v.b.v.v.v.v.v.v.v.j.j.v.v.v.v.j.v.v.b.v.v.v.j.c.v.j.j.v.c.c.v.j.j.j.j.v.v.c.j.j.c.j.c.j.j.c.c.c.c.c.j.j.c.n.G r v.j.c.c.j.j.c.c.c.v.v.j.j.v.c.c.c.c.c.c.c.g.P c.c.c.c.h.c.c.c.g.c.c.c.j.j.h.c.c.v.v.j.v.j.c.c.c.g.c.c.c.c.c.c.c.c.g.c.c.c.c.c.n.M g v.c.g.g.g.c.h.c.h.g.h.g.g.c.g.g.c.c.g.h.g.g.h.g.h.h.P P c.c.g.P g.g.P P g.g.g.g.g.g.",
"P h.h.h.c.j.c.h.c.c.g.c.c.j.c.r f '.P h.h.g.g.c.h.g.h.c.c.c.g.g.c.c.h.c.c.j.c.c.j.c.c.c.g.v.c.c.v.c.c.c.j.g.c.j.c.c.j.c.v.v.c.c.v.j.c.c.j.j.j.j.v.v.v.j.v.v.j.j.j.c.f v.v.v.v.v.v.v.v.b.v.v.j.v.v.v.v.v.j.j.v.v.v.v.v.v.c.v.j.v.v.v.j.v.j.j.j.v.j.j.j.h.c.v.v.v.v.j.j.j.j.c.j.j.j.j.v.v.j.c.c.c.c.n.G t v.v.v.j.j.c.j.c.j.P j.j.c.c.c.c.c.c.c.c.c.c.h.c.h.c.j.c.c.j.c.h.j.c.c.c.h.j.j.c.c.j.c.c.j.j.c.c.c.v.c.P g.g.c.j.c.g.j.j.c.c.c.].n g v.c.c.c.P g.c.c.c.c.c.c.h.g.g.g.g.g.g.g.g.h.c.g.g.c.g.H g.c.c.c.g.L P g.L P g.g.h.g.",
"c.c.c.h.j.c.g.v.j.c.P c.c.v.v.0 g ].g.g.g.c.c.c.g.c.c.h.c.c.c.L P c.g.c.c.c.g.c.c.c.j.c.c.c.c.c.c.c.g.c.c.c.v.j.c.c.c.j.c.c.c.j.v.c.c.j.v.v.c.c.v.j.g.L g.c.c.j.c.g.g v.v.j.v.v.v.b.v.v.c.j.j.v.v.b.v.v.j.b.j.v.c.j.j.v.v.g.c.b.c.j.j.j.j.j.v.c.j.c.j.j.v.c.j.c.c.j.j.j.v.j.j.v.j.v.j.c.c.j.v.j.h.b.G f n.b.j.v.j.j.j.j.j.L j.j.g.P c.j.c.v.c.c.c.j.c.j.j.c.j.c.c.c.c.h.j.c.c.j.v.j.c.c.c.c.c.c.c.j.c.c.j.c.c.c.v.c.c.j.c.j.j.c.h.g.c.n.n n v.c.g.g.c.c.g.h.g.c.c.c.h.c.c.g.g.g.g.g.g.g.g.g.h.c.g.g.L g.g.g.c.h.g.v.g.g.g.P g.c.",
"g.c.h.h.c.c.c.v.c.g.g.c.c.v.c.9 g ].g.c.c.c.c.h.g.h.c.h.c.c.g.h.c.c.c.v.c.c.g.c.j.c.c.c.c.c.c.c.c.v.c.c.j.v.c.h.c.v.j.c.g.c.j.j.j.v.c.c.v.v.c.v.c.c.c.c.j.j.j.c.c.g.g b.v.v.b.j.j.v.v.j.v.v.v.j.v.h.v.v.v.v.j.j.j.v.c.v.v.c.c.v.j.j.j.j.j.j.j.j.j.v.j.j.v.j.v.j.c.j.j.v.v.j.j.j.j.j.j.j.j.j.j.c.j.n.G f n.v.j.j.v.v.j.j.v.j.c.c.c.j.j.c.g.c.c.g.c.v.j.c.j.c.c.v.j.c.c.c.c.c.h.h.c.v.c.j.c.c.c.j.c.g.c.c.g.c.c.c.v.c.c.c.c.j.c.c.h.c.c.n.n n v.c.c.g.g.g.g.g.L g.g.h.c.h.c.c.g.h.h.h.h.g.c.g.g.P g.g.P c.g.h.P g.P g.c.g.g.g.h.h.",
"g.c.c.c.c.c.c.c.c.g.g.c.v.j.c.9 n '.h.g.g.h.g.h.c.h.c.c.c.c.g.c.c.h.c.c.c.c.g.v.c.c.c.c.v.v.c.c.c.j.c.c.c.j.g.c.j.b.c.c.j.c.c.g.j.j.v.c.c.v.j.c.c.j.v.v.j.v.j.h.c.g.g b.v.v.j.v.v.v.v.j.v.v.b.b.v.c.v.v.v.v.v.v.j.j.v.c.j.v.c.v.j.j.v.j.v.j.v.j.j.c.j.v.v.v.v.c.j.v.j.j.j.c.c.j.c.c.c.j.v.j.c.j.c.n.Z t n.c.g.c.j.c.c.j.c.j.j.v.j.v.j.c.j.c.c.c.g.c.v.c.h.c.c.h.c.c.c.h.c.c.j.j.c.c.P c.j.c.c.c.c.c.c.v.c.c.c.g.c.c.j.j.c.c.v.j.h.c.c.].g n v.c.c.c.c.g.g.c.g.P g.c.c.c.h.h.h.g.g.h.g.g.c.g.g.g.h.g.H L c.g.g.g.P g.P g.g.g.c.h.",
"h.c.c.g.c.c.h.c.c.c.c.j.c.c.h.0 n n.P g.g.h.h.c.c.g.g.c.h.c.g.h.c.c.c.c.c.g.c.c.c.c.c.h.c.g.c.c.c.c.c.c.c.c.c.c.c.v.g.c.c.c.j.c.j.j.c.c.v.v.g.c.c.j.j.c.j.v.j.c.j.P g b.v.v.v.j.v.v.c.j.v.v.v.j.v.v.j.v.v.v.v.j.v.j.j.j.j.c.c.v.v.j.j.j.c.j.j.v.c.j.c.j.j.c.j.j.j.c.c.j.j.j.j.v.v.v.j.j.j.v.j.j.v.n.g f b.v.v.j.j.v.j.j.j.c.j.j.c.c.h.h.c.j.j.j.c.j.j.h.c.c.c.c.c.c.h.h.c.c.c.j.j.c.c.c.c.c.c.c.c.c.c.c.j.v.c.c.c.c.c.j.c.c.v.j.c.c.j.n.f n b.v.c.g.g.g.c.c.h.g.g.h.c.c.c.c.g.c.c.c.c.P g.c.g.h.h.c.c.g.h.c.c.P P P v.c.g.c.c.h.",
"g.g.c.c.c.h.c.c.c.c.c.c.c.j.h.0 n b.g.g.g.h.c.c.c.c.c.c.c.c.c.c.c.c.c.c.c.g.g.c.c.c.c.g.g.v.g.c.c.c.c.j.c.h.c.c.j.c.c.j.j.v.j.j.j.c.c.j.v.v.c.c.v.c.j.v.j.j.c.c.v.P f b.v.v.v.v.v.v.b.v.b.b.v.c.v.b.v.v.v.v.j.c.j.v.v.v.j.j.j.j.c.c.j.j.j.c.v.j.v.j.j.j.j.j.v.j.j.c.j.j.j.v.j.v.v.c.j.c.j.j.j.j.j.n.Z f b.v.v.b.j.j.c.c.j.c.c.j.j.c.c.c.g.c.j.j.j.j.c.c.h.c.c.j.j.c.c.j.j.c.c.c.j.c.g.c.j.j.j.j.c.c.c.g.c.c.c.c.c.c.c.c.j.j.j.h.c.c.c.n.0 n c.P g.c.h.g.c.c.g.h.c.g.g.g.H g.g.g.P P c.g.g.c.g.g.c.P L g.c.h.h.P P L L g.g.P g.h.",
"c.c.c.j.c.c.c.c.c.c.c.c.c.v.c.0 M b.c.g.c.h.c.c.g.g.h.c.c.c.h.c.c.c.c.c.c.c.c.c.c.h.c.c.h.c.g.c.c.c.c.c.c.j.v.j.c.c.v.c.j.j.c.j.c.c.c.j.j.c.c.j.j.c.j.j.j.c.c.j.b.g.t v.v.v.v.v.v.v.b.v.j.v.v.c.v.j.v.v.j.v.v.j.v.b.j.j.j.v.j.j.j.j.v.j.j.j.j.j.j.c.v.v.j.v.v.j.j.j.c.j.c.c.c.v.v.c.b.j.c.c.c.c.v.n.F g b.v.c.c.v.j.c.c.j.v.j.c.v.j.v.j.c.c.j.c.c.c.c.c.j.c.c.j.c.c.c.c.c.H g.v.j.c.c.j.v.j.c.j.v.v.c.v.c.g.g.c.c.P c.c.c.j.c.h.c.c.j.n.t Z b.g.g.g.c.g.g.g.h.c.h.h.c.g.P g.c.g.c.c.g.h.c.h.P h.g.g.H G P P h.g.g.g.P P g.g.g.c.",
"c.c.c.c.h.c.c.c.c.c.c.c.c.j.c.r Z n.h.g.g.h.c.c.c.c.c.c.c.c.c.c.c.c.c.c.c.g.g.c.c.c.c.v.c.c.j.j.c.c.c.c.c.v.h.c.j.v.c.c.j.v.v.c.j.c.c.j.c.j.c.v.v.j.j.j.c.j.c.j.v.L f v.v.b.v.v.b.v.v.j.j.v.v.j.j.j.v.b.j.c.c.v.v.b.v.j.c.j.j.v.j.c.v.c.j.j.j.v.c.c.c.j.v.j.j.c.j.v.j.j.j.j.c.j.v.v.c.j.j.j.j.j.c.b.M f b.b.v.j.j.c.c.j.v.j.j.c.c.c.j.j.c.g.j.c.c.j.j.h.j.j.c.c.v.c.c.h.c.g.c.v.c.j.c.j.j.g.g.g.c.j.j.j.c.c.c.c.c.L c.c.c.c.c.c.c.c.v.n.f G b.c.h.P g.h.h.h.g.c.c.h.g.c.c.c.g.g.P c.g.P c.c.g.g.h.h.g.c.g.h.g.g.g.g.h.P g.h.h.g.",
"c.c.c.c.c.c.c.h.c.c.c.c.c.c.c.r n n.g.g.h.c.h.g.c.j.c.c.c.g.c.j.c.c.c.c.c.c.c.v.c.c.c.j.h.c.v.c.c.c.v.v.v.v.c.c.v.j.c.c.c.j.c.v.j.c.j.c.j.j.j.v.j.j.j.j.c.j.c.c.b.G g b.b.v.v.g.v.v.v.v.v.v.b.v.v.v.v.j.j.j.c.j.v.j.v.j.j.c.v.v.j.v.v.j.c.c.v.c.j.j.j.j.j.j.j.c.c.v.v.v.c.j.j.c.v.j.c.j.c.j.j.j.c.b.M g b.v.j.j.c.c.c.c.c.v.c.c.j.v.c.c.c.c.v.j.c.j.c.c.c.j.c.c.c.c.v.j.v.c.j.j.j.c.j.v.j.c.c.j.j.h.c.c.c.g.c.c.c.c.v.j.c.c.g.c.c.c.v.n.f G j.c.P c.c.c.c.g.L h.c.c.c.h.g.c.g.g.g.c.h.g.h.g.h.c.g.P g.c.g.g.g.g.g.g.g.g.P P g.P ",
"c.c.c.c.c.c.c.c.j.j.c.c.j.c.v.g g ].g.c.c.c.c.c.c.c.g.c.c.j.j.j.c.c.g.c.c.v.c.c.c.c.j.j.c.v.c.v.c.c.v.c.c.c.c.h.v.v.c.c.c.c.c.j.c.v.v.c.v.v.j.j.j.j.v.v.c.v.j.v.v.G g b.b.v.v.j.v.v.v.v.v.b.b.v.j.v.j.j.v.v.v.v.c.b.v.v.j.v.n.v.v.v.b.v.c.j.c.c.v.j.j.j.j.j.c.c.j.j.c.v.c.c.j.j.v.j.v.j.j.j.j.j.c.b.M n b.j.j.j.c.v.v.j.j.j.v.j.j.c.c.c.j.j.j.j.j.j.j.j.c.c.j.c.c.g.c.c.v.c.c.c.j.c.c.j.c.v.c.j.v.P L c.c.j.c.c.c.c.c.j.j.j.c.j.c.H c.b.g G v.c.h.c.h.H h.g.g.g.c.h.c.h.g.c.c.c.g.c.h.g.g.g.c.c.g.g.c.c.g.g.h.h.g.g.g.g.h.h.h.c.",
"c.c.c.c.c.c.v.v.v.j.c.v.j.v.b.g f ].v.c.v.c.v.v.v.v.v.v.v.b.b.b.b.v.c.v.b.v.j.v.b.b.b.b.b.v.v.v.c.v.b.v.v.v.j.v.c.c.v.j.v.v.v.v.v.b.v.c.v.v.v.c.v.b.b.v.v.v.v.v.b.L n ].n.'.].n.n.b.b.b.n.n.b.b.b.b.b.b.b.b.b.b.b.v.b.v.v.c.j.b.b.b.v.c.j.v.v.b.j.v.j.j.v.j.j.j.j.v.v.v.j.v.v.j.j.j.v.v.v.v.v.v.v.b.M n b.j.c.j.v.v.v.v.c.c.j.v.j.j.c.v.j.j.j.c.j.v.v.c.c.j.v.c.v.v.c.c.j.j.j.v.v.c.j.v.c.c.c.c.j.j.j.v.c.j.v.v.j.v.c.c.j.j.c.c.c.g.j.v.r P b.c.c.c.c.c.h.g.c.c.h.c.g.h.h.h.c.c.c.c.c.h.h.g.c.c.g.P P h.g.h.c.g.c.c.c.c.c.c.c.c.",
"c.c.c.c.c.j.v.b.b.n.b.n.b.b.b.f 9 ].g.v.b.b.b.b.b.b.n.b.b.v.b.b.b.v.b.b.v.v.v.b.v.j.v.b.n.n.n.v.n.n.n.b.b.n.n.n.b.b.b.b.n.n.n.b.n.n.b.b.n.n.n.b.n.n.b.b.b.b.b.b.b.H n '.n.v.L c.v.n.'.].].'.n.n.n.'.n.n.n.n.n.n.n.n.n.b.n.n.b.n.b.n.b.b.b.b.b.b.v.b.b.b.b.v.v.v.v.b.n.b.n.n.b.b.n.b.n.b.v.b.v.b.v.b.n Z ].b.b.v.c.v.v.v.v.b.v.v.c.c.v.v.v.v.v.v.c.v.b.v.b.v.v.v.b.v.v.v.b.v.v.v.c.j.v.v.j.v.j.b.v.j.b.v.v.v.j.v.v.v.c.v.v.b.v.v.c.c.v.b.f L v.c.c.j.c.c.c.c.h.h.h.c.c.h.g.g.h.h.g.c.c.c.h.g.h.c.c.c.c.c.c.c.c.c.c.v.c.c.c.h.c.c.",
"g.g.P P P G Z g r n g g g g N 8 9 Z f F G Z n Z Z Z m B g t g f f f t f t f f f t r f f f g n g n n g n n Z n M M Z M m Z F F F G H n m F G F G F F G L Z H G n F n 0 n f 0 0 r t g g n n n n M Z Z Z F F G G L G G H L P g.g.g.h.P g.c.c.c.j.v.v.c.v.j.j.v.v.v.v.v.j.v.v.c.v.v.b.v.v.v.c.c.c.v.v.j.n M ].b.b.n.n.b.b.n.n.n.b.n.n.n.n.n.n.n.n.n.n.b.n.b.n.n.n.n.n.n.n.b.n.n.n.n.n.n.b.n.n.n.n.n.n.n.n.n.n.n.n.n.n.n.n.n.n.'.n.].].].].n.M c.v.j.j.v.v.v.b.v.v.v.L c.c.c.c.c.c.c.j.c.c.c.g.c.c.c.c.c.c.j.v.j.j.v.v.b.b.j.j.j.j.c.",
"n n n n g f r t t t r 9 r f g g n g f t t 0 0 0 0 t t t f f f g g g g g g g g g g g g g g g g g f t t g f f t f f t t t f r t t t t t r r t r r 0 9 0 0 0 0 r r t f g g g g g g g g f f t t t t t t t r t t t t 0 r t t t f f f t t f f f f f f f f t t t t t t t t r r r 9 r 9 0 0 0 0 r t t g n n g g G G G G F Z Z Z n Z n Z Z Z M n M M M m M M n n M n m Z n M M Z Z Z Z F F F F F F G F G F F G G G G G G F G G L P L P Z n F Z G Z H H L P P g.F M G F G F L L P P P g.G Z G G L G P L P g.P g.G Z G F F n f f t n n m M ",
"M Z F F Z n Z G Z M F F Z F G G G G G G G G G F F G G G H H L H H L L L L L L L L L L H H H L P g.g.g.g.L H G H L G H G G G G G G G G G G G H L H G G G L L H L P P P P P P P P L P P L L L P L P L L L L L H H L L H H H G H H H L P P H F F G F F F F F G F F G F Z F G F n n n G Z Z F F F Z F Z M n g n g g g f f f f f f f f g f f f f g f f f f f t t f f f t r t t r t t f t t t r 0 0 0 0 0 0 9 0 0 9 0 9 8 9 9 8 8 9 7 8 0 8 r 0 9 0 9 9 9 0 8 9 0 9 f t 0 0 0 0 0 0 8 9 r 0 f t 0 0 0 0 0 0 8 9 r 0 f 0 r f f f t r g ",
"c.c.c.g.g.c.g.g.P g.c.g.P L P g.P P P g.P P g.c.g.P g.L P g.P g.P g.L g.P P P P g.g.g.g.g.g.P h.H G g G G G c.c.c.c.c.h.g.c.h.c.c.c.h.h.h.g.c.h.g.c.c.c.c.c.g.g.c.P g.g.g.L P g.g.c.h.g.g.c.c.c.c.c.j.c.c.c.j.v.v.v.c.v.v.j.j.v.v.c.g.g.v.v.c.c.c.v.c.c.j.c.j.c.j.j.c.c.j.c.c.c.c.j.c.c.c.c.c.c.g.c.h.g.g.P g.c.c.c.g.g.g.P P g.g.h.g.g.g.P P P P g.g.g.P P P P P L L P P P P L G G G H H G G G G F G G G G G G G G G G G F G G G F F F F G G G G F G G G F F F F F G G G F F G G F F F F F F F F Z Z F G F F F Z G H H G G L H ",
"c.g.P G L L g.P P P L P L G P L g.g.P P P h.g.P L g.g.g.g.g.g.P P P L P P P L P P P P P P P L F f n 0 P P c.c.g.H H H g.g.P P P P P g.g.P g.g.P h.g.P P P g.g.g.g.h.g.g.g.g.g.P g.g.P g.g.P g.h.g.g.g.h.g.g.g.P g.g.P g.g.g.g.c.h.g.Z Z g.c.c.c.c.c.c.c.c.h.j.v.j.j.b.v.b.c.c.c.v.j.v.b.v.b.v.v.v.v.b.v.b.b.v.v.b.n.b.b.v.b.b.v.b.b.b.b.v.v.v.v.b.v.v.v.b.b.v.v.v.b.b.v.c.b.n.b.b.v.c.v.v.v.v.b.v.v.v.v.c.v.v.c.c.j.v.v.j.c.j.j.c.c.j.c.c.c.c.c.h.c.c.c.c.h.c.h.c.h.g.g.g.g.g.g.g.g.h.g.g.g.g.g.P P P L L L L P P g.c.c.L c.c.g.",
"h.g.H L L g.h.g.P L P g.c.P g.g.g.g.P P g.g.c.g.g.g.g.g.g.g.g.g.h.g.c.g.L L g.g.g.g.g.P P g.g.c.M G 0 P c.c.g.g.L P g.g.g.g.g.c.g.P c.P P g.g.c.h.g.c.c.c.c.g.g.h.h.h.c.c.g.g.g.h.h.c.g.g.g.g.g.g.g.g.c.g.L P g.c.g.g.g.g.g.g.h.h.v.Z n c.P L G G L H G H H G H F F G G H H L L G L G H G G G H H H L L G P g.L L L L H P P H L L P P P g.P g.P P P P P P g.g.h.P Z g.G g L c.P L P P g.g.g.g.P g.c.c.g.c.h.c.g.h.c.c.c.c.c.c.c.c.c.v.v.c.c.j.v.v.j.v.v.v.v.v.v.v.v.v.v.v.v.v.b.b.v.v.v.v.v.v.v.v.b.n.b.b.b.L G P c.c.g.c.j.c.c.",
"h.g.g.c.c.c.g.c.c.g.c.c.c.g.c.c.c.g.g.c.c.h.c.c.g.g.h.c.h.h.c.c.h.c.c.g.g.c.c.h.c.g.c.c.c.j.j.h.G L 0 g.j.c.g.g.h.c.c.c.g.c.c.c.h.c.c.P h.c.g.c.h.g.c.c.c.j.c.c.v.c.c.v.c.c.c.c.c.j.c.c.c.j.c.c.c.c.c.c.g.c.c.j.g.h.c.c.c.c.c.g.c.b.M n c.L P P L L L g.g.P P P G G P P P g.g.P g.g.P P P P P P P P L L P g.g.P L H L L g.g.P P L G H L L L L H H L L G G G G G g.G P M t G g.H P P g.g.P L P H G L P P P P L P P P H P g.P P P P G G L P L P P P P L P L L H L P P P P P g.P L L L P P g.P P P P L L P g.c.H g F c.v.c.c.c.c.h.",
"c.g.g.c.c.c.c.c.h.g.c.c.c.c.c.c.c.c.c.c.c.c.c.c.c.c.c.j.j.c.c.c.c.c.c.c.c.j.j.c.j.j.c.c.j.c.v.g.g.H 9 j.v.c.g.c.c.c.c.c.c.c.c.c.c.c.c.v.c.c.c.c.c.c.c.j.j.j.c.j.c.c.v.c.c.c.c.j.c.c.c.v.b.j.c.v.j.j.j.j.j.c.c.v.c.c.c.c.j.c.j.j.c.b.Z n b.c.c.c.c.g.h.g.h.c.c.c.h.g.c.h.c.c.g.g.h.g.g.c.j.c.c.g.g.g.g.g.h.c.c.c.g.c.h.g.h.c.c.g.g.P g.h.g.P P g.g.g.g.g.g.P g.g.P g.c.G 8 P v.c.c.g.g.g.h.c.h.g.P g.h.c.P P g.g.g.h.h.g.c.h.g.g.g.g.P g.c.c.g.c.g.h.h.P L P g.c.g.h.g.P g.g.P P g.g.g.g.c.g.g.g.G L c.g.g.h.g.9 n g.g.c.c.j.h.g.",
"c.L c.c.c.c.c.h.g.c.j.c.v.g.g.c.c.v.c.c.c.c.j.c.j.j.j.c.h.c.c.j.c.c.j.v.c.j.c.c.v.c.c.c.j.j.v.c.g.G 7 c.v.c.c.c.c.c.c.c.c.c.j.c.c.c.c.v.c.c.c.c.c.v.j.c.g.v.c.c.c.v.j.c.c.j.c.h.j.v.j.c.c.c.c.c.v.j.v.c.c.v.v.c.c.v.c.j.v.c.c.v.c.n.F g v.h.h.c.c.h.c.g.c.c.c.h.h.g.c.c.c.c.g.g.c.P g.c.c.g.c.c.v.c.P g.c.c.g.g.c.c.c.P c.c.c.g.h.c.g.c.g.c.c.g.g.g.g.c.g.P g.g.P P v.c.8 L v.c.c.c.g.h.c.c.c.h.c.h.c.j.h.g.c.c.h.c.c.c.g.c.c.g.c.c.c.c.c.c.h.h.c.h.g.g.c.g.L g.c.c.h.h.c.g.h.c.c.c.c.h.h.c.c.c.g.P c.g.c.c.g.9 Z v.c.P g.c.c.c.",
"g.c.c.c.c.c.v.c.j.c.c.v.j.c.j.c.v.c.j.c.j.c.v.c.v.j.j.c.j.v.v.c.j.j.c.j.j.v.c.j.j.v.j.c.c.c.v.c.c.F - c.j.c.c.c.c.c.h.h.c.c.c.g.h.c.v.c.c.c.c.c.c.v.v.c.g.j.c.c.j.v.c.c.v.c.c.c.v.c.c.c.c.j.v.j.c.j.j.j.j.j.j.j.j.b.j.j.j.j.c.c.c.b.F f b.h.g.c.h.c.c.c.c.c.c.c.c.c.c.c.v.c.c.c.c.c.h.c.g.c.c.c.c.c.c.c.c.c.c.c.c.g.c.h.c.c.h.c.c.c.c.c.g.c.c.g.g.g.c.c.c.g.g.g.g.P v.v.9 L v.c.c.P c.c.c.c.c.c.c.h.c.c.c.c.c.c.c.c.c.c.c.c.c.c.c.c.c.c.c.c.c.g.c.c.c.c.c.c.h.g.c.c.c.c.c.c.h.h.g.g.c.c.h.g.c.c.c.c.c.g.g.v.G - Z b.P P c.g.c.c.",
"c.g.g.c.c.c.c.c.v.c.c.v.h.c.c.c.c.c.j.c.c.c.c.c.v.c.j.c.j.c.c.c.j.c.j.j.c.c.c.j.j.v.c.j.c.c.j.c.v.F 7 c.c.c.c.c.c.c.c.c.c.c.c.c.c.j.c.g.c.c.c.c.j.v.v.j.j.j.c.c.c.c.c.c.c.c.c.v.v.v.c.c.j.c.c.c.c.j.j.j.v.v.j.j.j.v.j.j.j.v.c.j.g.v.F t v.c.c.c.c.c.c.c.g.c.v.c.c.v.c.c.c.c.c.c.c.c.c.c.j.j.c.c.h.c.c.c.c.c.g.g.c.g.c.c.c.c.c.c.c.c.c.c.g.h.g.g.c.c.c.j.c.g.g.g.g.g.v.v.9 g.b.j.h.g.c.c.c.c.c.h.c.c.c.c.h.g.c.h.c.c.c.c.c.c.P c.c.c.c.c.c.c.c.g.c.c.h.c.v.c.c.c.h.g.h.h.h.h.j.c.c.g.c.c.c.c.g.h.c.c.c.g.g.n.L - G b.c.g.c.c.c.b.",
"g.g.h.c.c.c.c.c.v.c.v.v.c.c.j.j.c.c.c.c.j.j.j.c.j.g.c.v.c.j.c.c.c.v.v.c.c.v.c.v.c.c.c.j.v.c.c.c.v.Z 7 v.c.c.h.j.c.c.c.h.c.c.c.v.c.g.c.c.c.c.c.g.j.c.c.c.c.c.c.j.c.c.c.c.g.c.j.c.c.j.v.v.j.v.j.j.v.v.c.v.c.j.j.j.j.v.j.j.j.c.j.v.j.'.G f b.c.c.c.c.c.c.h.g.c.c.g.g.g.c.c.c.j.c.c.c.c.c.g.g.G c.c.c.c.c.g.c.j.g.h.g.c.c.c.g.L c.c.h.g.c.h.h.h.c.c.c.v.v.j.g.g.c.g.g.g.v.c.9 P c.c.c.c.c.c.c.g.c.c.c.c.h.c.c.c.c.c.c.c.c.g.g.c.c.c.c.c.c.c.h.g.c.c.g.g.g.g.g.c.j.c.c.g.c.c.c.g.c.j.c.g.P g.c.c.c.c.c.g.c.g.c.b.G + L b.c.g.P P P c.",
"P g.g.c.c.c.c.j.j.c.v.c.c.j.c.c.c.c.v.c.c.c.c.v.c.c.j.c.j.j.j.c.c.j.j.c.j.c.v.j.c.c.c.c.c.c.j.j.v.Z 7 v.c.c.c.c.c.h.c.g.c.h.g.c.c.c.g.c.c.c.g.c.c.h.c.c.g.c.c.c.c.c.h.c.c.c.j.c.c.g.c.v.c.j.c.j.c.j.c.j.c.j.c.c.v.v.j.j.j.j.j.v.v.'.F t n.g.v.c.c.c.c.c.c.c.c.c.h.g.c.c.c.c.c.c.c.c.c.c.c.g.c.h.h.g.h.h.c.c.c.c.g.h.c.c.h.c.c.g.c.c.c.c.c.g.g.g.h.g.c.g.P P g.g.P P b.c.9 g.v.c.c.c.v.c.h.g.c.c.c.c.c.c.c.c.c.c.c.g.c.g.c.c.c.h.c.c.c.c.c.c.c.c.c.c.g.h.P g.h.c.c.g.c.c.c.c.g.c.c.c.c.c.c.g.c.c.c.c.c.h.h.b.G 7 g.b.c.c.g.g.P g.",
"c.c.h.c.c.c.j.v.c.c.c.c.c.c.c.c.c.c.c.c.c.j.c.j.c.j.j.c.j.v.v.c.v.c.c.c.c.v.c.c.c.c.c.c.c.c.j.c.b.Z - v.j.c.c.P g.c.h.h.c.c.c.c.c.c.c.c.c.c.c.c.c.c.c.c.j.c.c.c.c.c.c.v.c.v.v.v.v.c.c.c.c.c.c.j.c.j.c.j.c.c.j.v.j.j.v.v.j.j.v.v.c.n.F 0 v.j.c.c.c.c.c.h.c.g.h.c.h.c.c.c.g.h.h.c.c.c.c.c.c.c.c.g.h.c.c.c.g.c.c.c.c.c.h.c.c.c.c.h.h.c.c.c.c.c.h.g.g.c.g.g.g.g.g.g.P P v.c.0 g.v.c.c.c.g.h.h.c.c.c.c.g.c.c.g.h.c.g.c.c.c.c.c.c.c.g.g.c.c.c.c.c.c.c.c.c.c.c.h.c.g.g.g.g.c.c.c.c.c.c.c.c.j.c.c.c.c.c.P g.c.c.g.b.F 8 g.v.c.c.c.c.g.g.",
"c.c.c.c.c.c.c.v.c.j.c.g.c.c.c.j.c.c.v.c.c.c.v.c.j.v.c.c.c.c.g.c.v.c.c.c.j.c.c.j.c.j.j.c.c.j.v.c.n.Z - v.j.c.c.c.c.c.c.c.c.c.c.c.c.c.c.c.j.g.j.c.c.c.c.c.c.c.c.j.v.c.c.c.c.c.c.c.c.c.c.c.j.c.c.c.v.j.c.j.j.j.v.v.j.v.j.v.v.j.j.c.c.].G 9 c.c.g.c.g.c.c.c.c.g.g.c.c.c.c.c.c.c.c.c.c.c.g.c.c.c.c.c.c.c.h.v.c.c.P g.c.c.h.c.c.c.h.g.c.c.g.g.h.c.g.c.g.c.c.c.c.c.g.g.g.P c.c.9 c.v.c.c.c.g.g.c.c.c.c.c.c.j.c.h.g.g.g.g.g.c.c.h.c.c.c.h.h.c.c.c.c.c.c.c.c.h.c.c.c.v.c.c.g.c.g.h.c.g.g.v.c.h.c.g.c.c.v.g.g.g.g.h.n.m 0 g.v.c.j.c.c.c.c.",
"c.c.c.c.v.c.c.c.c.c.c.c.c.c.c.v.c.c.c.c.c.c.v.c.c.v.c.c.v.j.c.j.c.c.v.c.c.c.j.c.j.v.j.c.v.j.j.j.n.n - v.c.c.c.c.c.c.c.c.c.c.c.c.g.c.c.c.c.c.h.c.c.c.g.c.c.c.c.c.j.c.c.c.c.c.c.c.g.c.v.v.j.c.c.c.c.v.c.j.v.g.c.j.j.j.j.j.j.c.j.g.c.n.G 0 h.P c.c.g.j.c.h.c.c.c.c.g.h.c.c.c.g.h.j.c.c.c.g.h.g.c.g.g.c.c.c.c.c.c.c.h.c.c.c.g.h.c.h.c.c.g.c.c.c.c.h.h.g.c.g.g.c.c.g.g.L c.h.9 h.v.c.c.c.c.h.c.c.c.c.c.c.c.c.c.h.c.c.c.c.c.c.c.g.h.c.c.h.c.c.c.h.c.c.c.c.c.c.c.c.h.c.c.c.c.c.h.g.c.c.P g.g.c.c.c.c.h.c.g.c.g.c.b.n t c.b.c.h.c.c.v.c.",
"c.c.c.v.j.c.c.c.c.c.h.j.c.c.v.c.c.c.c.v.j.c.j.c.v.j.g.j.c.j.c.j.j.j.c.j.c.v.v.c.j.c.j.j.j.j.j.v.'.n 7 b.c.h.c.c.c.c.c.c.h.c.j.v.c.c.c.c.g.c.c.c.c.g.c.j.c.c.c.c.c.j.c.c.v.c.c.c.c.v.c.c.c.c.j.v.c.c.c.j.v.c.j.c.c.c.j.j.v.c.v.v.j.'.H 9 c.v.c.c.c.j.g.c.c.h.c.c.c.c.c.c.c.h.h.c.h.c.h.c.c.c.g.c.c.c.c.c.c.c.c.c.c.c.c.c.c.c.c.c.h.h.c.g.c.h.g.g.g.c.c.P G g.g.c.g.P j.c.0 h.b.P c.v.c.c.g.c.c.g.c.c.c.c.c.c.c.c.c.h.h.h.g.c.c.c.c.c.c.c.h.g.c.c.c.c.c.h.L g.c.c.c.c.c.c.j.c.h.c.c.c.c.c.P g.c.c.c.h.c.g.c.n.n g h.v.g.j.c.v.c.c.",
"h.c.c.c.c.c.h.h.c.c.c.j.c.j.v.c.c.j.v.j.c.c.c.c.c.c.c.c.c.c.j.c.v.v.v.c.c.v.c.g.v.j.v.j.c.g.g.j.n.g 8 b.P g.v.c.c.c.c.c.c.c.c.g.g.c.c.c.c.c.c.c.c.c.c.c.c.c.c.c.j.c.c.j.c.c.c.c.c.c.c.c.c.c.c.j.c.c.j.b.j.v.c.c.j.j.c.c.v.j.c.c.j.].H 8 c.b.v.c.v.c.g.g.g.c.j.g.c.c.c.c.h.c.c.c.c.c.c.h.c.c.c.c.c.c.h.c.c.c.c.h.c.c.c.h.g.c.c.h.c.c.g.g.c.h.c.c.g.c.c.g.g.h.g.g.g.P v.P 8 c.b.g.g.c.c.h.c.c.c.c.g.g.c.c.c.c.g.c.c.c.c.h.g.c.c.c.c.c.c.c.c.c.c.c.c.c.c.c.c.c.c.c.c.g.c.j.c.h.c.c.j.c.P c.c.c.c.c.c.c.g.c.c.b.f f c.v.c.c.c.c.c.c.",
"c.c.c.c.c.j.c.c.j.c.c.j.j.c.c.c.c.c.j.j.c.j.j.c.c.v.c.c.c.j.v.v.c.c.c.j.v.h.c.v.j.c.c.j.c.c.c.v.n.g 9 n.g.g.c.h.c.c.c.c.v.c.c.c.v.c.c.c.c.c.c.c.c.c.c.c.c.c.c.c.c.c.c.c.c.c.c.c.c.c.c.c.v.v.c.c.v.v.v.v.v.c.v.v.v.c.j.v.j.v.c.c.v.].P 8 h.b.v.v.c.g.c.c.j.j.c.h.c.c.h.c.c.c.c.g.c.c.c.c.c.c.h.c.c.c.g.c.c.g.c.h.h.c.c.h.c.c.h.g.P g.g.g.c.h.h.c.c.c.c.h.g.h.c.g.g.P v.g.9 g.c.j.c.c.c.c.c.c.c.c.g.h.c.c.g.g.c.h.c.c.c.h.c.c.c.c.h.c.g.c.c.c.h.c.c.c.c.c.c.c.c.c.c.c.g.g.c.h.c.c.c.c.c.c.c.g.c.c.c.j.c.h.j.b.0 f v.c.h.j.j.c.c.c.",
"c.c.j.v.c.c.c.v.c.v.v.j.v.c.v.v.v.v.v.v.j.v.v.j.c.c.j.v.v.v.j.j.v.j.v.v.v.j.j.v.j.v.b.v.v.v.v.b.n.g r '.v.v.j.b.v.v.c.c.c.c.j.v.j.j.j.c.j.v.v.c.c.v.c.c.c.v.v.v.v.v.v.v.h.v.v.b.v.j.v.j.v.c.v.b.v.v.v.v.c.c.v.j.v.c.v.v.v.v.v.v.v.].g.7 g.b.v.v.c.c.c.c.j.j.c.c.c.v.c.g.c.c.c.c.g.c.c.c.c.c.c.v.c.c.c.c.j.c.c.c.g.g.h.c.c.c.c.c.h.h.c.c.c.h.c.c.c.c.c.c.h.g.g.g.g.P c.P 9 h.b.v.v.j.c.c.c.c.c.c.c.c.c.j.c.c.g.c.c.c.c.G c.c.j.c.g.h.c.c.c.h.c.c.c.g.h.c.h.c.c.c.c.c.c.c.c.c.c.c.c.h.c.c.v.c.c.j.g.c.j.c.b.b.9 n v.v.c.c.c.c.c.v.",
"c.c.v.b.b.v.v.b.v.b.b.v.b.b.b.b.n.b.n.n.b.b.n.b.v.b.b.b.n.n.v.n.n.b.n.b.b.n.b.n.n.n.n.n.b.n.n.'.[.f t '.b.n.c.v.b.b.b.v.j.b.b.n.b.n.b.v.b.n.v.c.n.n.n.b.b.b.n.n.n.n.b.v.n.n.n.n.b.b.v.v.b.b.n.b.b.b.b.b.v.v.b.b.b.b.b.n.n.n.n.n.b.[.g.- P b.v.c.c.v.v.c.v.v.c.c.v.c.c.j.j.c.v.v.v.j.c.c.c.c.j.v.c.c.c.c.c.j.v.v.c.c.c.h.c.h.c.c.c.c.c.j.c.h.c.h.c.c.c.c.c.h.c.c.c.L v.g.r x.n.b.v.j.b.j.c.c.c.v.v.j.c.c.c.c.c.c.v.v.c.c.j.j.j.j.h.c.g.c.c.h.c.v.j.c.h.c.c.c.c.c.c.c.g.c.v.v.j.j.v.c.c.g.c.c.c.j.c.c.c.j.n.v.8 Z b.v.c.c.c.c.c.c.",
"c.h.c.c.h.g.c.h.c.c.c.g.g.c.h.h.j.c.g.h.c.g.c.c.c.c.h.h.c.c.g.c.g.c.g.c.c.c.c.v.c.c.c.c.c.c.j.h.x.z q A G P N N P G G P P H G G H P H L L P G H P H P L H H L P L L P F L g.P g.g.g.g.g.g.g.g.g.c.v.v.j.j.v.b.v.v.b.b.b.b.c.h.b.v.b.P S G v.b.b.v.n.b.b.b.b.b.b.b.b.n.n.n.v.b.b.n.b.v.v.b.b.b.b.b.b.b.b.b.b.b.b.b.b.b.v.v.v.v.v.v.v.v.b.b.c.v.c.c.v.v.c.v.v.c.c.c.g.c.H g Z F P G H c.b.v.v.b.n.b.v.v.c.v.b.b.v.b.v.v.v.v.v.b.v.v.v.v.v.v.v.v.j.j.v.c.v.c.j.c.c.v.v.v.c.c.v.v.v.v.j.b.j.g.b.v.b.v.v.j.v.n.c.e F b.b.c.c.c.c.c.j.",
"g g f 0 r r r r t r 9 0 0 0 r t g 0 0 0 t t t t 0 0 t t f t t 0 9 t 9 r f f 0 r 0 0 0 9 0 0 0 9 0 0 0 9 9 9 9 9 9 8 8 8 8 9 9 8 7 7 8 8 8 8 8 8 8 8 8 8 8 8 8 8 8 8 8 8 8 8 8 8 8 8 9 9 8 9 9 9 9 9 9 9 9 0 9 9 9 9 9 9 9 8 8 9 9 8 9 f g n n n n n n n n n n n n m n M Z Z m n M Z F G G F G G F P G G G G G G G g.P L L g.g.P g.L g.P g.c.c.c.c.c.c.c.c.c.c.c.c.c.g.Z n g r n N f n P L L P g.g.g.c.g.P g.g.c.c.c.j.v.c.c.v.v.v.j.v.v.b.b.b.n.b.b.b.b.b.b.n.b.n.n.n.n.b.b.b.].n.].].n.n.].'.].].'.n.c.].P e J G Z N h f g g f ",
"S Z Z Z Z Z Z F Z Z M M m m S Z S Z n n n n n n n n n n n n n n n n n n g g g g g g n n m n n n n Z Z Z Z M M m m M M M M m Z M M Z m M M M M Z m Z M M Z M M M Z F F Z Z Z M M M M Z n m M m m M n n n n n n n n g g f f g g g g g n n g g g g g g g f f f f f t t t t t r t t f r 0 0 r 0 0 t 9 8 e 9 9 t 0 9 9 0 0 0 0 r t 9 0 9 0 0 9 0 0 0 t r 0 0 0 r r r t f m m n g f g g n g t t r r 0 t t t t f r f t f f f g g f g g g g n n n n n n n n M Z M Z Z m Z Z Z Z F F Z Z n N Z F F Z Z M m M Z h S x e x N Z Z Z m m M M ",
"L L H P P g.L P L L P P P L Z N Z L g.g.P P P g.g.g.P P P P P P L P L P L L P L P P P L L G M F n H H L H G H H H H H G G H H H H H G G H L L H L L L L G H H L g.c.g.P P L L H L L H G L L H L H H H G G H L G G G G G H H H L P L P H L P L P L L P H H H G G G G G G G G L H H G G G G G G G n N M Z G G G G G F F F G F G G Z F G F Z F F F Z Z Z M M m n Z Z Z Z F G G F F G G G G G G F G F Z Z F F F F F F Z M M M m n n n n n n n n g n n g g g f f t f t f r t r r 0 r f r 0 0 0 0 0 9 9 0 t t f r f g n Z F H H H L H ",
"c.c.c.h.c.c.c.j.c.c.c.c.P c.F z e g.].v.c.g.c.c.g.c.g.c.c.g.g.c.c.c.c.c.c.c.c.c.g.h.g.P g.c.c.j.g.h.c.g.P g.g.g.g.g.g.g.P g.g.g.P g.g.g.P g.g.g.c.g.g.h.g.g.c.h.n 0 H j.c.g.g.c.g.g.g.g.g.g.P g.g.P g.P P g.g.g.g.g.g.g.g.g.g.c.g.g.g.h.g.g.h.g.g.c.g.h.g.h.g.g.g.g.P L g.g.g.c.g.P P g.g.g.P L h.j.c.c.c.c.v.c.g.h.g.g.c.g.c.c.h.g.h.c.c.c.h.g.P g.g.g.h.h.h.c.c.c.c.c.c.c.g.g.g.g.g.g.g.P g.h.g.g.g.g.g.c.c.h.h.g.g.g.g.P P P P g.g.g.c.h.g.g.L L L G H G H H H G G G G G G H H G G G G G G G G G G G G G G G L P g.c.c.g.h.g.",
"j.c.c.h.v.c.c.c.j.c.c.c.P ].P x & A ].c.c.g.g.c.g.c.c.c.c.c.g.g.c.c.c.c.g.c.c.j.g.g.c.c.g.j.g.c.P g.h.h.P P P g.P P P L P h.g.P P P P P L P P g.P g.P P P g.c.v.r . G b.c.c.c.c.c.c.c.c.c.c.c.j.j.c.c.h.c.j.c.c.c.c.c.c.j.c.c.j.c.c.g.v.j.v.v.h.g.c.c.h.c.c.c.c.v.v.v.v.v.v.b.b.b.n.n.n.n.v.g.H Z t Z Z b.v.v.c.P P P g.h.v.j.v.v.c.v.b.v.j.v.v.v.b.v.v.v.b.b.b.b.g.b.v.v.b.b.b.v.b.c.v.v.v.b.b.v.b.j.v.v.v.v.j.c.c.v.v.c.c.c.c.v.b.c.G v.n.v.v.b.v.b.v.v.v.v.c.j.c.c.j.c.c.c.j.c.c.v.v.j.c.c.j.v.v.c.c.c.c.j.v.v.c.c.c.c.c.g.h.",
"c.c.c.h.c.c.c.c.c.c.c.g.c.[.f.x ; N [.j.c.c.c.c.h.c.c.c.v.c.c.c.j.c.c.c.c.c.c.g.h.c.c.c.h.c.h.c.g.c.c.c.g.g.g.g.P P g.g.g.g.g.g.g.g.g.g.g.c.P g.P g.P H G G P b.g O g.b.h.c.c.c.h.j.h.g.h.c.c.g.g.c.g.c.c.g.g.g.g.h.g.h.g.c.c.c.c.c.h.c.g.g.c.g.L c.h.L P h.g.P g.g.c.h.c.P h.c.c.c.c.c.c.c.v.Z Z - X L n.c.c.c.c.c.h.c.g.g.g.c.h.h.c.h.g.P L g.c.c.c.c.c.g.g.g.g.L P P h.g.g.H L L L g.g.g.c.g.c.c.c.c.g.c.c.c.v.c.v.g.c.v.v.c.b.n.Z t c.b.P h.h.g.c.c.c.c.c.j.h.c.c.c.c.c.c.c.h.g.g.c.j.c.h.c.c.j.b.j.c.v.c.c.c.c.h.c.c.c.c.c.",
"g.c.c.g.g.g.c.h.c.c.c.g.b.].P b : d [.b.b.b.v.v.v.v.v.v.b.v.c.v.v.v.v.c.j.v.c.j.j.c.c.c.j.c.c.c.c.c.c.c.h.c.c.c.h.j.c.v.c.c.c.c.c.c.j.c.c.c.c.c.c.j.c.j.c.g.c.v.g @ g.n.j.v.j.j.c.c.c.c.c.c.j.c.j.c.c.c.c.v.c.g.c.c.c.c.c.c.j.c.c.c.v.b.c.c.c.c.c.j.c.j.c.v.b.v.c.c.c.c.c.c.v.h.c.c.j.c.c.c.].n.v.f * b.n.v.c.j.v.v.c.h.c.c.c.c.c.c.g.c.c.c.c.c.c.c.h.g.g.c.c.c.c.h.h.c.L P P g.g.g.c.g.g.g.h.g.P H P P P P g.P L L P L g.g.c.P c.n.n O G n.c.L g.P g.g.P P L L g.g.g.P P P g.P g.P P P P L g.g.h.g.g.P L P P g.g.g.g.h.g.g.g.g.",
"c.c.c.c.c.c.c.c.v.c.c.v.].P N J q A  Xv.b.b.v.v.v.v.v.b.b.c.v.b.b.b.j.j.v.j.v.v.c.c.j.c.c.c.j.b.j.j.j.j.c.c.c.c.v.c.c.c.v.j.j.j.c.h.c.c.c.v.c.v.c.b.c.j.j.c.j.v.n - c.n.j.v.b.c.j.j.v.j.j.v.j.v.c.v.j.j.v.v.j.v.v.c.b.j.j.j.v.v.c.v.c.j.j.v.v.c.j.v.v.c.c.v.c.v.c.j.v.c.c.v.j.c.j.c.v.j.c.c.v.v.b.n - v.n.v.j.c.v.j.c.j.c.c.v.v.v.c.c.c.v.v.v.v.c.v.c.c.c.c.c.v.v.c.j.v.g.g.c.v.v.v.v.c.c.c.j.c.c.c.c.c.c.c.c.c.g.c.h.g.c.h.c.c.j.n.n @ G n.b.c.g.c.h.c.c.c.c.g.c.g.g.c.c.c.c.g.c.c.g.g.c.g.g.g.c.g.L g.P c.c.g.c.v.c.c.h.c.c.c.",
"c.c.c.c.c.v.h.c.v.c.c.b.'.g F K e F [.b.c.v.c.j.v.j.j.v.v.j.v.v.v.j.c.j.v.j.j.v.j.v.c.j.c.c.v.c.c.c.j.j.v.c.c.j.v.c.c.c.j.j.j.c.j.c.c.v.c.j.c.j.c.v.c.b.v.H P v.n - c.n.j.v.j.j.j.j.v.j.v.v.j.v.j.v.j.j.v.v.v.v.v.b.v.v.v.b.v.c.j.j.j.c.j.j.j.j.v.j.j.j.j.j.c.j.c.v.c.j.v.v.v.j.j.v.v.c.j.c.c.b.].n @ g.n.b.j.v.c.c.v.v.j.c.v.v.v.c.c.c.v.v.c.v.v.c.v.v.v.v.v.v.c.j.v.c.c.b.v.v.v.v.v.v.c.j.c.v.v.v.v.v.v.j.v.j.c.j.c.v.v.c.c.j.v.].N * P '.v.c.g.c.c.c.c.g.c.c.c.c.g.c.c.c.v.v.c.c.c.c.c.g.g.c.c.c.h.g.g.P c.c.g.h.h.c.j.c.c.c.",
"h.c.c.c.v.c.c.c.c.c.c.v.b.P P P e Z ].v.c.j.v.v.v.v.v.j.v.j.v.b.j.c.v.b.v.v.v.b.v.v.c.v.c.c.v.j.c.j.j.g.g.g.c.j.j.c.c.c.j.j.c.c.j.c.c.c.c.j.v.v.c.c.v.v.P H c.b.Z - c.n.c.j.v.v.j.v.v.j.j.v.v.b.j.v.v.v.v.j.v.j.v.v.c.j.v.v.j.c.v.c.j.v.v.j.c.j.j.j.b.v.j.b.v.j.c.v.v.c.c.c.c.j.v.v.v.v.v.c.c.b.n.n @ g.].v.j.v.c.c.c.v.c.c.c.v.v.j.v.v.c.c.c.j.v.c.c.c.v.v.c.c.c.v.v.v.v.v.v.c.c.j.c.v.j.v.j.v.v.v.v.v.v.h.v.b.b.v.v.v.v.v.b.c.v.].N - c.'.b.c.c.c.c.v.v.c.h.c.c.v.c.c.c.c.j.c.c.c.c.c.c.c.j.c.c.c.c.j.j.h.c.h.g.c.c.h.h.c.v.c.",
"c.c.c.c.c.c.v.g.v.v.c.c.g.v.b.x.w f [.v.v.v.v.b.j.j.v.v.v.v.v.b.v.v.b.b.c.v.j.v.v.j.c.c.j.b.b.c.c.v.c.c.c.j.j.c.j.j.c.c.v.c.j.v.v.c.j.j.j.j.c.v.j.v.v.j.c.g.j.v.Z - g.'.j.j.v.v.v.j.j.v.v.b.v.v.v.v.j.j.v.j.v.j.v.j.b.v.j.j.j.j.v.j.j.v.j.j.v.v.c.j.c.c.j.c.c.v.v.c.v.v.v.v.v.j.c.j.c.v.v.v.c.b.n.M @ g.n.v.c.v.v.v.j.j.v.v.v.v.v.c.v.v.v.c.j.v.v.v.v.v.c.v.b.b.v.v.v.c.j.v.v.v.v.v.v.c.v.v.v.v.c.j.v.c.v.v.c.j.j.j.v.b.b.j.v.j.b.].n 8 h.n.b.v.c.c.j.c.c.c.g.c.h.c.c.c.c.g.c.c.j.j.h.c.j.c.c.c.g.g.c.h.c.c.c.h.g.c.c.c.h.c.c.c.",
"j.c.c.c.h.c.c.c.v.h.c.c.c.c.v.b.0 0 [.j.b.b.v.v.c.j.v.b.v.j.v.v.c.j.b.j.c.v.j.v.v.j.j.v.j.v.j.c.c.j.c.j.v.v.v.c.c.c.c.c.j.c.j.j.c.g.c.c.c.g.c.v.v.v.h.h.g.G c.c.Z @ G n.v.b.v.b.v.v.v.v.j.c.v.v.v.j.j.b.v.v.b.v.v.v.v.j.j.v.j.b.j.c.v.b.v.v.v.j.v.j.c.j.v.j.j.j.v.v.v.v.v.v.v.j.c.c.j.c.c.v.c.b.b.Z - c.n.v.j.v.j.c.v.v.v.v.v.j.j.j.c.v.c.v.v.v.v.v.v.v.v.j.v.j.j.v.j.v.v.c.j.c.v.v.v.v.c.j.v.v.v.c.c.j.c.j.v.v.j.b.c.c.j.j.j.v.v.n.n 8 j.b.v.v.j.j.c.c.j.c.c.c.c.c.c.c.c.c.c.v.h.c.c.g.c.c.j.c.c.P c.c.h.c.c.h.j.c.g.c.c.c.c.c.",
"c.v.c.c.c.v.v.c.c.c.j.c.h.c.b.v.r 0 ].j.v.v.c.v.c.v.v.b.j.v.j.b.v.j.j.j.j.j.c.v.v.c.j.v.c.j.j.c.c.c.c.c.c.c.v.c.g.c.c.c.v.j.j.j.c.j.j.c.v.v.j.c.c.j.c.c.P G G c.G - F n.v.j.j.v.j.v.j.v.v.j.v.v.j.b.v.j.j.j.j.j.j.j.v.j.c.v.v.v.c.j.j.v.v.v.v.v.v.j.j.v.v.v.v.v.j.c.c.v.v.v.v.v.v.v.v.j.j.c.c.b.b.n - c.n.v.v.v.v.v.v.v.v.v.v.v.v.v.v.v.j.j.v.c.v.v.c.c.j.c.c.v.v.j.c.j.c.c.c.c.v.v.g.c.j.j.c.c.v.v.v.j.j.j.v.b.v.v.c.j.v.j.v.v.b.b.g q c.n.c.c.c.c.c.c.c.P c.c.g.c.c.g.g.c.g.c.c.j.c.c.c.h.c.c.c.h.c.h.c.c.c.h.c.c.g.g.h.c.c.g.",
"g.P c.c.c.c.c.c.c.c.c.c.c.c.v.v.f r ].v.b.v.v.v.v.b.v.c.v.j.v.c.c.j.v.v.b.j.j.v.j.j.j.j.j.j.c.c.j.c.c.c.v.c.v.c.g.c.c.j.j.g.j.j.c.v.j.v.v.v.j.v.c.v.c.c.c.G G j.G 9 g.b.v.j.v.j.j.v.v.j.v.v.v.c.j.v.j.v.v.b.v.v.v.j.j.v.c.v.v.j.c.j.j.b.j.c.c.v.v.v.v.j.c.v.v.v.j.j.j.c.v.c.c.c.v.v.c.v.v.c.c.n.n.Z - v.].v.j.v.v.v.c.j.v.v.c.v.v.v.v.v.v.v.v.c.j.j.j.v.j.v.v.v.v.v.v.v.j.v.j.v.c.v.v.j.j.j.v.v.v.j.v.v.v.j.j.j.v.v.v.b.v.v.j.j.b.b.g e b.n.j.c.h.c.c.j.c.c.c.c.c.v.c.c.c.P g.c.c.c.g.g.c.g.h.j.v.c.h.h.c.c.c.c.h.c.h.g.c.c.c.c.",
"c.g.g.c.c.v.c.c.v.j.j.c.j.c.v.v.f r ].b.b.b.v.c.v.b.j.c.v.v.b.v.v.j.v.v.v.j.v.j.j.c.b.v.v.v.v.c.j.j.v.v.v.c.c.c.c.c.c.c.j.c.c.c.c.v.j.j.j.j.j.v.v.c.c.j.v.P P c.P 9 P n.v.v.j.j.j.v.v.j.j.j.j.j.j.j.j.v.v.v.j.v.b.v.v.j.v.v.j.v.j.c.v.v.c.c.j.v.j.v.c.c.j.v.c.v.j.v.v.v.v.v.v.v.v.v.c.b.v.g.g.n.n.m @ c.n.b.j.v.v.c.c.v.c.c.c.c.v.c.v.v.j.v.v.v.c.j.v.v.v.v.v.v.c.j.c.v.v.c.c.v.v.c.v.v.j.c.v.v.v.j.j.v.j.j.b.c.c.b.v.c.v.j.j.j.b.b.g 8 v.n.v.c.c.v.j.c.j.c.g.c.c.c.v.c.c.g.h.h.c.c.c.g.c.c.h.c.c.c.c.c.h.h.c.h.h.c.h.c.c.c.c.c.",
"c.c.c.c.c.v.c.c.j.c.c.v.c.h.v.b.f r ].v.v.j.c.b.j.c.v.v.b.c.v.v.j.j.b.v.j.j.v.j.c.c.v.c.c.b.c.c.c.c.v.j.c.c.j.c.c.j.c.j.c.v.j.j.c.c.v.j.j.j.v.c.g.c.c.v.v.g.g.c.H 8 G n.v.v.v.v.v.v.v.j.j.v.b.v.v.j.v.v.v.v.j.c.j.j.v.v.c.c.j.c.v.b.v.j.c.j.v.v.j.c.j.j.v.c.j.j.c.v.c.v.v.j.v.v.v.j.v.v.g.c.c.n.n.n @ v.n.b.v.v.v.c.v.v.j.v.v.v.c.c.v.v.v.c.c.v.j.j.c.c.c.v.c.v.v.v.v.c.j.b.v.v.v.v.b.v.j.j.v.v.v.v.v.j.v.v.c.v.j.j.c.j.v.j.j.c.b.n.f 8 b.n.v.j.c.c.c.c.c.c.v.c.h.j.c.c.c.c.c.c.c.c.c.c.j.c.c.g.c.c.j.c.c.h.c.g.c.c.c.h.c.h.c.c.",
"c.c.c.c.c.c.j.c.c.c.c.c.L c.b.b.g 9 n.v.v.v.v.b.c.v.v.c.c.h.j.c.j.b.j.j.v.v.j.c.c.v.v.c.c.c.c.c.c.c.c.c.c.v.v.v.j.v.c.j.v.v.c.j.j.j.v.c.v.j.c.v.c.c.c.v.c.g.c.g.G 7 G ].v.v.v.v.v.j.b.j.j.v.v.v.v.v.v.v.j.c.v.j.j.v.j.v.v.v.j.v.v.c.c.j.v.v.v.c.c.j.v.j.j.j.j.j.c.c.v.j.j.j.v.v.v.v.v.v.c.j.c.n.n.n + v.n.v.v.v.v.v.v.v.j.j.v.v.c.j.v.v.v.c.c.c.v.v.v.j.v.v.c.c.c.j.v.j.v.j.c.j.c.v.j.v.v.v.b.v.j.j.v.v.v.j.v.b.v.v.j.b.b.v.v.v.n.b.f 8 b.n.c.c.h.c.c.c.c.c.c.h.g.c.c.c.c.c.c.c.c.g.c.c.j.j.c.c.c.P c.v.j.c.c.h.c.c.c.c.g.g.c.c.",
"c.c.c.c.c.c.v.c.c.c.v.v.c.c.v.b.g 9 ].v.v.v.v.v.c.j.c.v.v.b.j.v.v.j.j.v.j.j.j.j.j.v.c.c.c.c.v.v.c.c.c.v.c.c.v.v.c.g.c.v.v.c.c.j.j.v.j.c.v.j.c.j.c.v.c.c.j.g.g.g.L 9 G n.v.v.v.b.j.j.v.v.b.v.v.v.v.v.v.j.j.v.j.v.j.v.j.j.c.c.v.v.j.c.j.v.j.j.v.j.j.v.v.j.j.v.c.j.v.v.j.c.v.v.v.v.j.c.j.v.j.c.g.n.b.n @ v.n.v.v.v.v.c.c.c.j.v.v.v.v.v.c.v.c.j.v.j.j.v.j.c.v.v.v.v.c.v.v.j.c.v.v.v.j.j.j.c.j.j.v.j.c.c.c.v.v.j.j.v.v.j.j.v.v.v.v.v.n.n.t w n.n.v.c.j.j.h.c.c.g.h.P g.g.c.g.c.c.j.c.c.c.c.c.c.h.c.c.c.c.g.P v.c.c.h.h.c.c.c.c.h.c.c.",
"c.c.c.j.v.v.v.j.v.v.j.c.g.v.v.n.n 9 ].b.b.b.b.b.v.c.v.v.c.v.v.v.v.v.j.b.v.v.v.v.v.b.c.j.b.v.v.j.c.v.v.v.v.j.c.c.c.j.v.v.j.v.c.j.j.j.j.v.c.c.c.v.j.j.c.c.c.L g.c.F 7 G n.v.b.v.v.v.v.v.v.v.j.v.v.v.b.v.c.j.b.v.v.v.j.v.v.j.j.j.j.v.v.v.v.c.c.v.j.j.v.j.j.b.b.c.j.v.v.v.j.v.v.v.c.c.j.v.j.j.j.h.n.b.g # j.n.v.c.c.j.j.v.j.j.c.c.c.v.v.c.c.c.c.j.v.v.j.v.c.v.c.c.c.v.c.v.v.v.v.v.v.v.v.c.v.j.j.j.j.v.j.j.v.v.v.v.b.v.v.v.j.j.v.v.v.n.n.0 q ].n.j.c.c.j.v.j.g.h.c.c.j.c.c.c.c.v.c.c.c.c.v.c.c.j.c.c.c.c.c.g.g.c.c.c.h.g.h.j.v.c.h.h.",
"c.c.c.v.v.v.v.b.b.b.v.v.b.n.b.[.n 8 '.n.n.n.b.v.n.b.n.b.b.b.n.v.b.b.v.b.v.b.v.b.v.v.v.b.j.b.b.v.v.v.v.b.b.j.v.v.n.n.b.v.b.b.v.b.b.v.v.b.v.b.v.j.v.v.j.j.v.g.c.n.F 8 g.n.b.v.v.b.b.b.n.b.b.v.b.b.n.b.b.b.b.b.v.v.b.v.b.v.v.b.b.b.v.v.v.v.v.v.v.v.v.v.j.j.v.c.j.j.c.c.v.v.v.v.v.j.v.v.v.v.j.h.c.].b.g - j.n.v.v.v.v.v.v.b.c.c.v.v.j.v.v.v.v.v.v.v.v.v.b.v.j.j.v.v.b.v.j.v.v.v.b.v.v.b.j.v.v.j.j.v.v.v.v.v.v.v.b.b.b.v.v.b.b.v.j.c.n.n.e 7 n.n.j.g.h.c.j.v.c.c.v.j.c.c.c.c.c.h.j.c.c.c.c.c.g.c.c.h.c.c.c.c.g.h.c.g.c.c.h.c.c.c.c.c.",
"c.c.c.c.c.c.c.c.j.v.c.v.v.j.c.j.n > v.n.b.v.b.b.v.b.n.b.b.n.n.b.n.b.n.n.n.n.'.c.v.b.n.n.b.n.n.n.'.'.n.n.n.b.b.b.n.n.n.n.b.b.n.].'.n.n.n.n.n.].n.n.n.n.n.'.b.b.].F 9 c.].].].n.n.].n.n.n.n.n.'.n.n.'.b.n.].].n.n.n.n.n.n.n.n.n.n.n.n.n.n.n.n.n.n.n.b.b.b.b.b.b.b.v.b.b.b.b.v.v.b.b.b.b.b.v.j.j.].b.n 8 v.n.n.b.b.b.b.b.b.v.v.j.v.v.b.b.b.v.b.n.n.v.v.b.b.b.j.c.v.b.n.b.b.b.b.b.b.b.v.b.v.b.b.b.b.b.b.v.b.b.v.v.c.v.b.v.v.v.v.v.j.].b.e > v.'.v.v.j.v.j.j.v.j.c.v.c.j.v.c.c.j.j.v.c.c.c.c.c.g.c.c.c.j.c.c.c.c.c.c.j.c.c.c.c.c.j.c.",
"c.g.g.j.v.v.v.v.v.v.v.b.v.c.P Z n g n n g g g g f g f g g g g f g g g g g n m 0 n n n n n n n Z Z Z Z Z M M M Z m F m Z Z M Z F G F Z F M F G G Z F G G G Z m n m t Z M m Z n m F Z F F G F G G F M g F m F F G G G H H G G H L h.g.g.g.g.g.P g.c.c.c.c.j.j.v.b.v.b.v.v.v.b.b.b.v.v.b.n.b.c.g.n.c.Z g L g.g.P g.g.g.P c.c.c.g.c.j.c.h.v.c.c.v.v.j.v.b.v.v.b.b.b.b.b.n.n.n.n.n.b.b.n.n.n.].].'.n.n.].n.n.n.n.n.n.b.n.n.n.n.b.n.b.].v.r q P n.].'.n.n.n.n.b.b.b.v.v.v.n.v.v.v.v.v.v.c.j.v.c.c.c.c.v.j.v.v.c.c.c.j.c.c.c.v.b.v.c.c.",
"L H G G M n g n g f g g g n n M F G F Z Z Z Z Z Z Z M Z Z m M M M m n m n n n n n n n n n n n n f f F n n n n n g g g g g g g f f f f f f f f f f t t t f g g n n Z m n g g g f f f f f f f g g g g g f f g g g g g f f f f g g n g r n f f t t t f f t f f f f f f g g g g f g f t f t f t f n n M n m n n n g g g f g f f f g g g g n g f f f f f f f g g g n n g n g Z Z Z Z Z Z Z Z F Z G L L P g.g.c.c.v.v.v.n.n.n.'.b.n.n.].b.g t G G G G H H Z H G G P P P g.P g.g.P g.g.g.g.g.g.g.P g.c.v.v.g.c.c.g.g.P G G L L L g.h.g.",
"M F G F Z Z Z Z Z Z Z M Z Z F H c.j.c.c.c.c.c.c.c.c.h.c.c.c.c.c.c.g.g.c.g.c.c.h.c.c.c.c.g.c.c.c.Z 8 G v.v.g.P h.h.g.c.g.c.g.g.g.g.P g.P P g.P P g.P g.g.g.P g.g.P G L P g.P P P P L P P P P P P P L g.P L P L P P H H H H H L P H g t c.g.P P L H H H G G G G G G G H H H G G G G G G G H L P P P P L L H P L L L L H H H G L L G L L P L L G H G F F G H G G G G Z g F G Z M n M M m n n g f f f f f f f f f g g g g g g g g g m F n g n t f f g f f f g f f f f f f f f f f g g f g g g g f g f g g w f g f g g f f g g g g n ",
"L h.c.g.c.c.h.g.h.h.c.g.h.g.c.c.v.c.c.c.c.j.c.v.j.v.c.j.c.b.v.c.b.j.b.b.j.v.c.c.v.v.v.v.v.j.b.n.H - n '.j.v.v.v.c.v.c.g.c.c.c.v.v.v.j.v.c.c.v.c.c.h.c.g.P g.g.c.c.g.P g.P P g.c.c.g.c.v.g.P g.v.h.g.v.v.j.v.v.b.v.j.v.v.v.v.v.b.v.0 7 ].n.n.n.b.b.b.b.v.v.c.j.j.g.g.c.c.g.P P P g.g.P h.j.c.v.b.b.v.v.v.v.v.v.v.v.c.v.v.v.v.v.c.v.n.b.b.b.b.n.b.v.b.n.n.n.b.b.b.n.g.f g.n.v.v.b.v.v.b.v.j.c.h.g.g.h.g.P L L L H G F F F F F G G G L P g.P P P P L L P g.g.g.L H H H G G G H H H G G G G G F F F F G G q N h.G H P L L L H L G G ",
"c.c.c.j.c.v.v.v.v.b.c.c.c.c.c.v.c.c.c.c.j.v.j.v.v.j.c.c.j.j.j.j.v.v.b.v.c.c.c.v.c.c.c.c.c.c.b.n.L 8 n n.c.v.c.g.c.c.c.g.g.c.j.c.c.c.g.c.g.c.c.g.c.c.g.c.c.g.c.g.c.g.c.h.h.g.c.g.g.g.c.g.g.h.h.g.g.c.h.h.g.h.c.c.c.c.c.c.g.h.c.b.n.0 o n.b.b.v.v.j.j.v.v.j.v.b.j.c.c.c.c.v.c.h.c.g.h.h.h.c.c.c.c.c.c.c.c.c.c.c.c.c.c.c.c.c.c.j.c.c.j.c.P H c.c.c.c.g.c.c.h.c.c.v.].c.- n n.c.h.v.c.g.j.v.v.b.b.b.b.v.b.b.b.v.c.c.P g.g.g.c.c.c.b.b.v.b.b.b.b.n.n.v.v.v.P P g.v.v.v.b.b.n.b.b.b.b.b.b.b.b.b.b.b.v.b.n.L q x b.b.v.v.v.v.v.v.v.b.v.",
"c.c.c.c.j.j.b.v.c.c.h.v.j.v.v.v.c.v.v.b.b.j.b.v.c.v.j.v.b.b.b.c.v.v.v.c.v.b.j.c.v.b.b.v.v.b.v.n.P 8 n '.c.v.c.c.c.c.c.c.c.j.j.g.c.c.c.v.h.c.h.c.c.c.c.j.c.c.c.c.c.c.c.c.c.c.c.c.g.c.c.c.c.c.c.j.c.c.c.c.j.c.c.c.c.h.g.h.c.j.v.b.n.0 o n.].b.v.v.c.v.v.v.v.v.v.v.v.v.j.c.g.c.v.v.v.v.j.v.v.j.c.v.c.c.c.v.v.c.c.c.c.c.g.j.c.g.c.g.g.c.h.c.G g.g.g.h.h.c.c.g.g.g.h.b.c.- 0 v.c.j.c.c.c.c.c.v.j.c.c.j.c.c.c.c.c.c.g.g.g.g.g.c.g.c.c.c.g.v.j.h.h.j.c.c.j.c.c.c.c.c.c.g.h.c.j.c.c.c.c.c.h.j.c.c.c.c.v.v.[.H = x n.v.c.c.c.c.c.c.v.b.b.",
"c.c.c.v.v.j.v.c.c.j.j.v.v.v.v.j.c.v.b.b.j.v.v.c.j.v.v.v.v.b.c.c.b.v.v.v.v.v.c.j.v.v.v.v.b.j.v.b.P 8 n n.j.j.c.v.j.h.j.c.c.v.c.j.c.c.c.c.c.c.c.c.c.c.c.c.c.c.c.c.c.j.c.c.j.j.c.j.g.c.j.c.c.c.c.j.c.c.j.c.c.g.c.c.c.c.c.c.c.c.c.b.b.t O b.n.v.v.v.j.v.v.v.v.v.v.j.v.v.v.j.j.j.v.v.v.c.v.v.v.v.j.v.v.c.j.v.v.j.j.j.c.c.h.c.j.c.v.c.v.c.c.v.j.j.c.j.c.c.j.c.c.j.c.c.'.c.- 0 b.v.j.c.c.c.c.g.L c.c.c.c.c.c.c.j.c.j.v.v.v.v.v.v.j.j.j.v.c.g.c.c.c.c.c.h.c.c.g.c.c.j.c.c.c.h.c.c.c.g.c.c.c.g.c.j.c.c.c.j.[.H * 0 n.b.c.c.c.c.g.c.c.c.c.",
"h.h.v.c.v.v.c.c.v.v.v.v.j.c.v.v.v.v.b.v.c.v.c.c.b.v.j.v.v.b.j.v.v.v.b.b.v.c.v.b.b.v.b.v.v.j.b.b.P 8 n n.j.c.j.j.c.c.j.c.c.v.c.c.c.c.j.c.c.c.c.c.c.c.c.c.c.c.c.j.c.c.c.v.j.c.c.c.c.c.c.c.c.j.c.c.c.c.c.c.c.c.j.c.v.j.j.c.c.c.c.b.b.t * b.n.b.v.j.j.j.v.v.j.v.c.c.v.v.v.v.v.v.v.b.j.v.v.v.c.c.v.v.j.v.v.v.v.v.c.c.c.j.v.j.j.j.c.v.c.c.j.j.j.j.v.v.v.c.c.j.c.v.v.c.].v.0 0 n.j.j.c.c.j.c.c.g.j.c.c.j.c.j.v.v.j.j.j.v.v.j.j.v.j.j.c.j.j.g.c.c.j.j.j.c.c.c.c.c.h.c.c.v.v.j.j.v.v.c.j.j.j.j.c.c.v.j.c.j.[.L * t [.n.v.j.c.j.j.j.v.v.b.",
"c.j.v.c.v.v.v.v.v.j.b.c.j.v.c.v.v.b.v.v.v.j.c.b.v.j.v.v.v.v.j.v.b.v.v.v.v.v.v.v.v.v.v.v.v.b.v.b.P 8 n b.v.v.j.j.j.v.c.c.j.c.j.j.c.c.v.c.c.c.c.c.c.c.c.c.h.j.j.j.c.c.j.j.j.c.c.j.c.c.j.c.c.c.c.c.c.c.c.j.c.j.v.c.v.h.c.c.c.c.c.b.v.t - b.n.b.b.j.v.v.v.v.c.v.j.j.v.v.c.c.v.v.c.v.v.v.v.j.v.c.v.v.v.c.v.v.g.c.v.v.v.v.v.v.v.c.c.j.j.v.v.v.v.v.c.c.v.v.j.v.v.c.g.g.b.c.0 e ].v.c.v.c.j.v.v.v.j.c.j.j.v.c.v.j.b.j.c.c.j.j.j.v.j.c.c.j.v.j.c.j.c.c.j.h.c.j.c.c.c.c.c.j.c.j.j.v.v.v.v.j.j.j.v.j.v.j.j.v. XL ; g [.b.v.v.v.v.v.c.v.v.v.",
"j.c.v.v.v.v.c.c.v.c.c.c.v.v.v.v.v.j.v.b.v.v.b.v.v.v.b.j.v.v.v.b.b.j.v.v.v.v.b.v.j.v.v.v.v.c.c.n.L 8 M b.v.j.v.c.c.c.c.c.j.j.j.c.c.c.c.c.c.c.c.c.c.h.j.c.c.g.c.g.c.c.c.c.j.g.c.c.c.c.c.h.c.c.c.v.j.c.c.h.c.c.g.c.j.c.c.c.c.j.c.b.v.f 7 v.n.b.v.c.v.v.j.v.v.v.j.c.c.j.c.j.v.v.j.c.c.c.v.v.v.v.v.v.v.v.c.j.v.v.j.v.v.v.c.v.v.c.j.v.j.v.v.v.v.c.j.v.v.v.v.v.v.c.g.P v.c.0 r '.b.c.c.v.v.j.j.v.j.c.c.c.j.c.c.c.c.j.j.j.v.v.c.j.h.c.c.c.c.c.c.j.v.j.c.c.c.v.v.b.v.c.j.v.v.c.c.v.v.v.v.v.v.c.v.v.v.v.c.b. XL ; l [.v.j.c.j.v.v.j.v.b.v.",
"j.c.v.j.j.c.c.c.j.v.j.j.v.c.c.c.v.v.v.v.j.b.b.c.b.b.j.v.b.v.b.v.v.v.v.j.j.v.v.j.v.j.b.v.v.v.v.b.L 8 M b.v.v.v.c.c.h.j.j.j.c.c.c.c.c.c.j.v.h.h.g.c.c.c.c.c.c.c.c.c.c.c.c.c.c.c.c.c.c.c.c.c.j.c.c.c.c.v.c.c.j.g.h.c.c.c.c.c.c.c.v.b.f 8 v.n.b.v.j.j.j.v.b.v.v.v.j.j.j.v.v.v.b.c.j.v.c.v.j.v.g.c.v.v.j.v.v.c.v.v.v.j.c.j.v.v.v.v.c.j.v.v.v.v.c.c.v.j.v.c.j.j.v.j.v.n.c.w e ].b.v.j.j.v.j.j.c.j.j.j.c.v.v.c.j.j.j.c.j.j.j.j.j.j.j.v.c.j.c.c.g.v.c.c.c.c.c.c.v.j.v.j.v.v.j.j.j.j.j.c.j.v.v.v.j.j.v.j.v.[.H ; l [.v.c.c.j.v.v.j.c.v.v.",
"c.v.v.c.c.v.v.v.v.v.c.c.j.j.c.c.c.c.v.v.v.b.c.v.v.b.v.j.j.c.v.v.v.v.v.v.v.v.v.j.v.j.v.c.c.v.b.b.L 8 Z v.v.j.c.c.c.c.j.c.c.g.c.c.c.c.c.c.h.v.g.c.c.c.c.c.c.v.c.c.c.c.c.c.c.c.c.c.g.c.v.v.c.j.j.c.c.c.g.c.c.c.v.c.c.c.v.j.c.c.g.c.c.g 8 v.'.b.v.v.v.v.b.v.j.j.j.j.v.v.v.v.v.j.c.j.v.v.v.v.j.c.c.v.v.j.v.v.j.c.j.v.v.c.c.j.v.v.j.v.v.b.v.c.v.v.v.j.v.v.v.j.j.j.c.j.v.g.q q ].b.j.v.j.j.j.j.j.j.j.v.v.c.v.v.j.j.j.v.v.g.c.v.j.c.v.v.j.v.v.j.c.v.j.c.j.j.c.j.j.c.g.v.v.j.j.j.j.c.j.j.j.c.j.j.j.v.c.v.v.[.H ; l ].v.c.c.c.v.v.v.v.v.b.",
"g.v.j.j.j.v.v.b.v.v.c.v.j.v.j.c.c.c.c.c.v.v.v.v.v.v.j.c.v.v.v.b.v.b.j.j.b.v.b.v.v.b.b.v.v.v.v.b.H 8 Z b.v.j.v.v.c.j.v.c.c.c.v.j.j.j.g.c.c.c.c.c.c.g.g.c.c.c.g.c.j.c.c.c.c.c.c.c.c.c.c.c.j.c.c.g.c.c.g.c.c.j.v.c.c.j.j.c.j.c.c.v.v.f 9 v.n.v.j.v.v.b.v.j.v.v.v.j.v.v.c.v.v.c.c.j.j.c.v.c.c.j.v.c.v.j.v.v.j.h.h.j.j.j.v.v.j.c.g.j.v.v.c.v.v.v.v.j.j.v.v.v.j.c.g.g.v.c.q q ].b.v.v.j.v.v.v.j.v.v.j.c.c.c.v.j.c.c.v.j.c.v.v.c.c.c.v.c.c.c.v.j.v.c.j.b.v.c.j.j.j.j.j.j.j.j.j.v.v.j.v.b.v.j.v.v.j.c.v.b. XG : d j.v.c.j.c.j.v.v.j.v.b.",
"c.c.j.j.c.j.v.v.c.j.v.v.v.v.v.j.c.c.c.v.v.v.v.v.v.c.v.b.v.v.v.b.j.v.v.b.v.v.j.b.b.j.c.c.v.v.b.b.H 9 Z v.j.j.c.j.v.c.c.c.c.c.c.c.c.c.c.c.c.c.c.c.c.c.c.c.c.c.c.c.c.g.c.c.c.c.h.h.c.c.c.c.j.c.c.c.v.c.v.c.c.c.g.c.j.c.j.c.c.g.g.c.j.g 8 v.n.b.b.v.v.j.j.j.v.j.v.c.j.j.j.v.v.j.j.j.j.v.v.c.v.v.v.j.v.v.c.c.j.c.v.v.j.v.v.v.v.j.j.v.j.c.v.v.v.v.b.j.P j.j.j.j.v.c.v.v.c.= w ].b.v.v.v.v.j.v.j.c.j.j.c.c.j.j.j.h.h.c.c.c.c.c.c.j.c.c.c.c.c.j.c.c.c.v.c.j.c.c.c.v.v.j.v.j.j.j.j.j.j.v.j.v.c.j.c.c.c.j.b. XG > x g.v.j.c.c.c.j.v.v.c.j.",
"c.v.j.j.v.j.b.j.j.v.v.c.j.b.b.j.c.v.v.b.v.v.v.v.c.v.v.v.j.b.v.v.v.b.v.b.v.v.v.v.b.c.c.v.v.v.b.b.H 8 F b.v.c.c.v.c.c.c.c.j.c.c.c.c.c.c.c.j.j.g.c.c.g.c.c.c.c.g.c.c.c.h.c.c.c.g.g.c.c.v.c.c.g.h.c.h.g.h.h.c.c.c.c.c.c.c.c.c.g.P g.v.g 7 c.b.v.b.v.v.j.v.v.v.v.v.j.j.v.j.v.j.v.j.j.v.v.v.v.v.c.c.j.j.v.c.j.c.c.j.j.j.v.v.j.j.j.v.v.v.j.j.v.v.j.v.c.c.j.v.v.j.j.v.c.j.c.> q [.n.v.c.j.j.j.v.c.j.j.j.c.j.c.j.v.j.c.j.j.j.j.c.j.j.c.c.c.v.j.c.g.j.c.c.c.j.c.j.j.c.j.j.j.j.j.v.j.c.c.j.j.v.v.j.c.j.v.v.v. XF ; x b.v.c.c.c.j.j.v.v.v.b.",
"c.c.c.j.v.v.v.j.j.j.c.v.b.v.v.v.v.v.v.v.c.c.v.v.c.v.v.v.v.v.v.j.v.v.v.v.v.b.b.v.v.v.v.v.v.v.c.b.P 8 n v.h.c.j.c.c.c.c.c.v.c.c.c.c.c.c.j.j.c.c.c.c.c.c.c.c.c.c.c.c.j.j.c.c.h.c.c.c.c.g.g.g.g.g.h.c.c.h.c.c.c.c.c.c.c.c.c.j.h.g.c.c.g 9 j.b.v.v.j.v.c.j.b.v.v.v.j.j.v.j.j.j.j.j.j.j.j.v.v.v.b.v.v.v.j.v.j.c.c.j.v.v.v.c.j.j.j.j.v.b.v.j.c.v.v.v.v.v.b.v.v.v.j.j.j.b.c.8 e [.b.v.v.j.j.j.j.v.j.j.c.c.v.v.c.j.j.j.j.j.j.j.c.c.c.c.j.j.c.c.c.c.v.j.j.c.j.v.j.j.c.c.j.c.j.j.j.v.v.j.j.j.v.j.c.c.c.j.v.b. XG & l b.v.c.c.c.j.j.v.v.v.v.",
"c.j.j.v.v.v.v.v.v.c.v.b.b.b.v.v.v.b.v.c.v.v.j.v.b.v.v.v.b.j.v.v.b.b.v.v.b.b.c.v.v.b.v.j.j.j.v.v.h.r n b.c.c.j.c.c.v.c.c.j.j.c.c.c.c.c.c.c.c.c.j.c.c.c.c.v.c.c.c.g.c.g.c.c.c.c.c.g.g.c.c.c.c.g.c.c.c.c.c.c.c.h.c.j.j.c.c.c.c.g.c.c.n r v.b.b.b.v.v.v.b.b.v.j.v.v.b.v.j.v.v.v.v.j.j.c.c.j.c.c.j.v.v.v.v.v.c.c.c.c.c.j.c.j.j.j.j.v.v.v.v.j.j.b.j.v.v.v.v.v.j.j.v.j.b.g.7 e ].n.j.c.j.b.j.c.j.v.v.v.j.c.c.c.c.c.j.j.v.j.j.c.j.c.c.c.c.c.v.j.c.c.c.c.v.j.c.c.c.c.c.j.j.v.v.j.c.j.v.j.j.v.v.v.j.c.c.v.b. XG : l b.b.c.c.c.c.c.v.v.v.v.",
"v.v.v.v.v.v.v.v.v.v.v.b.v.v.v.v.j.j.c.v.v.v.v.v.v.v.v.v.v.v.b.v.b.v.v.v.v.v.v.v.v.j.c.j.v.v.c.v.c.f Z n.j.v.v.c.c.v.j.j.j.v.j.v.j.v.v.c.v.j.v.v.c.c.j.j.j.c.c.c.c.c.c.c.c.c.c.c.c.c.j.c.c.c.c.c.c.c.c.c.j.j.c.c.c.c.g.g.c.c.j.c.c.m 9 v.b.b.v.v.v.v.v.v.v.v.v.j.j.j.v.v.v.j.j.j.v.v.j.j.c.c.c.c.c.c.c.c.c.c.c.c.c.c.g.c.c.c.v.v.v.j.v.v.j.v.v.v.j.c.j.j.j.c.c.j.b.g.> w ].v.c.c.c.c.v.j.j.c.j.j.c.c.c.c.j.j.j.j.c.c.j.c.c.c.c.j.v.v.v.v.j.j.c.c.c.c.g.c.c.j.c.j.j.c.j.v.v.j.v.v.j.j.j.v.v.j.v.j.v.[.G > x v.b.v.v.c.c.j.v.v.v.b.",
"v.v.v.v.v.c.v.c.j.j.v.v.j.j.j.j.c.j.j.v.j.b.b.b.b.b.v.c.v.j.v.v.v.v.c.c.c.j.j.v.c.v.v.v.v.b.c.g.v.f Z ].v.j.v.v.v.v.c.v.c.j.v.v.v.v.v.b.b.b.v.v.v.v.v.v.v.v.j.v.j.v.c.c.c.c.c.v.j.j.c.c.c.c.c.c.c.c.h.h.c.c.v.c.c.h.c.c.c.h.g.g.c.F 9 j.b.b.b.b.b.v.v.v.v.v.v.j.j.v.j.j.v.j.v.v.v.c.j.v.j.c.c.c.j.c.c.c.v.b.c.c.c.c.c.c.j.j.v.v.v.b.v.b.v.v.v.b.j.v.j.v.v.v.v.v.v.c.> e ].b.j.j.j.v.v.j.v.v.j.v.v.v.v.j.v.v.j.v.v.j.j.j.j.v.j.j.v.v.j.c.v.v.j.v.b.v.j.c.j.j.j.j.v.j.j.j.v.j.v.j.v.v.j.j.j.v.v.v.c.b.G ; x n.b.j.v.j.j.j.v.v.v.v.",
"c.c.c.v.c.j.c.g.j.c.c.j.c.c.v.c.c.c.v.j.v.v.v.v.v.j.h.c.v.c.c.j.j.c.c.c.c.c.v.c.c.j.c.c.c.v.h.L c.f Z n.v.c.c.c.c.c.c.c.c.c.c.j.c.c.j.v.v.c.v.v.c.c.j.j.c.v.h.c.j.c.c.c.c.c.c.c.c.c.c.c.c.j.j.c.c.h.c.c.c.c.g.g.h.h.h.g.c.c.c.g.c.Z 0 b.n.n.n.b.b.v.v.v.v.v.v.v.v.v.c.c.v.j.v.v.v.v.v.j.b.v.v.v.v.v.c.v.c.v.v.v.v.j.j.v.v.v.b.b.b.b.v.v.v.v.v.v.v.v.v.v.v.v.j.v.c.h.q e ].v.b.v.b.b.v.j.j.v.v.v.b.j.j.v.b.v.v.v.v.v.v.v.v.v.v.v.v.v.v.v.v.v.v.v.j.v.v.v.v.v.v.v.v.v.v.v.j.j.v.j.v.v.v.v.b.c.c.j.c.h.P ; x n.b.j.c.c.c.c.c.c.g.c.",
"c.c.c.j.c.c.c.c.j.c.c.v.c.c.c.c.c.c.j.g.c.v.c.c.c.c.c.c.c.c.j.c.c.c.j.c.c.v.c.c.j.P c.j.g.g.L L H 0 n g.g.c.c.c.j.c.c.c.v.j.c.j.j.j.j.v.j.j.c.j.c.c.j.c.c.v.c.g.c.c.c.c.c.c.c.c.v.c.c.c.h.c.g.c.c.c.c.c.g.h.c.c.c.c.c.c.c.c.g.P g.n r c.G L c.j.v.v.v.b.v.v.v.v.j.v.v.v.v.v.v.v.v.v.v.b.v.v.v.v.v.c.c.c.c.c.c.j.j.j.v.j.v.v.v.v.j.v.j.v.c.j.v.v.v.v.v.v.v.v.c.c.c.c.0 t ].j.c.c.c.v.v.v.j.v.b.j.c.j.v.v.j.v.v.v.v.v.j.v.v.c.c.v.c.c.v.v.v.c.v.c.j.c.c.v.v.c.v.v.v.v.v.v.v.v.v.v.v.v.b.v.v.c.j.v.c.g.L > z n.n.v.c.h.c.c.j.c.c.c.",
"c.c.c.c.c.c.h.j.c.c.v.c.c.c.c.v.c.g.c.c.v.j.g.c.c.c.c.c.c.j.c.j.h.c.v.c.c.g.g.c.j.c.j.g.c.g.H P G f Z P P h.j.v.j.c.c.c.c.j.c.c.v.g.c.j.j.j.c.j.h.c.c.c.c.c.g.g.c.c.v.j.c.j.c.c.c.c.c.c.c.c.c.c.c.h.c.c.c.c.c.g.h.g.c.g.g.c.g.L P n 9 g.G g.b.n.n.b.b.n.n.n.n.b.b.n.n.b.n.b.b.v.v.j.v.j.c.c.c.j.c.h.c.g.g.c.c.g.g.g.g.g.c.c.c.v.j.c.c.c.c.c.g.g.c.c.c.c.g.P c.j.c.h.0 t '.g.h.c.v.v.v.v.j.v.j.v.j.v.b.v.v.j.j.v.j.c.c.c.c.c.c.c.c.c.c.c.c.c.j.c.j.c.j.c.v.j.j.c.j.v.v.v.c.v.v.v.v.v.v.v.v.v.b.v.c.g.L > V c.c.j.j.c.v.j.c.j.c.g."
};
