/* XPM */
static char * pixmap[] = {
/* width height num_colors chars_per_pixel */
"64 64 20 1",
/* colors */
"  c #9295bd",
"! c #656897",
"# c #656565",
"$ c #616391",
"% c #5d5f8a",
"& c #595b83",
"' c #55577c",
"( c #515376",
") c #4d4f6f",
"* c #4c4c4c",
"+ c #474966",
", c #43455f",
"- c #414141",
". c #3f4158",
"/ c #3b3c52",
"0 c #37384b",
"1 c #363636",
"2 c #333444",
"3 c #2f303d",
"4 c #191919",
/* pixels */
"*.,,,,,,,,,,,,,,,,,,,.**++++++++++++++++++++++++++++**.,,,,,,,.-",
"1(((((((((((((((((((((11&&&&&&&&&&&&&&&&&&&&&&&&&&&&11'''''''''1",
"4(((+(,((),)),)),(,..041&(&',(&)..)+((+.+(&(+)(&&().41'&()(''),4",
"4(),+))),,()(/)),.,,./41&&())).)0.00,((/../..0.++./.41''((,)((04",
"4(+(.%%),,,)++,/0,.00/41444444444444444444444444444441'('&&'(,,4",
"4(+,(%%/,,,()))+..,00341(((((((((((((((((((11111111111'&('(,,/04",
"4())''((()((())../0/./41(&&&'())&))'))'&&((41(((())/11'))(,++//4",
"4(()(''(),/(()++,//03341('&!%'(&()))''((()(41())+),/41'))(.+++/4",
"4(),)((+),)..+++.,,/0341('%&%)'((&))(,(,)(,41())),,/41'&()((++34",
"4(+++(,,,((.0//./,,,0341(''')))'(((()+/,,,/41((),,0041&,,)(()034",
"4),+(++.)((../0///,,0341(&'''))'&&((//+,,/041((),(,041&,&(,))034",
"4)+),,(+/,0,/0/,3033/341(&((''''&''(//.(//341(,+),0041&&,,//,,34",
"4),),/++,/,/,/3..333/341('(()&))(''()),,00/41(+++../41&,./,/,,34",
"4)),,,./00/,/./33.3/0341('!%++))+,,,+)+,//341((++../41&,,.000034",
"4),)//./,/33333333333341(&%%+++((,++,+.,/0341(,)(000414444444444",
"444444444444444444444441(&(()++(((++)//,/0341((()(0/411111111111",
"(&'('((((('((((4'''(())4(')(+)((((,)),,003341)()()./41((((4&&&&&",
"&'()(&'(+((,(),4'')&&,&4((((&()(((+/.,33/0341)),.,.041('+,4&&('&",
"&'))+((+,)),,))4'&&'),,4(')(&(+,++/,,.33/3341))000/341('',4&('''",
"'()'')),,,),,,,4'&''))/4('(((+(,,/..000//0341),0/00341(+,04&&&''",
"(+)'&',,)),)0,,4'&),))/4((()))),/0//0//033341),/003341(0/04&&'''",
"((+)'$,),,//.,,4')&,,,/444444444444444444444144444444444441&&(()",
"'+,+)(),,)/.,004'))/,,041111111111111111111111111''''''''11&(())",
"'(+),),)),.,/,04'&)+/0/41'''''''''''''''''''')(11'%'%((()41&')))",
"'')+')))),,.0004(&,++/041'&'(&&&'&('(&',(&&&,(041'%'%%()+41&&)))",
"'(+,+''/,)++.0/4(,/..0/41'&('%!!&$!(&((&&((((,041'%%%%(+,41&'&((",
"(),+(''(),++.0/4),0000/41''(&$$!&!$$',(,,(,,(0041''(%(+(/41&&&((",
"')'))('(/,...004444444441'&&''%%(($$((,,,.(,,0041'%((((+/41&&&''",
"(++(()((/.0/0334111111111''&'''(((&(((,++,,000/41'%%((+,.41&((&'",
"()+(((),./0//0041''''((11'((&'++(&',((,+++...0041'%%))((041&((''",
")+)+((,//000/3/41''+()+41'&'&'++(((,(((.++0...341''%)))(041&&)),",
")++,++,//.,,/3341'(()+)41'&&(''')(,,,((.0/0/..341''(+'((/41&++))",
")+().,,./.,,/0341'()+./41'&(,(''((,.,/...03303341''%+'')/41&++,,",
")()++,//022./0341''+'+041'((&,((),.,,//../33//341'(%(+))041&&,,,",
",))+,,,,02200/341'''../41',&,((,,./,,,//00///2341'%(()0./41&(())",
",++,.,,,00/000041'''(0041'(&,((.//0,,,/0000222341'%(),).041&(()+",
",+/.,/,,0/030/041'))0+/41'(,((,0000////0333333341'%(,)),/41&)((,",
",),/,/.0/33033341'))'0/41444444444444444444444441('(,/,,/41&)++,",
",+)+.,.0003/30341''+'+041111111111111111111111111(''(,0/341&&++,",
",)+,/.,.333333341''++0/41((((((((((((((((((((((11('(&(,/341&)),+",
"44444444444444441'',,0041(&&&&&&'((((((()+,&)(,41(%((&+034144444",
"1111100..+++,./11(',,,041'&%%&((''%&))((),+,+),41((((++0341+)++4",
"1)('&&&&&&&&&&&11((+,,/41'&%%%''''&&,,,,((()),/41(%(,.00341)),,4",
"1(&&&&&'('&(((&41(()0//41'&&&&$$''',,,,,,),,.)/41('+./0.341),..4",
"1(&''$$'&&&)(&&41()+00041'&&'&$$$,(),,...+,,,,/41((./.00341).,04",
"1&&&'$$&))(&&)'4144444441('&'&&$$&((),..//0,,,/41+,,000/341+,.04",
"1&('(''')))&(++4111111111(('%))&(&((((,,//,/022414444444441+.0/4",
"1&&')+''())(&&(41&&'(()11((%%)))'(((,,)+.//003341111111111111114",
"1&&)(&'+(''',((41&,&+)+41(&&&'))&&&(,,,,///003341''''&&&&&&&&&&4",
"1&&&&(+&+',,(+(41&(''),41('(('''&&&&(,+.0///.0241''((''''(+&((,4",
"1&(&)((&'),2,((41&&,(,.41(&((()(&&&&(((0000/../41'('$$''')(((),4",
"1&'))&!&(+(,,((41&'((,(41(&&((&++&&&(((.00/022241'&&$%%''++(),/4",
"1&(&(! !))()+,+41&'(,(.41((&)),,,+(((,,,//0003341')&)%%''((,,,04",
"1&'&'&!&(,((22/41&('',/41((&(++,,,+,+00))..023341'&')))((,,,,0/4",
"1&(&'''+++,.22/41&&')+/41()&&)&,,+,,+,0))+../0/41''()))(,./,00/4",
"1(&''(,,)()),//41&'(++,41(&)(&(+,..++00,)),.00341'')())(,./.,004",
"1&(&'++',(().,041&(&,,,41(&((()+((..0.00,,,/00341''&'+''),/))034",
"1&(&()+,/+(()./41&&(///41((()),+(((./..0222/33341&&'+('''),)),34",
"1'(+++(/2/+))..41&'(,.041('())&(,((00../033033341&'(+((''),,,,34",
"1'(./+/(,,)0/0041'(///041('&,&&(0///0022233203341&'(&((,+..,,034",
"1((++/+0/0/././41'(+.//41(('&(,)0///0033../323041&&&)(,,.,,./3/4",
"1(),,,,,....,,,11(+,,,,11(()(),,,,,,./00,,,,00.11&((,)(,,,,,..,4",
"*+++,,,,,,,,,,,**++,,,,**(%+++++,,,,,,,,,,,,,,,**&++,,,,,,,,,,,1",
"###############################################################*"
};
