/* XPM */
static char * crying_obsidian_xpm[] = {
"512 512 194 2",
"  	c #F9F6EC",
". 	c #F9F8ED",
"+ 	c #F9F9EE",
"@ 	c #F9F5EB",
"# 	c #F9F2E7",
"$ 	c #F9F4EA",
"% 	c #F7F0E6",
"& 	c #FAF3E8",
"* 	c #F8F1E6",
"= 	c #F6EFE5",
"- 	c #F4EDE3",
"; 	c #F5EEE4",
"> 	c #F3ECE2",
", 	c #F2EBE1",
"' 	c #F1EAE0",
") 	c #F0E9DF",
"! 	c #EFE8DE",
"~ 	c #EDE6DD",
"{ 	c #E8E1D8",
"] 	c #ECE5DC",
"^ 	c #EBE4DB",
"/ 	c #EAE3DA",
"( 	c #E7E0D7",
"_ 	c #E9E2D9",
": 	c #E4DED4",
"< 	c #E5DED5",
"[ 	c #E6DFD6",
"} 	c #D9D3CA",
"| 	c #D6D0C7",
"1 	c #D5CEC5",
"2 	c #D7D1C8",
"3 	c #DCD6CD",
"4 	c #DDD7CD",
"5 	c #DBD5CC",
"6 	c #D8D2C9",
"7 	c #DAD4CB",
"8 	c #D6CFC6",
"9 	c #D4CDC4",
"0 	c #D1CCC3",
"a 	c #CFCAC1",
"b 	c #D0CBC2",
"c 	c #CEC9C1",
"d 	c #CDC8C0",
"e 	c #ABA69F",
"f 	c #ACA7A0",
"g 	c #ADA8A1",
"h 	c #AAA59E",
"i 	c #A9A49E",
"j 	c #AEA9A2",
"k 	c #A8A39D",
"l 	c #DED8CE",
"m 	c #B4AFA7",
"n 	c #B5B0A8",
"o 	c #B6B1A9",
"p 	c #B7B2AA",
"q 	c #B8B3AB",
"r 	c #B3AEA6",
"s 	c #B2ADA5",
"t 	c #B1ACA4",
"u 	c #B9B4AC",
"v 	c #B0ABA3",
"w 	c #AFAAA3",
"x 	c #CBC5BD",
"y 	c #CAC4BC",
"z 	c #C9C3BB",
"A 	c #CBC6BE",
"B 	c #C8C2BA",
"C 	c #BAB5AD",
"D 	c #BDB8B0",
"E 	c #C0BBB3",
"F 	c #C2BDB5",
"G 	c #C3BDB6",
"H 	c #C4BEB7",
"I 	c #C1BCB4",
"J 	c #BFBAB2",
"K 	c #C5BFB7",
"L 	c #BEB9B1",
"M 	c #C6C0B8",
"N 	c #A5A09A",
"O 	c #A6A19B",
"P 	c #A7A29C",
"Q 	c #A49F99",
"R 	c #A29E98",
"S 	c #E3DDD3",
"T 	c #E1DBD1",
"U 	c #E2DCD2",
"V 	c #E0DAD0",
"W 	c #DFD9CF",
"X 	c #EEE7DE",
"Y 	c #BCB7AF",
"Z 	c #BBB6AE",
"` 	c #5B5854",
" .	c #5A5753",
"..	c #595652",
"+.	c #585552",
"@.	c #5C5955",
"#.	c #5D5A56",
"$.	c #575551",
"%.	c #5E5B57",
"&.	c #5F5C58",
"*.	c #54524E",
"=.	c #565450",
"-.	c #C7C1B9",
";.	c #CCC7BF",
">.	c #99958E",
",.	c #96928B",
"'.	c #97938C",
").	c #98948D",
"!.	c #9A968F",
"~.	c #949089",
"{.	c #95918A",
"].	c #938F88",
"^.	c #928E87",
"/.	c #918D86",
"(.	c #8F8B86",
"_.	c #908C85",
":.	c #8E8A85",
"<.	c #8C8883",
"[.	c #8D8984",
"}.	c #8B8782",
"|.	c #8A8681",
"1.	c #9B9790",
"2.	c #9D9992",
"3.	c #9E9A93",
"4.	c #9C9891",
"5.	c #4B4946",
"6.	c #4A4845",
"7.	c #494744",
"8.	c #4C4A47",
"9.	c #4D4B48",
"0.	c #4E4C49",
"a.	c #4F4D4A",
"b.	c #706D68",
"c.	c #6E6C68",
"d.	c #6E6B67",
"e.	c #716E69",
"f.	c #726F6A",
"g.	c #72706B",
"h.	c #6D6A66",
"i.	c #A19D97",
"j.	c #A09D96",
"k.	c #9F9C95",
"l.	c #3C3A38",
"m.	c #3B3937",
"n.	c #3D3B39",
"o.	c #3E3C3A",
"p.	c #3A3836",
"q.	c #393735",
"r.	c #3F3D3B",
"s.	c #383634",
"t.	c #403E3C",
"u.	c #403F3D",
"v.	c #41403E",
"w.	c #73716C",
"x.	c #78746E",
"y.	c #7B7772",
"z.	c #686561",
"A.	c #64615D",
"B.	c #696662",
"C.	c #7E7A75",
"D.	c #85817C",
"E.	c #87837E",
"F.	c #86827D",
"G.	c #827E79",
"H.	c #6C6965",
"I.	c #66635F",
"J.	c #7A7671",
"K.	c #605D59",
"L.	c #6A6763",
"M.	c #676460",
"N.	c #79756F",
"O.	c #7D7974",
"P.	c #817D78",
"Q.	c #65625E",
"R.	c #625F5B",
"S.	c #797670",
"T.	c #74726D",
"U.	c #837F7A",
"V.	c #6B6864",
"W.	c #7F7B76",
"X.	c #7C7873",
"Y.	c #63605C",
"Z.	c #88847F",
"`.	c #77736D",
" +	c #84807B",
".+	c #807C77",
"++	c #898580",
"@+	c #615E5A",
"#+	c #9F9B94",
"$+	c #55534F",
"%+	c #53514D",
"&+	c #504E4A",
"*+	c #514F4B",
"=+	c #52504C",
"  . . . . +       . . . . .   . . .   . . . .   . . . . . . . . .     . .     . . . . . @     . @ . . .     . .     #   @ . @ . . . . . . . . .     $ @ % $ @ &   @             $   @ @ @ @   @   @ @ @   @ & @ @ @ @ @ @ @     @ @   @ @ @ @ & & & $ & & $ @ @ @ & % $ @ @   @ @ $ $ & # $ @   @           .     . . .   @ . . @ $   @ @ @   @ @ @ & @ @ $ $ $ @ # $ $ @   @ @ * *     @   @       @   .       . . & & @   @ .   &   @     .       @ @ @ $ $ $ @ @   @   $ # @ & $ $ = @   @ $ $ $   .           . . .   %   @   . .   . @ @ @ = $     . .   & @ * * @   .   . $ &   # @   .   . . .     @ . & & . # # & & $ # & = & & # $ $ @ * & &   & $ & # = @ @ & & $   @ $ $ @ @ & $ @ $ @ @ @ @     @ . . . $   $ *   @ @ @ @ @   @   . . . + + + +   + . .   .   . . + + . . . . . . + . .     . .   . . . . . . . . +   + + . + . . . . . . .       . . . .       .   @   @       $ @         @   @ @ @ @ @ @ $ @ @ & $ $ # $ @ @ $ $ * # * = % * & # & &     % @ @ @   . . . + . . . . . . .   .   . . .   . + . + . . $ . .     . @ @ + %   .     @ ",
"    . . @       @ .   . . . @   . @ . . $ . . .   . . .       . .   .   . @ $         . = @ . & & . . . # . . . .   + + & . @ . . . . . .   . . @ $ & & $ = @   . $     @ @   @ &   @   $ & @ $       & # $ $   @ $ $ @ $ & @ @   @   @ @ @ @       $ @ $ & $ & & @ @ = @ & @ $       .     @ @           .               @     .       @ = & =       .       $ & - . . & &   & = & $ & $ # # & $ @ $ $ # & $ & $ @ @ $ $       &     . & $ &     @ %   $ $ & @ @     @     @ # & & @ @ .   . . . @ $   .         @ @ @ $ # $ * . . . # @   $ # $ $ = # # * @ ; $ @ % * * . @ @   * # > $ $ @ & . . . $   @   . . $ # * * @ @   $ @ @     .     $ @ # @ @ @ $       . . @ . . + . .       .     & $ @ # & $ & $ $ & $   @     $   @   @ @   $ $ $ & $ # & & & $ $ @ @ @     . . . .       .   . . @ .   @ . . . . . . .   . . . + . . . + . . . . . . . @ $ @ @ @ @ & @ # $ @ & $ @ @ @     @ . @ $ @     @ @ @ . . . .           .   &   @ $   & @ @ @ @ $ $ @ $ $ $ & & # # # * & & & & $ $ & & $ $ $ $ $ @ $ @ $ $ $ @ @ @   $ @ @ @ @ @   @ .   . .   & . @ ",
".       . @ $     $       . . @ @       @   . . . .   . @   @ $ & * # % # % & @ @ @ . @ # . $ $ @ .       @ .     .   @ & & # & $ @ $ @ @ @     $   $ $ $ @ @ . . . $       .   @   & @ @         . . .   . .     @ @ @ @ $     * @     .       @     * = * & ; & $ $ ; # > * & $ $ @ &     $ & $ @   @ @           .     @ @ @   & @ * # & & @ @ @ $ & # # # ; # @ & & * # * # @ # @         . @ @ * @ .   @   @ @ $       $ & $ @ &   @ $ # $ @ # = * * % % $ & $ & = * & @ @ * & # = > @ & & # & $   & # $ @         $ % @     . @ .   $ # & % = # # & $ & # # $ & # &   @ &     $ .       . @ @ @ @ @ @   $ * @ & #   * * = #   & @     @ *     $   $ @     @   $ . . . .   . . . . . .     . . . . . + . . . @ $   & & @ $ $ & % @ $ $ @ @ @   @         . . . . .   @ @ @ @ $ &     @ $ $ $   # $ @ @ $ $ @ & $ $ $ # & $ # $ @ & & $ @ & # & # * # & & $ @ @   @     @   @ $ @ @ @ # $ & @ $ & $ @ @ $ $ & $ & @ # $ & & & $ # & $     $ $ & # . .     . .     @ $     @ @             @ @   & @         . @ . .   .   .   .     @     @     @ # $   & * ",
"    $ $ @ @ @ $ @ @ #   @   @ $ $     @ @ @ .     @ .   @       @       $ $     .     ; * * & $ @   $ $ & $ & & $ @ @ & * & $ ; & # & # # & $ $ @ @ @ @ $ # $ $ & # # # # # & $   @ & $ & & & & # & $ $ $ $ @ @ & &   % @ @ @ . @       . . .   $ $ @ % = & $ $ & $ @ $ @ @   + . . . . . .       .   . .     @ @   . .   @       . @ @ . . . @   & $ . . . & * @ * .   . @ @ @ @ @ @ @ @ % $ @ # & # @ = @ @ $ @ @   & @ @     @ @ $ @ $ @   @   @ * & # = # @ + @ @ $   @ @ @ $ # @ @ & & & $     @       @ @ @ @ $ @ & * * & # $ # $       $ @ @ $ # * # * * * # $ & & $ @ @   $ *   @ $ $ @ @ @ @     . & * = &   * # $ # & $ @ & # # @ $ $ $ & &   & @   & & . . . .   . . . . + + + . . . . . #     .   .   .   . $ @ @ . . .   .       @ @ * $ & $ $ & # # # * & $ $ &   . @ @ @ $ $ & & & % & @ @ $ & & $ & $ % # # & $ @ @ # $ & $ $ $ $ # # # @ $ $ @ @ @ $ @   @ @ @ @ @     $ @     . . @ .             @ @ @ @     @     .         . &   . @ $ $ $ $ @ @ * $   @ @ @ @ $ & & $ $ @ @ @   # ; $ $ @ . $     $ @     % @ @ @ $ $ $ $ @ $ &   #   $ & ",
"@   @     .   . .     & & $ @ % #   @ $ .         @ $ @ @ & $ &   # @ $ = * % % $   @ $ #   @   $ . @ .   @ $ . @ $ $ * * & ; > @ $ $ $ $ @ & $ & & = # & # @ & $ @     @ $ & # * & $ @ $ $ & * $ # & @ $ $ &   * $ # @ & $ $ $ $ # # # # $       $ % # # % & # & # $   # $ & $ @ @ @   @         @ @         @ # @ @ @ $ &           $         & & $           . $ $ $ @ #     @ @   + * > & .       @ $ & .     . . + .           .   . $ & .   # $ #   # = * # & @ % & # @ @ # $ & $ @ @ . @           .     .   @   .   $ $     .       @   $ & $ # ; % = * % @ . @         @   $ @     @ # & $ @ @ @ $ & % % % % # % * $ * & $ & # & & # $ & * # $ @ $ # % @ $ # @   @ $ & & # # & & & $   # $ $ & @ & & & @ $ & $ $ $ $ @ # ; % # % % % # & # % % % % * % * & # * *   # @ @ & # # * # ; - > % * $ # # # & * # * * ; & & $     $ @ . @ @ $ $ # $ & # & @ @   @ @ @   @ @ @ @       @ @     @   @ @ @ @ &   @         @     .   . .   @ @ @ @ @ & &   .   . .   .         @ $ @ @ % % @ & $ % % % . @   @   @ @ @ @ @   * $ @         . @       . .     @   ",
"& & $   & $ $ $ @ @ # $ * $ @ * @   & $ @ @ $     $   @ $ & $ $ $ @ & & $ # # .   $ $ * @ $ $ $ .   @ $ %   $ $ &   @   & & * - . . .     @ $     @ # & $     $ @       & @ $ $ #   @ $ &   # # &   $ # & #   @ &       # $ $ & # @ & # * * # # # % ; * # & & @ @ $ & . $ $ $ $ $     . .       $ $ $ @ @     & & % $ $ & #           $ . @   &   @ & & # % & & % * $ % # & * = = % = * - ; & * $ #     @ & $ # & $ $ = % # * & @ @ & $ $ & $ $ @ & & $ & # % % & $ % = $ * = # - ; * % = % $ % & # $ $ @ @ $ @ $ $ @ $ $   . . . .             $ $ &         . . . .         @     @ @ $ @ $ @ $ $ $ $ @ @ &   $ & * # = # % @ & $ $ $ @ * ; ; & & ; $ * * # @     $               @ @ @   $ @ @ * @ @ * $ $ $ # % % # $ & & & & % # * $ $ @   @ $ $ @ @ $ @         .     @         .       # @     . . . .   @   .               @   @ @ @ @ $ $ & $ & & & & & # $ $ $ @ @ @ @ @ $ # & & $ # & $ @ $ # * & @ @ & # @ @ $ $ $     $ $ @ & # @   & $ # $ @ @ $ $ $ @       . +     @ * $ $ & * & $   . .   . $ $ @ @     @ # @ $ $ $ $ & $ & @ @ & @ $ @ $ $ $ ",
"% # & % $ * % # $ # % # # * * & & @ * $ @ @ @ $ $ % $ & $ $ & & # * = * & $ & # $ $ # & $ $ $ & & $ $ @ @ @ @ @ @ .   @   @ @ # $ @ @ @ & $ & @ * $   $ $     @ @       @ @ @ $ $ $   @ @       @ *     $ &   @ $ @ $   @ @ @       .   .       * * % # $ * @ @ & @ $ @ $   @ @ * @ @ $ @ $ & $ $ @ $ & & * % * * $ # @ * $ # @ $ & $ $ & $ @ & @ @ $ $ * & $ & @ @ @ & $ # & # @ @ $   = *     & $ & @ # @           . . .       *     $ . @ . $ &         . * $ %     @ @     . @ = * @ = . . $ & $ @ . . . . . . .     $ @ @ @             . .   & # .   . . + .   . . . .   . .   . .     .   .       @ @   $ $ @ $ * & # # @ $ $ & $ % @ $ $   @ $ $ $ $ . + .   +     . . . . .         .   . @ @ . @ * $ $ &   .     .   . . @ @ . . . . . . . . . . . . .   .       @ @   $ $ @ $ & % &   @ @           @   . . + @     .   . .   .   . . . .   .       @                             $ @       . .         @     $     $ @ $ & @ @ @ $ $ $ & $ $ @ & * $ @ $   @ @ $ $ $ & @ & * # * # @ @ @ @ @ @ $ @ $ @ $ &   #   .       @ @ @ @ @ @ @   @ @ @     ",
"* & # * * # & # & * % $ & # #     @ @   @     @ @ % & $ & # & # * # = # $ & $ $     & @ @   $ $ = & @ & %   @ % @ @   # @ @ $ * & & $ $ & & & @ # #     @ $ @ $ # $   & @ $ @ & @ $ $ @ @ @ @ @   $ .     $   @ # $ @ .       @ @   @   & & * & % * # & & @ $ % @ #   $ $ & $ & * * @ @ $ @ @ $ & % $ $ $ * #   @ @     . .   . . . . . .     +     . @ $ # $ # * $ @ $ @ @         .   .   . @ @ @ . & $ * . . . . . . . . . $ =   $ $ @ . $ . @ & $         $ # $ & $ %   $ %   . . @ * @ . . . . & # @   @ . & & @ &   . @ .   .     . @ @   $ @   @ $ $ $ @ @ @ $   @   @ $ @   @ @   @ # @       . @ .     . @ $ & @ & @ & * @ @ $ * @ $ $ = *     $ * . . . . . . . @ $ & . .   .   + .     # $   & = @ @ $   @   @ .   . . + . . . . .       @         @         @ @         @ @ $ & @ @ @     .   .   . .       . @   . .             @ @ @ $ $ $ $ $ & $ $ $ $ $ $ $ @ @ & & & $ $ # & # $ $ $ @ @ @ @ @ @ $ @ $ $ @ @ @ $ @                 . @ @       & # # $ @ @ # @ . & * & & $   @ # & # @   @ = $ $ @ & = &         @ @ @ $ @     .     @ $ $ $ ",
"= # $ # * = * * $ # @ @ $ $ & @ @ @ $ @ @   @ @ @ $   $ @ $ $ & $ & = % $ # * % ; * * = # & & % % $ $ & % $ @ -     & * @   @ & & * . @ $   $   @ $ . $ # # @ & * # & # # # $ * & @ & & & $ & & # $ & @ $ & & * ; $ & - * & $ $ & * # * % % * % = ; ; % ; = = % = & # % - * & # ; # * & # & $ $ & * $ & % % * $ # & & $ & $ & & & $ & * & % # * * = $ ; & $ @ $ $ $ $ $ & # * * # % % * & # & & * $ # & # $ @ @ $ # @ $ $ & # # & & @ * $ @ $ $ @ & $ $ @ $ $ * # & & % $ $ @ # $ $ $ $ $ @ @   @ $ @ & * $ & & $ @ $ $ & & * $ & @   $   @ @ @ # * #   @ $ $ $ $ & $   @ @ @ $   @ @ & $ & * # * @   $   @ * # & $ # # & * * $ & @ $ # # * # & & * % # * #   @ $ $ & $ $ # $ # @ @ @ @ @ $ & $ & & * * & & & $   @     @ @ @ * $ @ @           @ @     @ @   @     $ & $ $ @ $ $   @ @ & $ & # & $ & $ $ $ $ $ & & $ & & & # & $ @ @ $ &               @         @                   @   @ $ $ @ $ $ @ @ @ $ $ $ & $ @ @ $ @     $ @     .       @ @ & @ $ $ @   $ $   $ # $ @ & $   @ &   $ $ % @ @ @ $ & $ & $ @ % % & $ $ @ @     @   @   @ @ @   @   @ @ @ ",
", % * * & # % = % # & & & $ & & *   @ @ @   & $ % & $ $ & @ & # & = % % % # # > - & $ & = * & $ * @ @ @ # @ # & @ @ @ & $ @ $ # $ * @ * $ $ $   $ $ @ @ & $ @ @ @ $ ' $ # & $ # & $ # & $ & & # # & $ &   # @   # $ # $ $ @ @ @ @   @   @ $ & # # & % & @ & @ $ $ @ & * @ .         $   @ @ & @ $ & $ * # $ $ @ $ & & $ $ & $ @     @   $ @ @ @   @ @ & @ @ $ & $ @ & & $ $ @ # * * * * * * # & $ # @ & $     @ & & * # # $ $ & * $ $ # $ # & * $ % # $   $ % * % # & # @ $ @ @ $ # * * & @   @ @ $ & @ @ # % # & & % & * # # & & # & * @ $ $ & @ $ %     * & % & * # & & & & $ & # * ; * % # # & @ $ $ @ @ = # & * * $ $ @ $ $ $ & $ $ $ # * & * $ % % % $ & & & & & & # # $ & $ & @ $ # & & & * * % = ; % * % * & # * * * $ & * * % ; = % * # $ & $ # # # $ & & & & * # # # & $ $ $ * # & & * = = * # & & & * $ #   @ & = % * & $ $   @ @ $ $ & & & & $ & & @ $ * & % # $             .   @ & @ @ @ @     @ & # & & $ & # $ # & $ # @   @ @       # $ $ & @ @ & * # & # & $ # - % # = & $ # & % = & & & & $ % $ & $ $ @ & & $ # * @ @ $ & $ $ @ $ $ $ $ & & & ",
"; # % & * $ * @ # # % @ & $ & $   # @ @ @ $ @ * * * # * $ # & ; * * # # & # & = ; * & * $ $ & # # # $ & * $ % & @ @ & & $ $ $ $ $ = @ # & & # # $ &   $ & @ $ $ $ & & & $ $ & # & # # * # # & & & # # $ $ ; $ $ & $ & # & $ @ $ $ @ & & # # & # * # * & # # & * $ # $ * & $ $ $ $ @   @ @ & $ * * * % & # @ @ @ @   # # @ @ @ @ @ @ @ @ @ $ $ & $ * * * & $ # & $ @ $ $ & $ $ & $ # * # $ = * $ # * * $ & * $ $ & & & $   @ * $ # & * = $ @ @ # # & & # % $ $ $ = $ & @ @ @     $ % #     @ @ # # # $ $ & & $ & # * @ * % & # & $ $ $ $ @ $ @ $ * % $ & $ & % * * & $ # & # & & @ $ & $ $ * # # % & @ @ $ * * & # $ # $ & $ & @ & $ ; & & # & # & & @ * $ $ $     $ $ # # &   @ % @   = # # = & # % % * = & @ $ $ @ @ @ $ @   @ $ $ # # # * # & $ @ @     $   @ $ $ & * $ # * * # # @ $ $ $ $   @ % % * * # * # # # = & # # @ # % &         @ & $ $ $ @     @   @ .   $ $ & $ & % $   @ @   @ $   # # * @ @ & & & $ @ @ @ & & $   @   & # $   @ @ @   @ $   & @ $       $ @ @ # & @ @ # & & *   $   @ @ @ @ $ $ # # # & & & $   # # & & $ @ @ @ @ @ @ $ @ @     ",
"* # = @ # * # & & # * $ @ @ @ @ $ @ # $ @ & @ @   @ @   @ $ * % $ $ @ # = % & - ; @ & * & $ & ; $ $ $ * * * - $ & & * # # * * * * * * & & - & * # & * = * % % % * * % & & * * & # # & # & & & & & # & & $ * $ $ # @ $ * # & @ $ @ $ & $ $ # % % % ; % % # * # % & @ * & & $ $ $ @ @ @ & $ # & # * # # % $ & # & & $ & & ; & $ $ $ $ $ & # & $ $ @ & # * $ @ @ @ @ @ @ $ # # $ $ # # & # * * * * ; # # & & @ $ # & # & # # # & # @ # $ # & %   @     ; *   * & # ; = @ @ & @ $ $ & $ $ $ & & $ $ @ $ $ @ @ @ $ @ @ @ @ @ @ @ @ @ @ $ @ $ $ $ @ % = > # $ $ & = & $ $ $ $ & & & $ # & @ $ $ = & # # # @ $ @ & * # # $ $ $ $ * & # & & & # & # * # % % & $ $ $ $ & & * # % # # $ * & # & & $ & $ $ & & & * & # % = # * # # # & & # # = = # * # * & # & & & & & $ & $ & $ # # & # * # $ & $ $ @ & & % = * # $ @ $ @ @ $ * * # # & $ $ % & & & & # & & @ $ $ & # * = % = $ $ @ $ & @ @ @ $ @ @ @ # & = = % = ; > ; * # # * & * # % ; @ $ $ $   # & & $ $ $ @ $ & & & & @ $ & & $ # & $ & # & & @ & # # & $ $ @ @ #   $ * # # # $ & # $ @ $ @ $ @ @ @ @ $ @ $ $ & # # ",
"- = # & % & % # & & & & % ' # & $ & $ & # & & & & & # & # % ' * * = = & # & * & # * & * & % & & * # # & & * % & # # # # * * # # & & # # = # $ & & $ # * # % & # & # & $ & & & & # $ $ $ $ @ $ $ & $ @ $ @ & $ $ # $ & * # * * # & & * = % ; ; ; = = # % # % % & & & # # & & & & & # # % % $ # * % % % # $ & $ & # # # & & * % $ $ & # # $ & * & # # $ # & $ & $ * & $ # @ @ @ @ & # * # & , % ; * % # * % = # = # # # # $ @ $ $ $ @ @ @ * $ & & $ & & * @ $ $ $ @ & $ # & & $ @ $ & & & # & $ & $ # & & & & & # # & # # # * ; = # & & & # & $ $ # = = % # # # % % & $ & $ & & & # # & # % * * $ & = $ $ $ $ # $ & * * % * # * # % & & # & * # % = ; * & & $ & # & * % # & * % # # * = * # * # # # = # ; ; ; = % = # * * # * # # # # & # % - ; = % * % * # % * * * # % % = # # & * # # & & & # & # ; > = * # & * % & % * = # # * % * % * # * * # # # * # # & # % % % % ; % % # # * # * # $ & % % = % = ; = - % * % * * * # * # ; ; = % - * & $ & # # # # * # # # & & $ * % = * # # * % # & # # * * & & * * % * # * % # - > - ; > ; % % & # # # * # * * # # # & & ",
"; = = = = - = ; = ; = = % - ' - = % = = = = = = = = = ; ; - - > - ; ; ; ; ; ; ; ; ; ; - - ) > > ; ; ; ; - > ; - - - ; ; - ; ; ; > , > ) ) > ; ; ; ; = - , ) ; = % ; = - > ; ; - ; - = - > ; ; = ; ; - - = = % = - % * = > , % > = = ; > - , , ) , ) ! > > , > > ; ; - ; - - > - - - > ; = ; ; ! ' > - - - - > - - - - - - - > ) , - ; - - - ; ; ; ; = = = = ; = ; = - , - ; = = ; ; - , ) ~ ' > - ; - > - > ) > ; ; - - = = ; ; ; ; ; ; ; - - - - ; ; - - - ; - - > ; ; ; = - ; ; ; - ; - ; ; - ; ; ; - ; ; - ; ; ; ; ; ; = ; = ; , ) - ; - = ; - ; > - = ; % > , - % * * * % % = % = % - ' ; - ; - % * * - > , > > > - - - - ' ; , ~ ' - - ; > , ; ; ; ; ; ; > - - - ; ; - > - - > - - ; - ; ; ; ; - - > > - > > - > - ; ; ; - - - - = - - ; ; ; ; ; ; ; ; ; ; ; - > > > - > - > - - ; ; - = ; - ; , > > > - > , - - > ' > - - > , - > > ; - > > > > , ' , > , , ' ' > , ; = % = > = % = ; ; ; ; ; ; ; > - ; = = = = ; = , ; - - ; ; - ; % = = = = = = = = ; ; ; - > ; = = = = = - ; = ; = > = ; = = ; ; - ; = = ; % % ; - > , , > = = ; ; - ; - ; - ; ; ; = = ",
"{ ] ~ { ^ ] ^ { / ] ] ~ / ^ ( ( ^ ~ / ] ^ / ^ / / ^ ^ _ ^ / / / / / / _ / ^ ^ ^ ^ ^ / _ ^ : / ^ ^ ^ ^ / ^ / ^ ] ^ ^ ^ ] ] ] ] { / ( ^ / ~ ~ ~ ] ( ^ ^ / / ] ^ ] ] ] _ ^ ^ ~ ^ ] ] ] ] ^ ^ ^ ] ^ ] ^ ^ ~ ] ^ ~ ~ ^ ~ ~ ~ ~ _ / ] ^ _ { ^ ! ] { / { { ( ( / / / / ^ / / ^ ] ^ ^ ] ~ ^ ] ~ / ] _ { _ _ _ / ^ ] ^ ^ ^ / ^ / / ^ ^ / _ _ / / / / _ _ _ _ _ { { _ / _ / ^ _ ( _ _ ^ _ _ _ _ : ( { < _ / ^ / / / ^ / _ { { _ { { ( { { _ _ { { / / ^ / ^ ^ ] ^ ] ] ^ ^ / ^ ] ] ^ _ ^ ^ ] ~ ~ ~ ] ] ^ ^ ^ ^ ^ ^ ^ ^ ^ ] ^ ^ ^ ] ] ] ~ ] ] ^ ^ ] ~ ] ~ ~ ^ ^ ] ] ] ] ] ] ] ] / / ] _ ^ ^ ] ] ] / ( { < { ~ / _ [ : < _ / { _ _ ] _ { [ ^ ~ ] ^ ^ ^ _ ^ { ^ ^ ] ] ~ ^ ^ _ { / ~ ~ ] ] ^ ^ ] / / ] ^ ] ~ ~ ] ] ~ ] ^ ] ] ] ] ] / ] ^ ] ] ] / ^ ] ^ / _ _ _ / / / ^ ^ ^ ^ ] ] ~ ] ] ~ ] ] ] ^ ~ ] ] ~ ~ ] ] ] ] ^ ^ [ _ / ^ ^ ^ / ^ ^ ^ / / / / / / ^ / / ^ / ^ ^ ] ] ^ ^ ^ / ^ ^ ^ ^ ] ] ^ ^ ~ ~ ~ ] ^ ] ~ ^ ] ^ ] ] ^ ^ / ] ] ^ ^ ~ _ ( { _ _ [ / ] ] ^ / / / _ / / ] ~ ~ ~ _ { ^ / ] ^ / _ / _ _ { / / / / ^ ^ ^ ^ / ] ] [ { _ _ / ] { ( < _ ^ / ] ~ ] ] ~ ~ ~ ~ ~ ] ] ~ ",
"( / / / _ _ _ _ / ^ ^ ^ ^ ^ / / ^ ] ^ ] ~ ~ ] ^ / / ^ { ^ { ( { { { { { _ { _ _ _ _ _ ( _ _ { _ _ _ / / / / _ _ _ _ / / ^ ^ ^ _ / { / / ] ^ / _ / ^ _ _ _ / / _ / ^ _ _ / ^ / / / / / / / _ / / / ^ / ^ ] ] ^ ] ^ / ^ ^ ^ ^ / / / ^ / ] ] ] ^ ^ / / _ _ / ^ / ] ~ ^ ] ~ ] ] ] ] ~ ^ ] ~ ] ^ _ _ / _ ^ / / / / / / / / / / / / _ / / / / / _ _ _ _ / / / / / ^ / / ] ^ ^ / ^ ] ] ^ ~ ] / / ( { / ^ ^ ^ ^ ] ] ^ ^ ^ ^ / / ^ ^ ^ ^ ^ ^ _ { _ / _ _ _ / / ^ ^ ^ / _ _ _ / ^ ^ ^ ^ ^ ] ] ] ^ / / _ { { _ _ / / _ / / _ / / / / / { _ _ _ / / ^ / / ^ / _ / ^ / _ ^ / _ / _ / ^ ] ~ ^ ^ / _ _ { _ { { / ^ ^ / ( ( _ / / _ / ^ / _ _ _ _ { { { { { _ { / / / ^ ^ _ / / { _ _ / _ { _ { { { { { { _ { { { { _ { { ( { { { { { { { { _ _ _ _ _ _ _ { { { { { _ _ _ _ _ _ { _ _ ( { { { { { { _ { _ { { { _ { [ ( ( ( { { { _ { { ( ( ( ( ( [ [ ( ( ( ( { ( ( ( ( ( ( ( ( [ [ [ < [ ( { ( { _ _ _ / _ _ _ / _ _ _ _ / / / / _ _ _ / _ { { _ { { _ { { { _ _ / ^ ^ ^ / _ _ / { _ / / _ { _ { { _ _ _ { { _ { _ { { _ { _ _ { _ { { { _ { { [ ( { { { ( ( [ ( ( ( ( { { ( { ",
"} } | 1 2 3 4 } 3 3 5 6 } 7 3 7 7 5 6 7 6 8 2 } 3 5 1 9 0 | | | | 2 2 | 2 2 6 6 6 } 7 5 5 5 7 } } 5 7 7 7 5 5 5 7 5 3 7 7 5 6 5 3 5 5 } 5 } 6 3 7 6 6 7 5 3 5 7 7 6 6 } 7 7 } 7 } } 7 | 6 7 2 } } 7 5 } } } 5 } } 3 3 5 6 } 6 5 7 2 8 6 } 9 1 8 2 1 | 6 } | 6 6 6 | 3 7 6 5 3 5 5 7 7 6 | 6 7 6 1 } 2 5 } 7 } } 7 } 6 6 7 } 7 6 } } } | 2 } } 6 } 6 6 6 7 7 } 7 } } } } 6 | 1 6 6 } 8 8 2 1 9 1 | | | } 6 } 7 7 } 2 2 2 6 6 2 6 6 2 | 2 2 2 2 2 6 6 6 | 6 7 } 7 } 6 6 } 2 6 } 7 } 7 1 | } 6 2 6 6 2 6 6 7 7 } 5 } 7 7 6 6 2 2 8 2 6 7 5 7 7 5 } 7 } 7 7 6 6 6 6 } } 7 8 2 2 } 9 3 7 6 7 7 5 | 2 8 } 8 | | 6 6 1 8 2 } 8 8 | | | 6 } 5 3 } 8 6 7 3 5 6 5 3 3 | } 3 5 3 5 5 3 5 7 7 3 3 5 5 3 5 3 5 7 } 7 } 7 6 } } } } } } 7 5 5 5 5 7 7 7 } 6 2 2 2 6 } } 7 } 7 } 6 6 } } 6 6 } 7 } 7 7 5 5 7 7 } 5 7 7 | 2 5 5 3 5 3 3 3 5 5 7 7 7 7 7 5 5 7 7 5 5 5 7 5 5 3 5 5 7 7 } } 6 6 6 6 6 } } } } 7 7 } } 7 } | 6 8 8 | | | | 2 2 2 | 6 6 8 8 5 5 7 7 } 7 5 7 5 5 5 6 7 5 5 5 } 3 3 5 5 5 7 7 5 5 5 7 7 } } 7 6 7 7 5 5 } 2 6 } 2 2 9 8 8 2 2 | 2 2 2 2 | 2 6 2 2 7 7 ",
"; % % % = ; = % % * * % % * * % = = % ; = = % ; = * = - ; = = = = = ; = = % * % = ; = % % = = = ; = ; % % % = = * * * * % * * % % * # * * * * % = = = % % # * = = ; = % % = % = = % % = ; % = ; = = = % * * * * * % * * % % % * # & & & & & $ & & # % % % * # # # # # # * * * # # * * # * % % % = % * % % % % % % * % % % % = % % = % = = % = * % % = % = = % % % * * = % % * # * % % = = % % % = = % * * * * * # * * * * # * * * # * * % % % = = = % = % * % % * * % % % % % * % % = % = % % * = = = % % * % % % = = % % % % % % % % % = % % * % = * * = = ; = % = = % * # # # * % = % = % * * * * # & & # * # & # & & # # & * * * % % * # # # & = = # * = * * % ; % = = = = = = = ; % * % % % % = % = % % % = % % % % % % ; = = = = ; ; ; = % = = = ; ; - ; ; ; ; ; = ; = = = = = = % = = ; ; - - - ; = % = = - ; ; ; ; = = = = = = = ; ; ; = ; ; = ; = = ; ; ; - ; = = ; ; ; ; ; = = ; ; ; = ; ; ; ; ; ; ; ; ; = ; = ; = ; = ; ; = = = % = = % = ; ; ; ; ; ; ; ; ; ; = = ; = % = ; = ; ; ; - = ; ; ; ; ; ; = = % = - ; > - ; ; = = % = ; ; = = = = = = = = = ",
"9 8 8 8 1 1 1 1 1 8 9 8 9 | | 1 8 1 8 1 8 2 | | | | | 1 9 9 9 9 0 a 9 9 9 9 1 9 b a 0 1 1 b 0 0 a b 8 1 8 b b b 0 0 1 1 9 1 8 1 9 1 1 | 8 8 8 1 1 1 8 9 1 2 | 9 9 8 1 9 9 9 8 9 9 8 1 9 1 9 0 9 0 9 1 | 1 8 1 1 1 1 8 8 9 9 9 8 | 2 2 2 2 2 6 2 2 2 8 9 9 8 8 8 8 8 1 1 9 9 0 9 9 1 9 9 9 9 0 b 9 9 0 9 0 9 0 0 b 0 0 0 8 9 0 b 0 9 0 0 b b 0 0 9 a 9 b 0 0 b 0 0 9 0 9 0 0 0 0 0 0 b b 0 0 0 a 0 1 1 b 1 1 0 9 9 b b 0 0 b 9 0 b b 0 9 0 9 9 0 0 b 0 b 0 0 0 b 0 9 1 9 0 0 b b a a a b 0 0 0 a a c c d d 0 a b b c b b b 0 0 0 a c a b a a b 9 b 0 8 8 1 9 8 0 b 0 0 1 9 8 | 1 1 8 1 1 8 | 8 8 | 8 8 2 2 6 2 6 } 7 7 } } } } 6 2 2 2 6 } } 5 } 7 6 2 6 6 | 6 6 } | | 2 8 8 2 6 | 2 8 2 6 2 8 | 2 2 2 2 6 2 2 7 6 6 } 6 } 6 | 2 2 6 | 2 2 2 6 6 } } } } 2 2 | | 2 2 2 2 2 2 6 | 2 2 2 | 2 2 | 8 8 | 8 | 6 6 5 } 6 6 | 2 | | 2 2 | | | 2 7 6 2 2 6 | 8 2 2 2 2 6 8 8 8 8 8 | 2 6 2 2 | 8 2 6 2 2 2 | | | | 2 2 | 8 | | 2 6 6 2 8 | 6 6 6 } } } 6 2 2 6 6 | | 2 1 | | 1 8 8 | | | 2 | 2 | 2 2 | | 2 | 2 1 8 8 8 2 8 | | | | 2 | | | | | 8 8 1 1 | | 8 | 8 1 1 1 8 ",
"e f f f f f f f g f f f f f f f e e e e h h i h h i i i i i i i i i h h h h e e e e e f e e f e e f e e e f e f f e e f f f f f e e f f f g g g h e f f e e i f e f e e f f e e h e e f f e e e g g f g f h h e g e i h g f f e f e e h h h i i e e e e f f f e e f e f g g f g g j f g j f g f f g f g f g f f g f f f f f f f f e e f f f f f g g g g j j j g j j j g g g g g f h g f f h i e h h h f f e g g g g g g f f f g f f e e f e e e e e e f g g g f f f e e f g g f g g g g f e f f f f g f f e f g g g f f e e f f e f g g j j g f f e e f f e f e h f g f f j g e h e e e e e f e e f f e h f e h h h h i k k e e h h h i k i i i i h h h h k h e e e f e h e h h e e h h h e e e e e e e h h h i i h h h h h e h e e e e e e h i i k k i h h i h h h h h i h h h h h e e h e e f e e h h i i i i i h e e e e i h i i i i i h h h i i e e h e h h i h h h i i i i i i h i h e e e h e e e h h h e e h i h i k i h h i h i h i i i i i i i h h e e e e e e e h h e e f f e e e e e e h h e e e e k h h e e h i i i h h h e e i h i i i h h e h h h ",
"0 0 0 9 9 9 9 9 9 0 b 0 9 9 9 9 9 0 9 9 9 9 0 0 9 9 0 0 0 0 9 b b b 9 9 9 0 0 0 0 b 0 9 b 9 9 9 0 b 0 9 9 9 b 9 0 0 9 9 9 9 9 9 1 9 0 0 9 0 0 b b 9 9 9 0 0 9 0 0 1 9 0 9 9 9 9 0 9 1 1 1 1 9 0 9 1 9 9 9 0 0 0 1 0 b 1 1 9 9 b 9 9 9 0 0 b 0 b b 0 0 9 9 0 0 b b b b 0 9 0 9 0 0 0 a 9 0 0 0 0 9 9 1 1 1 1 9 1 8 8 8 8 8 1 1 9 9 1 8 1 1 0 9 1 1 9 1 1 8 1 8 1 8 8 | 1 1 1 8 | 1 9 1 8 1 1 1 8 8 1 1 1 8 1 1 1 1 1 9 9 9 9 9 1 0 0 9 9 9 9 9 0 9 9 0 9 1 8 1 1 1 1 9 1 9 9 1 9 9 1 1 1 1 9 1 1 1 1 1 9 9 9 1 1 1 1 9 9 9 1 1 1 1 1 1 1 1 1 9 9 1 1 1 1 9 9 0 b 9 9 9 9 9 8 1 1 9 0 0 0 0 0 b b 0 9 9 1 9 9 0 0 b 0 0 0 0 8 1 1 9 9 b 0 9 0 9 0 0 0 0 0 0 0 9 9 b b 0 9 0 0 0 9 9 0 b 9 9 9 9 1 1 1 1 9 9 0 0 1 1 1 1 9 1 9 9 9 0 0 0 9 9 9 9 9 9 9 9 9 0 0 0 9 9 0 0 0 0 9 0 9 0 9 9 9 9 9 0 0 0 9 9 0 0 0 9 9 9 9 9 0 b b b 0 b 0 0 0 0 0 0 b b 0 0 9 0 0 9 0 b b 0 b 0 9 9 0 9 9 9 0 0 0 9 0 0 0 0 b 0 0 0 0 0 0 9 9 b 0 9 9 9 9 9 0 0 0 0 9 0 0 a a 0 0 9 9 9 0 0 0 0 0 0 0 0 9 0 0 0 0 0 0 0 0 b 0 9 9 9 0 b b 0 b b b b b 0 0 b 0 0 9 0 0 0 9 9 9 9 9 9 9 ",
"3 3 3 3 3 5 3 5 3 7 7 5 3 3 3 3 3 5 5 7 5 } 5 5 } } } 7 5 3 3 3 7 7 7 5 5 3 3 5 7 5 5 3 3 3 5 5 3 5 5 5 5 5 7 3 3 5 3 3 3 7 5 3 3 3 5 7 7 7 7 5 3 3 5 5 3 5 7 } 5 3 3 5 3 3 3 3 3 5 3 3 3 3 3 5 5 5 7 3 5 3 3 3 3 3 3 3 3 3 3 3 3 3 3 5 3 5 } 7 } 7 5 3 5 7 7 5 5 3 5 7 4 5 3 3 3 3 4 3 7 3 3 3 3 3 3 3 3 3 5 3 5 5 5 5 5 5 5 5 5 3 3 5 3 3 4 3 3 3 3 3 3 3 5 3 4 4 4 3 3 4 } 7 3 3 3 5 3 5 5 5 3 5 3 3 3 3 3 3 3 4 3 3 3 3 3 3 3 3 3 3 3 3 3 3 3 3 5 3 3 3 3 5 3 3 3 3 3 3 4 4 4 l 4 4 4 3 3 4 3 4 3 4 4 3 3 4 4 4 4 4 4 3 3 3 3 3 4 3 3 3 3 7 5 3 5 3 } 7 7 5 5 3 3 5 5 5 5 5 7 5 7 3 5 5 5 7 7 } } 7 5 3 5 7 7 7 7 5 4 3 3 3 5 } 7 3 5 5 7 5 5 5 5 5 5 5 3 3 5 3 7 3 3 5 5 5 3 5 7 7 7 3 3 5 5 5 7 7 7 } 7 7 7 7 7 7 7 7 5 5 7 5 5 5 5 5 5 5 5 5 5 7 7 5 5 5 5 5 5 5 5 3 3 3 3 5 5 5 5 7 5 7 5 3 3 5 5 3 5 5 7 7 7 5 5 5 5 5 5 5 5 5 5 5 5 7 7 5 5 5 5 5 5 5 5 5 5 5 3 3 3 3 3 3 3 3 5 5 3 3 3 3 3 5 5 3 3 3 3 3 3 3 5 3 3 3 3 3 3 3 5 5 3 5 7 7 5 5 5 5 5 5 5 5 5 5 5 5 3 } 7 3 3 5 5 5 7 7 5 5 5 5 3 3 3 3 5 3 3 3 3 5 5 5 3 3 3 3 3 3 3 3 3 3 3 3 3 3 4 4 ",
"m m m n n n n m n n o n o o o p o o p p q q q p o o o o n m m n n n n m m r m m m m m m r m m m m m m m m r n m m m m m m n n n n n o o o o o n n m n n m r n n n m m m m m m r r r r r r m m m s s r r m r r r m m m m m m r m m m n n n n n n n m n n m m m m m r m r r m s r r s t s r t t s r r s s s s s s s s r m m m m m n r m m m m m m s r s s r r r r r r s s s r r r r r s s s s r s r r r r r r r r s s s s s r r s s s s s r s s s s s s s r r r r r s s m m r s s s s s s s s s r r r r r r r r r r r r r m r m m m m r r r r r r m m n n n n m n m m r m m m m m n n m n n o n m m m n n m n o n n n n n m m r m o p n n o o p p o p o n o p o n n o o o o n n o o o p p p p o p p p p p o p p p p p q p q p p o p p o o o o o p o q q u u q p o p o n n o p p p p p q q q q p p q p p p p p p q u u q p p p p p q p p p p p p q p q p p o p o o o o o o n o o o o p q u q p o n o o o o p o o o o o o o o o o o o o o o p p p q p q q p q q q q q q p q p p p q p p p p p q p q q p q q p p p p o p o p o p o o o n o n n n o n n n n n n n n n ",
"t s t t t v v t s t s s s s t t s s t s t v t s t v t t s t s s r s r m r s t s t r m m r r r r r r r r r s r s s s s s s r r s s r r r r r r r r s r r s s r r m r r m m r r r m m m m m r m r m m m r s r r s r r r r s s r s s r s s r s t v t v t r s s r r r s s r r m m n n m r n m m m m m m m m r m m m r m m m m r r m r r r r m m m m m m m r m m m m m m m r r n n n n s m n m m n n m n m r m m n m n n n n n n n n n n n m m m r m m m r m m m m m m m m m m r m m m m m m m m r r m m m m m m r m m m r r r r r r r r r r r r r r r r r r t t t m r r r m r r s r r m r r s t t s m m t t v w v v w w w w w v w j s m s v v v s r w r s t t s t s s t t s t v t v w s t t t w v s t t t t t v t t t t t v v t t v v t t v v v v v v v w w w v w j w v v v v t t v v v v v t t t t t s t t t t t t t t v t v w s s s s s t s v t t t t t t t v t t t t t v t t t t t t v v v v t v t t t t t s s v t t s t t s s t t t t v t t t t v t t t v v v v t t t t v v v t t v t t t t t t v v v v v v t t v t t t s s t t t t v v v t t t t t t t t t t t ",
"x x x x x y y y x y y x y x x x x x y y y x x x x x y x y y y y y y y x y y y y z z y y y y y y y y y y y x x x y y x y y y x A x x x x x x x x x x x x y x x x x x x y y y y y y y y y y y x x x x x x x x x x x x x x x x x x x x x x x x y z z z y z y y x x y z z y y y x x x y y x y x y y x y x y y x y y x y y y y y y y y y y y y y y y y y y y y y y y y y y x x x x x x y x x x x x x x x x x x x x x x x x x x x x x x x x x x x y y x x x y y x x x y x x x x x x x x x x x x x x x y x x x y x x x x x x x x x x x x x x x x x x x x x x x x x y x A x A x A x x x x x x x x x x x y x y y y y y z z z y z B z z z y y z y y z y x x x x y x x x y y y y y y y y y y y y y y y y y y y y y y y y y y y y y y y y y y y y y y y y y y y y y y y y y y y y y x x x x x x x x x x x x y y y y y y y y y y y y y y y y y y y y y y y y y y y y y y y y y y y z z y y y y y x x x x x x x x x x x x x y x x x x x x x x x x x x x x y y x y y y y y y y y x x x x y y y y y y y y y y y y y y y y y y x y y y y y x x x x y y y y y y y y x x x x x x x ",
"b b b b a b 0 0 b 0 0 0 0 0 0 0 0 0 0 0 0 0 0 0 0 0 0 0 0 b b b b b b b 0 b b b b a b b b b b 0 0 0 b b b 0 0 b b b 0 0 b b 0 b 0 0 b 0 0 b b b b 0 b b 0 0 0 0 0 b 0 b 0 0 0 0 0 0 0 0 0 0 0 0 0 0 0 0 0 b 0 0 0 0 b b b b b b b b 0 0 0 0 b a a b a a b 0 b b b a b b b 0 0 b b b b b 0 b 0 b b 0 b b b 0 0 b 0 0 b b 0 b b b b b b b b b 0 b b 0 b 0 b b b b b b 0 b 0 0 b b b b b b b b b b b b b b b b b b b b b b b b 0 b b b b b b b b b b b b b b b 0 b b b 0 b 0 b b 0 b 0 0 0 0 0 0 0 0 0 b b 0 0 0 0 0 0 0 0 0 0 b 0 0 b 0 0 0 0 0 0 0 0 0 0 0 0 0 0 0 0 0 0 0 0 b 0 b b b 0 0 0 b b b b b 0 0 b b a a a b b b a a a a b b b a a a b b 0 b b b b b b b b b b b b b b b b b b b b b b b b b b b b b b a a b b b b b b b b b b b b b b b b b b b b b b b b b b b b b b b b b b 0 b b b b b b a b b b b b a b b b b b b b b b b b b b b b b b b b b b b b b b b b b b b b b b b b b b b b b b a b a b b b b b b b b b b 0 0 0 b b b b 0 0 0 b 0 0 0 0 0 0 0 0 0 0 0 0 0 0 b b b b b b b b b b b b b b b b b b 0 b b b b b b b b b b b b b b b b b b b b ",
"1 1 1 1 9 1 1 1 1 1 8 1 1 1 1 8 8 8 8 8 1 8 8 1 8 1 1 1 8 8 1 1 1 1 1 1 1 1 1 1 1 1 1 1 1 1 1 1 1 1 1 8 8 8 8 1 8 8 8 8 1 8 8 8 8 8 8 8 8 8 8 8 8 8 8 8 8 8 8 8 1 1 8 1 1 1 1 1 8 1 1 1 1 1 1 1 8 8 1 1 1 1 8 1 8 1 8 8 8 1 8 1 8 8 8 8 8 8 1 1 1 1 1 1 8 8 8 8 1 1 1 1 1 8 1 1 8 8 8 8 8 8 1 8 8 8 1 1 1 1 1 1 1 1 1 1 1 1 1 1 1 1 1 1 1 1 8 8 8 8 8 8 8 8 8 1 1 8 8 8 8 8 8 1 8 8 8 8 8 8 8 8 8 8 8 8 8 8 8 8 8 8 8 8 8 8 1 8 8 8 8 1 8 1 8 8 8 8 8 8 1 1 8 8 8 8 8 8 8 8 8 8 8 8 8 8 8 8 8 8 8 8 8 8 8 8 8 8 8 1 8 1 1 1 1 8 8 8 1 1 8 8 8 8 8 8 8 8 8 8 8 8 8 8 8 8 8 8 8 8 8 8 8 8 8 8 8 8 8 1 1 1 1 1 1 1 1 1 1 9 9 1 9 9 9 9 1 1 1 1 1 1 8 8 8 8 8 8 1 1 1 1 1 1 1 1 8 8 8 8 1 1 1 8 1 1 1 1 1 1 1 1 1 1 1 1 1 1 1 1 1 1 1 1 1 8 1 1 1 8 1 1 1 1 1 1 1 1 1 1 1 1 1 1 8 8 8 8 8 8 8 8 8 8 8 8 8 1 8 8 8 1 8 1 8 1 1 1 1 1 1 1 1 1 1 1 1 1 1 1 1 1 1 1 1 1 1 1 1 1 1 1 1 1 1 1 1 8 8 1 8 8 1 8 1 1 1 1 1 1 9 1 1 1 1 1 8 8 8 1 8 8 1 1 8 8 8 8 1 8 8 1 1 1 1 8 8 8 1 8 1 1 1 8 1 1 1 8 8 1 1 1 1 1 8 1 1 1 1 1 1 8 8 1 1 8 1 1 1 1 8 1 8 8 1 8 8 8 8 8 8 8 ",
"8 8 8 1 1 8 8 8 8 8 8 8 8 8 8 8 8 8 8 8 8 8 8 8 8 8 8 8 8 8 8 8 8 8 8 8 8 1 8 8 8 8 8 8 8 8 8 8 8 8 8 8 8 8 8 8 8 8 8 8 8 8 8 8 8 8 8 8 8 8 8 8 8 8 8 8 8 8 8 8 8 8 8 8 8 8 8 8 8 8 8 8 8 8 8 8 8 8 8 8 8 8 8 8 | 8 8 8 8 8 8 8 8 8 8 | | 8 1 1 1 8 8 8 8 8 8 8 8 8 8 8 8 8 8 8 8 8 8 8 8 8 8 8 8 | 8 8 8 8 | | | | | 8 8 | 8 8 8 8 8 8 8 8 8 8 8 8 8 8 8 8 8 8 8 8 8 8 8 8 8 8 8 | | | | | | | 8 8 8 8 8 8 8 8 8 8 8 8 8 8 8 8 | 8 8 8 8 8 8 8 8 8 8 8 8 8 | | 8 | | | | | | | | | | | | | | | 8 | | | | | 8 8 | | | | | 8 8 8 8 8 8 8 8 8 8 8 8 8 8 8 | 8 8 8 8 | | 8 8 8 8 8 8 8 8 8 8 8 | 8 8 8 8 8 8 8 8 1 8 1 1 1 1 8 1 1 1 1 1 1 1 1 8 8 8 8 8 8 8 8 8 8 8 8 8 8 | 8 8 8 8 8 8 8 8 8 8 8 8 8 8 8 8 8 8 8 8 8 8 8 8 8 8 8 8 8 8 8 8 1 8 8 8 8 1 1 1 8 8 8 8 8 8 8 8 8 8 8 8 8 8 8 8 8 8 8 8 8 8 1 8 8 8 8 8 8 8 8 8 8 | 8 | 8 8 8 8 8 8 8 8 8 8 8 8 8 8 8 8 8 8 8 8 8 8 8 8 1 8 8 8 8 8 8 8 8 8 8 8 8 8 8 8 8 8 8 8 8 8 8 8 8 8 8 8 8 8 8 8 8 8 8 8 8 8 8 8 8 8 8 8 8 8 8 8 8 8 8 8 8 8 8 8 8 8 8 8 8 8 8 8 8 8 8 8 8 8 8 8 8 8 8 8 8 8 8 8 8 8 8 8 8 8 8 ",
"8 8 8 1 1 8 8 8 8 8 8 8 8 | 8 8 8 8 8 8 8 8 8 8 8 8 8 8 8 8 8 1 8 8 8 8 8 8 8 8 1 1 1 1 8 8 8 8 8 8 8 8 8 8 8 8 8 8 8 8 8 8 8 8 8 8 8 8 | | 8 8 8 8 8 8 8 8 8 8 8 1 8 8 8 8 8 8 8 8 8 8 8 8 8 8 8 8 8 8 8 8 8 8 8 8 8 8 8 8 8 8 1 8 8 8 8 8 1 1 8 1 8 8 8 | 8 8 | | 8 8 8 8 | 8 8 8 8 8 8 8 8 8 8 8 8 8 8 8 8 8 8 8 | 8 8 8 8 8 8 8 8 8 8 8 8 | | | 8 8 8 8 8 8 8 8 | 8 8 8 8 8 8 8 8 8 8 8 8 8 8 8 8 8 8 8 8 8 8 8 8 8 8 8 8 8 8 8 8 | 8 8 8 8 8 8 8 8 8 8 8 8 8 8 8 8 8 8 8 8 8 8 8 8 8 8 8 8 8 8 8 | 8 8 8 8 8 8 8 8 8 8 8 8 8 8 8 8 8 8 8 8 8 | | | | | | | 8 8 8 8 8 8 8 8 8 8 | | | 8 8 8 8 8 8 8 8 8 8 8 8 8 8 1 1 1 1 8 1 1 1 1 1 1 1 8 8 8 8 | 8 8 8 | 8 8 8 8 | | 8 8 | 8 8 8 8 8 8 8 8 8 8 8 8 8 8 8 8 8 8 8 8 8 8 8 8 8 8 8 8 8 8 8 8 8 8 1 8 8 8 8 8 8 8 8 8 8 8 8 8 8 8 8 8 8 8 8 8 8 8 8 8 8 8 8 8 8 8 8 8 8 8 8 8 8 8 8 8 8 8 8 8 8 8 8 8 8 8 8 8 8 8 8 8 8 8 8 8 8 8 8 8 8 8 8 8 8 1 1 8 8 8 8 8 8 8 8 8 8 8 8 8 8 8 8 8 8 8 8 8 8 8 8 8 8 8 8 8 8 8 8 8 8 8 8 8 8 8 1 8 8 8 8 8 8 8 8 8 8 8 8 8 8 8 8 8 8 8 8 8 8 8 8 8 8 8 8 8 8 8 8 8 8 8 8 ",
"1 1 9 9 9 1 1 1 1 1 1 1 1 1 1 1 1 1 1 1 1 1 1 1 1 1 1 1 1 1 1 1 1 1 1 1 1 1 1 1 1 9 9 9 1 1 1 1 1 1 1 8 1 1 1 1 1 1 1 1 1 1 1 8 1 1 8 1 1 1 1 1 1 1 1 1 1 1 8 1 1 1 1 1 1 1 1 1 1 1 1 1 1 1 1 1 1 1 1 1 1 1 1 1 1 1 1 1 1 1 1 1 1 1 1 1 1 1 9 9 9 1 1 1 1 1 1 1 1 1 1 1 1 1 1 1 1 1 1 1 1 1 1 1 1 1 1 1 1 1 1 1 1 1 1 1 1 1 8 1 1 1 1 1 9 9 8 1 1 1 1 1 1 1 1 1 1 1 9 9 1 1 1 1 1 1 1 1 1 1 1 1 1 1 1 1 9 9 1 1 1 1 1 1 1 1 1 1 1 1 1 1 1 1 1 1 1 8 1 1 1 1 1 1 1 1 1 1 9 9 9 1 1 1 1 1 1 1 1 1 1 1 1 1 1 1 1 1 8 1 1 1 1 1 1 1 1 1 1 1 8 1 1 1 1 8 1 1 1 8 8 1 8 1 1 1 9 1 1 1 1 1 1 1 1 1 1 1 1 1 1 1 1 1 1 1 1 1 1 1 1 9 9 9 9 9 9 9 1 8 8 1 1 1 1 1 8 1 1 1 1 1 1 1 8 8 1 1 1 1 1 1 1 1 1 1 1 8 8 1 1 8 8 8 1 8 1 8 8 8 8 8 1 8 1 8 8 1 1 8 1 1 1 1 8 8 1 1 1 1 1 1 1 1 1 1 1 1 8 1 1 1 1 1 1 1 1 1 1 1 9 1 1 1 1 1 1 1 8 1 1 1 1 1 1 1 8 1 1 1 1 1 1 1 1 1 8 1 8 1 8 1 1 1 1 1 9 1 1 8 8 8 1 1 1 1 1 1 8 8 8 1 1 1 1 1 1 1 1 1 1 1 1 1 1 8 1 1 1 8 8 8 1 1 1 1 1 8 1 1 1 1 1 1 1 1 1 1 1 1 1 1 1 1 1 1 1 1 1 1 1 1 1 1 1 1 8 1 1 1 1 1 1 1 1 1 1 8 1 8 1 1 ",
"b 0 b 0 0 9 9 9 9 9 9 9 9 9 9 9 9 9 9 9 9 9 9 0 9 9 9 9 9 9 9 9 9 9 9 9 9 0 0 0 0 0 0 0 0 0 0 0 0 0 0 0 9 9 9 9 9 9 9 9 9 9 9 9 9 9 9 9 9 9 9 0 0 0 9 9 9 9 9 9 9 9 9 9 9 9 9 9 9 9 9 9 9 9 9 9 9 9 9 9 9 9 9 9 9 9 9 9 9 9 9 9 0 9 0 0 9 0 0 0 0 0 9 9 9 9 9 9 9 9 0 9 9 9 9 9 0 0 9 9 9 9 9 9 9 9 9 9 9 9 9 9 9 9 9 9 9 0 9 9 9 9 9 9 0 0 9 9 9 9 0 9 9 9 9 9 9 0 9 9 9 9 9 9 9 9 9 9 9 9 9 9 9 9 9 9 0 b 0 9 9 9 9 9 9 9 9 9 9 9 9 9 9 9 9 9 9 9 9 9 0 9 9 9 9 9 9 9 9 9 0 9 9 9 9 9 9 9 9 9 9 9 9 9 9 9 9 9 9 9 9 9 9 9 9 9 9 9 9 9 9 9 9 9 9 9 9 9 9 9 9 9 9 9 9 9 9 9 9 9 9 9 0 9 9 9 9 9 9 9 9 9 9 9 9 9 0 9 9 9 9 9 0 0 0 0 0 9 1 1 9 9 9 9 9 9 9 9 9 9 9 9 9 9 9 9 9 9 9 9 9 9 9 9 9 9 9 9 9 9 9 9 9 9 9 9 9 9 9 9 9 9 9 9 9 9 9 9 0 9 9 9 9 9 9 9 9 9 0 0 0 0 9 0 9 9 9 9 9 9 9 9 9 9 9 9 9 9 9 9 9 9 9 9 9 9 9 9 9 0 9 9 9 9 9 9 9 9 9 0 9 9 9 9 9 9 9 9 9 9 0 0 9 9 9 9 0 0 0 0 9 0 0 0 0 9 9 9 9 9 9 9 9 9 9 9 9 9 9 9 9 9 9 9 9 9 9 9 9 9 9 9 9 9 9 9 9 9 9 9 9 9 9 9 9 9 9 9 9 9 9 9 9 9 9 9 9 9 9 9 9 9 9 9 9 9 9 9 9 9 9 9 9 9 9 9 9 9 9 9 9 9 ",
"A d d c a a a a a a a a c a a c c c c c c c c c c c c c c a c c a c c c c c c c c c d c c c c c c c d d c c c c c c c c c c c c c c c c c c d d d c c c c c c c c c c c c d c c c c c c c c c c c c c c c c c c c c c c c d c c c c d d d c d d c c c a a c c c c c c a c d c c c d c c c c d c d c c c c c c c d c c c c c c c c c c c d d a a a a a a a a a a c a a c c c c c c c c c c c c c c c c c c c d c c c c c c c c c c c c c c c c c c c c c c c c a c c c c c c d c c c c c c c c c c c c c c c c c c c c c c c c c c c c c c c c c c c c c c d d c c c c c d c c c d c c c c c c c c c c a a a c d d c c c c c c c c a a a a a a c a a a a a a a c a c c c c c c a a a a c c a c c c c c c c a a a c c a c c c c c c a c a a c c a a c c c c c c c c c c c c c c c c c c c c a c c c c c c c c c c c c c c c a c c c a c a c c c c c c c c c c c c d c c c c d c c c a c c c d c c d d c c c c c c c c c c a a a c c c c c c c c c c a c c a a a a a a a a a a a a a a a a a a a a a a a a a a c a a a a a a a a a a a a a a c a a a a c c c c a a ",
"C D D E F F F F F F F G H H H H G H H H H H H G H G G H G G G G H F G H H H G G G H H H H H G G G G F G H F G F G G G G G H I F F F F F F I E E E I F I I F F F E F E F F F I F F F I F I F I F F F I I I G G F G G F G F F I I I E I E E J J J J I E I H F I F F F H H F G F I F I G F G G F F F G F F F F I I I E I I E E I I J E F J I I E E E I F G I F F E I E J I E E I G G K H G K G G H H G F I E I I F F G G G G G G F F E E F I F F I I I I I F G G G G G F F I E I F G G G F H F F F I F I E I I F I F F G F I F E E J E I I I F F I F F E I E F G G F F G I E I I E I I F G F G F G E G F I I E I E E J L L J I E E E F H H H H H I K G G G G G G G F G F I I F F F I I E E J I I F I F F F G G H G F G H G G G F F F G F F I I I I E F G H F G G H F F E J E E E E I I F F G G G G L F I I I E F F F F F F F I F F F I E E I F F F G G G G H H H G F F G E I E F F F F F G G I I E I E G F I F H G G H G F F I I I I E E E E I I I I I I F F F F F F F F F G G G G G G G H H G H G H G F G H H H G H H G F I I I I I I E I I I I I I I E J E L L J ",
"D E F G G H G G G G G G F F F F G G G G G G F F F F F I F G G H F G G E F F G G G G G G I F G G F G I E F G I I I I F F E J I F F F G F I F F I E I F F F F F I F F F F F F F F F F F F F I I F F I I I E I F I I I I I I F I I I E E E J E E L E J L F I I H I I F F I F F G I G H H H H G G G G F F F F F F G F I E I I I I I J F L J I G G G H G F E G G G G G F F F I E I G G E I F I G G F I F G G F F G G G G H H H H H G H H F G F F G F G G G F I G G F I G H F F F F I I G G G G F F F F F G G G G G G G G G G G F F F F F G G H H G H G F F F F F F G H G G G G G H H F G G F I I I I F F G G H G G H H H G G H G H H G H K K K K H F F K M K H K K K H G H H H H H H G H G G G F F F F F F G I F F I F G G H H H H K H H G G F F F H H G F E I F G H H F G G F F G G F F G G F F I I F F F G G G F G G H G H G K H K K K H H G G H H H K K H H G G G H F I G H G F H H G H G G H H H G F G G F M K K K H H H G H H G F F F F G I I I F F F F G G G G G G G G F G G G G G G I F F G F G F H G G I G F I J F G G G F F F E F I F F F F J I I F I F F G ",
"J E F F F F F F F I F F I I I I I I I F F I F I I I I I I I I I E F F E I I I I I I I I I I I I I I E E I I E I F F F I J E F F F F I I I I F I E E I I I I I I I F I I E E E E E E E E E J E I I I E E I F I E E E E I I E J E E E J E J J E E J L L L E E E E E J E E E E E J E J J I E E J E J E E E I I I I J L E I I I E J E L J E J J I I E E E E E I J I I E E E J L E E E J E I E J J L L J J E J L J E E E I I I E E E E I J J E E E E E I I I E E I J E E E J I E E E J I I E E E E E E E E E E E E I I E E E I I E E E E E E E E E I E E I E E E I E E I E E E E I J E E E I E I I I E I I I I I I I I I I E E E E I E I F I I F I I E E E F F I I I I F F F F I I I I F I I I I I F I I I F I I I I I I F F F F F I I I I I I E I I I F F I I E E F I I F F I I I F I F F F F F I F I I I I I I I I F I I I I I F F F F F F F G F F F F I I F F I I E I I F F F F F F F F E F F F F F F F F I I I F I I F F F I I I I I I I I I F I I I F F F F F F F F I F F F F I F I I I I I I I E I I I I I I I E E F F F F F F F F F G F G F F I F I I I I I F ",
"N O O P P P O P O P O O O O O O P P P k O O P O O O O P P O P N O k P P P P k k k P N O O O P P O O O P k P P O k k k P N P k k P k P P P P k k P P k k P P P P k k k P O O P P P P P P P P P k k k k P k i h k k k k k k P k P P k k k P O P P O O O O O k P P k P i k k k k P k k k k O P P P P O P P P P P P P P P P k k O P P k P k O O k k k P P P P k P P P P P k P P k k k k i k k k h i i k k k P P P P i i k i i k i h h i k i h i i k k i i i i h i h h h i P k k k k k i i k i i i i P k k k P k k i k i i k k k k P P P k k k k k P P O P O P P O O O P P k P k k P P k k P P P P P P P P P P k O k N P O P P P k k P k P P P k P P P O P P O N O O P O O O O O N N Q N O N N N N O N Q N P O O O P O O P P P O N N N O O O O P O O O O O N N N O O N N N O Q Q Q Q N N N P O P N P O O O O N N O O P O N O Q O P P O O O O N N O O O N N O P P P O O O O O P N P N N O P O O O O O N O P P k P P O N O k P P P P O O O N N N N O N N Q N N N N Q N N N N N N N P N N N N Q N Q R N Q Q Q N N Q Q Q R O N O N O O O O N N N O O N N O O O O N N Q O ",
"3 S S T T S U U U S U S U T : : : U S U : : S : : : S U S < < S U S T T V < U l V V : : < < : [ { ( < : S U S : V V W l < < : : < < < : T : S S U : < [ [ [ [ U < : : U U U < : : : : S S S < : : : S : < S : : < < : S T : T S < S : : : : < ( ( [ [ [ < : [ < U : S S : ( < < [ : < [ { { { < [ [ < < [ < < < U : [ < : < : ( ( ( [ { [ < ( S [ S { { { _ ( ( [ [ [ < [ { { ( { [ [ [ : [ : [ [ [ ( { ( [ < < : : : : : S < : < [ < S S < S : : < : < [ < { < S < { { [ < [ : < < [ ( [ : S : S < [ < [ < < < : : : < [ < < < [ : : < ( ( < S : : : S T U : : < T < : : [ [ : ( < : : : : < < < S < < [ ( U : S : : S S < : : S : : [ S : U T V < [ U : : < < < [ < : : : : [ ( [ [ S < : : T S S S T : U S V T V U T : U : [ < : : : U : : [ V U U < : : U S : : S U S S < : : < [ < < S T V S : S < : S T S S : : < : < T T T : U U < : U : U U S U : S U T S : : W V T W V W U U : T S : T : : S : S : : U U S S U S U U S : S : < S S : U : S T S S V U S U S U : S : V S S U T S U U S U S < S T S T U < < < : : S : : S U : : U S T T : S S V U S S S < ",
"/ ! ! X X X X X X ! X ) ) ) ! ! ! X X ! ) ) ! ! ~ X ! ! ! ~ ~ ~ ~ ~ ] X ] ~ ] X ~ ~ ~ ~ ^ ~ ~ X ! X X X X X ! ! ~ ~ X X X X ~ ^ ~ ~ ~ ] ~ ! X ! ~ ~ ~ ~ ~ ^ ] ] ] ] X ! ! ! ~ X X X ! X X X ~ X ] X ~ X ~ X ] ] ] ~ ~ X ] X ~ X ~ X X ~ ] ^ ] ~ ~ ^ ^ ~ ] ~ ] ] ] ] ] ^ ^ ] ~ ~ ~ ] ~ ] X X ! ! ! ! ! ~ ] ~ X ! ~ ! ] ^ ~ X ~ ~ ~ ~ ~ ~ ] X ~ X ! X ] ] X X X X X ] ^ ~ _ ~ ! X X X X X ~ ~ ^ / X ^ ] ] ~ ^ / ] ^ ^ ^ ] ~ X ~ ] ~ ] ^ X ] ~ ~ ] ^ ] ~ ] X X X ~ ^ ] ~ ~ X ~ ] ~ ] ] ~ ~ ~ X ] ] ] ] X X ^ ^ ] ~ / ~ ~ ~ ~ X X X ] ] ~ ] ~ X X ^ ~ ~ ~ ] ~ X X X ! ! ! ! X ~ ! X X ! X X ) ) ! ! ] X X ~ ~ ~ ~ ] ~ X X X ) ) X ! ! X ~ ~ ~ X X ! ! ! ! ! ) ' ~ X X X ) ) ) ) ) ) ) ! ) ! ) ) ! ~ ) ' ' ) X X ! ~ ~ X ! ' ) ! ! X ! ' , ) ' , ' ) ! ! X ' ' , , , ' ' ! ) ' ! ! ' ! ) ! ) X ! X ' ' ' ' ' ' ' ! X ) X ! ' X ~ ! ! X ) ) ~ X ! ) ) ' ' ) ) ) ! X ! ) ! ) ) ' ! ! ! ) ! ! ! ! ~ X ] ! ! ) X ' ! ) ! ) ) X X X ) ! ) ) ! ) ) ! X X ! X ! ) ! ! X ! ! ! ! ~ X ~ ! ! ! ) ) ) ! ! ) X ! ] ! X X ! ] X ^ / ] X ] X X ^ ~ ~ ] ~ ! ) ! ! ) ! ! ! ! X ! ! ! ",
"o o p p p o o n m n p o m n n n m n n n n n o n o n n n n m o r n n o o o p o o p p u r o n n n m o p m u u n o n n m n n r t r r r m r m m n m o r m r r r t n p n o m m m m n m n m s m m n n n m r v s r s r v s r s t s r s s r t t t t t m m r r n m r r s s t w m s r r m r m r t s t s t s r r r r r m s m m t s r m s r r v v p p n m m m s t w v v t v v v v m r r t s r t r r t r s s s r r s s t w j r s v s v v t s v t w w s w j t n t s t t t j j j g w j t j j v w t j j v t v w s s v t w s t s r s s s s s r m m r r v r r t v t s w v w t v t v v v t w s t v r r r s s m r v n s r m t r m m m r o n n o p n m t s s m n n n m m o o o n o n p o r m n s m o n p o n o o o q s m m o n n o n m q p p o o p p p p o o q p u q u q u q u u u C u u u u C Y C q C D u C q C u o o o p o p p q C u D Z u q C u q q C m p u p C C Z u q u Y D Y Z C C u q u q o p q q u q u Z Z Z q q C C u q u C C u u u C q q q u q q p p p q q q u Z C p q q u u o p p o p C u q o m m m r s r r n m p r q o n Z q o o n p q o m o p o o o o p o m r m m m m m ",
"` `  ..... . ................... . . . . . . . ...........`  . . . . . ....... . ... . .`  . ... . . . .+. ...+.+....... ... .@.#.#.#.@.@.@. . ... . . .@.` ` ` ....+.$.+.+.+... . . . . .`  .`  . . .` ` ` ` @.` @.@.@.@.#.@.@.@.` @.#.@.`  ..... ..... . .` @.@.#.#.@.@.#.@.#.#.#.@.@.@.` ` ` .. ... . ......... . . . . . .`  .` `  ... .`  . .` ` #.@.@.#.@.@.@.@.@.` #.@.@.#.#.#.#.%.%.#.#.#.#.@.@.@.` `  . . .` #.#.@.@.#.#.#.#.@.@.@.#.`  .` ` @.@.@.#.%.&.&.%.#.@.@.` ` ` #.%.%.#.#.@. . ... .` `  .` ` ` ` @.`  . ....... .` #.@.#.@.`  ... . ....... .` @.`  . . .` ` `  .......+.........+... . .` ` ` @. . . . . .@.#.@.@.` `  . .` @.` ` ` ` .... . . . .` @.@.@. . .`  .`  ... ...+.+.$.$.$.$.$...+.......+.+.............+.....+.+.+.$.*.=.=.$.+.+... . . . . . .+.+.+.+.+.+..... . ...+....... . .+.+...+.+..... . .` @.@.@.`  .+.+.=.=.$.$.+... . .` `  . . . ...+.+.$.+...+.$.+............. ... . ...............+... . . ...+. . . .`  .` ` @. .` ` ` `  .......+... .......+.+....... . .`  . ........... .` `  . . . .`  . . ......... . .",
"n o o n m n m m r m m m r m m m m m m m m m m n m m o m o p n n n n o p p p q q q q p p p p o o o p q q p q q q q q u u p p q q q q q q q q q q u q q u q q u u u u u q q u q p p p p q q q q q q u q q u q u C u q o p p q q q q u q u u C u u u C u Z C C C C C u p q q u u u u q u q q u u q q u u u u C Z C C C C C C C q u C C q u C C u C Z u C Z C C Z u q u u q q u q u u p u C u u u u u Z Y Z Y Z Y Y Z Z C Z Z Z C C C C Z Z Z C C C Z C Z Z Z Y Z Z C Z Z Z Z Y Y C u u C C C C u C C u u u C u u u u u u u u C C Z Z C u u q q q u C Z Z C C u u u u u u C u u q q q q q q q q q q p p o o o o o o o n n n n n p o o n m n m m n n m n m n m m m n r m m m n m m m r r s r s r r r s m m r r m r m r r r r r r r r r m r r r r r r r s r s s r r s t r r r s t t r r r r r m r s r r r r r r r m m m n n n m m m n o m m r r r r r r r m m m m m m r m n s r r r s s r r m m m m m m m r m m m m r m m m m m m r r r r r r m m m r r m r m m m m m m m m r r r r r r r r m m m m r r r r r r s s r s s s s r s r r r m r r r r r r r m m r m m m n ",
"& @         . . .   . . .       . . + + + + .     @ & $ $   + + . . .     $ $ . . @ @ . . .   . .       @ $ @ $   @ & @   $ $ & @ @ @ @ $ $ $ $ @ $ & @ $ & & # @ $ # # #   $ @ $ $     # * & # & & @ $ $ $ @ & @ @ & & @ @ &   & . @ @ & & $ @ & @ @ & @   * $ =   @ & & & & & $ $ & $ $ $ & @ @ @ & & . # * $ & $     .       % &   % @ #   @ %         @ @ $ # . . + +   . . .         + .   . & #   $   .   & @ . .   @     @       @ . @ $ & $   @ @   $ @ @ & * $ & * $ * & # & @   $ $ $ @ @ & $ @ & # $ $ $ . . @ $ @ @ @   .           @ $   @   @ @ @ $   @ @ @ @ .           @ @ @   @ $ @ @ @ & $ @       @ $ . $   & @           . .     . + . @ $   @ . . .   . @     + . @ . + . . @ . . + # $   @ @ $ & @ &   $   $ & .   $   .   .     @ @     . . . .   . @ $ @ @ $ $ @   @   @ @ @ @   @ @ @ .   . .       &   @ . .   . . $ . .   . .   @ @   * $ + . . . . . . .   . . . . . . + . . .   . @ . . . . . + . + + . + + . + + + + + + + .   + . & $   + + + + + . +   . . + . . @ @ . + . $ .   + .   .       .           . .   $ @ .   .     ",
"# $ # * * $ # * * # # & & # * # # # * - , = * = $ % % - = # # % * * * # $ # * % * % ; $ # * # % # $ # * & * # # & % $ * & & $ # @ & $ $ @ @ @ $ & & $ & = @ & # @   $ $ * # # @ @ @ @ @ $ & $ $ @       $ $       $ $ $   @ @   &   $ .   .     # @ $ $ @ $ @ & $   & @ @ @ @     @ @     .   .   . . . . &   & @ .   @   .   ; & . & @ . - $ $ & * @ # # $ @ % @ $ &       $ @   $ & # $ & @ &   # # # * = ; , # & # $ * # $   @ @ & @ & $ @ @ # $ & * = % # & $   @ &   # $ @ @   . . *   . + .   @ .   . + . . . .   . . .           @ @ @ +     . @ $ @   @ @ @ @     . @   # . . . . . .   . . .     . +         @ @ #     $     @ @ @ # & @   @ @ & # $   & & * &     @ & @     $ $ @ @   @ @ @ @ * # $ # & & * # $ & & % & $ @ * = $ $ $ & # * * # * # & @ # & $ @ & & @ @   & & % .     . . . . . . . % # $ # $ # & ; *   & $ $ @ % # ; & . $ & # & & # = * # * = % &     @     @ @ @     @ . @ @   .   @     @ $ @ @ . . + + + +   . .         @ @ @   & # # & $ & * $ * # # # & & $ & $ % ; $ & @ # $ # % * & * # # # # # * # # * # $ # @ & $ & & # & ",
"@ @ @     @ $ $ $ & $ @ $ $ $ $ $ # & # # & $ & % # # % # % & # & $ @ = ; * @ & & $ @ @ @   @     . @ @   & ' @ .     $   @ @ &     @ @ @     @ $ @ $ # * @ $ & @ $ $ & $ & @ & & & $   $ $   $ $ @ $ $ % @ * & $ # $ % & $ $ * %   # # * # # % # & # # * $ % $ * @ & # @ @ # $ @ & & & $ $ @ $ # $ $ . @   $ @ & @   & @ * -   @ & & $ # * # # @ - * * $ & & * $   , .   . @ # @   @ # & & @     & . @ @ .   @ $     + . . .   . +   . . . .   @ .   $ = &   & .   $     @   @   $ @ # *           @     . . .   . . . . . . . &   @   .   .       . .   *   .       . . $ $ . . . . . .   + . . . .   . @ @   . $ $ ; *   @ # & $ $ & & # # # * % * # & $ % = -   . # = # & * @ @ # = & $ @ $ # @   $ @ $ $ @ $ # * # $ * % & ' $ - & = & * # & @ $ % = $ % * & # $ $ @   @ @ . $ @ # . .   + . . . . .   #   @ @ # @ @ # * % ; $   +   . ; @       .   .   $ # & # $ $ . + + . . + + + + + . $ @   +   @ $ $ & # $ @ # @ $   . $ @ @   $ @   @   @ $ & # $ & $ $ * % % & $ & $ & $ $ $ @ $ & @ $ & & # $ # # * # * * %       $   @   @     @     $ .         ",
"# # # * * & & # # & & $ & # & & $ @   $ $ @   $ . @ &     .   . . @ & +   @ @ # $ # & & @ @   @ & $   @ @ @ @ % $ @ @ # & & & = @ & & # $ & & @ & # $ - $ # $ @ & # # * @ % % , - % & & $ & @ @ @ @ $ @ * . ;   +       . + . $ . # $ .       @ @ # # $   @ @   $   *   .           . . . + + $ @ @ @ @ @ $   @     @   = & # & @ @   $ # & $ % @ $ & * # & % * + . . + =     .     .   . . .     @ @ @     .   @ $ $   @ .   $   .     . . @ @ $   . . . & @ @ .     @ .   .     @ @ @ & $ @ @ $ $ # @ @ @ @   & @ # @       . . + . + + . @ + + + . @ @ @ . + + + + . .   + + + + + + .   . .   @ @ @ @     . @ , & @ + + . . . . . . . . . . . . + . @ + + .   .   . .   $ $ @ @ @ $ @ * @ % @ @ # @   & $ & $ @ $ $ * . $ * * * $ @ @ # @ . +     .         $ @ .   . . . @ . . & @ $ # & # # & @ @ @ * $ $ $ @ $ *   & $ @ & &   $ & @ $ $ & & & & & # & - # # % & & @ $ & $ @ & # $ @ & & @ # $ @ # * > # # # $ $ $ @ & % # & & # &   @ .   &   @ @         . % * @ $ . . . .   . . . $ . . . . @ .   @ @ $ $ & $ @ % &   & & & $ $ $ $ # $ & & & & & & & ",
"  .       .     @ @     @   @ @ @     $ & & $ = @ *   & $ & # * # - % ; * # * & = > # ; # # & # % - # * % # , % % = # # # * # * & & * # = ; $ # % # = % @ @       . = % @ . . .     . .     @ @   $ @ & & $ # & # $ $ & $ & & # $ * @ @ # & * @ # @ & * % $ & * & @ =   .   . . + . .     . . . . . % & +   @ @ &   . % # $   @ & @ $ $ $ & = # $ , $ # = * * $ $ & & $ # & & @     @ @ @ @ @   @   $ @ @ @ $ * $ & @ $ $ @ @ & $ &   # @ #   @ $ & .       $ & @   . $ .   . . + + @ $   * %   . . .         . @ @ @       & * # & & & & $ @ @ & - & # % % # @ @ & $ $ & * # * * * & $   & $ # @ . . + + + . . & @         .   $ @ @   . $ $ @ @ $ @ @ $ $ & $ $ @ @ & & $ & @ $     * ; % & $   @ # # & = > % % = & # $ & # $ .   @   . . .   . . . .   @   # $     @ @ @ & $ # & % # * % # # % * * - ; $ $ * # & * & * @ =   $ # # & @ & $ # $ @ @ @ $     @ @ $ $ & & * # $ # & & # $ & & $ # * * & &   & # @ # # # % = & % $ & # * # $ * $ * * % # & & $ $ & * $ # - , - * # # @ & $ @ & # $ @   @ @ @ & @ @   $ $ & @ .   @ @     @ @             @ @     ",
"& & & $ & & # & @ @ $ & $ $ & & & # % # % # # & # ; & * * & @   # $ $ & $ # * & $ @ % @ @ @ $ @ & = * * $ . #   #         $     . .   $ .   * & $ @ =     @   @ @ & - # * @ * # # % % # & # * & & @ @ & @ @ ; .   @ . @   $ $ . .             @ & & $ $ & # & & * @ & # = * & $ & & # & * & $ $ # * % * # & $ $ $ $ * > & * & & & & & & & - * # @ % & & * $ @ # + . . .     . + + . . . .       . .       $ &   @ $ * @ $ $     . .   @ @ @ # & @ & $ # & $ * * & @ $ $ & $ $ $ $ @ & $ $ @ @ @ @ $ $ $ $ $ & & & & & $ $ $ & & & $ @ @ $ $ $ # & & & $ $ * $ $ $ $ $ @     . @ @ $ & # * * @ & # $ # = % & $ $ @ $ $ & & $ & $ & # * # # & & @ @ & @ $ & & * $ $   . . @ @ @         . @ @   @ &   @   @ @ $ & @   . & @ @ $ @   . . @ . . @ % . .     @ $ @ $ $   @ @ & & ; =   + + . . . + . . & @ $   . . . .   +     .   $     @   .     .           .     $ $ $ @ @ @ @ @ @ $ $               @ # $ @ . . # .   @     & * % * % % * % # # $ @ $ $ @ @   @         # # & & $ $ # $ & ; @ @ $ & # & * % * % * & % $ $ # # & $ & & & & $ $ & ; @ @ @ $ $ $ $ ",
"* # # & # & & & & % # # # # & & & & $ & # & $ $ @ @ $ # * % # @       ; $   @ & &   # & . . . $ $ $ % % @ $ $ $ # @ $ & # @ $ @ $ # $ % $ & $ @ &   - @ $ @ @ @     # % # & . + . . . . .     @ @ @ @ & @ $ # @ % $ $ & & & # * $ * $ - $ # # # & # # % * % # & & & % .     @ & . . .   +   . . . @ @ . . .   & &       + $ . &   @ @ @ $ * %   $ @     # # & ; . . .   @   .             +   . . + + + . . + + @ @ . . . & $ # $   @ @ & $ & @ $ . &   + + . @ & @ @       .   @ @         .   @ @     .           @ .           . . . . . . . .   . . + . . + . @ * % & & * & . . + + . .   .   .   & ; + . . . .               . .     $       @ @ # $ % - = $ @ & * * # # - - ; & & # * * & & % # # = *     & @ & # & * & # # # # $ $ # > # = & & & # @ $ &     @ @           @       @ $ $ & $ @ @ $ $ $ $ # @ $ & # $ @ $ @ @ @   % &   @   .     $ &   @   @ $ $ & @ @ $ & # % & & # & $ @ $ $ @ @ @ $ $ & & & $ # & $ @ % ; * = = % & = * & # $ # $ & # * * % % % % # & & & = $ $ & & $ @ @ & & @ $ @ # # * & * * # # # & & # $ & & & & # % * # # # * # ",
". . + . + .     . + + + @ . + + + + .     . . $ . .     ; ; ;       # % & $ @ = # # * -       & & $ % * $ & $ & @   + . .   @ . . @ . = . + . . .   # . .     @ @ @ @   # # @ @ @     . . .   @ $ @   % .         @ . . @     . .   .     .   $ @ $ @ $ @ @ @ $ & $ & @ & # & @ & $ & $ $ # % & # & $ # #       . @ + . . . .   . . . . + . & ; # & $ @ @ # * # . . . $ # @ @   @ @   # $     . . . . @ @ # % $ . $ @   . .     ; * $ $ $ & @ . . . . $ . . . .   . @ . .           .     + + .   + .   . . . . . +   . + + . + + . + + . + + + + +   . . . + @ . . @ @   & & $ $     . . .   @     @ # ; @ @ @   @   @ @ $ @ @         @ $ # = - % # . . $ & . . . . .   . . . . + . . . . . + #   & . + .     @ + . +     @ . + @ $ $ & ; ; @ @ $ @ $ * * $     @ @ @ @ @   @ @       .       @ @     .   .             @ @ $ $ & & @ = # & & & & # & & $ & & & $ $ & & & & $ @ @ @ @   @ & @     @ @ * &     @   . + . + + + + . $   $     *     . . . + + +   $ @ @ $ . @ $ $ . . + .   . + . @ . . . . . . . # .   + +   $   + . .   .   . + .   + + + + + ",
"@       .   . + + +   . . + + + . . . . @   .   & .     @ @ -     @ $ #   & $ # & & * %   @   & $ # % * @ @ * @ & &       .   . . + .   . . . . .   $ +   @ $ @   @ . @ @ @ .   . @ $ $ & .     @ $   $   . $   $ @ @ # $   &   @ @   & $   @ # & & $ & & ; $ % & @             $ + . . . + $ + . @   $ @ $ $ * % # & & % % & # # & $ $ & & @ $ @ $ $ @ * # @ @ @ @ @       @ @   . .     . .   .   . &   . . . @   . . + + . @       & * $ & @ . . @ @ . . . + . + +   +   . . .   .     .           $ $ @ $ @ $ @ @ $ @ $ $ $ $ $ $ $ $ $ $ $ $ @ @   @ . + @ @ . .   & . # @ * $     . =   & * $ * # & & @ . . @ @     .       @   . .   % ; @ .   @ . @   . . .   @ . @   @ $ $ $ $ $ @ @ @   & & &         @ - $ $ . @ @   & $ & $ $ @ . . . . + + . . + + + . . .     . .   @     . @ $   @ @ .     @ $ * @ $ # $ @ $ @   . .   . = $   . . + . . . + . . .   . . .   . . .     @ @   . @ @ @ . = #   @ $ # @ $ $ $ * &       @ @ $ $ $   @ @     @ @   $ $     . @ & $ # @ % $ @ @ @         . .   @   . $ & @ . .   . & . + + +     . . .   &   .   . . ",
"* # $ $ & @ @ @ # % # # @   % - % $ & . $ $ @ $ # @ @ > @ @ $ $ $ @ $ # & @ $ $ @ # @ @ = $ $ @ @ @ # # @ & $ & &     @   & $ @   @ $ #   @ @ @ $ # $     @ @ % % = # @ $   &   & * @ & $ .     $ @ & & .     + . @ @   @ .       . .   .     $ & - ; > ; % * = & % & . & * $ . . $ .     & $ $ @ # @ @ $ @ $   & * - & #   $       .   @   .   @ & $ & @ .   & # $ #   & & @ * $ # & & & & $ $ & # $ @ @ &     @       . .     + . . @ * * = $ & # . @   @     @ @ @ & $ * % * $ & $ @   $ & @ & @         @ . . + . @ . . .     .         . . . . $ $ . & # & * % # % # * * & # $ $ $ @ $ * = =   $ @   @ & $ $ @ @ @ $ $ $ @ & @ & $ $ $ & . + . . .     . . @ @ $   @ $ & @ @     . . . . . .     # & & @ @ % @ # % - # # > , ; * % * * & # & $ $ $ $ @     $   .             -     . $ . .     . . @   & $   . + +     + + + . & # ; @       @ & # @ & $ $ $ $ $ $ @ @ @ @ @ @ @ @ & & * @   $   = @     @ @ $   @ &   $   .   @ @ @     .     @   .     .         @     & @ # #   $ @ @ $ $ & & @ & # $ $ $ @ $ @ @ $ $ $ & $ $ $ $ & $ $ $ $ % , $ # ; ; ",
"@ $   @ @ @ $   = * # % & # & $ $ $ # & @ $ & & & & * %   @ * %   &   $   $ $ $   $ # $ , @   @   $ & @ # $ & . * # @ & & & & # $ @ $ $   @ @ @ # & * # @ $ @ $ $ $     $ % = & & & # # $ # # & % @ % & & $ & & # @ $ # & $ $ @ & $ & $ & $ $ $ $ $ $ @ @ $ @ * # , ; & = $ * % = # % = $ . $ & % @ & @ * @ $ $ $ * - & & $ # = & $ $ @ @ @ @ $ $ $ $ $ $     . . #   . . . . . . + . + + + . @   & & @   $ & & * & * # # @ & @ @ # @ # $ % * # * = - % @   # @ $ #   .   @ & . . + + . + . $ & @ .           @ @ $ & # @ @         @ @ $ @ @ @ $ & @ & $ * # & # # # # * # & # * & ; & # % * # # & # $ @ & @ & % # % % > ; - = * # & & # * & % = * # = % & $ $ @ @ & $ * & & * > > $ & & & & $ @   & * # * & @ $ & = * # @ $   . @ & & @ . . + .       .   $ $ $ $ @ $ $ # & $ # $ $ $ @ $ $   @   $ $ . $ *   $ # * & # @ $ $   # # #   @ @ $ $ & # $ @   &   .       @ *     & $ @ $ @ $ & & * % # & = ; ; % # # & # * # % # & *   @ $     @ @   @ @ &       @     & & & # @ = @ @   &   & $ @   $ & # $ $ & * $ & * * & $ * &         =   @     $ # @   @   ",
"' ; $ $ $ $ $ @ @ @ & $ $ $ $ @ & @ $ $ & & $ # & # % $ @ & * & & $ & * @ & $ & * $ @ $   @   @   $ & % * $ % . $       @ # $ @ & # # & . @     @ @ @   @ $   @ @ $ $ & @ * # @ # & & * * & # & & @ =   @ @ $ $ @ $ & $ @ @   $ @ *   @   . . @     @ $   $ @ @ $ $ @   @   & @   @ .   @ &     $ & &   *   @ & $ % # # @ # # & & $ & # X * # $ $ @ @ .   . $ # @ $ @ @ @     @ + . . + + + . + . $ & # . . . . + . . $ . . + + . @   + & @ $ @   . $ $   . . . # % @ @ & @ & & & $ $ $ & $ & % & @ & & # @ . $ @ $ &     @ & # $ @ $       @ * & & * & @ # @ @ # * * & & * # * # # $ $ & # % $ $ @ & $ $ & $ $ $ $ $ * * % % % & # $ @   & @ $ $ * $ @   & @ & $ * @ & @ @ @ @ @ & @ @     @ $ @ @ & # & # $ $   $ & # & # * % $ @ $ # $   . . @ @   @ . - @ @ @ @ % @ % % @ # # # # # & & @   @ $ &   @ & #   $ % # $ $ @ @ @ @ # $ @   $ $ % $ * # & & &   $ & $ &       @ . .   &   @ . . @ . @ $ $ % ; * & * * = & @ # @ # # $ &   @   $ $ $ @ $ @ $ # = & @ @ @       # @ $ $ $ # $ & * @ @ @   . # @ @ & * *   $ $ & & - = & & & & &   @ $ $ $ # & & $ $ ",
"@           @ @ @ @ @   *   @ $ & $ $ # # & $ % & & @   @ ; # - & $ $ * * % % = # $ @ * * * $ $ @ & $ $ @ # & $ # &     . # @ @ $ . . @ @   & $ $ $ @ $ & % = = * # $   . $ &       . . @ @ $ @ @ $ - & $ & @ * & * & % & & $ @ $   @   . @ @ $ & @   . $ # . $ @     @ $ @   @     @ & ; & @ $ .   @ & # $ .   . @ % # # * @ & * % # ; & & $ . @ $ # % & * $ & $ # @ @ @     @ $ @ $   @ @ $ .       $ #     & # # % # * * ; &   . . = = $ * & % $ & * $ * # & @ $   & # * % # $ @ # $ @ & & = .     @ .     @       @ .   & & $ $ + . . + . . . $ @ $ .   $ . . * * $ $ $ % &   & ; # & $ &   &   @ $ % & @ $ # # % * # * # & & & & # & & & @ $ $ # & $ % $ $ @ @ @   * $ & & $ > & $ $ & & * - ; # * @ $ % & $ & & $ @ . @     $ % & * & & # & & $ # $ * $ @ & # # @ # % @   $ @ @ & $ $ $ $ & @ # & & @ . @ & & * # # $ $ @ $ & $ & & & * # % $ $   $ $ # # # % # $ @ @ & $ & # $ $   @ * % @ @ . & % * # * * $ =   $ $ & # @ & $ $ & & @ $ @ & # * * # & $ $ * @ $ & # $ $ $ $ @ @   & $ @ @ @ $ $ @     # & & @ @ @ & & # = $ & . % % & # $ # $ * $ $ & & ",
"' ;   $ $ # # & # & % # @ # @ $ @ @   & * & @ @ #   = $ . . + * + # $ $ = + # @ .     .     . . . . &   # . $ . .   $ @ $ @ . @ @ @ @   @ $ $ @ $ & .   . . . + @   & $ $ & $ *   @   @ *   * @ $ @ $ @ @ $ * & # $ $ @ @ $ @ # &   $ @ @ @ @ & $ $ $ & $ $ # = @ & $ @ % # & # * $   $     & @ @   # @ & $ $ $ & & @ $ $ & @ $ & @ # # # * % & $ & $ $ & & & * $ *     @   @   @   %     $   # # & & & $ & & # = = * % * # *     $ +   $ # $ $ & $ & % $ # $ @ @ # @ $ % & = & &   @ $     * @   @ $   @ @ +   $ @ . . .   & @ . . . @ # & # # # # & & @ # * # @ $ &   $ $ @ @ $ @ # $ @ @   . @   #   @ & & $ = & * & @ @   @ $ & @ @ @   .   @ @ $ @ @ @   $ & @ & $ $   &   #     & @ & $ & & $ & & = * % # & @ @ & * @ @   & = $ $ $ # & $ $ $ # & @ @ @ .     @ $ @   @ # & $ @ # $ & * & # # $ @ $ @ @ $ @ # & * # * & # = ; $ $ $ @ $ # & @ $   $ & @ $ $   . . . @ .     @ @ @ .     & @ @   $ & $ & * % * # = # @ $ * % = & @ $ $ $ @ $   @ @       . . . @ @ $ @   .   + & . @   @     . @ @ @     $ #   . . @ @ . $ @ $ + # * . & % @   . #         ",
"& # # * & & & & & & $ & & * # # # # $ # & & * & & * * $ & & & & & @ @ @ @     @ $ @   # & & @ @ $ & # * # * * # * * $ $ & @ & @ @ $ $ $ & * # # * = * # # $ # # # # * * % * & & * * # # & # & # # # # & & @ $ @ @ $ $ # * * % * * # & * # & * # % & # # # = = ; % % = * $ & & $ $ & * * % # @ $ & & @ @ @ $ & # & * # $ * # # # # * & & & & # * % % % * * $ $ & & # # & & $ & & & # & & $ & & # % % % % * % = % = # # * # # & * # # % # # # & # & # & * & & & $ $ & $ @ @ & & = % # * & # $ & & $ & # & $ # & $ $ $ # # * * & & * # & $ $ & * # # $ @ $ # # & # % * # & $ $ & * # * & * * * # % * = * * = # # * # * * = * & # & # @ @ $ @ @ $ @ $ @ $ $ & & @ & $ $ & $ # & $ @ $ @ $ # & & # @ @ @ @ & & % % # # & $ @ $ $ $ & & * $ @ @ * = * * # & # & # $ $ $ * % @ @ & & & & & & * # # # & # * # @     $ * & & # # # % # @ $ @ $ # # & & $ $ $ $ @ $ & & & # & & & & * # * * % * & # # * # # # & & * * * * $ & # $ $ @ $ & & $         @ $ $ @ $ @ $ # # * $ & # & # $ $ % * = * * & & & $ & & @ @ @ @ & & & & & & $ & & & $ & $ $ & @ @ & $ $ $ & $ & & # ",
"z z z y y z z y y y B B z y z y y x y z y z y y y -.x y z z z y y B B B z B B B z B -.-.z B B -.B z B B z z y z y z B B B -.-.-.-.-.-.M M -.B B z y z z B B B B -.B y y z B z z B M M -.B B M K M -.M M M H H H K M M -.z z y y z z B z z B B B y -.K M G G G H F M M M -.M M -.-.-.z z z z K M B -.B B B -.M K B -.-.H -.H -.M B -.M -.-.M -.-.-.M -.M M -.B -.B M -.B B -.M B -.B M M K H B -.H K -.M B B z -.B M -.-.M M -.M H B z z K M M -.K K K K M B -.z z z y -.M -.-.-.-.M K B B B -.M K K M M M -.M M -.B z z M -.-.M B -.y z z B -.-.B B B B z z -.-.B M B z -.B -.-.B B B -.z y y z z -.M z y B B B y z z z -.B y y y B B z z y z z y z z y x y z y B z z B B z y B B -.B B z y x x x A x x y A y z x B y z y -.z z B B y B z B y y z y B B z y z z z x y y A A ;.A x A A A y x x y z A y B B B B z z B z z y y y z B z y z y x x y y x x x y x x y x y y x x z y x y y y B y z y x -.z y y x y z y B z z B z B z B z B -.-.B -.-.B z z z z y y x x B B y y z B z y x y ;.A A x x x x A x y x x x x z x x x x y y y y z -.z x y y z z y y y x y z B ",
"} } } 6 2 } } } } } } } } } 2 7 } } 7 2 3 7 6 } | 8 7 6 6 6 } 6 6 2 6 7 7 } 6 2 2 } 6 | 6 } } } 6 } } 6 7 7 5 5 5 5 7 5 5 5 7 7 6 6 6 6 6 7 7 7 7 7 } 7 6 } } } 2 2 } } 2 } 7 7 7 7 7 7 5 } } 7 6 7 4 3 3 5 5 7 7 7 5 5 5 7 7 6 6 6 6 } } 2 6 } 7 2 2 2 2 } 6 | | } } 7 3 4 3 7 3 l l 5 3 4 } 8 6 6 5 5 7 7 } 7 } 5 } 6 } } } 6 5 7 } 7 6 6 7 7 6 6 } } } 7 5 7 7 7 } } 6 } 7 7 7 } 5 3 7 5 7 7 6 } 7 6 6 7 5 3 7 5 } 7 4 3 5 7 5 5 } 7 3 4 7 5 5 } 7 | 7 3 3 5 5 } 5 3 7 5 7 7 6 } 6 3 2 7 5 7 5 7 7 7 7 7 7 7 7 7 5 5 } 7 5 5 5 } 7 5 5 5 5 5 7 5 7 } 7 7 } 6 2 2 2 7 7 7 } } 7 7 } } } 5 5 6 6 6 2 2 6 } 6 2 6 } 7 7 6 2 } } 6 6 6 } 6 2 2 2 2 2 6 6 6 2 6 2 | 2 2 6 6 6 } 6 7 6 2 } 7 } } } 7 7 } 6 2 6 6 } 2 8 | | 2 | 1 2 | 1 2 6 6 | 2 2 | 2 | 1 2 6 6 6 2 6 6 2 6 2 6 } 7 7 7 5 } 6 } | 6 } | 1 9 8 2 2 2 2 6 6 6 6 } 2 8 6 2 6 } } 2 2 } 6 6 6 6 6 } } 6 } } 2 6 6 } } 7 } 6 2 } } 6 } 6 6 2 2 2 | 2 6 2 2 6 6 2 6 6 6 2 6 2 2 2 6 6 2 2 6 2 6 6 6 6 8 2 6 2 6 } 2 2 6 | 6 } } 7 } } } 7 } } } } 7 } 7 } } 6 } 6 6 6 6 2 2 } 2 2 6 6 6 } 6 } } } } } 6 ",
"B B z -.B -.-.-.M K K K M -.-.K M M M M M M B K B B M -.-.-.B -.-.M K F G F M -.M K M M M M M M K M K H M -.M M M M M M M M -.K K H K -.-.M -.-.-.M -.H K M M K H M M M M M M H H K K H K H H G M H G H H H H H H K H H H M M K M -.M K M M K K K K K H G G F F K G F G G H K M K H H H H H I I H H H G H G H K H K M M M M M M H F F F G H H H H F H H H H H H H G H H F F G G G G F G G G F F G G H H H K G G F F G G I G H K F G K G F G H H F G I F I G G G G G I E H H G H M K M K K H G F F F G G G F H H H G G G H H H H K H K K K M K K H H K K K K K M B B -.M M M M K H H H K H H H H K M M H K H M K K K K K K K H H K K H H K K K M -.M M -.B -.-.B B z B B B B B -.-.B B B B B z z z B z z z B K M M B B z z y B z y x B B -.-.B y y z B B y B -.B B B B -.B B z B -.-.B B K -.M M -.-.B B z z B -.-.B -.-.-.-.-.B y z z z M z B -.B -.z z z z B B -.M B z B -.B B B z z z z B z y y y z z z z B B -.-.B -.B B -.z -.-.-.-.M H H K M M -.-.-.-.M B M -.M M K M M M M -.M M M M -.M M M -.K K M -.M -.B -.-.-.-.-.-.B -.B B B B K M -.B -.-.B B B -.",
"Y Y Z Y Y Y Z Z Z C Z Z C Y Y Z Z Z Z Z Z Y Y Y Y D D Y Y Y Y Y D D C Z Y D Y Y Z Y Y D Y Y Y Y D D Y Y Y Y Y Z Y Y Z Z Z Z Z Y D D Y Y Y D D D D Y D L J J J L L J J J L L D L D D D D D D D L Y Y Y Y Y Y Z Z Z Y Y D D D D D D L D Y Y Y Y D L L L D D Y u Y L Y Y Y C Z Y L L L D D J E Z Y I J L L L L L L D L L D L D D D D Y Z L Y Y D L L L L L L Y Y Y D D Y Y D L L L L L J L J J J L E I E E E E E L J J J L J L L L E E J J J J J J L D D D L Y Z Y Y D D Y Y L D D D D L D D Y Y Z Z Z Z Z Y Y Y Y Y Y Z Z Z Z C Z Z Y Y Z Z Y Y Y Y Y Y L D D D E J J J L L D D D D Y D L D Y Z Y D D L L D Y D D Y Y Z Z C Z Y Z Z Z Z Y Z Z Z Z Z Z Z Z Z C Z Y Y Z Y Y Y Y Z Z Z Z Y Y Y Z Y Y Y Y Y Z Y Z Y Y D Y Y D Y Y u Y Z Z Y D C C C C Y Y Y D Y Y Z u C Z Z Z Z Z Z C C C Z Y Y C Z Z Z Z D D Y Y Z C C C C C C C C Z Z Z Z Z Y D Y Y Y Y Z Y Y Z Y Y D Y Z Z Z Z Z Z Z Z Y Y Y Y Y D D D D D D D D D Y C Z D D Y Y Y Y Y Y Y C Z Z Z Y Z C D D D Y D Z D D D Y D L L D Y Y Y Z Y Z Z Z Z Z u u C C Z Y Y Y Y Y Y Y Y Y Y Y Y D Y Y Y Y D D D D D Y Y ",
"1 1 1 1 1 1 9 1 1 1 1 1 1 1 8 1 1 1 8 8 1 8 8 9 8 1 8 8 8 8 8 8 8 1 1 8 8 8 8 8 8 8 8 8 8 8 8 8 8 8 8 8 8 8 8 8 8 8 8 1 9 1 1 1 9 9 1 | 2 2 | | | | | | 8 8 8 8 8 8 8 | | | | | | | | | | 8 8 | | 8 8 8 8 1 9 9 1 8 8 8 8 8 8 8 8 8 8 8 8 8 | 8 8 8 | 8 8 1 8 | | | | 1 8 8 1 8 | | 8 8 | 1 0 1 8 | | | | | 1 1 8 8 8 1 1 1 1 8 8 8 8 | | 8 8 | | | 8 | 2 | | | | | | | | | | | | | | | | 8 | | 2 2 2 2 2 2 | | | | | | 8 | | 8 8 8 | 2 2 | 2 8 8 8 8 8 8 8 8 8 8 8 8 8 8 | | | | | | | | | | | | | | | | | 8 8 8 | | 8 | | 8 | 8 | | | | 8 1 1 1 1 1 1 9 1 8 | 8 8 8 8 8 8 8 8 8 1 1 1 9 9 9 1 8 8 8 8 8 1 8 8 8 9 9 9 9 9 1 1 8 8 8 8 8 8 8 8 8 | | | | | 8 8 8 1 1 8 8 8 9 8 8 8 8 8 8 1 8 8 1 1 8 8 8 1 1 1 1 1 1 | | | 8 | | | 2 | 8 8 8 8 9 1 | | | | 8 9 1 1 1 1 9 0 0 0 0 9 9 9 9 9 9 1 1 1 | 8 | 8 8 8 8 | | | 8 8 1 1 1 8 8 8 1 1 1 1 1 1 1 1 1 9 1 1 1 8 1 9 9 1 1 1 8 8 8 1 9 8 8 8 8 8 1 8 8 8 8 8 1 9 9 1 8 8 8 8 8 8 8 8 1 1 1 1 1 1 1 8 8 1 8 8 9 0 1 8 1 1 8 | | | | | | 8 | | | | 8 1 1 8 1 1 1 1 8 1 1 1 1 8 8 8 8 1 1 9 1 1 1 9 9 1 8 8 1 1 ",
"4 4 4 l l 4 3 4 l l l l l l 4 4 4 4 4 4 4 4 l 4 4 4 4 4 l l 4 l 4 4 4 4 4 4 l l l l l l l 4 l 4 4 4 l l l l l l l 4 4 4 l 4 l l l l l W W W W l 4 4 l l W l l l l l l W W W W l l l W W l W l l l l l W W l 4 l W W l l l W W W W l l l W l l l l l l l 4 l W l l l l l 4 4 4 3 W l l W l 4 4 4 4 4 l l l 4 4 3 4 4 4 l W W W W l 3 l l l l l l l l l 4 l W l 4 W W l W W W W l l W W W l l l W l W W W W W 4 4 l l W W l l l l W l l l l W l 4 4 4 4 4 4 4 4 4 4 l l l 4 4 l 4 l l W W W W W l l W W W W l 4 4 l l l W l 4 l l W W l l l 4 4 4 3 3 4 l l 4 l l 4 4 l W l l l W 4 3 4 4 3 4 4 4 4 4 4 4 4 4 4 4 4 4 4 l l l l 4 l l l l l l l l W W l W l l W l l l 4 4 l l 4 4 l l l l l l l l 4 4 4 4 l l l l l 4 4 4 W W 4 4 4 4 4 4 4 4 4 4 3 4 4 l l 4 4 l 4 4 3 3 5 7 5 5 3 3 3 3 3 3 3 3 3 4 l 4 4 l l l l l l l W W W W W W l l l l l 4 4 4 4 4 4 4 4 4 4 l l 4 4 4 l l l l l l 4 4 4 3 3 3 3 4 4 4 4 4 4 4 4 4 4 4 W W W W l l l 4 4 4 l 4 l 4 4 4 l 4 4 3 3 4 3 3 4 l l l l W l l l l l l l 4 4 4 4 4 4 4 4 4 4 4 4 l l 4 4 3 3 3 4 3 3 3 3 3 3 3 3 7 ",
">.>.,.,.'.).'.>.!.).>.).>.).,.~.,.~.~.{.{.].{.{.~.].^.{.{.{.].^.~.].^.].~.,.{.{.,.{.,.,.).{.).'.'.'.>.).'.'.{.).).>.!.!.).'.{.].^.].~.]./.^.^.(._._.(.(.(.(.(.(.:.(.(._.(._.:.:.(.:./.~.^.^.^.(._.(.(._._.^._./._.:.<.:.:.:.:.(.(.:.(.(.(.(.(.(.[.[.:._.(.:.:._._.].].^.^.^./._.(.(.:.[.<.[.[.[.<.}.<.<.[.:.:.:.[.:.(.(.(.:.(.(.(._./.(.:.(.:.(.:.:.[.<.:._.:.[.(.[.[.:.(.:.(.<.:.[.[.[.<.[.<.[.[.[.<.<.<.:._._.^.^.[.}.:.[.<.<.<.[.[.:.[.}.}.<.:.(.:.[.[.[.[.<.}.}.<.|.[.<.[.(.:.[.[.<.[.<.(.:.(.(.:.:.:.<.:.[.<.<.[.(._.:.(.:.(.:.<.:._./././.^._.:.:.[.(._._./.^./.^.^.^././._./.^././.^.^.~.~.,.{.'.,.{.,.,.{.].{.{.{.{.{.'.,.~.{.{.{.'.,.,.,.'.).).).).).>.).).>.'.).>.).).!.>.).>.>.>.).,.'.>.>.>.>.).).).).).'.,.>.>.>.!.>.1.2.3.2.4.4.4.!.>.'.'.'.).).'.).>.!.4.3.3.4.1.!.>.>.>.!.>.>.>.).).'.'.>.4.3.2.2.4.4.4.1.!.!.>.).).).>.1.2.4.2.3.3.4.1.!.!.).).).'.).>.).>.>.>.>.>.).>.>.1.).1.1.1.!.!.!.!.!.>.!.>.).).'.'.,.'.,.,.{.,.,.,.,.,.'.,.'.,.{.,.'.,.,.).).'.).).'.).'.'.'.).>.>.>.>.!.!.>.).>.).>.>.>.1.!.).1.!.!.!.>.).).>.>.).>.>.).>.).>.>.>.>.>.",
"5.5.6.6.6.6.6.7.7.6.6.6.7.6.6.6.6.6.5.6.6.6.6.6.6.6.6.6.6.6.6.6.6.5.8.8.5.5.8.8.8.5.5.5.5.6.6.7.6.7.7.7.7.6.6.6.6.6.5.6.6.5.5.5.5.5.8.5.8.8.8.8.8.8.8.8.8.8.8.8.9.8.5.5.5.5.8.8.5.5.5.5.5.5.8.8.5.8.8.6.5.6.6.5.5.5.8.8.8.8.9.9.9.9.9.9.9.9.9.8.8.8.8.8.9.8.8.9.8.5.5.5.5.5.5.5.8.8.8.8.8.8.9.9.9.9.9.9.9.9.0.9.9.9.8.8.8.8.5.5.5.5.8.9.9.0.9.9.8.8.8.8.8.8.9.9.9.9.9.9.9.9.0.0.0.0.a.a.a.a.0.0.9.8.8.8.9.8.5.5.5.5.8.8.8.9.9.8.8.8.8.8.8.8.8.8.8.8.9.8.9.9.9.9.9.8.8.8.8.5.5.5.8.9.9.9.9.9.8.8.8.5.5.5.5.8.8.8.9.9.9.9.9.9.9.8.8.8.8.8.8.8.5.8.8.8.8.8.8.5.5.5.5.5.5.6.5.8.8.5.5.5.5.8.8.8.5.5.5.6.6.6.7.6.6.5.8.8.5.5.5.5.5.5.8.8.5.5.5.5.5.5.6.6.6.6.6.6.6.6.6.6.6.5.5.6.6.6.6.5.6.6.6.6.6.5.5.5.5.5.5.5.5.5.5.5.5.5.5.5.5.5.5.6.6.6.6.6.5.6.6.5.5.5.8.5.5.5.5.6.6.6.6.6.6.7.6.6.6.6.6.6.6.5.6.6.6.6.7.7.7.7.6.5.6.7.7.6.6.5.5.5.5.5.8.8.5.5.5.5.5.5.8.5.5.5.5.5.5.5.6.5.5.5.5.6.6.6.6.6.6.6.6.6.6.6.6.6.6.6.6.6.6.5.5.6.6.6.6.6.5.5.5.5.5.5.5.5.5.5.5.5.5.5.5.6.5.5.6.6.6.6.6.6.6.6.6.6.6.6.6.6.6.6.6.6.6.6.6.6.6.6.6.6.6.6.6.6.6.6.6.6.5.5.5.5.5.5.5.5.5.5.",
"b.b.b.b.c.c.d.c.d.d.d.d.d.c.c.c.c.c.c.c.c.c.c.c.c.c.d.d.c.c.c.b.e.e.e.e.e.b.b.c.c.c.c.c.d.d.c.c.b.b.b.b.c.b.b.c.b.c.c.c.c.c.c.b.e.e.e.e.f.f.f.f.e.e.e.e.e.e.e.e.e.e.e.e.e.e.e.e.e.e.e.e.e.b.b.b.b.b.b.b.c.b.b.b.e.b.b.b.e.e.f.f.f.f.f.f.f.e.e.e.e.f.e.f.f.f.f.f.e.e.e.e.e.b.e.e.f.f.f.f.e.e.f.f.f.f.f.f.f.e.e.e.f.f.e.e.e.e.e.e.e.e.e.b.b.e.e.b.e.e.e.e.e.e.e.b.b.b.e.e.e.e.g.f.f.f.f.f.f.f.f.f.f.f.f.f.f.e.e.e.e.b.b.b.e.b.e.e.e.e.e.e.e.e.e.e.e.e.f.e.f.f.f.f.f.e.f.f.e.f.e.e.e.e.b.b.e.e.b.b.b.c.b.e.e.e.e.e.e.e.e.e.e.b.b.b.b.f.f.e.e.e.e.e.e.e.e.e.e.e.b.b.e.b.b.b.c.e.f.b.b.b.e.e.e.b.e.b.e.e.b.b.b.b.b.b.b.e.b.b.b.c.c.c.c.c.c.c.c.c.c.c.d.d.d.c.c.c.c.c.c.c.c.c.c.c.d.d.d.d.d.d.d.d.d.d.c.d.d.d.d.d.d.d.d.d.d.d.d.d.d.d.d.d.d.h.h.h.h.h.h.h.d.d.d.h.h.d.h.d.d.d.d.d.d.d.c.d.d.d.d.c.c.b.b.c.c.d.d.d.d.h.h.h.h.h.h.h.h.d.d.h.h.h.d.d.d.d.h.h.h.h.d.h.h.h.d.d.d.d.h.d.d.d.d.d.d.d.d.d.d.d.d.d.d.c.d.c.d.d.d.d.d.d.d.d.d.d.d.c.d.d.c.c.c.c.c.c.c.c.c.c.c.c.c.c.c.d.c.c.c.c.c.d.d.d.d.d.d.d.d.d.c.c.c.c.c.c.c.c.c.c.c.c.c.c.c.c.c.c.c.c.b.b.b.b.b.e.e.e.e.e.",
"'.'.'.'.).).'.,.'.'.,.,.,.,.'.'.'.'.'.'.'.'.'.'.'.'.'.'.'.'.).'.).'.'.).).'.'.'.'.'.'.'.'.).).).).).).'.'.,.'.'.'.'.'.'.'.'.'.'.'.'.'.'.'.'.'.'.'.'.).).).).).).).).).).>.>.>.).>.>.).).'.).).).).>.>.>.).'.'.'.).).'.'.).).>.>.).).).).).).).).).).).>.>.).>.>.).).).>.>.).).).).).>.>.).).'.).).).).>.>.).).).).).).'.).).>.).>.>.).).).).'.).).).).).).).'.'.).).).).>.>.).).>.).>.>.).).).).).).).).>.>.>.>.>.'.'.).'.>.>.>.>.>.>.).).).).>.).>.>.).).).).>.>.>.).).>.>.>.>.>.).).).>.>.>.>.>.>.>.>.>.).'.).'.).).).).'.'.).>.).).>.).>.>.).>.>.).>.).).).'.'.'.).>.>.'.'.'.'.'.'.'.'.'.'.'.'.'.'.'.,.,.'.'.).).'.'.'.'.'.'.'.'.,.{.,.'.'.'.'.'.,.,.,.,.'.'.,.,.,.,.,.,.,.,.'.'.,.,.,.'.'.'.,.'.'.'.'.'.,.'.'.'.'.'.'.,.,.,.'.'.'.'.'.,.'.,.'.'.'.'.'.'.,.'.,.,.,.,.,.,.{.'.,.'.'.,.,.{.,.'.'.'.'.'.,.,.,.,.,.{.,.,.,.,.{.,.,.,.{.{.,.,.,.,.,.,.,.,.,.,.,.,.,.,.,.,.{.,.,.,.,.,.,.,.,.,.,.{.,.,.,.'.'.'.'.,.,.,.,.,.'.,.,.'.,.'.'.'.{.,.,.,.,.,.'.'.).'.).'.).).'.'.{.{.,.,.,.,.,.'.'.,.,.'.'.,.,.'.'.'.,.'.,.'.'.'.'.'.'.,.'.,.,.'.'.'.'.'.'.'.'.).).'.'.'.",
"j g g w j j w w w w w v w w w j j j g j g j j w j w w w w w w w v v v w w w w v w j j w w w w w w w w w w v v w w w g j j j g j g g g j j w w v v v w j j j j j w w v w v w w w v w w w v v v w v v v v w v w v v v v w j w j j j w w w w w j j w w v v v t v v w v t v v v v v v v w v v v w g v w w w j w w w w v v v w w v v w w v v v v v w w v w w w w j v v v j j g j j j w w w w w j j j j w w w w w j j g w v v v w v v v v v v v v v v v v v v v v v v v v v t v v v v t v v w j v v v v v v v w v v w j j w w v v v v w v v t v t v t t t v v v v v j j j w w w w v w w w v v v v v v t v t v w w w j g g j w w j j w w w w j j j g j j w w w j j w w w w j w w w w w w w w w w w j j j w j j w w w j j j j j j j g g j j g g g g f f g f g g g g g g j j j w w w j j j w w w w w j j j w w j j g j j g g g g j j j j j j w j j j j j j j j j j j w w w w j j j w w w w j j j w w w j j j j j j j j w w j j j j j w w w w j j w j j j j w j j j g w w j v j j w w w w w w w w w j j j j j j g j j j j w w w w w w w w j j w w j w w w w w w w w w w w ",
"c c ;.;.;.A A A ;.;.A x A ;.;.d d d c c c d d d x A A A A ;.d d c ;.x A x A A ;.d d A x x A A A A A ;.d c ;.;.;.d d a c a c c c a b b a a a a c c ;.;.a 0 b a 0 b a a a a a a a a b b b a a b c a b a b b b c d ;.a a a c c d d d ;.c c d c ;.c d ;.A d d d ;.A c A d ;.;.c c d c d c c a d d A ;.;.;.d A ;.d a c c d c d ;.c A a a a b a c a a c A d c ;.c b a d d a d c a a d d ;.d A ;.c c a a a a d c A A c c c c c a c c a c a a a a a a a a c d d c a a c a c c a d a d d ;.b b b b a c ;.A c c d c c c a a a a b d A c a a b a a c a a a a a a d c a a a a c a c c c d c c ;.;.;.A d ;.A x A x A ;.;.d ;.;.;.;.;.;.;.;.d ;.A ;.;.A z y y ;.x x x y ;.A x A A ;.;.;.y A A A A ;.y A x A A A x x ;.A z y x A A B z y A A A A A A ;.;.B y x A ;.;.;.A ;.;.;.A ;.A x x A A ;.A A x A x A A A A ;.A ;.A x B y y A ;.d d d A ;.d d A ;.A A A x x x y x x y z z ;.x A ;.A A A A x A ;.A A A A A ;.;.d A ;.;.;.d ;.;.A d A d ;.;.;.d ;.A A A ;.x d A A d ;.d A d d y ;.d d d ;.;.;.;.;.A d d d d ;.d ;.;.A x ;.d A ;.d ;.;.;.;.;.d ;.;.A A A ;.;.A ;.x A ;.;.d ;.",
"# # $ & & $ & & $ $ $ $ @ @ $ @ $ @ @ $ $ $ $ @ $ @   @ @ @ @ $ # &     . .   $ $ $ @ @ & $ $ $ @ @ @ @ $ @ @ $ % * % * = $ * * ; = % % = = & * $ & & & # & & * $ $ $ $ @ @ @ $ @       @ $     @ @ $ @ @ @ $ #   $ @ @ @ @ @ @ $ & # $ & * & @ @ @ @ * & & # $ @ $ & & $   $ $ $ & @ # $ & & & $ # & $ $ @     . @ @ @ . @ @     @ @ $ $ @ @ $ @ @ $ % & # $ @   @ @   @ @ $ @ & # * & & @ @ @ $ & # * %   .   . # $ # @ @ @ @ @ @ @ @ @ @ @ @ @   . .   @   @   @   @ @ * $ @ @ & & $ $ $ @ & @   @ @ @ @ @   @ & $ # @ @ @ @ $ @ @ @ @ @ $ @ @ @ $ $ $ @ $ @ $ $ @ @       @ @ @ @     @     & & $ * # $ $ & & @ $ @ @   & * $ & * ; % * * * * * # # = # # # # $ $ @ & $ & & $ $ * # & # $ $ # & * ; % & & $ & $ $ $ $ $ @ $ @ @   $ * #   @ @ @ $ & $ & $ $ $ $ & $ * & & $ & & $ & & # $ & & & $ & $ & $ $ $ & # # # # # # # * % # & & # * # $ & # * # # % % * * # & & # # & $ & & # # % # & & & & * $ $ # = & # % & $ $ $ $ # & $ & $ $ # % # $ # & & & # $ & $ # # & & $ $ & # $ & $ & & $ $ $ & & & # * # # # $ @ & & & $ & $ @ $ @ % $ $ # & & & & & & ",
"* & ; # # * $   & % & # = # & $ & & # & & & * $ $ & & @     @ # @ @     @ $ $ $ $ $ $ # $ $ $ @ $ @ @ @ # * #     $ @   . @ @ $ @ & $ @ @ $ & & & $ $ $ $     + . . .     @ @     # * # @ @ & $ # $ @ $ @ & $ * * # & & & # $ $ & $ @ $ * & $ & @ $ $ $ $ * # * % ; # , # * * - = ' # # & & & $ @ $   . * % @ $ # $     @   $ $     @ @ # @ % @ @ @   @ & $   @   # $ # @ & # & @     & & + .     #   . & @ & .   $   = .     . .   & @ . .   & $ . .             . . & $ * @ . . . .   @ . . .   @ @     $ $ @ $ $ & * $ &     @ @   $ @ @ @     @ # @ $ @ @   $ @ @ $     & @     . @ # & % = * & * $ # * # * # & $ # #   @ # & = $ @   & * * $ & * * $ = $ $ $ @ & * &   @ $ @ # %   ; & $ @ $ & #   @ ; ; * # # & $ & $ & # - ; % % * # & $ $ $ @ & & = # $ @ & @ @ & @ @ $ $ $ & $ # & & $ @ # & @ $ $ $ $ & @ & & . @ # $ $ # & # # * * # * $ & $ $ & $ # ; $ # @ # * & % $   * @ & @ # $ & $ * $ @ # % @   * # &   . . . . + . . .       .   .   .   @   # @ $ $ $ $ @ $ $ % # & * # & # * # & $ & & $ & % % & $ * * & & & # * $ & $ = & # & = # & & # & ",
"@   @ @ $   # . + . . + . .   . + + + + + . . .         @ @ @   $ $ & & $ $ @ @ @   . $   .   . . . . . * & +   + . . . + + .   @ @ @     . @   @ % .   @ $ $ $ * * $ @ &     $ @ @ . . . @ $ @ & @ & @ # $ @       @ & & $ # # # $ $ @ @ * & & & # * = # @ $       = # # % * @ & % * % & $ @   @         $ # $ . . . $ . . . + + +   . @ = . . . . . @     . . . . @     . .   . . @ $ - @ .   .     .   $ %   + + @ . + + . +   .     . . % = * . . .   . .   . .   $ @ # . . . . . + + + .   .   . . . .   . . @ $ # @   @ @ & & & & # $ $ $ & $ & $ @ # & @ # $ $ & @ @   @   .   @ & $ # = & * & & $ .   $ @ @ % # & & # ; ; @ # # & $ $ $ % * # & # ; % # # # $ & # # & # % & $ $ & @ & # & = # $ & * # $ @   .   # $ - * $ $ @ # . . .   @ @   .   @ # # $ $ & $ $ @   @   @ @ $ $ % . .   @ @ . . . . +     . . & . + + + . . . . . . .   . . . . &   $ .     . @   % $ $ $ &   .   . . . &   + + . @ + . . & + . @ & $ $ & $ & $ # & & # # # & % # $ $ * & & % * % & @ $ & $ @   $ @ @ $ & @ $ & $ # & $ .   $ $ $ $   $ . @ @ $ # @ . $ . * *   + + + ",
"+ + @ $ &   @ @ # $ . @ @ #   . . . + + + + . + + + + + . . . . . . . . . . . . . . . @ + . . . . . + + . . . . . . . . . . . .       @ $ & & # * & & & & # & $ $ & & $   @   .   @       @ @   $   @   @ @         . . + + + + . . .       * @ @     @       @   $ @ @ # & & * * > * @ @ $ & . $ . + . .   @   . @   . @ &   . . . .     @ @ . . @ $ @   .     @ &   @ & @   @ $ & $ & # % @ @ & & & ; & ; * $ @ @ $ @ $ & * = * * ; = # % # * * * * = > * # & # # & & * * @ $ & @ $ @ $ $ & @ & $ $ @ @ @ $ @ @   @ . .         . .     @ @     . @       $   $ & $     $ $ $ @ & @ @   @ &   . .   . & = = = * $ $ $ * > % - * @ # = > % + + . . + . + . & * # = # # > % $ # % @ $ # $ @ @ @   $ .     . . * $ # % % @   @ # * % - @ $ @ $ @ @ # $ $ & @ @ @ & * & & $ @ & @ @     # * % # $ & @   @ @ &     & # # @ & @ @ @ @ $ $ @ @   & @ . .     .   @ .         @ @ @   $   $ @   . . + .   + . + . + + . . .   &       @   . .       .   @ $ @ @ $ $ $ & * $ $ # $ # * % # # & & * # * & & * $ % & $ @ & $ * * * & & # $ = = $ - & @ @   @ + * @ . . . ",
"# # % # = # * & $ & * # @ @ & & $ * * = & & * & @ & * # & $ $ & # $ $ $ & $ $ $ $ & $ @ & # & & $ @ & @ $ & @ $ $     # # $ @     . .     @       @ @ $ & $ @ $ $ @ @ $ @ $   $ @ $ @ @ $ $ $ @ $ & $ $ $ # # # # $ & & # # # # & $ $ ; % &     @ @ @ @ @ $ $ $ $ & $ @ . # $ @ # $ $ & $ & $ & * & $ & # & & $ &   # $ $   @ & - ; @ $ # & # $ @ $ $ $ & @ $ $   $ $ &   @   @ $ # # $ # * & $ @ @ # # * = * # # # $ $ $ $ @ @ % & * @ @ $ $ & & $ $ # $ & $ @ @ & $ # # $ * &     @         @ @ @ $ @ & # & & $ & & $ # $ & $ @ $ @ # & & $ @ @   $ $ @ @ $ $ @       . . . + + .     . . . . . . . $ . .     @     $   $   & @ . . . . . . . . $   @   . .   @ . .   @ @   * ; . . . . . . . . $       . . * * &   @ . $   $ & # & # # & * & & & & & % @ $ @ $ &   @ @   $ @   @ @ * = # $ & @   @ @ @ @     @ @ . . + . . .   . .       @   @ @ @     * $ $ # # & - = & * % = # # # & * $ @ &   $   $ @ @ & $ & $ $ # # # $ & & $ $   $ @ & $ * * @ $ & & # & # ; & % @ @ = * & & % % * & & @   & @ * # # & & # * $ @ $ $ @ $ @ *     .     & $ & = > % % = ",
". .   % * # * # * # * $ $ # % @ # % # @ @     @   . . .         . . . . . . . . . + +   + + @ + + . . .   .         @ @ @ $ $ $ $ $ & & & & & & & # * = = > % $ & & & & % & @ & @ # @ & @ $ @   * * $ # # $ $ $ * # * * % & & $ * * , * @ % # & $ # $ & & $ @ $ & & & @ $   & $ & @ @ @ $ $ @ @ # * $ $ $ @ @ @ @ @ @   $ # ; & & @ $ & *     @ % $ # $ & @ $ $ $   $ $           & & $ & @   . . .   + . . . + . + + + . . & #   @   $   @ @     @   . . . .   . @ @ $   $ # @ $ $     @   & #   $ @ $ @     $ & & $ & & % # $ @ @ $ & & $   & $ $ $ @ @ # & & & $ $ $ $ $ # # & $ @ & $ # & & = = #   $ $ $ $ # % % ; - = # % * ! = # # % # & # # # & # & # # * % * * & & & $ $ @ & # # & # & $ @ $ $ $ & # * *   @ & @ & @       .   .   . .     @ @ .   $ .   . @ . . $ & @ $ & .   . + . . .     . + .         @ $ @ $ @ @ @       @   @   . + + .   $ @ .       $   . @ & * $ # % ; & $ $ * # @ * % $ &     & @   .     . .   .         . .   . . . .         @ . @           . . . . + . $   @ $ @ # . . .   . . @ = @ @ # & & @ $ $ $ # & & $ $ & * # % ",
"@ $       @ $   @ & % & & * & * % = & $ = @ @ @ $ $ $ $ @       . + + . . . . + . .     . .     . . . . . . . . . . . . .     . .               . . . . . . .     . . .   $ . . % . $ . @ & & @ @ @ &       @ @     & # * % # * @ # @   @ . . .   . . + + + . $ @ . . + . . +   . . .   $ @ &     .   . . . . .     @ @ # $ @   @ & & @   $   $ @ @             $ & $ @ $   @ # & & # & * @ @ & $ $ $ % $ $ $ $ $ @   = # * @ $ * & @ & @ $ # @ # $ $ & # & & @ @   $ % $   @           .         . . @ @ . @     . @ @     . . . .   . . . . . . . @ $ $     @ $ . . . . . . . . . .         . . .     @ @   . . .   . . . .             @ $ $   @ .           .       @       @         @ @ @ @       @   $ @ & & & $ $ $ $ & @     & $ @ $   @ @ *   . @ . . .   @ &   # & @ @ . . .   . . .   @   @   . @ @   . . . . . .       @ @ & & % & % # & $ $ # # @ $ $ $ # &   @ @ $ @   #   $ @ & # & & & & $   .     @ @   & &               $ @ @     @ @ @       @ @ @ @ . @ % $ $ .   # $ . @ @ $ @   @ $     . .       $ . . .         $     @ @     @ # & = ",
"+ . + +   @ . . .   . + + + +   $ % & . . . . . .   . @ @ @ $ $ & & & $ $ & & $ @ & $ $ $ $ $ # & $ & $ & $ $ $ $ $ $ $ $ $ & @ $ - # $ $ $ $ $ $ $ & & & # # # # & & # & & $ @ & @ @     . $ * ; & ; $     $ . . . . = , # # . @ $ $ # $ @ @ & $ & # # & # &   & $ $ $ $ $ $ * $ $ $ @ $ @ $ & $ $ @ @ @ $ $ $ @ $ $   $ $ @ $ @         @ & @     & @         .   @ . . . + $ @ $ & & . . . . . . . . . . . .     # = % & $ % =   . . @   # .   .     .   + $ . . . . + .   . + + . $ @ $ @ $ & * $ $     # @ @   @ & $ $       . .             & & $   @   $       @ @ @     @     @ @ @ @ . . .   $ & @ $ $ @     @   @ .   @ @ @ @ @ $   @   $       $ $ @ @ $ & $ $ $ @ $ $ @ @ @ $ $ $ @ @   @ @ @     & .   . @ @   $   @ $ @         @     . @     @ @ @ # @ @ @ #   @ $ & & $ $ $ $ $ $ $   @   @ @ @ @               .   @ @ @ $   $ $ $ $ #     @ @   @ & . . .     & $   @ $ . $     $ . . . . . . .   . . + . $ @ + + + + + + . + + + + + . . .   @ & &   @ & & $ * @ $ @ & $ @ @   $ #   . * @   $   @ . @ * @ * .   . + + @ @ $ @ @ % . $ * & ; ",
"+ . + $   . + . . .   + + + + + + . . + +   + + + +   . . . . . . . . .       @   @         . . @ . . . . . . .   . .   $ @   $ $ # $     @ @ $         @ @ @ @ @ @     @ @ @ & $ $ $ @ $ $ # @ $ % % & $ & & & @ @ $ . $ @ @ @ $ @   . $ @ $ @     . . . . + +   . + + . + @ + . + + @ & $ @ +   ; + + + + . .   . . $   . . .   . @     * & $ $ $ @ * $ & @ $ @ @ @ * @ @ @   # $ @ $ $   @ $     # & @     $     @ $ & @ @ $       . @     @ @ @     .   &   $   * & &   .   @ @     .   @   .   .   @ % $ $   & * *   @   $ $ # # $ $ & @ @ * $ & $ $ @ $ @   $ @             $ # * @ $ & # * $ @ .       $ @ & $ $ & * * @ @   @ $ @ $ % > @ . . + . . . .     @ . . . . $ @ @ @   . . . . . . . . @ # & -   . . . .   @ . + + + + + + +   + + + . . . + .   .   $ . .   . . . @   $ @     @ & # $ @ @ $ $ @ & @ @ @ &   @ @ @ $ & $ & @ & % # # * * # # $ $ ; & $ $ & @ & $ & $ $ & $ # $   $ # & # * * * @ , & * & @ * & $   @ @ @   @ * & & & $ @ @ @   & $ $   . .   .     .   % #   $   @ $     = & & - $ . + @ $ # ; * @   @ @ , & $ = & @ .   ; - ] ",
". . * @ .   @ $ @ $ # @ & @ * * & * & # # & # $ $ % % * * = * # $ $ # & & $ $ @ # & # # & $ $ $ $ & & $ $ & $ . $ $ @ & # & & $ @ & & * $ = # * # & @ @     @ $ $ % ; % $ $ @ & @ & & $ $ @ @ @ # & $ % @ $   @ @ # $ & * # # % * ; * & & @ $ # = & # % * & $ $ $ $ @     @       @ . @   -   .   $ @ @   $ + . @   . . . + . . .   + . + . . + .   . $ . . . & . @ # @ @   . . = # . @ . & @ @ @ $ $ @ $ $ @ & # % & * $ & $ & % # # $ # $   & & * % % * * # & # @ = = = % % = & * $ $ & % * * $ $ $ $ @ * - = % = = % ; * $ $ & & & * # $ @ & ; & & # % # $ @ @ . @   . $ &   @ $ & $ @ . # * @ @ @ & @   @ @   . .     . . + . . . .   @ .     $   @ . # * & $ & $ @ @ & $ $ $ @ @ @ @ @ $   @     @ ; = & @ $ @ @       & & & & $ @   . $ # $ $ $ @ $ & @ & @ & $ # % @ $ & $ & #   $ . @ $ @   & .   @ @ . $ $ @ @ @ $ $ $ & $ @ @ * % @ ; $ @     @ @ .   # % $ # $ @ $ $ # $ # . @         @ # % & & # % & = $ $ @ @ @     $ $ $ @   @ &       @ & $ * $ # $ & & * - - # @ @ $ @ & % # @ $ @ @   &   * @ @ * & &   $ @ $ @ . + + + % # @ $ . + + . + . . ",
"% # # @ & $ @ $ & $ & & & $ $ * $ @   @ .   . @ @ @ # * # $   @ $ $ # @ & $ $ $ & @   .   .           @ @ @ $ $ $ $ @ @ @   $ & $   @ @ @ @ = # # * @ * * $ @ @     @ $ & & @ . @ . @ @   . .   @ @ @ $ &   @ % # * % = & * &   @ $ @ @   @   .   .   . . . + . @ @ @   $ $ @ @     & & # * ; ; - - = & $ & * % * & @   @ $ @ @ @ $ @   # & @ $ & @   & @ @ $ & $ * * # * # @ $ $ = # @ * * # $ % # $ # % # $ * $ @ # @ $ . @   &   . . + . @ @ $ @ @ % @ * & @ * @ = = $ - % % & $ $ $ # $ $ $ & @ & $ & &   $ $ $ $ @ @ & % % $ $ % $ % #     +     @ + + . + # $ @ & $   @ $ @ @ @ & $ @     .     .     .   . . . + . . .   @ @   @ @   % & $ @   @ &     @ & & @ $ $ $ @ $ @   @ $ @ @ $ $ & $ & @   . = * $ $ %   @ & ; $ & # # % * * & @ & $ & # # & @ $ & $ $ # @ # & % &   @ @ & $ & @ @ @ @   @ $ $       @     . . . . . + + .   * . . + . . .   *   * @ . +     - $ $   % # $ & . .   . . . @ @   .   @ $ & $ @   @ . . .     .   . . & . @   * @ @ & & @ $ $ @ $ * @ # @ @   @ $ $   & & @ $ & $ @ & & & # $ @   @ @ $ $ # @   % & & $ ; $ $ @ @ @ ",
"X X X ! ! ! X X X X ~ X X ] ~ ! X X ! ! ] ] ] ] X X X X ! ! ! ! X X ! X X X X ! ! X X X ! ! X X X ^ ^ ] ] ] ] ~ ~ ~ X X X ! ! ! ) ! X ! ~ ] ] ~ ) ! X ~ X X ] ! X ! ) ) ) ) ! ! ~ ! X ~ ] ~ ~ ] ~ ] ] ] X X ~ X ~ X ~ ] ~ ^ ] / ] ~ ! ' ) ! ) ! ! ! ! ] ~ ! ! ~ ~ ~ ~ ] X X / _ ] ~ ] X X X X X ~ X ] ] X ! X ~ ~ ~ X ~ / _ ] ~ ] ] ~ ] ~ ~ ] ] ^ ^ ] ~ ~ ] ^ X X X ~ ^ ~ ] ^ / ~ ] ] / ^ / ^ _ ] ^ ^ / / / / / / ] ] ^ ] ~ X ] ! ~ ] ~ X ) ' ! X ~ X ! ] ~ ~ ] ] ~ ~ ] ] ~ X ] ] ~ ^ ~ ] ] ^ ] ^ / ~ / ^ ] ^ ] ] ^ ] ~ ! X ~ ~ X ) X ] ^ ] X / ^ ] X X ~ ^ ] ] ] ] X ! X ^ ~ X ~ ~ ! X X X ~ X X ~ ! ! ! ) ! ' ! X ' ' ) ) ) ) ) ! ' ) ! ! X ) ' ! X X X ! ) ' ! X ! ' ! ~ ~ ' , ' ' ' ' ' ) ! ! ~ X ) ! ! ) , ! ) ! ! ) ) ' ! X ) X ! ! ! ) ! X X X ! X , ' , , ' ) ' ' , , , ' X ! ! ) X ! ! ! X X ! ! ! ! ~ X X X ! X ) ) ) ) ! ) X ! ) ) ! ! ! ! ) X ! ) ) ' ' ! ! ! ! X ! , ' , > , , ' ' ' ' ' ' ! ) ) ' ) ' ' ' X ) ! ) ! ) ! ) ) ) ) ) ) ) ! ) ! X ) ~ ~ ~ ! X X ~ X X ~ ~ ~ ~ X ~ X ~ ~ ~ X ! ) ) ! ! ' ) ! ) ! X X ~ ] ] ] X X X ! ) ! ! ! ~ ~ ~ ~ ~ ",
"t s s t t t t v t t t t t t v v t t t t v s s s s s s s s t s t s s s t t t v v w v v t v t t t t s t s t t t t t v v v w w v w v v w w v t v t v v v t t t t t v v v v w v v t v v v w v v v v w w w v v w v v v v t t t t s t t s t t t t t s t t v v s t t v t v v v w w v v v v v v v v t v v v v v v v v v t w v v w t v v v v v v v v t v v v v v v v v v t t t t v v v w j v v w v t t t t v v v t t t v v v t t s t t s t v v w w w w w v v v v w v v t t w w w w w j w v v v v v v t t t t v v v v w v v w w w j w w v v v t v v w j w w v v v v v v t s s v v t t v v v v t t t t t t t s t t v v t w v v v v v v v s s t t v r r m s t s r r r r r t s r s t s r r r s s s s s r r t m m m r r m n m m m r r s r m m m m m r n n m m n n n m n r s m m m m r m r s r m r r s m r r r m m m m m m m m m m m m m r m m m m s r r m r m m m m m r n m m m r m r s s r s s t w s r s s s s s s s s s s t t t s s t t s s s t s s s s s s s s s s s s t t t t s s s s s s s s m r r r m m r m r r r r s s s s s s w t s t t s s s t t t t r t s r r s r s ",
"{.{.{.{.{.{.{.{.~.~.~.~.~.~.~.].^.^.^.^.].~.].].].].].].].].].].].].].].].].].].].~.].~.].].~.].~.~.~.~.,.{.{.{.{.~.~.{.,.,.,.,.,.,.{.{.{.{.{.{.{.~.~.~.~.].~.~.~.~.~.].^.].~.~.~.~.~.~.~.~.~.~.~.~.~.~.].~.~.~.^.~.~.].].].].].^.]./.^.].].].].].].].{.~.~.~.~.{.{.{.{.,.,.~.~.~.~.{.,.,.,.,.~.~.{.~.^.~.^.^.~.{.~.{.].~.,.{.{.].~.~.~.~.{.~.{.{.{.{.~.{.~.{.~.{.{.{.{.{.{.~.~.{.^.^.~.~.~.~.~.~.].].~.~.~.].].].~.~.~.~.{.{.~.~.~.].~.~.~.].~.~.~.~.~.~.~.{.{.{.{.{.~.^.^.].~.~.~.{.{.~.].~.~.~.~.~.~.~.~.].{.{.{.~.~.~.{.{.{.,.,.{.{.~.~.{.{.,.,.{.{.{.~.{.~.~.].~.~.{.{.{.~.~.~.].{.~.~.{.~.~.{.~.{.~.{.{.{.,.~.~.~.~.~.~.].].~.~.~.~.~.{.{.~.].{.{.{.{.{.~.{.{.{.{.{.{.,.,.,.{.{.,.{.{.{.{.~.~.~.{.{.{.~.{.~.~.{.~.~.~.{.{.~.,.,.{.{.,.,.{.,.'.,.,.,.{.~.^.~.{.~.,.,.{.{.{.~.{.,.{.,.{.{.{.{.{.,.{.{.,.,.,.,.,.{.{.~.~.~.{.{.].~.~.~.~.{.~.~.{.{.~.].~.{.,.{.{.^.].~.~.~.].~.~.~.~.{.{.{.{.{.{.{.{.{.{.{.~.~.~.~.{.{.].~.~.~.~.~.~.{.{.{.{.{.{.{.{.{.~.{.{.{.{.,.{.{.{.{.{.{.~.{.,.{.{.~.~.{.{.~.].^.].].].].~.{.~.{.{.{.{.{.].~.{.{.{.{.{.,.,.{.{.{.~.~.~.",
"Q Q N N N Q Q Q Q Q Q Q R R R R R i.i.R i.Q N Q N N Q N N N N N N N N N Q Q Q Q R R Q Q Q Q Q N Q Q Q Q Q Q Q R R R R R R R R R Q N Q Q Q N N Q N N Q R R Q R R Q Q Q R Q N N Q Q Q Q Q N Q N N Q Q Q Q Q Q Q Q Q Q Q Q j.i.R R i.R R R R Q R R i.R Q Q Q Q R R R i.i.i.i.i.i.j.j.i.R R N Q R Q Q R R Q N N O O P P O Q N Q Q R R R R R R Q Q R Q N N Q R j.R R N N N Q Q Q Q Q Q R R Q R Q Q N Q Q Q N Q R Q R i.i.R R Q R R R R R Q Q Q N Q R R Q Q Q Q i.R Q Q Q N N R i.i.i.i.R R R R i.R i.R R R R i.j.R R Q Q Q Q Q Q Q Q N N N N N Q Q N N Q Q Q Q Q Q Q R R R R R R Q R Q Q R R Q R R R R Q R R Q R R R i.i.i.i.i.R R R R Q Q R i.j.j.R R R i.R R R R R Q Q Q Q Q Q Q N Q N N N Q R Q R R R R R N N Q N N N N Q R R R R Q Q N N Q i.i.i.R Q R i.i.i.i.j.i.R R R R R i.i.j.i.i.i.R R i.i.R R i.R i.R R R R R R R R i.i.R i.i.i.i.i.i.i.i.i.i.j.j.k.j.i.i.i.i.j.j.i.i.i.i.R R j.k.R R i.i.i.R R i.R R R R i.R R Q Q i.R R Q Q Q R Q Q N Q Q Q Q Q Q R R Q Q R Q R R R R R R Q R R j.j.j.j.j.i.i.i.i.i.R R R i.i.R R R i.i.i.i.i.j.R Q Q Q N N N Q Q Q Q Q ",
"~.~.].~.~.~.~.~.].].~.{.,.{.~.^.].].^.].].^.].].~.].~.~.~.~.~.~.~.~.].].~.~.~.].].].].].].~.~.~.~.~.~.~.].].].].].].].^.].].].].].].].].^.].^.^.^.].].].].].].].].~.{.{.{.{.{.{.~.{.~.].^.~.~.~.~.].~.].].].].].^.].^.]._./._._././.].^.^._./.^././.^.^.].~.~.~.].].].].].].^././.^.].^.^.^.^.^.].]./.].].].].].~.~.~.~.].^.].~.~.].].].~.~.].].].].].]./././.^.].].].].].^.^.].].].].].]./.].^.].].].].^.^.^.^.^.^.^././.^.^./.^./.].].].^.^.].^.^.^./.^.^./.^.^.^.^.].].^.].].].].].~.].].^.~.].].].^.].].].^.].].].].].].].].].].].].].].].].].~.].~.~.].~.~.~.].~.~.~.~.].].~.~.~.~.~.~.~.~.~.~.].].~.~.~.~.~.~.].~.~.~.~.~.{.{.{.~.~.{.{.{.{.{.{.~.{.{.{.~.{.{.{.,.,.,.,.,.,.,.'.,.,.'.,.'.,.'.'.'.'.'.'.'.'.).'.,.'.'.,.'.'.'.).).'.,.,.'.).).).'.'.'.'.,.'.).'.'.,.,.'.'.'.,.,.{.~.{.~.{.{.,.{.{.,.,.,.{.,.,.,.,.,.,.,.,.,.,.,.,.,.{.,.{.).,.~.{.{.,.,.{.,.~.{.{.~.~.~.{.'.'.'.~.{.{.{.{.{.{.{.~.{.{.~.~.~.{.~.~.~.{.~.{.{.{.{.{.{.~.{.{.{.{.,.{.{.~.~.{.].~.{.~.].].].].~.~.~.].].].].].].].].].~.~.~.~.].].~.~.^.^.].].~.].].].].~.~.~.{.{.{.{.{.~.~.~.",
"l.l.l.l.l.m.m.l.m.m.n.l.l.l.n.o.n.m.l.m.m.l.l.l.l.l.l.l.l.l.l.l.m.m.m.m.m.m.p.p.p.p.p.p.p.p.p.p.p.p.p.p.p.p.p.p.m.p.p.p.p.p.m.m.m.l.l.l.l.l.l.n.n.l.n.n.l.l.l.l.l.l.m.p.p.q.q.q.q.q.q.p.p.p.m.m.m.l.m.m.m.m.m.l.l.m.l.m.m.m.m.m.l.n.l.m.m.m.m.m.m.l.l.l.m.m.m.m.m.m.m.m.l.o.l.l.l.l.m.m.l.n.n.l.p.p.p.p.q.q.q.q.q.q.q.q.p.p.m.l.l.l.l.l.l.l.n.l.l.l.l.m.l.l.m.l.m.l.m.m.m.m.m.p.m.p.p.p.q.p.p.p.q.p.p.p.p.m.m.m.l.n.r.n.n.l.p.m.m.m.m.p.p.p.p.p.p.p.q.q.m.m.m.l.p.p.q.q.s.q.p.p.m.m.m.m.p.p.p.q.p.p.p.p.m.p.m.m.p.p.q.q.p.m.m.m.m.p.q.q.m.l.l.m.m.m.m.m.m.m.p.m.m.l.m.l.l.l.m.m.p.p.m.l.l.l.l.l.l.l.l.l.l.l.l.l.l.l.l.n.o.o.n.n.n.o.o.n.n.n.n.l.l.l.l.m.l.l.l.n.l.l.n.n.n.n.o.o.o.o.o.o.o.o.o.o.o.o.o.o.o.o.o.o.o.o.o.n.n.o.o.o.o.r.r.r.t.u.t.t.t.r.r.r.r.r.r.r.r.r.r.r.t.r.r.r.t.r.r.r.t.v.t.r.r.r.r.r.n.o.o.r.r.t.r.t.t.t.r.o.o.o.o.n.n.l.o.r.r.t.u.t.o.r.r.o.u.t.t.u.t.t.u.u.u.t.t.t.r.n.n.o.r.r.r.t.r.o.r.r.r.r.r.r.r.o.o.o.o.o.o.n.n.l.l.l.l.m.m.m.m.l.l.l.m.l.l.n.n.n.n.n.l.n.o.r.t.t.t.r.r.r.o.o.n.l.n.n.n.n.o.n.n.n.n.n.n.l.n.n.n.n.l.l.l.n.l.l.n.n.l.n.",
"'.,.,.,.,.'.'.'.'.).>.).).).).).).).).).'.).).).'.'.).>.).).).).).).).).).'.'.).>.'.).>.>.>.!.).>.>.!.!.>.>.).>.).>.).).>.).>.).).'.).).).).'.'.'.'.'.'.).).).).).>.>.>.>.!.!.1.1.!.>.>.!.>.>.>.>.).).).).>.>.).).>.>.>.!.>.).>.!.!.!.'.!.!.!.!.1.>.>.>.>.>.>.>.!.!.!.!.!.1.1.>.>.>.>.).>.!.!.1.!.!.!.!.1.!.!.1.1.!.!.1.1.1.!.1.!.!.!.!.!.!.>.>.>.>.>.>.>.!.>.).!.!.!.!.!.!.).>.1.1.1.1.4.4.4.4.4.1.!.>.!.!.>.>.).>.!.1.!.!.!.!.!.!.!.!.1.1.>.!.1.4.4.1.1.!.!.>.!.>.!.!.!.>.>.>.>.>.>.!.>.>.!.!.!.!.!.!.>.).).).>.!.!.).>.>.).).>.>.>.>.>.>.).>.!.!.>.>.).>.>.!.!.>.).).).).).).).).'.,.{.,.,.,.,.,.,.,.{.{.,.,.{.~.].~.~.~.].^.^.^.^.^.^.^.^./.^.].~.~.~.].^.^.^.^./././._._._._._._._._.(.(.(.(.(.(.(._.:.:.:.(._.(.(._.(.(.(._._.(.:.:.(.(.:.:.:.:.(.:.(.:.(.:.(./._._.(.(._._.:.:.:.(._._.:.(._._././._._._./._._._._./.(././._._./././.^././.^././._._./._._././././._./././.^.^./.^././._.^.^.].^.].].].^.].^.].].].^.^.^.].].].^.].].~.~.~.~.~.~.{.{.~.{.~.{.{.{.{.~.].{.{.{.{.,.,.{.{.{.{.{.{.{.{.{.{.{.{.{.{.{.~.~.{.{.{.{.'.'.,.,.'.'.'.'.'.'.,.,.,.,.",
"* # # & # # # * * # & & # # # & & # # % = * # % # = = % * * % * * & & & * & # & # * * % % * & & # % & # & & # * & # # & & & $ # & * % * # * # * * * * # # & & # # * * % & # # * * , , * * % * # * * ; % # & # = # # # # # # * * * # * & # & * # & & % * * * % % = * % - # * * % % = * = # % & * * * % * # * # & * = $ & % * & # # # & # # # & & & & $ $ & % # = % * % = = % & & & * - = = % ' ; - = * % = % ; - % % = * % * * ; > * # % * > - # # # % * * * * * # * # % # # * * # # & & * * * & & & & & & # # * # # # # * * # & & & $ & # # & # % ; ; # * # & * # # & & # & & # & & & % # # # # # # & * # # # * = = % # # # # # # # * * * % > ; = = = = % * * * # # ; = # # # * # * = ; % * # # * % * * % = % = ; = ; = = = % ; * % * * * * % % % ; % % % % % % = ; ; % % % ; % = % % * * * % % % * % % = ; % = % % % % = > = % % % * * * % * * % * % % * * # * # # # * % % * * # * * # # # * * * % % % % * * % % * % % % = % = = * * % % * % * # * * * * * * ; * % = - - ; * * # * # # * # * # # # * * # * # # # * * ; = * # # * % * * * % - = * # * = * & $ % ",
"    @ $ @ # & $ # $ @ @ @   @   + . @ $ $ $ @   . $     . .   @ + . . @ + . @ . . .     . . .       @   . . .   +     @     . . . . +     .           # $ * % * & & $   @     $ = # . & @ @ - ] # . .   = @ & $       @ @     @   . . .   # =   .     &       . .   $   &   $ #     % @   =       . @ @ @ @ @ @ $   . @     $   .     $ $ @   @   @ & @ @     @ $   &   &           @ $ # * $ $   &     @ .   . $ @     . $ . + $ . .   & . @   $ & * @ . . . .   . .     @ @   # * # $ @ @   .     .   .   @   $ @ @   @ $ $ # = * * * @ & & & & . & $ $     & @ $ @ . .   .   .   $   . . + . . $ #   & @ $ @   @ . .     @   . . # % % * * .   +   . @ @ @ . . . + & &   . .   $ @ @ * # @             . @   & & $ $ $ $   * > @ @ ; @ % > & = $   @ @ @ @   @ & $ @   & %   @ $     * & $ @ & $   @ @   & $ @   @   & @ @ $   @ @ @ @ @   $ @   @     + . % $ $ @ # * #       @ @ &     & $ @ $ $ * @ . # = + &     . . . .   $     @ .         @     @ $ ; @ & $   $   . @ @       .     @           .     . . & . . . . & . . . + + +   $ @ @ & @ $   . * ",
"& & @ . @ & - % @ $   .   .           . @ . . . .   # $ & + @       @ #   . . . + . $     . . .       .   . . + .     @ @ @   @ . . .     . . . . + + + + . . + + = > $ @ $ * # $ @ ; = & $ @ $ . @ . .   % $ . . + + + + . . . .     .   @ + @ @ . @   $ = ; * >   & $ @ = $ .   . @ % # & & @     $ @ * # - & # % @ .   . . + + + + + .       @ @   . . . . . .     . .   @ * @ & & & @ $ @ @ $ $ & , % $ & $ * * & # # $ ; # * - ; @ $ = * $ * @ @ ; # $ $   @   $ &   @ @ @   @   . . . + + . + + + + + . $ .   .       . . + . + +   . . .   . $ . . & & $ @ @   . . . .       & + . @   . . + . . + . @ & + @ . . . . + .   @ . @   & . .     & . @ # @ . + @   . # $ @   @ & . . .   # % * * @ @ @ $ # $ . * ;   . . . & # $ $ @ @ $ . .     + + + . + +       * = $ # . &   $ $ @       . .     . .   @ $   @   $ + . + + + + . + + + & $ + . @   @ . @ @ . @ $ & .   #   # @ @ &     $ # $ & $ $ @     @   @       . .   $ . & @   @ $ $ & & $ @ $ $   . $   @ $ . . . .       . .     .   .     . . . . . + . . . . @ @ . . . . . & * # $ .   # & $ # ",
"    $ @ @ @ % & @ . . . . . . . . . . . . + . . . + $ & @ . + $       & . .   .   @   @   . . . . . . . . . . @ + . $ $ @     . .   .   . .   . + . . . . . . . . @ * & $       . . # %   .   + + + + . + + + . .   .   . . . .   . . + $ + . + $ . @ . @ $ @ & & * ; * $ & $       % - # * *   @ $ # .   . % * # @ @ $ $ $ $ $ $ $ $ & & = = % * ; # > = #   . . .   $ . @ , # @ & . + @ . + . .       .   . @   . .   . . $ .   * $ # @ * $ @       @ @   @ @ $ $ @ @ & $ $ $ $ $ # # $ & & & $ $ $ $ @ $ @   & @   .   + + + + . . . . + . .   . . . + .   @ . &   .           & $ .   . @ $ . . . . . .   . . @ . @ .     @ @ .   & $   .   . @ &   @ $ .   @ . .     #     &   . . . + . .   $ @ $ & # $ &   & # .     + .   $ * *   . .   & + # .   @   .     @   = % *   & # $ $   @   @ $ $ $     .   .   & & > . .   @ .             . .   . . . . . . .   @   @   $   $ $ $ ; $ & $ % @   @ @ @         @ $   . . + +   @ . @ . .       @   &   & & $ @ & $ @ & + . . . . + + . . . . + + + + + . . . . . . . . . . .   $ . . @ &   =     @     $ $ & ",
"$   @ $ @ &   + + . + + + . . $ . $ . . + + . + . .   # . + . + @   @ $   $ @       . . @   . + + . . . . . . . + .   . + @   . @   @     .       @   @ @ @ @ @   . .   # @ @ = & @ @ @ & @ @ @ @ @ @     . .   . . . . .   * . + + + .   + . . $   . . & = % * & $ . $ @ & & . @ & #   $ $ $   @ & .     . @ = @         $ @     . .   .   . . + +   + + + . . . .   @ + +   . & ; #     + + + . . @ @ +   . . + + + . . + + . @ # # $ ; ;   - + . + + + + + + + . . . + + . . . . . . . . .               @   $ $ & & @ @ $ @   $ @   @   . . +   $ . . .   . . .   + . . .   . $ + + + + + . . . . + + @ . .     + . .   #   @ . @ $     @ $       . +   @ . . . .   + #   @ & . . . . + . +   @ + + + + + + $ *   . . . . . @   .   @ $ $ $ $ + + . . . .   + .   . @ # & # $ % @ + & & @   . + + + + . . . + +     + . . . . . .     . . . . . . . . .     @ + . @ . + + + + + @ & $ & @ -   .     @ .   # @ @ @ &       . . @ . . . . . . . . . . . +   . . @ @   $ @ $ $ @ @ $ # @ $ & & # & # $ $ $ #     @   .     @   @ .   . $ *   + + + . . . . . . ",
". . +   # $ . + . . & # &       . $ $ . . + + . . % . . + . + $   @ . @ . . .   . . . . . $ . + . . . . . . .   . # . &     . @ . . .   . + . .     . . .     . .   + . & @ &   @ & $   @       @   @ @ @ $ $ @ $ @ @ $ $   # $ @ @ @ & @           @ $ @ $ $ &   . . +   &   @     @ # & @       $ . . . . $ & & .       @ @ $ $ & & # & $ & % * # @ * # $ $ & * & & , # # # ; - * $ @   @ @ @   @ . @   $ @ . .   + . . . . . $   .     @ > $ . . . .   .     @   . . + + + . + + . . . . . . . . .     . $ & .   .             $ @ @ @ @ @ @ @ @   @ @ @ @ @         @ @ $ $ $ @     .       @   @ $   . . + . @   @     . @ # & @     + + . .   .   .   + + + + + + + .   @ . .   . . . $ # # $ & $   .     * * @     . @ * & %   @ @ . .                         @ $ & #   . .       .   @ @       . . + + . + + . + + . . . . . . . . + . . + + . + + . . + . + . $ +   . @ &   = % # #   . . . @ + . . . .   # @ . + + + + $ $ # . . + + . . . . . . # + +   +   & $ . .       . . . . . .   . . . . . . . . . . . . + + . + + # + % + . . + . . . . + . ",
"+ . . . . @       . . @ @ .   . @   & * %   . + % $ @ @ # & . . @   . .   . . . . + . + . . $ . . .   . . . .     - @   $ .   . @ .   . . + . + . . . + . . . + + + + & @ $ . @     $ #   . . . . . . . . . . . . . . & * . .     @ @ $ @ @ & $ $   % $ & $ = @ @ $ $ @ @ . $ $ $   # @ .   . . + . . . . &   & + + + + + + . . . . + . . + . +   @ . . . . . . . . @ .     ; $ & = % + + . . .   . @ . @ . . . . . + + +   + @ = @   &   & & . + . . . + + + . .     + + . . @ + + + . + + + + . . .   . . . . +   + . . . . .       @   . . . .     .       @   @   $ & # # & # $       @   @   . .   @ @     .   @     . # & # & . $ @ @ $ $ $ # $ @ $ $ $ $ $ @ $ @ @ @ @ @ $ $ # $ & & = &   $ @ %   @ @ @ & @     @   $   . .   @ = % @             @   @ @     .     @ . .   @ & @ . . $ # $ + + + + + + + + + . + + + + + + + + + + + + . + + + . . . . . . + + . .   .   * & . @ #     + . . .     . + .     @ . . +       @ @ + .   + . . + + . + $   . . . . ; >   . . . . .     . . . . . . . . . . . . . . + . . .   . $ .   @ . . . .   . . . . . ",
"  . . .   $ . . .   . . . +   @ . + . @ $   + . . # @ @ @ $ . $ . + . + .     . . + + . . + .   + + . . . . . . + + & . @ @ . . + $   + + + . + . . . + . + + . . . & @     @ @ @   & $ # & # * . . . . . . . . . . $ + + + . . . + @ . + . . . + @ + $ & $ $   . . . . + . + & % *   & . . . . + $   . @ + . @ . . + . . $ . . . + + + + . . . . .         . + . .   . .   . . - *   + . . + . . . $ @ .   . . . . . = - .   = $ @ & # $ % @ . . + + . . +   + . . . @   + + . . + . . . . + + + + . . . . . . . . . +     . . . .   .   . . . + .   . . . .   @ @ .   @ . @ @     . . . + . . +   @ . .   . .     . .   . $ $ - # . & @ @ . . . @ . . $ . . . . . $     .             & * $       & # # * @ & @ . + # # @ $ > * $ $ % $ . @ . . . .     .   + + + + . + .     + . . . . . . . + . .   . . . . . . @ * $ . . .   + + + . + + .   . . + + + .     . . . .   @ & & %   + + . $ . .   @ $   @ @ @   @ . @ .   * & . .   $ . . . @ + . . + + + $ @ . . . + % * & . .   . . .   . . . . . . . .   . . . . .   @   + . .   @ + . . + + + + + + . . . ",
"+ + + + + . . + +   . + + . . + + . + + . .     @     + .     + . + + + + . + + + + + + .   . + + + # + + + . + + +   + . + .   . . . . . . . . . + . + . . + + + . @ . . + + +   .   @ . + + @ + . . . + + + + $ $ .   $ + . . .   . + .   .         @ . & * @   .   + + + + . . @   + & . . . . & % * $ & .   .     + + .   . . . + . . . + . + +   +   @ . @ @   . . . .   & . . + + . + + . . @ .     . . . & @   $ . #       . *   & & + + . + . + + . . + . . . . .   . . . + + . . . . +   . + . + . .   . + . +   & $ @   + . + + . @ + . . + . + . +   & @   . . . # . .   . . . . + + + . .   @   + . + + + .   + . . . &   $ . . & + . . . +   . . . . .   + . .   + + . + .   +   $ & & $ * .   = & . . $ @     &   $ $ @ . = $ . . . +   + . &   . + + +   . . .   . . . . . . . . +   . . . + . +   @ @ @ @ . . . . + . & . + + # + + . +   . . .   .   . . +   . .   + . . . $   . . . . . . . .   $ . .   @ @       .   & . . . . . .     .   .   . + . @ @ &   . . $ .     . . . . . .           . .           @ .   @ . . . @   + ; + .       ",
"< : < T V T T V T T U T V T T V S W V T T V U S : ( : V U V U S S S : : S U U U T U T U S U S U U U S U < U U U < < < [ < < < [ < < : : : : S U U T U S S U U S S S S S S U U U S T : : S S S S : : < < : S T V T T W U S V W T T S S T T T T T U : S < < { < ( < < : : S S S S < [ S U < T T T l W T V W U V T V U S V T U T S S U : : : < < < < : < : : S : < < S _ ( ( [ [ < ( : < < S < T T U U T U V W U S < : : < 4 S S : < T : S < S S S U U U V W V T T T S S U S U T T U V U S : S S U V V U U U T T U V : S S U : [ < < U S T T T U U T T U S U U S S S S U T T : S < S U T : W S V V T U S T S : < < [ S ( < ( ( { / ^ { _ _ _ { { < < [ < < ( [ [ ( ( { { { ^ { _ / _ { ( ( _ _ [ { / ] ] ^ / { _ _ { / / _ ( ( [ [ ( _ { ( { S [ : [ ( { _ ( ^ { { ( { { { ( { ( ( ( < { ( { _ { ( { { { ( { ( ( < < [ { ( ( _ { { ( ( ( { ( [ ( ( [ < { < [ [ ( ( < < < [ [ [ [ [ ( ( ( { { { [ [ [ ( ( [ : ( [ [ [ { [ [ ( ( { { { { _ / { ( [ < : < : < < : S < < < : : < ( { : U : : U S S : U U S S : : : : : : : : < S S S S U T : T T U : S U U S U U T U V ",
"g f f g g j g g j j j j j g j g g g g g j j g g j j j j f f f g j g g g g g g g j j j j j j j g g g g g g g g g g g g f f f f f f f g g g j j f g g g g w w e w j f g g j j j j j j g g g g g g f j g g g g j j j w j f v w g e j w j j j g g j g g g j g f g f f f g g g g g g g g g g j j j j w g g j j g f e f j w j j j f f g f f f f e e f e e e f e f g g g g f f g f g g f g g f f f j j j w g w w j g f f g j e f g f f f g e f g j g g j g g j j w j j g g g g g g f g g g f e e f f f g f f f g g g g g h e g g j g g g j f e w j g g j w g h f j g f g g j e e g j f g g g f g f f f f f f g g f g g g f g f g f e e e f e f f f f f f f f e e f f f g f e e e f i h e f e f f e e e h e f f h e e e e e e h e f e f f f e e e f k e f f e e e h h e f e e f f f g f f f f f e f f f e e e g g e e g e f f e e h e f f e e f g f f f f g g f f f e e f f e e e e e f f e e f f g f f g g g g g g g g g g g f e e g e f f g f f f f g f g g g g g f f f f g g j j e j g g g g g g f f f f f f f f f f f f f f g g g g g g g e j g j j w j j g j j j g ",
"7 7 7 7 7 7 7 5 7 } } 7 7 7 7 7 7 7 } } 7 } } } 7 7 6 6 6 } } } 7 7 } 7 } } } } } 7 7 } 7 7 7 } } } 7 } } } } 6 } 7 7 } } } } } 6 6 } } 7 7 } 2 6 } } 6 } } 9 2 6 6 6 6 } } } } } } } } } } } } 6 } } } 6 | 6 } } } } 2 6 } 2 6 2 } 6 6 2 6 } 6 } 7 } 5 7 2 6 5 7 7 } } 7 7 7 } } 7 7 5 7 7 7 7 7 } | } } 6 } 2 2 2 } } } 6 } } } } } } } } } } 6 } 6 2 6 } } } 6 8 6 6 } 2 6 } 7 7 5 5 7 7 7 } } 5 } 7 7 7 } } 7 7 7 6 } 7 7 7 } 7 6 } } 7 7 | 2 } } 6 6 } } } } } 7 5 7 7 } 7 7 } 7 } 7 7 } } } 7 7 } } 7 7 7 } } } } 7 7 } 7 } } 6 8 } } 7 7 } 2 2 | 8 7 7 } 2 2 2 } 2 7 } } } } } 6 } 6 6 6 6 } } } 6 2 } 6 6 2 2 } 7 6 } } } } 6 } 6 6 6 6 2 6 6 6 6 6 2 | 2 2 } } } 6 | 2 6 6 6 2 6 2 2 8 6 6 } 7 } } 6 } } } 2 2 6 6 6 6 6 } 6 2 6 6 8 8 8 | 6 6 6 8 6 6 | 6 2 6 6 6 6 } 6 } 6 } } } } } 6 } | 6 } 6 } } 6 6 } 6 6 6 6 } 2 } 6 } } 6 } } } } } 6 2 6 6 6 6 6 6 6 } } } } } } } } 7 } 2 2 6 } 7 7 } } } } } 6 6 6 6 2 } 6 2 } } } 2 6 } } } 6 } } } } 6 } } } } } } } } } } } } } 7 } } } 7 } 7 } } 7 7 7 7 7 } 7 7 } } } 7 7 7 } 6 7 7 6 } } } 7 7 7 7 } ",
": : : U S : : U U S S U T U S S U T U U S T T U S S < [ S S : : S S : : < < S : : S S : U S : : ( [ : : < : : : T U < : : < S : : : < : S : : S U : : : : T S S : U : S U U S S U U : S S U S S S : S S : < S U U U : S S S : : < : S S S S : U U < < U U : : S < : [ < : < : U U : U : : S U : : U U U T T T U U U S S U U V T S U S : < : S S S U S : : S : : [ < : S S S T W W W U < : : : U V T T V V T U : : : S < < : : : : S : S U U S : S U S S U U S U : S : : : : : T U U U T S S U U : : S S S S S S : [ < S U T U U S T U U T < < S S U : U S U T T S S : : S S U S S : < [ : < < : : : S : : < : : : : S : : [ < < [ [ < : : < : S : [ [ : : : : : : : [ < < [ < S < [ : S S < [ [ [ : < S [ : < : U : < < : < [ [ < < : S < < : U : U T S : S : < [ < [ S [ : < < S : [ S S < : : < < < < < < : : < : < : < S : : S S : : < < : ( : < [ < : : : S T U S : < [ [ < < S : S V U U S S S S S U : : : S < : : : : S S : : : : : [ < : : S S : : S : < : S S S U U T U U S S U T V V U U T T S S : S U S T S S S < S < < : S S S : U S U : : S U S : S ",
"w.x.y.z.A.d.B.h.C.D.E.F.G.f.z.H.c.I.w.J.G.D.y.C.H.K.e.L.M.x.G.F.D.G.N.I.B.b.&.H.O.y.D.P.J.g.A.h.L.Q.g.G.E.E.D.C.H.B.h.R.z.S.T.U.G.w.N.M.R.V.M.h.W.E.E.F.G.g.M.H.d.M.T.X.U.F.O.P.b.Y.w.H.V.y.D.Z.E.U.N.Q.B.h.%.H.O.O.E.U.O.`.z.f.c.L.`.U.E.Z.E.W.d.B.d.Y.L.J.x. + +`.S.B.Y.h.B.c..+E.++Z. +g.Q.V.h.I.T.y.U.E.X.P.b.R.f.h.L.J. +E.Z.D.y.B.V.e.@+d.C.y.F.G.J.f.A.H.B.A.f.P.F.E.E.W.d.B.d.A.L.X.S.D.D.S.W.H.Q.b.L.h.W.F.E.F.G.g.Q.B.h.R.c.N..+ +y.O.d.R.g.h.B.S.U.F.D.G.N.M.L.e.R.h.W.S. +.+`.g.A.V.L.Q.b.P.F.E.D.C.H.Y.V.M.L.y.x.U.D.`.X.L.R.b.B.V.O.F.E.E.U.w.M.h.f.M.f.y..+D.O.W.e.A.f.V.I.J.D.++++F.X.V.V.f.A.b.P.O.Z. +N.g.M.V.H.B.x.F.|.}.|. +w.V.c.z.h.y.S.F.F.J.O.d.I.d.V.f.U.|.<.}.++J.H.d.f.h.J..+E.++P..+w.M.f.h.d.P.++<.<.++.+h.d.g.B.`.U.D.<.E.G.J.d.f.h.B.X.++<.[.}. +g.c.g.L.g.G.P.}.|.W.O.c.L.c.H.`.F.<.[.<.Z.J.h.b.e.d.S.C.E.|.C.W.f.Q.e.d.d..+Z.}.}.Z.W.h.h.f.Q.e.O.C.E.U.O.T.B.b.h.L.N.F.++|.++G.e.H.e.I.d.O.J.E.D.N.S.L.A.H.z.d.P.E.++Z. +w.z.d.c.L.N.W.D.E.C. +f.A.w.h.V.X. +Z.E. +S.M.z.d.%.L.S.S. +.+w.d.@+L.M.R.e.G.F.Z.F.C.H.B.d.A.L.N.S.y.",
"k f q #+G z ;.i Q.x.X.J.Y.[.c x H s g Z T.f.'.J 4.J M x K f.d.W.W.h.g.K x M L 2.E /.H.W.C h t K x a |.Y.y.O.`.Q.h A z F 3.Y g I.b.w u 3.J -.A O Y.N.C.y.R.<.c x H w g Z w.w.).J 4.J B A G e.c.W.W.H.f.G -.G u 1.J _.h.W.Z h s G A a Z.Y.y.C.`.Q.h A B E 4.Y e Q.f.j Z #+E -.x P A.N.W.X.R.}.c x H w e C w.g.'.L 1.L B A G f.c.W.W.c.w.H y K D 2.E ].d.C.u h v G x c |.R.S.X.`.A.P d x G k.Y w M.e.g C 3.I z A e A.`.O.J.R.E.d z G v i Z `.g.^.J 2.Y -.x M T.H.W.W.c.d.I x z E 1.L >.V.S.p g h F B a ^.Y.S.O.S.R.k.;.y H Q p m z.f.P Y 4.I z ;.s z.T.C.X.A.P.;.z H p O D J.g.[.J #+u M x B `.V..+W.f.H.Y x B L !.E '.L.N.m f P F z ;.}.Y.J.O.N.R.3.x B L 1.p e R.c.N u '.Z M z R R.x.C.y.Y.P.z -.E k i m d.g._.Y ~.m K B Z z.c.W.W.H.H.J B H n 1.Y ++b.W.n Q e F -.B J.A.X.W.`.R.N B B Z ,.C i.I.g.e p 1.D -.B >.K.J.W.X.R.E.x z F O f s H.T.~.C ].q -.y C L.c.C.O.V.d.I z K n ).Y Z.H.X.n O f I B y .+Y.y.O.`.Y.P x -.J 4.C h M.w.f q 1.L -.x i.@+N.O.y.@+Z.d z G f h q f.f.,.D !.D -.x F b.d.C.W.h.f.G z H Z 1.J _.H.O.C i j I -.;.|.Y.O..+S.I.e ;.y G 2.Z M G ",
"c c O M Z B z 1 F &.J.A.).5 y z D x !.H A N c Y j F G x d 7 d.f.e.c.} ;.A H F f n ;.t E B 1.A J A y 4 {.Q.J.%.F 1 z -.C G k.y F i ;.i.E n G K b Y #.N.Y.'.2 z A D ;.>.F x Q d Z v F H y A } H.e.b.d.| x y E E Q n ;.v F y 4.y D x A 4 ~.M.J.K.H 0 -.H u F i.z F h d i.I n H -.0 L #.N.Y.'.5 x z D A ,.I x Q c Y w F K x ;.7 d.f.f.c.} y z H F e o A t J B !.x L z y 3 '.Y.S.%.I 8 x y Y -.i.y H i c P H u K z a G &.N.Q./.5 B A J z '.E ;.Q c J h H F z x 5 g.d.f.z.1 d A M E r s z n C x ).y D y y 7 R @+J.%.o 2 y z C x 2.B B P b g D C M y b A K.N.z.E.7 y z L z 1.Y d N A F Q -.E z x 3 x.H.g.I.1 d z G J m w A r q z {.x u M -.3 3.Y.x.K.q 8 -.G n G '.K I j.c Q J C K B 1 J K.T.I.^.5 -.B Z A '.H z 4.A u i H F y A 8 L.c.h.c.| A y E M N p z O J M ).;.Z M B 7 ++M.g.@+I b -.G Z J R z C k A k.-.o G -.9 m &.T.A.!.5 B -.C d '.G z 4.c n k E G y d | L.e.d.g.5 ;.y G M O p x P L H {.y Z M M 3 :.Q.T.&.F 1 -.H C G j.B E h c R K C K B b Z @.x.A.).6 z y L A ).G y R d Z w I G x d 7 h.f.b.c.7 ;.x I E O m ;.v E -.{.-.Z B z 6 ].A.S.#.I 9 z M u H Q I w ",
"5 5 0 q Q o d ;.-.=.U x.4.0 a H k.N K d 2 7 3 8 K e P ;.c 2 Q.o r M.2 a ;.i k.C d 1 5 5 6 c v i.M b | '.J.V $+B a a q #+j y 0 | } 5 ;.p R n a d F *.S w.1.b 0 M j.O M a 6 3 5 1 -.h g c a 6 A.u t B.1 b d P k.u x 0 6 7 b x j N -.a 8 '.y.W *.y ;.c q 3.g B c 7 5 } z r j.p d d K *.: g.3.9 b -.i.N M a | } 5 a M i e d c 2 M.n s B.| ;.;.k 3.u x b 6 5 8 x f i.M 0 8 !.`.U $+-.;.a C #+w y b 5 3 3 0 u N n ;.x z %+W J.].1 0 B 2.2.L b | 5 7 0 B e i A c 2 V.f Y #.0 c ;.e #+p z a 5 7 1 x w i.H b 0 k V.{ $.C c a D #+f B a 7 7 7 0 D N t c d c %+2 ++F.1 b z R k.I a 8 7 3 | z f O x a | g.i.H ` 1 c c v 2.p y 0 5 7 6 A w j.F d 1 O V.< =.E c c C 2.i H b } } 5 a q Q p c d z %+W T.1.0 c -.k.3.G a 2 4 3 0 H O f c d 8 @+p h L.9 c d h 3.Z ;.8 } 5 | A f O B c 9 /.O.7 &+z d x q #+w z a 5 3 7 0 n i.Y a d L %+[ z.N b c K j.Q K ;.2 5 5 c E Q i d c 1 @+Z P b.6 b d e k.Y ;.1 5 5 2 x h R -.d 1 ~.y.l %+x ;.d o 3.g -.x 6 5 5 b o i.u d x I *+U b.4.c a M j.N G d 2 4 5 0 M h f c a } Q.q v B.| a ;.k #+p y 0 9 6 } x h 2.H c c ].N.V =+K ;.c o 4.f x a L ",
"T T 7 | F j.z c 3.O S 8 b.2 d i.j H 1 | 4 | 3 3 } z g q y x b.: < c.A x p Q I d } 3 9 } 4 6 c Z N d 7 H.2 : i.k.d M 4.u z | | 9 7 4 2 9 J 3.y d >.O 3 8 h.2 c i.v K 1 2 3 2 3 4 7 y f C A A g.: : H.;.A n N G 0 7 5 b 8 4 6 b L O a 7 d.2 S 3.Q ;.B 2.u y 6 6 6 } l 7 | F 3.y d !.P T 1 c.| c R v -.8 | 5 2 7 4 7 B h q y A f.< < b.;.y o j.J ;.2 7 b 5 W } A Z i.c 6 c.8 S N #+b x #+u B 6 | 2 5 l } | G #+-.d i.3.S 2 L.} c O i I c 2 3 2 5 4 7 y s o A c B.W 5 w.H z Z #+J x | 7 2 5 W 6 a D i.;.8 N.A l r <.a A 3.p B 2 6 7 7 4 } | K i.H x w (.V 4 Q.8 A h f G 0 6 3 | 5 4 } x r v A 9 I.S S S.F x L j.D ;.7 7 | } l 6 a L R d } `.A T h {.;.y >.m H 1 | 2 } 3 6 8 H k.B a O 4.< 1 c.2 ;.R e D 0 2 4 } 3 5 } M i Z ;.x d.S : I.c A o R I A 7 5 a 6 4 7 ;.q i ;.2 B.} V /.e y K ).q y | 6 | 5 4 } 9 G 3.x d ].i } x T.1 d j.t M 9 | 5 | 5 } } -.i Z A M e.< : L.9 d o R I c 6 5 | 5 l } A u N ;.8 L.2 V >.P d -.4.q B 2 2 2 5 l } 1 H #+y ;.'.P 1 b H.c ;.i.v H b 8 5 2 3 5 } x g C ;.A f.< [ d.c x o i.E d 6 7 0 8 5 } d Z i.d b z.| l j.#+A z 2.u z } 5 c ",
"< < 9 l d e x M x.6 5 l 1.k.;.e Y A } } W 7 3 5 5 8 n E a `.B W W -.f.c J j B } 3 V 7 6 W 9 5 F t a #+#+V l 7 c.y A Q G 1 W 3 4 } l b 4 x i A H f.| 6 4 ,.#+d i D ;.l 7 l } 7 5 3 1 n F a N.z W l F T.A D g -.6 2 } 2 c 3 9 3 G t c k.j.S W 7 c.z y R I 9 3 5 7 8 l b 4 ;.i x G g.6 4 l {.j.A i J d 3 2 l } 5 7 5 1 o E ;.S.-.l W K `.A D g G 2 7 W } | T | } H w A N 2.U W 7 e.B ;.Q G 1 4 5 7 6 V 0 4 a g A x g.2 7 4 2.).d h u -.5 6 W 4 3 4 5 2 C J d J.J 1 0 B h.a G g z | 4 W 4 6 T 8 4 K g d w ^.l } 5 w.L d R F 0 l } l 6 3 1 l b j y ;.c.1 7 l k [.;.t q y 5 6 V 4 5 3 | 6 Y u a P.u 4 4 A h.c H e M 2 5 l 3 | T 9 3 M g x w _.T 7 } e.G x 3.L A 5 7 3 2 W 0 3 d i z x f.} 4 U ,.R y k u G l 7 l 2 7 5 5 8 n E b N.H W l Z S.x C w z 6 7 l 6 1 4 2 7 K s A k.#+V } 1 B.z K #+G b 4 5 5 6 T 0 3 ;.i -.G T.8 1 7 Z.f B Q Y A 3 } W 8 } 6 7 1 t E x e.M W W Y O.d C w B 7 3 W 4 6 V 8 6 G w B 4.3.l 5 2 V.A y i.G b 4 4 } | l 8 l d h d K f.1 0 8 _.#+-.P Y y 3 | 3 | 2 6 7 | o F 0 N.y T V K `.b L j y 6 7 3 7 1 4 9 7 H j x ).4.} 7 6 h.z d R G 9 V T 3 ",
"5 } l 2 8 E A K | b 7 | 1 M a E I | 0 } 8 0 K 5 4 } G M d c b 3 5 1 ;.d M I 1 } } 1 b y 1 W | A F 1 -.9 2 3 1 6 M d E A 4 0 1 1 d K 5 | 8 L ;.F | a } 1 9 G b J E 7 0 6 9 b G 5 4 6 G -.d d 9 5 7 a x ;.F D a 9 0 c H L ;.3 2 ;.F 1 H 8 6 4 1 | K A D y 3 a 9 a A H 5 1 9 D x I 9 c } 8 b G 9 E F 6 0 | b a I 3 3 } F G A ;.b 5 3 0 ;.A H L c } 2 0 d M c W 1 A J b K 9 2 4 0 2 M c L B 3 2 | b d ;.4 8 | L ;.F 8 0 6 9 a F 9 Y D 9 b 8 c b M 5 4 2 K G d x ;.1 1 ;.c A M D d 5 6 b 0 B 0 3 | A J 0 M 9 1 3 0 6 G b E z 4 8 6 0 c K 3 } 2 I z z | b 5 2 0 B 8 H G 6 1 7 1 0 E } 4 7 M M b B 9 } 3 9 a y -.L a 7 } 1 a B 1 l 2 ;.F 8 H | | 3 8 8 I a L z 3 1 2 a d M 4 6 8 L c G 9 | 5 | 0 E 0 L L 9 2 } 1 d L 3 4 6 G z A B 1 5 7 1 G c -.L a 8 6 b x F b 3 | y F 0 J 0 8 7 1 a F ;.u K 7 a 1 a d B 4 | 0 L c E 8 9 } d b C 9 L F } | } 0 c L 5 4 } I B x y 0 5 5 9 M a M D b } 7 1 b -.| l | B E b E b | 5 1 1 H x J x 4 9 | d d H 4 2 1 D A G 1 d 2 ;.d D a E E | c 2 a A L 7 5 2 K -.d c 9 7 5 0 ;.c -.E 8 2 8 a x I c 7 9 x J b F d b 2 b | G x D z 5 1 2 1 ",
"7 } 4 y R c 9 ' -.s -.n J : U d O j M W I 5 } } 9 e F A ' 1 C Y D Y 8 ' x L >.p l 0 c 0 6 } q j ;.S S Y m -.o B ' b d /.r 6 l L 2 } 5 -.3.c 9 ' H t B t Z < U ;.k.h H l J 5 6 6 9 j G x ) | Z D Z q 1 X B Z ).v 5 ;.x d 8 6 u w d : U D p M p -.' c c ^.s 2 l D | 7 7 K #+c b ! H t -.m Z T U ;.R j -.3 E 4 7 2 b N G x ) 1 u D D u 9 ! y E #+q 5 9 b 8 | } C w ;.T U L r -.o K ) 9 d ~.w | V L | 3 3 M i.c b ' z n B o D S : x Q P J 3 E 3 } 2 8 t I z X 8 q p C o b ' x G !.o 3 8 y 9 | 5 D i d 4 : L m B v I ) 8 c ,.s 9 l u 6 } } y i.x ;.' B r G s u W { ;.f O J 3 I 2 2 6 | w u x ~ 7 Z u I u b > x K '.n 4 8 -.b | 5 J e d 4 [ L r z t I X 0 c :.j 0 l D 6 } 7 y N ;.c ) B o M n J U V x N w H 5 H 4 } 6 9 w G z X 9 D L Y D 2 ~ z C 3.r 7 a b 8 0 2 n s x : U J o -.C z ) d A _.w | 3 I 2 | 7 M k c 1 X H n B r q S 4 c 2.g -.3 H 3 7 | 0 f H z ' a q Y u D 8 ~ y Y Q C 5 0 8 8 1 7 q v A < V q o B n K , c ;.^.r | l I | } 5 K i.d 0 X -.s -.w C T V A 1.P I 3 Y 7 } 2 0 i G x ) 1 Z L Z C | ! x D 4.o 3 a d a | } o f c : T u v M w K , 0 c /.r } V V ",
"S S ( 5 o L 6 ^ 9 i < I C { 3 K p a < 7 G [ 2 ( : E C d ( W N l 4 O W < d q J S [ D l W 3 : d n M l _ u K S P b ^ 2 J o l [ B a < b [ 5 m J 6 / b k V E Z { V H n d U 6 J < 8 ( U E C c [ V k W 3 P W < d u J V : n 7 7 } T ;.o z W [ p B [ k 0 ^ 8 E o W ( -.c : 1 [ 7 m E 6 _ b k W I q [ V H o c : 7 I [ 1 [ : J C c < 4 P l 4 O l : ;.C E S { Y l W 4 : d o K 3 < Z K : h b / 6 J n l ( z x : 9 [ 4 n J 8 / c P W K q / V -.q x : l I < 6 ( : F p A ( S O } l R l / b L D : { J 3 V 6 : 9 o -.l / F Y S f c ] } F n 5 ( d B < b { V q D 8 / | j.T d s < U z p z U l Z T } < U F q A [ < i 6 U Q l / 0 D C T [ Z 6 W 7 [ 8 q -.4 _ E E W g c ] 7 F r 3 { d z : 2 _ V p I } ! 2 f : B Y { 4 -.C a S 5 Y : 9 [ S J Y a [ V P U l h T [ d Z J S [ s } 6 4 T z n -.S < p c : i 9 _ 2 J t 5 U G A U 2 ( l p F 5 ^ d t V E J _ W y p 0 < 5 G : 8 _ S J J b ^ U N V 3 e S [ d Y F : [ D V 3 l S d q -.V { n z V O 9 ] 8 I m l _ B a S 8 ( 7 n J 6 / d e V E C ( l K m d T 2 Y S 8 ( T J p a { V P W 4 P U ( c Z E : < u 4 4 6 V d p -.T < n E 3 R a ^ | J n 4 [ { _ ",
"L K y b 0 [.h y 2 ].6 j.E 4 i U.7 D 5 d 2 l a I l L C ~.m : #+I E j.: r ^.Z D l ;.| 7 } F 1 D } P.e W Z i.8 /.8 B k (.a b 0 1 | V B B ;.b |.O z 1 (.9 1.L l e X.7 L 2 x 1 l a E 3 I p ,.o U #+F L j.U r /.Y C 5 -.1 6 2 I 1 u 2 .+f 4 Y i.8 ~.| -.k _.c 9 0 0 8 V M z d 0 |.P z 9 (.0 1.D 4 f W.7 Y 2 y 0 4 d L W L p ~.n S #+F L k.T n {.Z L l ;.8 5 5 G 2 J 6 P.j 4 Z k.8 ^.0 z k [.0 c 1 a 1 W B z c a _.P M 9 (.a 2.C V h C.6 D 5 ;.8 3 0 F W Y J [.v : k.m I >.T q ).t I l A 8 } 7 I 0 I 3 W.f 7 H '.| (.a a e F.2 x 9 c 1 W y G | y >.R J 6 /.;.O v U w D.9 C 3 d 6 4 1 G l Z M |.w < O s K '.T Z 2.f F 4 ;.1 } l H 9 F } G.f 3 G '.1 :.0 ;.P Z.9 ;.0 d 1 l -.-.b d (.O M 9 [.c 2.C 5 f  +| J 4 c 0 4 9 K l E r '.p V 1.L p j.T s ~.D Z l x 1 3 } G 2 Z 0 U.j W m R c /.8 G P ~.y d ;.c | V M A z 1 F.k x x <.b '.D 6 k O.6 J } d 1 4 d G 5 F j >.q V ,.Z s #+S t :.D L W A 9 7 2 F 2 Y 8 P.e W m 2.d _.8 K O /.d 0 0 9 | W K z A 0 }.h x c _.1 1.L 3 i O.} Y 8 A 8 W c J 3 E o '.p : 3.G J j.: r _.Y D l y 9 } } J 9 C 6 J.N W C 2.b /.8 -.P :.a a b 8 6 ",
"7 3 M i p d ( i * B D o - B d x H g m 3 U S l c h r b 5 k ( U s s : ( i 7 a v k 1 V S U 2 p w K y A z ) r D B ; O ( d n i G W U U 4 H P p A [ j.> F q v , I A B H f j 5 W U W A g n 0 5 e / 4 p o V < e 6 a s P 0 3 T V | m w -.z z y > m E M ; k ( c p f M V U U 3 H e q ;.[ R > J C r , L A B G j v 5 V U W ;.h n a } N : W n r 4 [ i } c r i 1 l U V | q t M z ;.K ) t L G > P [ A u f H V U U 3 -.h q A [ j.' I C g ! z -.B K w v 5 T S T 0 w m c | k U [ f v 4 _ O 4 9 s i c 4 U T 2 Z g F z 8 J ; n Y J = P : x u h Y 4 V U 3 M P o c [ k.) z p v ) | E ;.x j e } T S V 9 w s c 0 j W _ t o 6 ! Q l b r k d W U U 6 D v F -.0 J ; s J J = P : z u g I l U U 3 B v u x [ Q % K F s ! -.y M B r t 3 W T V a t p 9 } R ] 3 q o T < f 1 b n f 8 4 U T | o s B K F A ~ v F -.= i.: A p e K l U U 7 H t D y U h > Y M t > C a H H s p 3 V T l d g q b 3 i.~ 7 r w : S P 1 a m f | W U V | q r z B H ;.! g C K > k.[ ;.p f M W U T 5 H f q y [ P ; E D t , D y B G e g 5 W U W c e p c 3 h / l u o S ( f 7 b v i 9 W S T 6 r f F B M F ' g n I > R ( ;.m N t Y F ",
"x 3 c G ,.F b > o 7 z y H : 3 I e O } i.U : : B 9 ].E M ^ F 3 G G 3 H / H E |.6 O 8 : S ;.8 O j I 4 U G K M } o > a G :.H G u S S 5 d E ~.G b , w 9 G F L : 4 I h Q 2 k.T S S M b ^.J M ] G 4 G F 5 M _ K J |.6 3.1 U T M 0 k.j I 3 W H G K } p , a G (.K G Y S S 5 d E ].G b , t 1 K G C U l E h R 2 j.T : S -.b (.E K / F 5 F G 5 G / H E [.| h | : S d 1 P w F 3 : G F M 8 m ' d I (.G K p S : l d G ].F d > g | J J H l 4 F g 2.6 j.U : : y 0 ~.J M _ H 2 L E 4 E X B I E.9 h a S T ;.0 h P I 5 / L B M 0 n , 8 G ,.Z A g T U 4 y B (.F ;.' v } E I c } T F r {.} 4.W : S z 0 ].Z H [ x 8 F I 4 J ! B F  +b k d S U a 0 e k I 7 ( Z M G b t ' 1 I /.Y B o S S 4 A J _.F 0 ' q 8 M H I U l F h 3.8 Q V S S B A }.E -./ G 4 F G 5 ;.{ K D Z.0 O 7 S U x d ).v E 4 3 -.F M 6 Z ) a F Z.F C J S S 6 ;.o ,.G 9 ) n b -.G D ( 7 I R R 9 i.V S U z z :.I z ~ E l I I 6 M { H L E.8 N 7 S U x 0 2.w F V 4 H E E 2 v ' A G |.K E L S U 5 c D ).E b , u 1 H G L : 5 E P i.| 1.W U S M b ^.L -.^ G 4 I H 3 B / K J |.6 Q 2 < S z 8 j.j F 4 l L E D | j , a G :.M l ( { ",
"r J q 3 8 Z G W 2 l z -.T : H D d 4 ;.H M < V P 7 5 F E a 3 / J J _ 3 c E I 5 | y t < < j ;.} x D K U T M K l | V I Z 8 3 z s 3 S x o 3 2 Y F T 9 7 -.M 4 U G u x 7 A J K : V R 3 5 I E b 4 / I I _ 3 a E I 5 | B j [ < P x 5 A L -.U V -.H V | V I D | l A m l : A q W 2 C F T 8 5 B K 7 V M Y y 7 A J H : T Q 7 } E J a 5 ( Z D _ 7 a J I 7 2 x r [ < v ;.3 x D H U 4 z z 4 1 V E Z 1 7 y s 5 < d r 7 8 Y L l 8 5 J G W V M D x 3 d H G [ U P 7 5 F J d 7 ( C q _ } 1 E J 5 6 z f : : s -.5 c D G S 7 z G 1 1 S F Y 1 4 y o 8 S 0 f l | D E 4 1 W D I S W B L B 5 c G Z [ : P 6 7 H J A 3 { I J _ 6 | E L } 6 B h : : p y 3 c Y H U 5 B K 2 9 U I Z 1 4 ;.n 7 : a r l | Y F V 1 W I K V U M L A 4 a D K < T P 4 } E I 9 2 { J L { } b J I 5 } -.r : : g 9 5 y J K l W F D S 0 W E Y 8 5 z i W S G C 4 1 D I T 1 6 G x 7 S G Z A 5 ;.u y < W k 3 } E I 8 2 / L E { 2 c J F } 2 B o [ : w 9 3 y L M U U G E l 9 V I Y 2 l x s l S B C 4 9 Y J U 8 } F -.4 U H Y y 3 y Z G S V N 7 } J J b 3 _ E I / 4 a I F 7 | y j < S P A 5 y Y K T W G E 7 1 l E D 8 5 K ;.a ",
"j q M 8 5 I n y | V 6 5 b 0 Z q 0 l E 7 k T u u z W z t G | 7 9 0 7 1 F s -.W G } n z 8 i B 4 b u D 9 9 } | V | x n J 7 0 z y v { R F 8 6 L n x 8 W d 8 0 1 Y n b l J } O S p n y W M s H | 3 1 1 5 2 G n -.4 F 2 j y 9 k.I 3 d n Y 1 0 1 0 W 1 z q J } 9 y y s ( Q F | | Z p A 0 4 d 1 c 9 Y q a 4 Z 2 j.T u q y W B s G 2 6 b 1 7 | F r K W F | v B | P -.W a n Y 9 d 6 1 V a z n D 8 0 H x t { k H 8 6 Y m -.2 l A 9 1 1 D n a W J 5 e l E o x 4 y r G 2 | d a l 6 H n M W H 9 n F 3 i.M l 9 q Y 0 9 6 a 4 1 d u Y | 2 M d f { e G 0 3 F m z 1 4 d 0 9 8 L p ;.V D 7 h 7 -.m B W y s I 6 6 b b W 2 K r H 3 K 9 p G 3 O -.l 8 u Z 0 0 2 c 4 1 ;.q Z 8 2 M A v ( k E 8 6 L n x 8 V a 8 1 9 D r d T C 2 O T Y p A 3 G s H | 3 x A 7 8 F r -.l F 6 e a 1 h -.T y p J 8 9 c y W 0 A q H 5 0 z I s < R I } 8 q o A 1 4 b 8 a 0 C n c l Z | k : p u A 5 M r M 2 V a c 7 6 G t B V F } t c 0 P K V a o D 8 1 b A W 9 y p J } b x -.m [ j.F | 8 D p A 0 3 0 6 0 9 C n a 3 Z 8 j.T p u z 5 B m H 2 3 | 2 } 8 G n z l G } j z 8 N K 4 0 o Z 9 ;.1 ;.4 b y p G 6 a H 2 5 ",
"g Y a F I G m ,.q 7 w 6 -.'.P K I m 9 6 s p m E b Z I J 4.h 1 K M 0 i ~.H I q -.3 u o o s 6 u F K k 2.B 6 r 4 Z _.u H J u } y n q t a E F H m {.Z W m 4 A ).O M I v 9 6 w o t L d Z H E 3.g 8 M B 1 e '.M G p K 5 q o n j 8 r G K P #+;.7 o 4 Y /.C -.I C 5 x n C t b D I M n >.J l o 4 ;.!.i B F v 0 2 j o s J d Y H I 2.j 2 B y | j '.K F u H 4 q n n t 2 p H M i 3.z 7 o 4 L /.o H J n 2 y p u s c G G G m {.Y l q 5 A 4.N -.F r 0 } w u n E 0 Z H F 2.e 2 d K | w ~.F H u H 5 C r n t 2 C F K f 4.-.3 s V I /.m M I n 6 ;.r p r A M E H q ).u 3 Z | d j.i.-.F r a 3 m u o Y 9 u H H k.k 1 b F } s ].F H Z I 5 D o q m | p K -.f 2.x W u V H {.q B G m } ;.r C t c E H M q !.J W D l c k.i y M s 0 6 w u m I ;.D M E #+s } ;.b 2 t 4.-.K q G 3 Z u q o 6 q B z i O 1 l G V E ].D -.F p 7 K g Z w 0 C -.B r 2.K T Y V ;.2.f y M w 0 8 v C t I y L M I 3.r 6 y b | g ).M G p M 3 p p o r | o M -.i R a 5 Z V L (.C M J n 5 z n u g 0 L G K n ).L 4 r 3 x >.i -.I t 9 8 j n s I ;.C F J 2.e 8 F -.0 i {.H I p -.3 p o m t | m F K N 4.x } t 4 Z [.q H L p } l V ",
"r I r M ;.J m 2.F.P.<.N.P.{.i.Z B 9 ;.s L G I n Y b F p i |.P.F.P.N.(.4.p H a 8 p p G F Y r d -.C t ^.G.U.|.T.|.).f J x 8 F r G H I v M ;.D r 2. +W.++`.W.~.R Z -.9 d t E G I v Y 1 I p h |.G.E.U.y.:.4.p F c 1 u u K K Y r d H m w (.P.G.|.T.++).g J x | M n K K I s B x Z s 2. +P.|.N..+~.R u M 0 A j D G F n L 0 E m i ++G.F.G.S.(.1.o I a 8 p o F F u s c B p t /.P. +}.T.++>.i Y y 8 G t G H I t -.;.q j k. +P.++N.W.].i.Z K 0 d s Y H G p Y 9 H o h |.P.F.D.N.[.>.r I c 1 u o H H L m d -.q s {.U.U.|.g.D.'.h L z 8 K t H H F r H a D r i.F.P.++y.O./.#+u K b a r D G G o o 0 G o e |..+D.D.x.<.).s F d | Z n H H J n d B q t ~.P.U.}.T.Z.).e D B | -.r H K F m B A C t 1.U.G.++y..+^.j.C H 0 c s J H G m L b D t O F.U.E.G.J.[.!.n Y x 1 Y Z K G Z p b I m v }..+D.E.`.Z.].g D z | K r F H I s x y n g )..+U.Z.J.G._.k.p F 0 d f L I F r I a Z r O E.G.E.P.J.[.!.n L ;.1 q u G G Z p a M n v _.G. +++T.++'.j D B 8 G s K K E r z y p v !.U.G.++N.P.~.i.C H b x g J H F r Y a L m i ++G.E.P.J._.4.o F d 1 o u I F Y s ;.-.u v /.U.G.}.g.<.1.j I A 1 E E F ",
"w j g O Q R ).^./.Z.E.F.}.'.).>.N O O j w v v g k i.Q k.].^.[.F.F.|.{.>.>.N O O f v t v v j O k O ,.~.].E.Z.++/.!.!.j.i P e s s s t t P R i.'.^./. +D.D.}.'.).,.R Q i.j w t w j i R Q k.{.].:.D.F.++].'.>.N P O f t t t v g j.2.3.:._._.D.F.Z.^.1.!.R h i e t t t t w O R i.).^./.E.D. +|.{.'.{.k.R N g t t t t h Q Q #+^.^.[.F.D.|.,.>.>.Q O N i w v v j e j.i.i._._./.D.Z.++_.!.'.4.i.j.P w v t v w R j.i.'.^._.E. + +|.'.>.'.i.R R j w v v v e R k.1._.:.}. +F.++].{.,.i.k.k.h j j w j f R R N ,.~.^.F.E.Z.:.>.!.#+P O P w v v v w P Q N 1.~.^.|.E.E.<.).>.).Q R Q g w w w j P i.R k.^._.[.U. +E./.).'.k.j.#+i w w w j f R i.k./._.(. +D.D.(.>.!.3.P N P v v s s w P O N >._.^.Z.F.W.Z.,.{.{.j.R R g w v w g P i.R 3././.[.D.D.++,.>.>.Q i O e v v v w e N P N ~.^.(. +F.F.(.,.~.#+h R O v t t v g Q k.#+]._./.F.F.D.<.!.,.).P N O w v v w w h R O k.]./.}. +U.E.~.'.~.k.j.j.e v t t v f P i O ].]./.D.E.E._.'.).k.j.#+k v s s t w k P O ~.(.].Z.U.D.[.).).,.i.R N w w v v w k i.R #+'.~.(.Z.E.}.'.!.).N O Q f v v v w g k.#+3._./._.E.|.++^.!.>.#+P O k g w ",
"S S T V V l 4 3 5 3 3 3 7 5 4 V T T T S : T U S U U T V l 4 4 3 3 4 4 l V U S U S S S U T V T W 4 3 7 } 6 } } } 7 5 l l V W W T T W V l W T 3 5 3 6 7 7 5 6 3 l T W U T V T V T V U V 4 3 7 7 6 2 7 7 3 3 4 V T T T V W V W V V W 3 5 5 7 5 7 6 7 3 3 4 l W l V V W l 4 3 3 } 6 6 6 } 7 2 3 4 W V V l l W V l l l 4 4 7 7 } 2 2 | 2 6 } 5 l l W W W V W 4 4 l l 4 7 7 7 7 3 1 | 2 3 7 4 l l l 4 l V 4 l l 4 7 7 } 7 } 6 } 6 6 5 5 l l W T W V 4 W l l 4 5 7 6 | | 2 6 } } 5 l l V V T U W W 4 3 7 } 6 2 6 } 8 7 5 5 4 W T V U U S U T T T W 4 5 5 } 7 } } 3 l V V T T T U U U V V W W l 5 7 7 7 6 6 7 } 5 l V l W W W W 4 4 3 3 3 } 2 2 | | 2 2 2 } 7 5 V l W W 4 3 W 3 W 4 5 6 } 6 | 2 | 7 5 3 W l W 4 l W V V V 4 4 7 6 2 | | | | 2 2 7 3 l l l l V V W 4 l 4 5 6 6 | | 8 8 6 6 6 7 3 l 3 l 4 4 3 5 4 W 3 2 | 2 | | 8 1 | 2 7 5 5 3 3 5 l V l 7 3 5 7 6 6 8 8 | } } 7 3 V 3 4 W l l l 3 4 4 7 6 | 2 8 | 8 | 8 6 7 5 4 4 4 T V T T T l W 3 7 6 } 6 } 2 6 5 4 W W T l T V T T W V T l 4 3 5 5 } 5 6 7 3 l V T T T T T V T T T T W l 3 7 7 3 3 5 5 3 W l V l l l ",
"' ' ' ' ' ) ' ' ) ) ) ' ' ' ' , , , ! ) ' , , , ' ' ' ' ) ! ! ! ! ! ! ) ) ' ' ) ' ) ) ) ) ) ' ' ' ) ! ! ! ) ) ) ' ' ' ' , , , ' ' ) ) ' ) ) ) ) ! X ) ~ ! ! ' , , ) ! ) ! , > ' ) X , ! ! ) ) ' ' X ~ ! ' ' ' ) ' ' , , , ' ) ! ! ! ! ' ) ) ) ) ' ' , , ' , , , , , ' ) , ) ' ! ) ) ) ) ! ) ! ! ) ' , ' ' ' ) ' ' , , ' ! ! ) ) ) ! ) ! ) ' ' ! ' ' ' ) , ' ) ) ! ! X ] ] ^ ) ) ) ! ) ~ ! ) ' ' , ' ' ' ' ' ' ) ' ) ' ) ' ) ' ' ' ' ' ! X , , , ) ) ) X X ~ ~ ~ X X X ! ) ' ' , ' , , , ' ' , ' ' ) ! ! ) ! ) ! ! ! ' ' ' , ' ' ' ' ' ' ) ) ) ) ! ! ! ! ! ) ) ' ' , ' , , , , > > , , , , , ' ' ' , ' , , ! , , , , , ' , ' ' ' ) ) ) ) ) ) ! ) ! ' ' , , , , , , , ' ' ' ) ) ) ] ] ~ ] ! X ' ' , , , , , ' , , ' , , ' ' ) X ' ' ' ) , , , , , , > , , , , , ' ' ) ! ! ! ! ! X ~ X ) ! ' ! ) ' ) , ' ) ! , ) ) ) ) ' ' ' ' ) ) ' , ' ) , , ) ) , ) ! , ' ) ) ) ) ) ) ' ' ' , , ' ' ' , , , , ' ' ) ! ! ) ) ) ! ) ) ! ) ~ ! ' ' ' ) ' ' ' ) ! X X X ] ~ ! ~ ! ) ) ' ! ) ! ! ) ' X X X ) ) ! ! ! ~ ! ) ) ) ) ' ' ' ) ' ' ' ' ) X ~ X ~ X ! ) ! ! ' ) ! , , ' , ' ",
"U T T T T U U T U S S U U U S S V U U T U U U T T T T U T T U T T T T T T T T V W V W V T T T T T T T T V T T S S S T U T T T U U S U U U U U U U S : W U V [ < T S : : T U [ < S l [ T S U [ < < [ : < < < < [ < < < < [ < < < : : S < < ( [ [ [ < < : : : < : S : S T 4 S T W : T V V U U T T S S S S : : : S W : : : S S U U S S S S : T S : S S U U U S S : U : : S T V V : S S U S S T U U : S S S S S S S S S S U S U S : : S S U S S S U U U S S S T S U S S S S U U U U S S S S U S S S S U U U U U U S S S S S S U S S S U U U U U S S S U U U U U S S S S S S S S S S U S T U S S S : S S : : : : : : : : < : : : : S : : : : S S : S S < < < ( [ [ < < : : : : S : : < < V V 4 U < < < : T 4 < : < < : : : : < : S < [ [ ( ( [ [ [ [ [ ( < < < : : : : : : S : S S : S : < : U < < S < < S S S < [ < : S < < < < : < S S < < < < : : : S S < < < < : : : : S S S : : S : : : < < : : S : S S U : < : : S U U U U S S S : U S S S S S S U U T V W T S U U U U U U T U V l T U U T U T U U U U U T T T T T T T T U T T U V W V U U T U : V 4 T : S U V ",
"} 6 } } } 7 7 7 7 7 7 } } 7 7 6 } 6 6 6 6 2 6 2 6 6 2 6 6 6 2 6 2 2 6 6 6 2 2 2 6 6 2 2 6 2 2 6 } 6 2 2 6 6 6 7 7 6 6 } 6 6 } } } } } 6 7 } } } 2 } } 6 7 } 7 } 6 6 6 6 6 6 5 } } | } 2 } 6 7 6 7 } 6 6 } } 6 6 6 } } } | 2 2 2 | 8 8 8 8 | 8 8 | 8 | | 2 | 6 2 | | | 8 | | | 8 1 | 8 2 8 | | | 2 | | | 2 6 6 2 8 2 } 6 6 2 2 8 | 2 8 2 | | 2 6 2 6 | 2 2 2 2 6 6 6 } 6 6 2 | | | | 8 8 | 8 2 8 | 8 8 | | 6 | 8 8 | 2 6 2 6 6 2 | 2 2 2 6 | 2 | | 1 1 8 8 8 | | 2 | | 2 2 | | | | 8 | 8 8 | | | | | | 8 8 8 1 8 | | | | | 8 | 8 | | | | | | 8 | 8 8 | 8 | | | 6 | 9 8 8 8 | | 8 8 | 8 8 8 | | | | | | | | | | 8 | | 2 | | 2 | | 8 8 8 8 8 | 2 6 | 2 | 1 | | | 8 | | 8 1 1 9 9 1 8 | 2 2 0 8 8 1 | 9 0 9 8 8 1 9 9 9 9 9 0 0 b | 8 2 | 9 8 2 | 8 1 8 8 1 9 1 9 9 1 9 1 9 8 1 1 9 9 9 1 1 1 1 1 8 | 2 2 } } | | 8 | b 1 1 8 8 | 8 2 8 9 | 8 1 1 1 8 1 8 8 1 8 8 1 1 8 8 8 8 1 8 1 8 8 | 8 | | 2 | 2 2 6 } } 2 2 | 2 | | 8 | | 2 2 | } 2 6 2 | 8 | | 2 2 | 2 8 6 | } 2 | | 6 } | 6 2 } } } } 7 7 } 7 6 6 6 6 2 2 2 2 2 2 } 6 6 2 | 2 6 2 6 6 } 5 7 7 3 7 | 5 7 7 2 ",
".   . . . . . . . . + . . $ @ .   .               . . @   @ @ & @     @   @   . . . .   . . .   @ . + . + .   + . . .   . . . .     @     @   @ .   . @ * @ . & . . .     . & .     @ & &   &   @ $   @     $     @   . .   @ @ $ @ $ & & * & & & @ $ @ $ @ @   @ . . .   . @ . & .   @ &       & @     $   . & $   $ $ $   @ @   $ @ * & @ @     $ @ & @         . @ @ & # $ # @ $ $ $ $ # & & &   . @ @ & @ * & & $ @ @ $     . . @     .     . . . . . . .       .   @   $   . . + .   .   . . . . . +   + . . . . + . + . + . . + . .   .   + . + + + + @ $ $ . . + . . . . . . . . . . . . . + . + . . + + + + + + + . . + . + +   . . + . . . . . . . . . . .   .   . . . @ # * ; @ $ @ $ $ . $   @   @ . . . + . + . @ # # $ & $ $ @   $ @ *   . . . . + . . . . $ $   .     @ . .   .   @ @ &   &   $ $ % @   @     @ $ @ & .   . . + .   @   @   @     . . . . . @     @ $ @       @       @ @ @   . .   @     @ .   . # $ & @ $ .     @   . . .     * * $ . . $ *   & . @   @   $ &   $ . . .   . .         $ @ @   .   @ . &     $ . . @   . $ @   $ ",
"  $ @ @ $   @       &     . . . . . $ @   . . . . . $   $ @ @ . .   $   $ . . .   . .     .   .   @       % &   @ $ . @   . + .     $ @     $ # & * % & = # $ * * * * & * = = % * # % * & & * $ $ @ @ * $ @ @ # $ $ @ $ $ & # % & $ * & - ; ; % & & $ # # $ @ $ & & # = * # * & # $ @ - & . # $ # @ $ @ $ & # * @ # # $ $ & $ @ & @ & # & & & @ # # # $ % # & . # @ $ # @ # . @ .   . . . .   . $ $ # & @ @ @ & $ @ . & $ @ & * . @ @ @ & *   @ * @     . . . .   . .   . . . . .   . . . . . . . .   .     . . . . . . # #   .   . . + @ @ @ @ .   . . # #   @ %   .   @     . .     . + @ . .   . .   . .             . &   & $ # * & @ . . . . @   .   . . . .   @ %   . . . . . +   &   .   . . .     . . @ . @ .   .   $ $ @ % # @ # $ @ $ @ @ $ $   @ * . @ @ @ * . @ + . . $   . + . + . @ $ $ @ * $ + %   # $   @ @   # # * + .   . . . .     $     .   . @ + . @   . . . . . . .   . . . . @ @ #   $ # . #   .   @ @ $ &       @   . . .   @ @ & . $ $ - * @   . & . .   @ $ & &   .   @   @ @ @   . . . @ $ $ & $ & @ @ # # ; % * @ $ @   $ @ $ & # ; ",
"$ @ .   @ .       $ & @ # & $ $ & # # # * * # $ @ & # & & @ $ * * * & & & #   @ @ @ @   @   @ & # $ # # & $ $ $ @ @ & $ % & & $ # & * @ $ @ @ @   & . . & # % $     @ @ # $ % & & # &             @ @ @ @ . @ . $ # @ .     . + . .   .       @ @ @ & $ @   @ @ @ @ & @ @ @ @ & & *   @ @ # # * * & $ & # $ & # & & = * @ @ $ @ & $ $ ; # $ % & % @ . + # &     @     @ $ @   $ $ . . @ # % & &     $ & $ @ % $ +   @ @ #   @ # % @ * & * @     $   #   . . . @ @ @ . . . . . . . . . . . . + + + + + + . . + . . $ .   & & & & . . +     . .   @ . @ . @ . . .   @ .   . . . . . . . . .     .   . .       .   .   .   * & # & $ $ @   @ @ @ @   @ . @ . . . . . . . # = . . + . .   .     @ . @ + . @ $ @ @ @ $     + . . @ . .   $ # . & # & $ @ % @ $ &       $ $ & $ @ . & . @ @   @ $ . .   $ $   # & @   & * * & $ # * @ @ # $ $ . . .   @   $ + + .   . + @ +     . . . . . . . . . . + . . . . % $ @ $ + @ & @ . + . & $       @ & + .             # $ $ * # $ @ $ $ @ $ $ @ $ &   $ $ $ $     $ & $ & $ $ ; > * % # % * * & & @ & # @ @ @ $ = $ @   & ",
"3 3 5 7 5 } 7 6 } 2 7 6 5 7 } 6 } 6 6 6 2 2 2 8 1 8 6 } 2 } 6 } } 6 } } } 6 7 7 7 7 5 7 7 2 | 7 7 7 7 5 5 5 4 5 5 5 5 3 4 l l l 4 4 4 7 7 5 5 5 6 6 5 3 4 3 4 7 5 7 3 3 l l 4 3 3 3 5 5 3 l 3 5 7 3 5 5 5 7 5 7 7 4 3 3 3 5 5 3 3 4 4 l 4 3 4 l l l W 4 4 4 4 3 3 4 4 4 4 4 4 l 4 4 5 W 3 l l W l V V T T V U S T V T S U U S V U T 4 W W W V W 4 4 5 4 3 V S T S U W 5 4 W l l W l 4 4 V l l l l 5 W V l 3 V 4 V V V l l 4 5 4 4 3 W 4 4 5 5 l V V T V V l 3 3 3 4 } l l l l l l l l l l 4 4 4 4 l 4 W W W 7 7 7 5 5 3 4 W V W 4 l 3 W W l V l 4 4 V W 5 4 4 3 3 4 4 4 3 } 3 4 4 3 l 3 7 l 3 5 5 3 5 3 W 4 4 3 7 5 } 7 4 l W l V V T T V T T T T T V V W W W V V V 4 V S 4 T T T T T T V l W 4 4 T T U V V V V V V W l W W l W W l : : S S S [ S U S S V T l l l U : S U T S T T U U T T U V W 4 S S U U W 3 4 l V W l V V U U S S U T T l 5 l l l W l T V V T V T V V W l W W V W V V V V V W l l l 4 l W 4 4 5 3 3 4 l 3 3 4 5 3 3 7 4 7 5 5 3 7 5 7 6 2 } 7 3 4 l 4 5 5 5 3 5 3 7 5 } 6 7 5 5 7 7 7 7 7 7 5 2 | } 5 5 6 2 6 6 6 } } 7 7 5 3 5 7 5 4 7 } } 2 ",
"w.w.g.g.e.e.c.d.h.H.H.V.L.L.B.B.z.z.z.z.z.z.z.M.z.z.z.z.z.z.z.z.B.z.B.B.z.z.z.B.B.L.B.z.z.B.B.B.B.B.B.B.B.B.B.B.B.B.B.B.B.B.B.L.L.B.L.L.L.L.L.L.L.L.L.L.L.L.L.L.L.V.V.V.V.V.V.V.V.V.V.V.V.V.V.V.V.V.V.V.H.V.H.H.H.H.H.H.H.H.H.H.H.H.H.H.H.V.V.L.V.V.V.H.H.H.H.H.h.H.h.H.H.h.H.H.h.H.h.H.h.H.H.h.H.H.h.h.h.h.h.h.h.h.h.h.h.h.h.h.h.h.H.H.h.h.H.H.h.h.h.H.h.H.H.H.H.H.H.H.H.h.h.h.h.h.h.h.H.h.H.h.d.h.h.h.V.H.H.h.H.h.h.H.H.H.h.h.H.H.H.h.H.H.h.H.V.L.H.h.H.h.h.H.h.h.h.h.h.h.h.H.h.h.h.H.h.h.h.d.d.c.c.c.b.b.e.f.g.w.T.`.x.N.N.S.S.N.N.x.`.T.g.f.e.b.e.c.d.d.h.h.h.h.h.V.V.H.V.H.H.H.H.V.H.H.H.H.H.H.H.V.H.h.H.H.H.H.h.H.H.H.h.h.h.h.h.h.h.h.h.h.h.h.d.d.h.d.d.d.d.d.d.d.d.d.d.c.c.c.c.d.d.d.c.c.c.c.c.c.c.c.c.b.c.c.c.b.b.b.b.b.b.b.b.b.b.b.b.b.b.b.b.e.b.b.e.e.e.b.b.b.c.b.e.b.b.e.e.e.e.e.b.b.b.c.c.b.b.c.c.c.b.b.c.b.c.d.d.b.b.b.b.b.c.c.c.c.c.c.c.c.c.c.c.c.d.d.c.d.d.d.d.d.d.d.h.h.H.H.h.h.H.h.h.h.h.h.h.h.H.H.h.H.H.H.H.V.V.V.L.L.L.L.V.L.V.V.L.L.B.L.B.B.B.B.L.B.L.B.B.L.B.B.B.B.B.B.B.B.B.B.z.z.z.z.z.z.z.z.z.z.z.z.z.B.B.L.L.V.V.H.H.h.d.c.b.f.f.w.w.w.",
"M.I.Q.R.&.#. .+.+.=.$+$+$+=.=.$+*.=.$+$+*.$+*.$+$+*.*.*.*.*.*.*.$+*.*.*.*.*.*.*.*.%+*.%+*.*.%+%+*.%+*.%+%+%+%+%+%+%+%+%+*.%+%+%+%+=+=+%+=+=+=+%+%+%+=+=+=+%+%+%+%+%+%+=+%+%+=+%+=+%+=+%+=+=+=+=+=+=+%+%+%+=+%+%+%+%+%+=+=+%+=+=+%+=+=+=+=+=+=+=+=+=+=+*+=+=+=+=+=+=+=+=+=+=+=+=+=+=+=+=+=+=+=+=+=+*+=+=+%+%+=+=+=+=+%+%+=+%+%+%+=+=+=+=+=+=+=+=+%+=+=+=+=+%+=+%+%+=+=+=+=+%+%+=+*+=+=+=+=+=+*+=+=+%+=+*+=+=+=+=+%+=+=+=+=+=+=+=+=+%+%+=+=+=+=+=+=+%+%+=+=+=+=+=+=+=+=+=+*+=+=+=+=+*+=+=+=+%+%+=+=+%+*.*.*.*.*.$+$...` %.@+A.Q.I.I.Q.Y.@+%.` ..$.$+*.*.%+%+%+%+%+%+%+=+=+=+=+=+=+=+=+=+=+=+=+=+=+=+=+=+=+=+=+=+=+=+=+=+=+=+=+=+*+=+=+*+*+*+*+*+*+*+*+*+*+*+=+*+*+*+*+*+*+*+*+&+*+*+&+*+*+*+*+*+*+*+*+*+*+*+*+*+*+*+=+*+=+*+*+*+*+*+*+*+*+&+*+*+*+*+*+*+*+*+&+*+*+*+&+&+*+*+*+&+*+&+&+&+*+*+*+&+*+*+*+&+*+*+*+*+*+*+*+*+*+*+*+*+*+*+*+&+*+&+*+*+*+*+*+*+*+*+*+*+*+=+=+=+=+=+=+=+=+*+*+*+=+=+=+*+*+=+=+*+=+=+=+*+=+=+%+%+%+%+*+=+=+=+%+%+%+%+=+%+%+%+%+%+%+*.%+%+%+%+*.%+=+%+=+%+*.%+%+%+%+*.*.%+%+*.%+*.*.%+%+%+%+*.*.*.*.*.$+$+$+$+$+$+=.=.=.=.$.+.` #.&.R.Q.M.z.",
"C.X.S.w.c.V.B.z.M.Q.Y.Y.A.A.A.Y.Y.A.A.Y.Y.Y.Y.Y.Y.Y.Y.Y.Y.A.Y.Y.A.Y.Y.Y.Y.Y.Y.R.R.Y.Y.Y.Y.Y.R.R.R.R.Y.Y.Y.Y.Y.Y.Y.Y.Y.Y.Y.Y.Y.Y.Y.Y.R.Y.A.Y.R.R.R.Y.R.R.R.Y.Y.R.Y.Y.Y.Y.Y.Y.Y.Y.Y.Y.Y.Y.Y.Y.R.R.Y.Y.Y.Y.Y.Y.Y.Y.Y.Y.Y.Y.Y.Y.Y.Y.Y.Y.Y.Y.Y.Y.Y.Y.Y.Y.Y.R.R.R.R.Y.Y.Y.Y.Y.Y.Y.Y.R.R.R.Y.R.R.Y.R.Y.Y.R.R.R.Y.Y.A.A.Y.R.Y.A.Y.R.R.R.R.Y.Y.Y.Y.Y.R.R.Y.R.R.Y.Y.Y.Y.Y.R.R.Y.R.Y.Y.Y.Y.R.Y.R.R.R.R.R.R.R.Y.R.R.R.R.R.Y.Y.Y.Y.Y.Y.Y.Y.Y.Y.Y.Y.Y.Y.R.Y.R.R.Y.Y.Y.R.Y.Y.R.Y.R.R.R.R.R.R.R.Y.R.R.R.R.Y.R.R.Y.Y.Y.A.A.A.Q.I.z.B.H.c.w.S.X.C.W.X.S.w.c.V.B.z.I.Q.A.Y.Y.R.R.Y.Y.Y.R.Y.Y.R.R.Y.R.R.R.Y.Y.Y.Y.Y.Y.Y.R.R.R.Y.R.R.R.R.Y.R.R.Y.Y.R.R.Y.R.R.R.R.R.R.R.R.R.R.R.Y.R.R.R.R.R.R.R.R.R.R.R.R.R.R.R.R.R.R.R.R.R.R.Y.Y.Y.Y.Y.Y.Y.Y.Y.Y.Y.Y.Y.Y.R.Y.R.R.Y.Y.A.A.Y.R.R.R.Y.Y.Y.R.R.Y.Y.R.R.R.R.R.R.Y.R.R.Y.R.Y.R.R.R.R.Y.R.R.Y.R.R.Y.R.R.Y.R.R.R.R.R.R.R.Y.Y.Y.Y.R.R.R.R.R.R.R.R.R.R.R.Y.R.R.R.R.Y.Y.R.R.R.R.R.R.R.R.R.R.R.@+R.R.R.R.R.R.R.R.R.Y.R.R.Y.R.R.R.R.R.R.R.Y.R.R.Y.Y.Y.R.R.R.R.R.Y.Y.Y.R.Y.Y.Y.R.Y.Y.R.Y.Y.R.R.Y.R.Y.Y.Y.Y.Y.A.Y.Y.A.A.A.A.A.A.Q.M.z.B.H.c.g.N.X.W.",
"D.P.S.e.L.Q.@+&.&.&.#.#.&.K.&.&.#.%.%.%.#.%.%.%.#.#.#.%.%.&.%.%.%.%.%.%.%.%.#.#.#.%.%.#.#.#.#.#.#.#.#.#.#.#.#.%.%.%.%.%.%.%.%.%.%.%.%.%.&.&.&.%.%.%.%.#.#.%.%.%.%.%.%.%.%.%.%.&.%.%.%.%.%.%.%.%.%.%.%.%.%.%.&.&.&.%.%.%.%.&.%.%.&.%.%.%.%.%.%.%.%.%.&.%.%.%.%.%.%.%.%.%.%.&.&.%.#.%.%.%.%.%.%.%.&.%.%.%.%.&.K.&.%.%.%.%.%.%.%.%.%.&.&.&.%.%.%.&.&.%.%.&.&.K.&.&.%.#.%.%.%.%.%.#.#.%.%.%.%.%.%.%.%.%.%.%.%.%.%.&.@+&.%.%.%.&.&.&.%.%.&.&.%.%.%.%.%.%.%.%.%.%.%.%.%.%.%.%.%.%.%.%.%.%.%.%.%.&.%.%.%.%.%.%.&.&.&.&.K.@+A.B.b.J.G.F.E.U.y.e.L.A.@+K.K.&.&.&.&.%.%.%.%.%.%.%.%.%.%.%.%.%.%.%.&.%.%.%.%.%.&.%.%.%.%.%.%.%.%.%.%.%.K.&.%.%.%.%.%.%.%.%.%.%.%.%.%.&.%.%.%.%.&.%.%.%.%.&.K.K.&.%.%.%.%.%.&.&.%.%.&.&.&.&.&.&.&.&.&.&.&.&.&.&.&.&.&.&.&.K.K.&.&.&.&.&.&.&.&.%.%.&.&.&.&.&.&.&.K.K.K.&.K.K.&.%.%.%.&.&.&.&.&.&.&.&.%.&.&.%.&.%.%.%.%.&.&.&.&.&.%.%.%.%.%.%.%.%.%.%.#.%.%.%.%.%.%.&.%.%.%.%.%.%.%.%.%.%.%.#.#.#.#.%.%.%.%.%.%.%.#.%.%.#.%.#.%.#.#.#.%.#.#.%.%.%.#.#.#.#.#.%.#.#.#.#.%.%.#.#.%.#.#.%.#.#.#.#.#.#.#.#.#.%.#.%.%.%.%.#.%.%.K.@+K.R.A.B.c.N.P.D.",
"F.W.e.B.K.#.@.` ` ` ` ` ` ` @.@. . . . ... . . .`  .` ` `  . ... ..... . . . . .` ` `  .` `  . .` `  . ............... . ... . . ... . . . . . . . . ...$.$.+.$.+.+.+.$.+.+.+.+.+.+.+.+.+.+.+.+.+.+.+.+....... . . . ..... ..... .......+.+.+.+.$.$.$.$.$.+.$.$.+.+.+.+... . . . . .....+...+.....+.+.+.+.+.$.$.$.$.$.$.$.$.$.$.$.+.$.$.$.$.$.$.$.$.$.$.+.+.$.$.$.$.+.$.+.$.+.+.=.$.+.$.$.$.$.+.+.+.+.+.+..... .` ....+.+... ...+.....+.$.$.=.=.=.$.+.+.........+.+.+.$.$.$.$.$.+.+.+.+.+.......+.+.$.$.$.+... . . .` @.A.b.P.|.}.U.g.I.%.@. . ..... .`  ...$.$.+.+... . .+.$...+.+.+.+.+.......+.+.+.$.$.+.........+.$.$.$...............+.$.+...+.+.+.$.$.=.=.=.=.$.=.=.$.$.$...+.........+.$.+.+.+.+.+.+.$.+.$.+.+.+.$.$.+.+.+.+.$.+.$.$.$.$.$.=.=.=.=.$+=.$+=.=.=.$.$.$.$.$.+.=.$.+.+.+.+.+.$.=.$+=.=.=.=.=.+.$.$.+.$.=.=.$+=.=.=.=.=.+.+.+.+.+.$.+.$.=.=.=.$.$.=.$.+.+.+.+.+.+.+.+.$.=.=.=.$.+....... ...+.+.+.+.+.+.+.+.+...........+..... . . ... .........+.+..... . .@.@.` ` ` ` `  . . ...+.+.+.....+..... . . .@.` ` ` ` ` ` ` @.#.#.#.%.&.@+L.e..+++",
"g.f.x.].-.x A ;.c x d c c c c c c d A A a a c a c b d d a c c c c ;.d c c c d d d d d d d d d d d d d d ;.;.;.;.z y x A x x y A A A A A x A A x x x x x x z x y z A A x x x B z z B z z B B B z B B B B -.M M M M K M K F K K K K H K M K K M z x A A x x A A y z B H F K M B M K F K K K G H G I G F M M M K K M K K K H M z z B z z z z y y z y y A z B z B -.z G K B B -.-.B B B -.B -.F K H K M H M K G M B M M M H H H H K K M K -.z B y x x B -.-.M M M M M -.B B z M M z B -.-.-.-.M M M -.B y A x B -.K K K -.x }.P.g.D.F.S.c.).C -.z z B M M M M -.y -.-.H K K B B B M M H K -.-.M K M M M -.z B -.K G K F M -.K -.-.M -.-.K K K K K M H G H G I G K F H -.M M G K H E G G G H E Y L F I E E F E I I I I E E I E E E E L J E E J L L J E E F E I H H H F I I F J F E E I I I F F F F F H G F F E E I I E E E E E E F M K H G F H G G G G F F G G G G M M H H M M M K H H G H M -.z y y B -.M G K K H M -.z z z -.M M M M M -.y y y B -.z z x ;.A ;.c c c c d ;.A y x y z z y y x y z y ;.x d c c a a c c c c c y A ;.A A A y x d c c c d a c K ,.J.[.4.",
"z.Q.M.S z ; @ # = # % * % * * % % = ; % % * * % * % % * % > ; ; > % * * * * * * * % % * * * % % % * * % % * * * # # = = = = % = = - = % * * * * * # * * * * * % * * * * * * * % - * * % % % * * % * % % % % * = - * % * = = = % = * = = = * * % % = * % = > % % , , - % * * ' % # & # * # # % = # & * - % = ; # = % * # * ; = > = = ; ; = ' = ; = = - ; = = ; % % = = ; ; # & ; # * # - > * % % % * * * # * % - ; ; * = = % % = = % * ; = * = ; ; * # # # * % # * * % = - = * ; % % % % = % % % % % % % % = % & @   # B ( c.I.y.O.H.@+5 B -     $ & # * # # = % > * % = = > ; % = % % - > % % % % % = = * = ; = * % > = * * * * * * * * * % * - ; * = % * # * * # > ; ' * & # * & * ; * * # % % ; % # # # # & & & & # # * = # * * % - & % * # = # * - = # * * # # & # # * # * # * & & # # = - * % * # = % = ; % = % ; = % ; # * * * % = - * > = % * * * % % * * * * % * * # = * % = % ; ; ; = = = ; - % # * # * * % % * * = ; * * % # ) # * # * & ; % = % * ; % ; % * % * # * ; % * * # - - = # % % % * * % % % % * % = * ; > ; ; = % * % ; # & & $ ; ;.S z..+{.",
"R.&.Q.: * M ! > ) ~ ~ ~ ~ ] ] ] ] X X X ^ ] ~ ~ ] ~ ~ ] _ ^ / { _ X ~ ~ ~ ] ] ~ ~ ~ ~ ] ~ ~ ] ] ] ~ ~ ^ ~ ] ~ ~ ~ X ! ] ~ / / ~ X X X X X X ~ ~ X ~ ] ~ ~ ^ ] ] ~ ~ ] ] ] ] ] ] ] ] ^ ] ^ ] ] _ ^ ~ ~ ~ ] ~ ] ~ _ _ ] ~ X X ! ! ~ ~ X ] ! ) ) ) ! ! ) ) _ ] X / [ _ ) < : ^ ~ ~ ~ ! X X ~ ] _ ~ ~ X / ! / / X _ X X ! ! ) ! ) ~ ! ! ! ~ ~ ] ^ ^ X ! ~ { ~ ) ) ) ] X X ^ ] ^ _ ^ ~ ~ ] _ ~ ! ~ ] ! X X ! ! ! ~ X ! ~ ! ! ! ^ / / ^ ] ~ ] / ^ ^ _ ^ ] ^ ] ~ X ^ ~ ] ^ / _ X ! X ! X X ] ~ _ _ _ / ^ ] ] ] ] ] X , = ; z = ] d.K.g.T.I.K.6 @ ;.X ; , X X ~ X ! X ~ ~ X X ~ X ~ ~ / X X X ! / / ] ] ] ] ~ ~ ^ / _ ! X ~ ^ ~ ~ X ~ ] ~ X _ _ ] _ _ { X ! ! ! X ~ X ( X X ] _ ) X ] X ^ ] ~ ~ ~ ~ ] ~ / ^ ^ ] _ ~ X X ] / ^ ~ / ] / ~ ] ^ ! ~ ! ^ X X ] ^ ~ ~ ^ X X ~ ~ ~ ~ ~ ] { ^ [ ~ ~ ] ~ ~ ~ / / / ^ X ~ ] ^ ] ] ~ ~ ] { _ / ~ _ ] ] ~ ] ] ] ~ ] ] ^ / ^ ^ ] ] ] ] ] ^ ] ~ ] ^ / ^ ^ ^ ] ~ { ( ( ( _ ~ ~ ] ] / / ^ ] ~ X X ^ / ] X ] ] ~ X ] ~ ~ ^ [ ^ X ~ / ^ ! ~ { / ] ! ! X / < _ ' _ { [ ( ' ' ! ^ ] ! ! ~ ] ~ ] / ~ ! ! ~ X X ] X ^ ] ~ X , = ] A $ S Q.`.|.",
"K...A.< # ; B W b c c a a a b a a b b 9 0 9 a a b 0 0 c x b c A ;.b a a a a a b a a a a a b b c a c a d c c a 0 9 9 0 b 0 1 9 9 9 1 0 0 b 0 0 b 0 0 0 b a a b a a a a c c c c c a a c a b a a a b 0 b b b b b 0 0 0 1 8 1 8 1 8 8 b 1 0 8 | | | 0 8 | | b ;.;.b A z 1 a d b 8 0 b 8 8 1 8 8 0 1 9 1 9 9 0 9 0 1 1 1 9 8 9 0 8 b 0 9 b 9 1 0 b 0 0 a a b 1 1 1 9 0 1 0 b 9 1 1 0 b a b b a b b 0 9 a b 1 8 8 1 9 9 1 1 9 1 9 b A d A d d c d d a a 0 a 0 9 1 9 9 a ;.d b b b b b b b 0 x 0 a 9 0 ;.9 a a c a 0 c S y ' $ ~ h.@.d.e.@+&.6 # = z U 1 0 9 9 0 9 0 a 9 0 0 0 9 0 b a 0 0 0 9 1 a b a d a b a a c c 9 0 0 a a b b 0 1 9 b 0 c c c 0 9 0 0 0 0 1 x 0 a 0 b b 9 8 8 2 8 8 1 9 1 9 1 1 8 b d 0 1 d 9 6 2 8 0 0 b c c 1 0 0 1 | 1 8 8 1 9 0 | 9 8 1 a 9 0 a a 0 b a c a 0 c c 0 0 0 0 b c a 0 b c c d d c a a b ;.d a a c c d d c d c c a a a c d d a a a c c c c b a b a c c c a a b d d b b 0 0 0 0 0 0 b b b 0 0 9 0 0 1 0 9 | 1 9 0 0 9 9 9 1 8 b b b a b 8 8 8 8 1 0 9 9 | | d 0 d | | 1 b 1 8 1 1 9 9 1 1 1 1 9 0 1 1 1 1 1 8 9 1 2 U A ; @ U A.c.G.",
"&.=.Y.: ; ' W G - . . . . .   @ . .   @ & & .   . . @   .     @ @ . . . . .     . . . + . .     . . . . . . . @ $ * @     $ $ @ $ & $ @ @ @ $   $ @ = @ @   @ @ @ @ @ @ @ @ @ @ $ $ $ $ & & @ & $ # & & $ $ $ $ $ $ # $ & # $ & # & $ @ & $ & $ $ & $ $   & $ $ &   & $ & $ & @ $ $ $ $ & & $ $ & @ @ $ $ & $ @ & # & & $ & @     @ *   $ $ * @ & $ & @ $ & & & $ & & # & $ & @ @ @ $ $ @ @ @ @ $ & $ $ # * $ $ $ & $ $ @ @ @ & @ @ & % = #   $ $ ; $ # @ # # $ # @     @ @ @         @ & $ @ @ & * $ @ @ $ & * y U X # ] h...L.c.#.%.6 & > V B ' & $ $ @ @ & $ $ @ $ @ @ $ @ @ @ @ $ $ & # $ & & # @ $ @ # $ @ $ @           # $ $ # @   @ @ $ @   .   & & & $ $ $ @ $ & $ # & $ $ $ $ $ $ $ $ $ $ # $ & # * = * & * * * = % % = # # # % * * % = = * ; % % % # & & = # * * * * # # & # * % # * & # & & & & & & & & & # * & & & $ @ @ & & & $ & # & $ & $ $ & $ $ $ & & & $ * & & $ & @ & # * @ $ & & * # & # # $ & & $ $ & # $ & @ # $ @ $ $ @ & & @ @ @ @ $ $ @     $   $ @ @ & $ @ # @ @ .         @ $ @ $ $         @     @   @ @       @ - A : ! # S R.L.O.",
"%.*.@+{ > : | $ A - . . .   . . . . . . @ @ . . @ .           + + + + . . .   + . . . . . .   . . . @ . + + +   @   . + + @ + $ & . . . . . . . . + . . . + . . . + . + . + .   . . . . + + . . + + . +   + + + . . . @   . . . . . .   . .   $   @ . $ & @   $ > @   @ . @ $ @     $ .   . @       . . .     . + @ . .   @ . @ @ & * +   . # &     .   @ @ @ $   @ . .   .   .   . + # $ . . . . . + . . .   .   .       @ @         & @ . . . . @ % # .     $ $ +   . . . . . . . +   . . . # , = #   @   # c % 5 { * ^ H.+.z.V.` #.} # ~ 9 @ c > . . . .   . . . .   . . . . . + . . + $ & $ @ @   . .   + .         . . @ . @ .       .   . @ .   . . . . . + $ @   $ $     .   @ @ $ @ @ @ % ; # * @ $ $ & # & & @ * * @ @ $ @ @ @   * . .     .     @ . & @ $ @ $ @ @ $ &   % & .   .   .   . $     . @         @ -   @ @     $   $   @ @   @ @     @   . + . @ . . @ $ & @   @ @ $   $ @ & $ $ . . . +       & $ & * $ & = @ @ # @   @ . # # ; .   @ $ @ $ $ * @ $ . .   $ * $ $ $ & @     # . @     . # &   @ .   .     $ + @ @ @ @ - c @ 7 ] = < @+M.S.",
"%.%+@+( , S | @ & y - .   . . . . . . + @ . . . .     . +   + . . . . . . + + . . . + . + .   + + .     + + . + . @ . $   +   % . . + + . + + . + + + + . + + + . . .     . . + . .   . + . . . . . . . + . . . . + . . . $ . + + .   + + . .     % . . @ - =     > *   . .   .   & # + . + $ + .   @ . .     . .   . @ @ #     @ & & + . .   $   # .         . . $ . + + + + + . .   $ @   . + + . + . + . . . . . @ . . . @ . . + @ @ . +     . @ . & $ * # * & #   . . . . + . + + . . . . . + $ # @ $ * ;.% . 5 [ - ^ V.=.I.M. .@.6 % ] 9   $ d , .   . . . . . . . . .   . . .   . . & *   * @   . . . . + . . . .     .   . . . . . . .   #   @ @ @ @ @ @ @ * $ & & @ & # & @ & & @     $ $   # $ % * * $ & & $ &   @   . . . . . @ + + +     $   *     .   . & $ . & + . . + + + + . .   . . .   . .     .   . . . . . . . + + .   .   & .   . +   + . . . . . . .   * & + . . . . . @ $ . @ .         . . @ # .   @ &   @ $ $ @ $   @ $ * # # & $ $ & & #   # . @ $     . $ @ ;   #   & @ % @   &   % . & $ . . . @   . & . . + @ - ;.$   6 { = < K.Y.g.",
"%.=+K.( , < 2 @ + & y - . . .   . . . . @ @ .   @ . . .     + + + . . . . . + . + + . + . . . + . @ . . . + . .     + % $   % * + + + . + + + + + . . . + + . + + + + . + + + . . . . + + # +   + . . . . . . . .   . . +     . + + + . . + + . .   #   = @ & & & @ & ; $       . . . + # = + @   + + @ $ $ $ . . . @ $ & = ,   . $ & + + +   $ . @   $ @ $ @ . #   +   @ + + . . . & @ @   .   . . . + . . @   . .   . . . @ + + .       . + .   . @ @ * # + $ = + . . . . . . . . . + . .   +   . @ $ # d %   . 7 [ , ] L.$+Q.M. .` 6 = ] 0 . + $ a , . . . . +   . . .   .     @ . . . >   . $         + $ . . . @ . . . .   . .         @ @   @ @ @ $ @     & & $ @ . .   . @ .   . .   & .   @ $ *   $ # @ $ @ @ @ # @ @ ;   & $ & @ # .   . @ $   @ *   = $     @ @ @   .     .             $ & $ . @ @   . . @ . . . .     @ @ @ # @ . @ @   @ @       @       @   $ $ @     @   @ $ & # & $ % . . . . .   # & @ @ # #   # # . # $ $       @   @ . % @ @ @ @ # .       . + $ * . @ $ ;   $ = .   @ $   . .   @   @       @ @   @ > b $   . 2 _ = < &.@+b.",
"@.=+K.[ ' [ 2 @ +   # A = . . .     + + . . . . . + +   + . . + + + . + . + + + + + + . + . . . +   + + . . + . + + + & &   % % + + . + + .   + @ + $ + . . $ . . . + . . . . . . . . . .   . @ .     . + .   . @ + + +   .   @ . .   + + . * $ $ # # $   . @     @ # % $ $   @ #   # @ $ & $ @ @   $ $     $ * * & @ . .   @ & @   * @ . +   @ @   & @   $ $ $ @ + + + +   + + . + @ . . . + .   $ $ $   . . . . . . + +     . @   @ . #   . .   + . . . . . # = . + + + + + + + + + . + . . + . .   * c * @ . . 7 < - ] L.*.Y.I...` } = ^ b . .   $ c > . . + + + . + + . + . . + + . . + + + &   . . . .   . + .   . . . . . . . + . .         . @   . . . + . + . . . .     .   . . .   . @ .   .   . & $ $ @ * . @ & # @   = . .     $ & . &     $ #   @       & $ .     . . @ @ + . + . . . @ $ . @ @   $ . +   . . + + + . + + .       . . . . . + . + . . . +   + . . $ $ . . . + . +   . . . # . @ @ # , # #   @   & @ @   . % @ - # $ & @   *   & $ $ &       . # . @   &   * & # $ @ $   .   @ $ .     .   $ & . .     $   - b $   $ . 6 ( > < &.@+b.",
"@.=+K.[ ) / 2   . . . & C b a b 0 9 b 0 b a 0 b a b 0 9 0 0 0 0 b 0 9 1 9 9 9 9 9 9 1 1 1 1 1 1 9 8 1 8 8 8 1 8 8 8 8 2 } 2 7 2 | | | | | 2 2 | 2 2 2 | | 2 6 2 2 2 8 1 8 | 8 | | | | | | | 2 2 | 6 6 2 2 | 6 2 } | 2 6 2 2 6 6 } } 6 } 6 6 7 7 7 5 } 7 7 6 7 5 5 5 5 3 5 4 7 } } } 2 6 } } } 6 6 6 6 6 2 6 } 5 4 3 3 5 5 3 3 3 3 4 3 } 7 6 7 7 5 5 3 5 5 5 5 7 6 } 6 6 6 6 2 6 6 2 2 2 6 6 2 2 6 6 6 7 } 2 2 6 2 2 6 } 2 2 6 6 } } } } 7 6 6 6 6 2 2 6 2 6 6 6 6 } 6 5 7 7 } 6 6 } 7 6 6 2 2 } 6 6 } u * $ $ . . } S - ] B.*.R.Q... .} = / b + .     @ I | 6 6 6 6 2 2 6 2 2 2 2 6 6 2 2 | 6 6 6 7 } 2 6 2 2 6 2 } } } 6 6 } } 6 2 6 } } } } 7 } 7 7 7 5 7 } 2 7 6 6 6 } 6 } } } 7 6 } 7 7 } 7 5 5 5 5 3 7 3 3 5 3 5 4 V W 4 3 l l l l l 4 l 3 3 7 7 5 7 7 3 5 3 5 4 3 3 3 5 3 4 4 5 5 5 5 3 5 5 3 4 7 7 5 7 5 3 5 3 3 7 7 7 } } | 6 } 7 5 7 } 7 } 6 6 } 6 } } } } 7 6 } } 6 6 } 6 | 2 2 2 2 2 6 2 2 2 0 9 1 8 } 2 2 | 2 | | | | 8 1 8 | 6 | 1 2 | | 6 6 } } 6 2 8 8 | 8 8 9 1 8 | 6 2 2 } 6 2 2 8 | 2 | 2 1 0 1 1 b 9 2 1 8 8 9 1 0 Y $     &   2 ( - : &.@+c.",
"#.%+K.: = { 2   . . .   o P s C D E I F E I E F I E E I F F F F F F F I I F F F F F F F F F F F I F F F F F E I I F I F F I I I F F F I F I I E I E I E E E E J J E E E E E E J E I I I I E J E E J J E J E E L E E E J J E E E E E I F F F F F E I J E F F F F F I I E F I E I I E I I I I F I I E F I I I F I E E E I E E E J J E E E E I F I E E E E E E E E E I I I I I I I E I I I F I F I F F I I E E J E E E I I I I F F E I E E I E E E E I E I E I F I I E E J E E E I I I I E I E J D Z r N w @   +   . 7 < > ] B.*.R.A.$...} = ^ b + .   + . F R j C D E I I I I I I I I I F I I F I I F F I I F F I I I E I I I I I E E E I E J J J E E E I E E J E I E I I I E E I E E I E E I I I E E E E I I E J E E I J J J E J L J I I I E E E I F I F I I I E E E E J E E E J I I I I I I I I I I E J J J L E I I E E J J J J E E E I I I I E E I I I I I I I I I I I I I I I I F F E I E F F I F G F F F F F I F I F E E I F F G F I I F E E I I F I I I L J E I I E I I I I I E I E F I I I F I I I I E E E I I I I E I E J Z t Q D . & @ @ . } { , : %.@+d.",
"@.*+K.[ ; { 2   + @ . . L f E./.2.R O P P i h e f e e e f f f f f f e e e e e e e e e e e e e e e e e e e i h i h e e e e e h h e e e e e e e h h h h e h h h e h h h i h e h h h h h h e h e h e e e e h h i h h h i h h h i h i k i i h h h i i i i f e e e h h e e i i i e e h h i e e e e e f f e f e e e e e e f h h h h i h h i h i e e e e f e h h h h i f e h e h f f f f e h e e f e e e e e e f e e i i i h h i h h i e i h e e e e e f e e e e e e i P h h i h h h h i i k k P O j.3.{.Z.N p @ @ + . . 7 : > ] B.*.R.Y.+.+.2 = / b + $ + + + B j P./.4.j.Q N O P i i h h h h e e h h e h h e e e e e e i i i i i h h h h h h h h h i i h h i i i i h h h h e e h e e h e e e e e h k h h i P k h i h h i h e h h e i e h h i h h h h h e h i h h h h h h h h h k i i k i h i i i h i h h i h h h i k i i i i i i h h h e h h i i h h h i h h e e i h h h i k k i e e h h f h e h e h i k h e f f f f h e h k h e e e f f h e e e e i e h h i i k k k h h e h e f e h h h i k e h h e e h e h e i h i h h P k O N j.2.^. +g G   @ $ @   6 ( ; : %.&.h.",
"%.%+K.[ ; ( 2   + @ . . E n ,.j.m L I H M B y x A A A ;.;.d d d d d d c c c c d d c c c c c c d c c c c d ;.;.;.A c c c d d d d d c c d c c ;.;.d A ;.;.d d d d d c c c c c d ;.d d ;.;.;.d ;.d d ;.;.;.;.;.;.;.;.;.;.A A A ;.;.A A ;.A ;.A A A A ;.;.;.;.;.d d ;.d ;.A ;.;.;.d ;.d d d d ;.d d d ;.d d d ;.;.d ;.;.;.d c d d ;.;.;.;.;.;.;.;.;.;.;.d d d d d ;.d c d ;.A c c ;.d d d c c c d ;.;.d d c c d d d ;.A d c c c c c c c d c d c c c d d c c d d d ;.A d d ;.;.;.A x x z z B -.K J q #+).w C .   .   . 6 S - ] z.*.R.A.$.+.| - / b .   + . + z p (.#+r D F K -.B B y A ;.;.d d d d d ;.d d d d d d d d d ;.d d d d d d d d d ;.;.;.;.;.;.A ;.;.;.;.x A ;.;.;.;.A A ;.A d c d d d d d c d d d d c c c d d d d d c d d d d ;.;.;.;.d d d d d ;.;.d d d d d d d d d ;.A A ;.;.;.;.;.;.;.d d d d c d ;.x x ;.d d d d d d d d d d d c c c d d d d ;.d d d d ;.;.A ;.;.d ;.d ;.d d d c d ;.;.d d d d d c c ;.;.;.;.;.c d d d d A ;.A d A x x ;.x x x A x x A ;.;.d ;.;.;.;.;.d ;.;.;.;.A ;.;.;.;.;.A A A x z z B -.K F Y m #+].o H   &   @   6 / ; : %.&.h.",
"K.*.K.[ - ( 6 @ +     + I C j.r O v q L I I H K M -.B z z y z z z z z B B B z z y y y y y y z z y y y y x y y x x y y y y z y y z y -.y y x A A A ;.A x y x x A x y x x x x x x ;.x x x A A A A x x x y y A A x x x x A A x A A A A x A ;.;.d d ;.A A x A x x x y x y x x y y y y y y y y y y y x x x x x y x B B y x A x x x x x x z z z y y y A ;.;.x A A A ;.x y y x y x y x x x x x x y x x x x A A x A x x x A y -.z y y y y x x x y y z z y y y y x x x y x y z B B B B -.M H G I L Z n Q r N n Z .       . 7 : > ] z.*.R.A.$.+.2 = ^ 0 +   + . + y Z >.s P t Z J I G K -.-.B z z z y y y y y y x x y z z x y x x y y y x x x x x x x A x y x x x y x x x x x x x A x y B x B B z z z z B B B -.B B -.z y y x z x x B z x x x y x A x x y A x x A A x A A x y x x x x y x A z y x y z z x x y z y y x A d ;.x x x x y x x y y y x y z y A x x y x y B z z z z y x x x x x z y x x y z x x x y x y x x z B z y y x z y y y y z A y x x x x y y ;.A A x ;.y A x x A A x x A y x A z y y z x y z z -.-.M M H H G F E D q v P r 3.Z H . . @ . @ } _ ; : %.&.h.",
"@+$+K.< = { } . % . . @ G Y O Z j i n D I F K -.z y A A ;.;.d d d d d d d d d d d c c c c d d d c c c c d d d A ;.d d c c c c c ;.d d d d c a a a a a a a a a a a c a a a a a a d d d ;.;.c c a d d d c c c c c c c c d a c c c c c c c a a a a c c c a a c c c c c d c c c c c c d c d d c c c c c c a c d d ;.d d c c d ;.;.d d d d ;.;.;.c c c d a d d c d c d ;.;.d ;.d d d d d d d d ;.d d d d d d d ;.d A A d ;.A x A A ;.A ;.;.;.;.A A ;.;.A x A A A A A A A x x y y z -.K H F J Y n P j Y e q Y + .       5 < > ^ z.*.R.A.$.$.} = ^ b +   +   . z L k.Z t P s Y J G K -.B y x x A ;.;.;.d ;.;.d d d d ;.d c c a c c c a a c c c c c c c c c c c c c c c c c c d c d ;.d c d d d x d d d d d d ;.y z y ;.A ;.;.A A A d d ;.;.;.x A ;.c c d d c d c c d c c c a c c c c d c c c c c c c d d c d c c c c a a a c a c c a a c d d c d c ;.d c c c d d d d d d c c c c c c d d c c ;.;.d d d ;.;.;.;.;.d ;.;.d d d c d c c c a a a c c a c d ;.;.c c c c a ;.d c d c c d c c c c d A ;.A A ;.;.y A A x y y -.M G G E Y r k g Z Q L -.@ * @ $ . 6 / > U %.&.H.",
"&.%+K.< = { 6 @   # ; # F L f I o o g u F H -.z x A d c c c a a b b b b b b b b b 0 0 0 9 9 0 9 9 9 9 9 9 9 9 9 9 1 1 8 1 1 8 8 1 8 8 8 8 8 | | | | | | | 2 | 2 2 2 | | | | | | | | | | 2 2 | | 2 | 2 2 | 2 | | 2 2 2 2 2 6 6 2 6 2 2 2 2 | 2 2 2 | | | | | | | | | 2 2 2 2 2 2 2 6 } } } } } } } } 6 6 6 2 6 2 2 2 2 | 2 2 2 | 2 | | | | | | | | | | | | | | | | | | | | 8 | | | | | | | | | | | | | 2 2 2 6 2 2 6 6 6 | | | 8 8 8 1 1 1 8 1 1 8 8 8 1 8 8 1 1 1 1 9 9 b a c d x z -.H L e n n F v C Y + +     . 3 < > ^ z.*.R.A.$.+.2 ' ^ b . . + + . y E O F q o g u K -.z A d c a b 0 0 9 9 1 8 1 1 9 9 1 1 8 8 1 8 8 | 8 8 8 | 8 8 8 | | | | 2 2 2 2 | | | | | | | 8 | | | 2 2 6 6 6 6 2 } } 6 6 6 2 2 2 6 2 6 6 6 6 6 6 6 6 } } } } } 6 6 6 2 6 6 2 2 2 2 2 | | | | | 2 2 2 2 6 6 2 2 2 2 | | 2 2 2 2 2 2 6 2 6 2 2 2 2 | | | | | | | 2 2 2 | | | | | | | | | | | | | | | | 8 8 8 8 8 8 | 2 | | 8 8 8 8 8 8 | | | 8 | | 8 8 8 | 8 1 1 1 1 1 1 8 8 1 1 9 9 0 0 0 0 0 9 9 1 9 1 9 9 0 b b b a a a c c d ;.x z M H F q h o o F i I -.  @ @ @   } { ; T %.%.H.",
"%.=+&.S , ( } @ .   . * F J j M C D v b.F.}.:./.].{.'.).).>.>.>.!.!.1.1.!.!.!.1.1.1.1.1.1.4.1.1.1.4.1.1.1.1.1.1.!.4.1.1.1.1.1.1.1.4.1.1.1.1.1.1.1.!.!.1.1.1.!.!.!.!.!.!.!.!.1.!.!.!.!.!.!.!.!.!.>.!.!.!.!.>.1.1.1.!.>.!.1.!.>.>.!.!.1.!.!.!.1.1.!.!.1.4.4.1.4.1.1.4.1.1.1.!.1.!.!.!.!.!.>.>.>.>.>.!.!.!.!.>.1.1.1.1.1.1.1.!.1.!.1.!.1.4.4.4.1.1.1.1.1.1.1.!.4.1.1.4.4.4.4.1.1.1.1.1.1.!.1.1.1.1.!.!.>.!.1.1.!.>.!.>.>.>.>.>.>.!.>.!.!.!.!.!.!.).>.>.>.>.).).>.>.>.'.,.'.'.,.{.]./.(.<.E.f.e D Z M r C Z . .   @ . } < - ^ M.*.R.A.$.+.2 , ( 0 + + . + + z I k K L D q b.D.}.:._.].~.,.'.'.'.'.'.'.'.).).>.!.>.>.>.>.).).>.!.!.!.>.>.>.!.!.!.!.!.>.).).>.>.>.!.!.>.!.!.!.>.1.1.1.!.>.!.!.>.>.!.!.>.!.!.!.!.!.!.!.!.!.!.!.!.!.!.!.1.1.!.!.>.>.!.>.!.>.>.>.!.!.!.!.1.4.4.4.4.1.1.!.!.!.!.1.1.1.1.1.1.4.4.1.1.1.1.1.!.!.!.1.!.!.!.1.1.1.1.1.!.!.!.!.!.!.1.1.1.1.1.!.!.!.!.!.!.!.!.1.1.1.4.4.1.1.1.!.1.1.1.1.4.4.4.4.1.1.1.1.1.1.1.1.1.4.1.1.4.!.1.1.>.>.).>.!.!.1.4.!.1.1.1.!.>.!.!.).>.!.1.1.1.>.!.!.).!.>.'.).,.~.^.:.}.D.d.n Z C M f I B @ @   & . 7 / ; T %.#.H.",
"%.%+&.S > ( } $ @ &   + E E w B D I n F.N f v m p C Y D L J E E I I F F G G G G F F G G G F F G F G G G G G I G H H H H H H H H H H H H H H H H G K H H H K K K H H G H H H H H H H H H G G G G G G G H H G H G H G G G H G G G G G G G G G G G F G G G G G F I F G G H G F H H G H G G G G G G G G H G H G H H H H H G H G F G G H H H H H H H F F I I I I G G H G G H G G G G G G G G G G G G G F F G G G F G G F F F F F F F F F I I F I I I I I I I I I E J E J L D D Z u p m v f O E.v F L B m Z Y .     & . } [ - ^ M.*.R.A.$.$.2 ; < 9 + . . . . y I k M I I Y U.i.e w s o q C Y D L J J E E I I I I I I F I I I F F F F I F F F F G F F E J I F F F G I I F F I F G H H H H H I G G G G G G F G G G G G G G G H G H G G F G G G G G G G G G F F G H G G F F G G F G G F F F G H G H G G H H G H G G G G G G G G G G G G G G G G G G G G G G G G G G G G G H G G G H H G H H G H G H H H H K H K K H G K K K H K H H H H G H H H K G H H G F F F F H H H G G G G H F H H G G G G G F F I E J E E L Y C p m t g Q U.C E D B f I B . & @   . } / ; T %.#.V.",
"&.%+%.< > { 6 # $ . @ @ I J w B J G q [.j m q Y E F K M B B z y x x x A A ;.;.;.;.;.;.;.;.;.d d ;.d d d d ;.;.;.d d d d d d d d d d c c c d c c d c c c c c c c c c c c c c c c c c c c c c c c c c c c c c c d c c c c c c c c c c c c c c c c c c c c c c d ;.;.d d c c c c c c c c c c c c c c c c c c c c c c d c c c c d d c c c c c c c c c c d ;.;.c d d c c c c c c c d c c d d d d d d d d d d ;.;.;.;.d d d d d d ;.;.;.;.;.;.;.;.;.;.;.A A x x x y y y z B B M K G E Y q m j _.r G J z n Z Y   @ @ &   5 [ - ] z.*.R.A.=.$.6 > _ 9 + @   +   y F i z F H J }.f r p Z J F H M -.B z y x x A A A A ;.;.;.;.;.A ;.;.;.d d d d d d d d d ;.d d d d d d d d d d ;.d d d d d d c c c d d c c d d c d d d c c c c c c d c c c c c d d d d d d d d d d d d d d d d d d d d d c c d c c c c c d d d c c c c c c c c c c c c c c c c c c c c c c c c c d d d c c c c c c c c d c c c c c c c c c c c c c c c c c c c c c c c c c d c c c d d d ;.;.A ;.;.;.d d ;.;.;.d d ;.;.;.;.;.;.;.;.A x x y z z B M K F J Y q m j <.Y G J z g I -.+ * @     } : ; V %.@.V.",
"K.%+%.< > ( 2 $ $   $ @ F F v y J K Z _.s q Y E H -.y A ;.d d c a a b b b b b 0 0 0 0 0 0 0 0 0 0 9 9 9 9 9 9 9 9 9 9 9 9 9 9 9 1 1 1 1 1 1 1 1 1 1 1 1 1 1 1 1 1 1 1 1 1 1 1 1 1 1 1 1 1 1 1 1 1 1 1 1 1 9 1 9 1 9 9 1 1 1 1 1 1 1 1 1 1 1 1 1 1 1 1 1 1 1 1 1 1 9 1 1 8 1 1 1 8 1 8 8 8 1 8 8 8 1 9 9 9 9 9 9 1 8 1 8 1 1 1 1 1 1 1 1 1 1 1 1 1 1 1 9 9 9 1 9 1 1 1 1 1 1 1 1 1 1 1 1 1 9 9 9 9 9 9 9 9 9 9 9 9 9 9 9 9 9 0 0 0 0 0 0 0 0 0 0 0 b b b b a a c c d ;.A x y -.H E Y q s ^.n M I y r Y Z .   & @ . 5 U - ^ M.*.R.A.=.=.7 , { 1 @ % $ . . z F e y G M I (.v p Z E G -.z x A ;.d c c a a b b b 0 0 0 0 0 0 0 0 0 0 9 0 0 0 9 9 9 9 9 9 9 9 9 9 9 9 9 1 1 1 9 1 1 1 1 1 1 1 1 9 1 1 1 1 1 1 9 9 1 1 1 1 1 1 1 1 1 1 1 1 1 1 1 1 1 0 1 1 1 1 1 9 1 1 1 1 1 1 9 1 1 9 1 1 1 1 1 1 1 1 1 1 1 1 1 1 1 1 1 1 1 1 1 1 1 1 1 1 1 1 1 1 1 9 1 1 1 1 1 1 1 1 1 1 1 1 1 1 1 1 1 1 1 1 1 1 1 1 1 1 1 1 1 1 1 1 1 1 1 1 1 1 1 1 1 1 1 1 9 9 1 9 9 0 0 0 0 0 9 0 0 0 0 0 0 9 0 b 0 b 0 0 b a a a c ;.;.;.x y -.H E Y q s _.D K I y j E M .   @ @ . 5 ( - S #.` B.",
"@+*.%.[ - < 2 @     @ & F I v x I M L ^.n Z E H B A d a b 0 9 9 1 8 8 8 8 | | | 2 2 2 2 2 2 2 2 2 2 2 2 2 2 6 2 6 6 6 6 6 6 6 6 6 6 6 6 6 6 6 6 } } } } } } } } } } } } } } } } } } } } } } } } } } } } } } } } } } } } } } } } } } } } } } } } } 6 } } } } } 6 } } } } } } } } } } } } } } } } } } 7 } } 6 6 } } } } } } } } } } } } } } } } } } } } } } } } 6 } } } } } } } } 6 } 6 6 6 6 6 6 6 6 6 6 6 6 6 6 6 2 6 2 2 2 2 2 2 2 2 2 | 2 | | | | | 8 8 8 1 1 9 0 0 b a d x B H E Z n {.q B G x m Z Z . . . $ & 4 [ - ^ M.*.R.Y.$.$.5 ) { c @ . . . . -.F e x H -.H _.r Z J G B x d a b 0 0 9 1 1 8 8 | | | | | 2 2 2 2 2 2 2 2 2 2 2 2 2 2 2 2 2 2 6 6 6 6 6 6 6 6 6 6 6 6 6 6 } 6 } 6 2 } } } } 6 6 6 6 } } } } } } } } } } } } } } } } } 6 6 } } } } } } } } } } } } } } } } } } } } } } } } } } } } } } } } } } } } } } } } 6 6 } } 6 } } } } } } } } } } } } } } } } } } } } } } } } } } } } } } } } } } } } } } 6 6 6 6 6 6 6 6 6 6 6 6 6 2 2 2 8 2 2 2 | 2 | 2 2 2 2 1 | | | | | 8 8 1 1 9 0 0 a c A z K E Y n /.E B H z w I -..   & $ + } < ' U #...M.",
"@+*.%.( ! S 8 $ . @ $ * I F t A F -.I ].q L G B A a 9 1 8 | 2 6 6 } } 7 7 7 5 5 5 5 5 5 5 5 3 3 3 3 3 3 3 3 3 3 3 3 3 3 4 4 4 4 4 4 4 4 4 4 4 4 4 4 4 4 4 4 4 4 4 4 4 4 4 4 4 4 4 4 4 4 l 4 4 4 4 4 4 l 4 4 4 4 l 4 4 4 4 l l l l l l 3 4 5 3 4 4 3 4 4 4 4 4 5 4 l 4 l 4 4 4 l l l l l l l 4 4 4 l l l 4 l 4 3 5 4 4 4 4 4 4 4 4 4 l 4 4 4 4 4 4 4 4 4 4 4 4 4 4 4 4 4 4 4 4 4 4 4 4 4 4 4 4 3 3 3 3 3 3 3 3 3 3 3 3 3 3 5 5 5 5 5 5 5 5 5 5 5 5 5 7 7 } } } 6 6 2 | 8 1 9 c A B G J q ).C y H A o Z Z +   . @ % 5 : > ^ z.*.R.A.$.$.7 ' _ | @ $ + + @ z F f A M z K ^.o L G -.x c 0 1 8 | 2 6 6 } } } 7 7 7 5 5 5 5 5 5 5 5 5 5 5 5 5 3 3 3 3 3 3 3 3 3 3 3 3 4 4 3 5 3 4 4 4 4 4 4 4 4 3 4 4 4 4 4 4 4 3 4 4 4 4 4 4 4 4 4 4 4 4 4 4 4 4 3 7 4 4 4 4 4 l 4 4 4 4 4 4 4 4 4 l 4 l 4 4 4 4 4 4 4 4 4 4 4 4 4 4 4 4 4 4 4 4 4 l l l l l l l l l l l 4 l l 4 4 l l 4 l 4 4 4 4 4 4 4 4 4 4 4 4 4 4 4 4 4 4 4 4 4 4 4 4 4 4 4 4 3 4 3 3 3 3 3 3 3 5 5 5 5 5 7 5 5 5 5 5 5 5 3 5 5 5 5 5 7 7 } } } 6 2 | 8 1 0 c A B G J p ~.I B K x w I -..   .     6 ^ % U #.+.I.",
"@+*.#.( ! < 1   . @ = @ E F t A H y F ,.C F M x a 9 | 6 } 7 7 5 3 3 4 l l l W W W W W W W W W W W V W V V V V V V V V V V V V T T T T T T T T T T T T T T T T T T T T T T T T T T T T T T T T T T T T T T T T T T T T T T T T T T T U T U T V V V T T T T T V T T T T T T T T T U T U U U T T U U U U U U T T T T T T V T T T T T T T T V V T T T T T T T T T T T T T T T T T T T T T T V W V V V V V V V V V V V V V V W W W W W W W W W W W W W l l l 4 4 3 3 5 7 7 } 6 2 9 a A -.F Z !.Y x K ;.o D Y +   . # . 7 [ , / M.*.R.A.$.$.7 - S b   $   + @ y F g ;.M x -.~.u I M x c 9 | 2 } 7 7 5 3 4 4 4 l l l l l W W W W W W W W W W W V V V V V V V V V V V V V V V T T T T T T T T T W T T T T T V V T V T T T T T T T T T T T T T T T T T T T T T T T T T T T T T T T T V T T T T T T T T T T T T T T T T T T T T T U U U U U U U U U U U U U T U U T U T T T T T T T T T T T T T T T T T T T T T T T T V T V W V V T T T T V T V T V V V V V W W W W W W W W W W V V W W W W W l l l 4 3 3 3 5 } } 2 | 9 a x M F C {.F z H ;.v I -..   $ . + 2 / ; U ` +.Q.",
"R.*.#.[ ' < | @ @ #   . E E r ;.H A F !.D K z ;.9 2 } 5 3 4 4 l W V V T T T U U U U U U U S S S S S S S S S S S S S S : : : : : : : : : : : : : : < < < < : < : : : : : : < < < : : < < < < : : < < < < < < < < < < < < < : : : < < : < < : : < < < : : : : < < < < < < < < < < < < < < < < : < < < < < < < < < : < : : < : : : : S : : : < < < < < : < < < < < < : < < : : : : : : : : : : : : : : S S S : S S S S S S S S S S S S U U U T U U U U T T T V V W l 4 4 5 5 } 2 9 d y H L 4.D ;.M d p Y Z .   + &   3 ( = _ M.*.R.A.$.$.5 - / 0 . $   . . B I g ;.B A B {.Z H z ;.0 | } 5 3 4 l l l V V T T T U U U U U U U U S S U U S S S S S S S S S : : : : : : : : : : : : : : : : : : S : : : : S : : : : < : : < : : : : : : : < : : < < < < < < < < < < < < < < : < < : < < < < < < : < < : < < < < < : < < < < < < < < < < < < < < < < < < < < < < < < < < < < < < < < < < < : < : : < : : : : : : : : : : : : < < : : : : : : : S : : : S U S S U U U S U U U U S S U U U U T T T V W W W 4 4 3 7 } | 0 d z H D >.G x H d s E K   & * @ + | _ > : @.$.A.",
"@+*.%.[ - { | & * .   . I E r d M A F 1.J M A b 8 } 5 3 4 l l V V T U U U S S S S S S : : S : : : : : : : < < < < < < < < < < < < < < < < [ [ [ [ [ [ [ [ [ [ [ [ [ [ [ [ [ [ [ [ < [ [ [ [ [ [ [ [ [ [ [ [ [ [ [ [ [ [ < [ < [ [ [ [ ( [ [ [ [ [ [ [ [ [ [ [ [ [ [ [ [ [ [ [ [ [ [ ( ( ( ( [ [ ( [ [ [ [ [ [ [ < [ [ [ [ [ < [ < [ [ [ [ [ [ < [ [ [ [ [ [ [ [ [ [ [ [ < [ < < < < < [ < < < < < < < < : : < : < < : < : : : : : : : : : S S S S S S U U U T V W W l 4 3 5 } 8 a A -.E 3.D d -.d p Y C + .   &   7 { > { M.*.R.A.$.=.7 - / b . $ @ . . z I g ;.-.;.z '.D M x a 8 6 5 3 4 l W V V T U U U S S S S S S : : : : : : : : : : : < < < < < < < < < < < < [ < < < [ [ [ < [ < < [ [ [ [ [ < < [ [ [ [ [ [ [ [ [ [ [ [ [ [ [ [ [ [ [ [ [ [ [ [ [ [ [ [ [ [ [ [ [ [ < [ [ [ [ [ [ [ [ [ [ [ [ [ [ [ [ [ [ [ [ [ [ [ [ [ [ ( [ [ [ [ [ [ [ [ [ [ [ [ [ [ [ [ [ [ [ [ [ [ [ [ [ [ [ [ [ [ [ [ [ [ [ [ [ [ [ [ [ [ [ [ [ [ < < < < < < : < : : : : : : : : : S S S : S : S S S S S U T V V W W l 4 3 7 } 8 b A -.J 1.H A G d v E K + @ = .   | { > <  .$.A.",
"R.*.%.: ; ( 2 = & .   . I E r c M ;.F 4.E B ;.0 | 7 3 4 l l V T T U S S : : : : < < < : : < < < < < < < [ [ [ [ [ [ [ [ [ < [ [ [ ( ( ( ( ( ( ( ( ( ( ( ( ( ( ( ( ( ( ( ( ( ( ( ( ( ( ( ( { ( ( { ( { { { { { { { { { { [ ( ( { { { { { ( { ( { { ( ( ( { { { { { { { { { { { { { { { { { { { ( { { { { < < < [ [ ( ( ( { ( ( ( ( ( ( { { { { { ( ( ( ( [ [ ( ( ( ( ( ( ( ( ( ( ( ( ( ( ( ( ( [ [ [ [ [ [ [ [ [ [ [ [ [ [ [ < < < < < < < < < < : : : : S S U U T V W l 4 5 } | 0 ;.B I 3.L c B d o Y Y .   . . # 3 [ , _ M.*.R.A.$.$.5 - ^ 0 . @ . & . y I g d B ;.y ).J B A 0 | } 3 4 l W V T T U S S : : : < < < < < < < < < < < < < [ [ [ [ < < [ [ [ [ [ [ [ ( ( ( ( ( ( ( ( ( ( ( [ ( ( ( ( ( ( [ ( ( ( ( { ( { ( ( ( ( { { { ( { ( ( ( { { { ( { { { { { { { { { { { ( ( ( { { ( ( ( { { { { { { ( ( ( { { ( { { { { { { { { { { { { { { { { { { { { { ( ( ( { ( { ( ( ( ( ( ( ( ( ( ( { { { ( ( ( ( ( ( ( ( ( ( ( ( ( ( ( [ [ [ [ [ < [ [ [ < < < < < < < < < : : < < < < : : : S U T T T V 4 l 4 3 7 | 0 ;.B E 1.K ;.B ;.t I K .     $ @ 9 ( ' ( ` $.A.",
"@+*.&.S - : 1 * + .   . E E m d B d G 2.F z d 0 2 7 4 4 l V T T U : : < < < < [ [ [ [ [ [ [ [ [ [ ( [ ( ( ( ( ( ( ( ( ( ( ( ( ( { { { { { { { { { { ( { { { { { { _ { { { _ _ _ _ _ _ _ _ _ _ { _ _ _ _ _ _ _ _ _ _ _ _ { _ _ _ _ _ _ _ _ _ _ _ _ _ _ _ _ _ _ _ _ _ _ _ _ _ _ _ _ _ _ _ _ _ { { _ _ _ _ _ _ _ { ( { { { { { { { { { _ { _ _ _ { ( _ { ( _ { [ ( { { { { { { { { { { { { { { { { { ( ( ( ( ( ( ( ( ( ( ( ( [ ( [ [ [ [ [ [ [ [ [ [ [ < < < : : S U T V W l 4 7 2 0 d z F #+J c -.c p D L @   + @ . 3 : ; ( M.*.R.A.=.$.5 - / 0 + $ @ @ + z I f ;.z d x >.E z d 0 2 7 4 l W V T U S S : < < < < [ [ [ [ [ [ [ [ [ ( [ [ [ [ ( [ [ ( ( ( ( ( ( ( { { { { { { { { { { { { { { { { { { _ _ { { { _ _ _ _ _ _ _ { _ _ { { _ _ _ { _ _ _ _ _ _ _ _ _ _ _ _ _ _ _ _ { { _ _ _ _ _ _ _ _ _ _ _ _ _ _ _ _ _ _ _ _ _ _ _ _ _ _ _ _ _ _ _ _ _ _ _ _ _ _ _ _ _ _ _ _ _ _ _ _ _ _ _ _ { { { _ _ _ _ _ { _ { { { { { { { { { { { { ( { ( ( ( [ ( ( [ [ [ [ [ [ [ [ [ [ < [ [ [ [ [ [ < < : U U U T V W l 4 7 2 9 d z I 1.K d B d v I H . $   #   2 ^ - < @.+.Q.",
"R.*.&.T > [ 6 @ . + . . I E r d B d G 2.F y c 9 2 5 4 l W V U S : < < [ [ ( ( ( ( ( ( ( ( ( ( ( ( { { { { { { { { { { { { { { { { _ _ { _ _ _ _ _ _ _ _ _ _ _ _ / / / / / / / / / / / { _ / / / / / / / / / / / / / / / / / / / / / / / / / / / / / / / / / / / / / / / / / / / / / / / / / / _ { _ / / _ / / / _ / / / / _ / / _ / _ { _ / / _ [ _ / { { { _ _ _ / / / / / _ _ _ _ _ { _ _ _ _ _ _ { { { { { { { { { { { ( ( { { ( ( ( ( ( ( ( ( ( ( [ [ < < : S U T V W 4 5 2 1 c y G #+J c -.c u D D   @ @ + . 5 < ~ { M.*.R.A.$.=.} ; _ 0 .   $ . . y F e ;.z c x >.I z d 9 6 5 l W V T U S : < < [ [ ( ( ( [ [ ( ( ( ( ( ( { { { ( ( { ( { { { { { { _ _ _ _ _ _ _ _ _ _ _ _ _ _ _ _ _ _ / _ _ / / _ _ / / / / / / / / / / / _ / / / / / / / / / / / / / / / / / / / / / _ / / / / / / / / / / / / / / / _ / / / / / / / / / / / / / / / / / / / / / / / / / / / / / / / / / / / / _ _ / / / / / / / / / _ _ _ _ _ _ _ _ _ _ _ _ _ _ { { { { { { [ ( [ < [ < ( [ ( ( ( ( ( ( ( ( ( [ [ : : S U T V W l 5 6 9 c y F 1.M c B d j E M .   @ @   1 ( ; S #.+.I.",
"R.*.&.T , / 6 @ . # @ & I E m c B c H 3.G y c 9 6 5 l W V T S : < [ [ ( ( { { { { { { { { { { _ _ _ _ _ { _ _ / _ _ / / / / / / / _ / / / / / / / / / / / / ^ / ^ ^ / ^ ^ ^ ^ ^ ^ / ^ _ / ^ ^ ^ ^ ^ ^ ^ ^ ^ ^ ^ ^ ^ ^ ^ ^ ^ ^ ^ ^ ^ ^ ^ ^ ^ ^ ^ ^ ^ ^ ^ ^ ^ ^ ^ ^ ^ ^ ^ ^ ^ ^ ^ ^ ^ ^ ^ ^ ^ ^ ^ ^ / / ^ ^ ^ ^ ^ ^ ^ ^ ^ ^ ^ ^ ^ / / / ^ / ^ / / / / / ^ ^ / / ^ ^ ^ / / / { / / / _ / / _ / / / / / _ / _ _ _ _ _ _ _ _ _ _ { _ _ _ { { { { { { ( { { { ( ( [ < : S U V W l 3 6 1 a x H j.E a -.a q D L   & $ @ + 5 < - / M.*.R.A.$.=.} = ( b . *   $ . y F g ;.z c A !.I y c 1 6 5 l W V T U : < [ [ ( ( ( { { { { { { { { { _ _ _ _ _ _ { _ _ _ _ _ _ / / / / / / / / / / / / / / / / / / / / ^ / ^ ^ ^ / ^ ^ ^ ^ ^ ^ ^ ^ ^ ^ ^ ^ ^ ^ ^ ^ ^ ^ ^ ^ ^ ^ ^ ^ ^ ^ ^ ^ ^ ^ / ^ ^ / ^ ^ ^ ^ ^ ^ ^ ^ ^ ^ ^ ^ ^ ^ ^ / ^ ^ ^ ^ / ^ ^ ^ ^ ^ ^ ^ ^ ^ ^ ^ ^ ^ ^ ^ ^ ^ ^ ^ ^ ^ ^ ^ ^ ^ ^ ^ ^ ^ / ^ ^ ^ / / ^ / ^ ^ ^ / / ^ / / / / / / / / / / / / _ _ _ _ _ _ _ _ _ _ _ _ _ { { { { { { { ( { { { ( ( < < S U T V W l 5 6 1 c x G 4.-.c -.d v F M . @   @ @ 6 / > V %...I.",
"R.*.&.W , _ 6 .   + @   I E m c B c H 3.G x a 1 } 3 W V T U S : < [ ( { { { _ _ _ _ _ _ _ _ / / / / / / / / / / / / / / / / ^ / ^ ^ ^ ^ ^ ^ / ^ ^ ^ ^ ^ ^ ^ ^ ] ^ ^ ^ ] ] ^ ] ^ ^ ^ / ^ ^ / ] ] ] ] ] ] ] ] ] ] ] ] ] ] ] ] ] ] ] ] ] ] ] ] ] ] ] ] ] ] ] ] ] ^ ^ ^ ] ] ] ] ] ] ] ] ] ] ] ] ] ] ] ^ ] ^ ] ] ] ] ] ] ] ] ] ] ] ] ^ ^ ^ ^ ^ ^ ^ ^ ^ ^ / ^ ] ^ ^ ^ ^ ] ^ ] ^ ^ ] ^ ^ ^ ^ ^ / ^ ^ ^ ^ ^ ^ ^ / / / / / / / / / / / / / _ / _ _ _ _ _ _ _ _ _ { ( ( [ : S U T V l 4 } 8 a A K i.E a -.c o Y D @ $ . . . 5 ( , _ M.*.R.Y.$.=.7 ; { 0 . # . .   y F g d y c A 1.F x a 1 6 3 W V T U S : < [ ( { { _ _ _ _ _ _ _ _ _ _ / / _ _ / / / / / / / / / / / / ^ ^ ^ ^ ^ ^ ^ ^ ^ ^ ^ ^ ^ ^ ^ ^ ] ^ ^ ^ ] ] ^ ^ ] ] ] ] ] ] ] ] ] ] ] ] ] ] ^ ] ] ] ] ] ] ] ] ] ] ] ] ] ^ ^ ^ ] ^ ] ] ] ] ] ] ] ] ] ] ] ] ] ] ] ] ^ ] ] ] ] ] ] ^ ] ] ] ] ] ] ] ] ] ] ] ] ] ] ] ] ] ] ] ] ] ] ] ] ] ] ] ] ^ ] ^ ^ ^ ^ ^ ^ ^ ] ] ^ ] ^ ^ ^ ^ ^ ^ ^ ^ ^ ^ ^ ^ / / / / / / / / / / / / / / _ _ _ { { _ _ _ _ { { [ [ < : U T V W 3 } 1 a x G 4.-.a B d w G M . .       2 _ - l %...I.",
"R.*.&.W = { 6     .   + E E r c B c K 3.H A a 8 } 4 W V T S : < [ ( { _ _ / / / / / / / / / / / / / / ^ ^ / ^ ^ ^ ^ ^ ^ ^ ^ ^ ^ ^ ] ] ] ] ] ] ] ] ] ] ] ] ] ] ] ] ] ^ ] ] ] ~ ] ] ] ] / ~ ~ ] ] ~ ~ ~ ] ] ] ~ ] ] ~ ~ ~ ] ~ ~ ~ ~ ~ ~ ~ ~ ~ ~ ~ ~ ] ] ] ] ~ ~ ~ ~ ] ~ ~ ~ ~ ~ ~ ] ] ] ~ ~ ~ ~ ~ ~ ~ ~ ~ ~ ~ ~ ~ ~ ~ ~ ~ ] ] ] ] ] ] ] ] ] ] ] ] ] ] ^ ] ] ] ] ] _ ~ ~ ] ] ] ~ ] / ^ ] ] ] ^ ] ^ ] ] ^ ^ ^ ^ ^ ^ ^ ^ ^ ^ / ^ ^ ^ / / / / / / / / / _ _ _ _ { ( [ < : S U V W 4 7 8 b A K i.E b z c o D L   @ . . . 7 < > _ M.*.R.Y.$.=.} - _ 9 . . . + . z I j d y a ;.2.G A a 8 } 4 W T U S : < [ ( { _ _ / / / / / / / / / / / / / / / ^ ^ ^ ^ ^ ^ ^ ^ ^ ^ ^ ^ ] ] ] ] ] ] ] ] ] ] ] ] ] ] ] ] ] ] ] ] ] ] ~ ~ ~ ~ ] ~ ] ~ ] ] ~ ] ] ~ ] ~ ~ ~ ] ] ] ] ] ~ ~ ~ ] ] ] ] ] ] ] ] ~ ] ] ] ] ] ~ ~ ~ ~ ~ ~ ~ ~ ~ ~ ~ ~ ~ ~ ] ~ ~ ] ] ] ] ] ] ~ ~ ~ ~ ~ ~ ~ ~ ~ ~ ~ ~ ~ ~ ~ ~ ~ ~ ~ ~ ~ ] ] ] ] ] ] ] ] ] ] ] ] ] ] ] ] ] ] ] ] ] ] ^ ^ ^ ^ ^ ^ ^ ^ ^ ^ ^ ^ ^ ^ ^ / / / / / / / / / _ / _ _ _ { ( [ < : S U V W 4 7 8 a A H 2.B c -.c v G K . @ $ $ . } < ) V %.+.I.",
"R.*.&.T = { 2 @ @ .   + I I r d B a K 3.H A b 8 7 4 V T U S : [ ( { _ / / / / / / / / / / ^ ^ ^ ^ ^ ^ ^ ^ ^ ^ ^ ^ ^ ^ ] ] ] ] ] ] ] ] ] ] ] ^ ] ] ~ ~ ~ ~ ~ ~ ~ ~ ~ ~ ] ] ] ] ~ ] ] ~ ~ ~ ~ ~ ~ ~ ~ ~ ~ ~ ~ ~ ~ ~ ~ ~ ~ ~ ~ ~ ~ ~ ~ ~ ~ ~ ~ ~ ~ ~ ] ] ] ] ~ ~ ~ ~ ~ ~ ~ ~ ~ ~ ~ ~ ] ~ ] ~ ~ ~ ~ ~ ~ ~ ~ ~ ~ ~ ~ ~ ~ ~ ~ ~ ] ] ] ] ] ~ ~ ~ ~ ~ ~ ~ ~ ] ~ ~ ] ~ ~ ] ~ ~ ~ ~ ~ ~ ~ ~ ~ ] ] ] ] ] ] ] ] ] ] ] ^ ^ ^ ^ ^ ^ ^ ^ ^ ^ ^ ^ ^ ^ ^ / / / / / / / / / _ { ( [ < S U T V l 7 | b ;.K j.E b y c m Y D     . . . 5 [ > _ M.*.R.Y.$.=.} = _ b . . . + $ x I j ;.y a ;.4.F x a 8 7 4 V T S : < [ ( { _ / / / / / / ^ / ^ / ^ / / / ^ ^ ^ ^ ^ ^ ^ ^ ^ ^ ^ ] ] ] ] ] ] ] ] ] ] ] ] ] ] ] ] ~ ~ ~ ~ ~ ~ ~ ~ ~ ~ ~ ~ ~ ~ ~ ~ ~ ~ ~ ~ ~ ~ ~ ~ ~ ~ ~ ~ ~ ~ ~ ~ ~ ~ ~ ~ ] ~ ] ~ ~ ~ ~ ~ ~ ~ ~ ~ ~ ~ ~ ~ ~ ~ ~ ~ ~ ~ ] ~ ~ ~ ~ ~ ~ ~ ~ ~ ~ ~ ~ ~ ~ ~ ~ ~ ~ ~ ~ ~ ~ ~ ~ ~ ~ ~ ~ ~ ~ ~ ~ ~ ~ ~ ~ ~ ~ ~ ~ ~ ~ ~ ~ ~ ~ ~ ] ] ] ] ] ] ] ] ] ] ] ] ] ] ] ] ] ^ ^ ] ^ ^ ^ ^ ^ ^ ^ ^ ^ ^ ^ / / / / / / / / _ ( [ [ < S U T V 4 7 8 a A H 1.z a -.c v F M   . @ @ $ 3 ^ - V %.+.I.",
"R.*.&.T = ( |     + @ + I E r a B a K 3.K A b | 7 4 V T S : < [ ( { _ / / / / / / / ^ ^ ^ ^ ^ ^ ^ ^ ^ ^ ^ ^ ^ ] ] ] ] ] ] ] ] ] ] ] ] ] ~ ~ ~ ~ ~ ~ ~ ~ ~ ~ ~ ~ ~ ~ ~ ~ ~ ~ ~ ~ ^ ~ ~ ~ ~ ~ ~ ~ ~ ~ ~ ~ ~ ~ ~ ~ ~ ~ X ~ ~ ~ ~ ~ ~ ~ ~ ~ ~ ~ ~ ~ ~ ~ ~ ~ ~ ~ X X X ~ ~ ~ ~ ~ ~ ~ ~ ~ ~ ~ ~ ~ ~ ~ ~ ~ ~ ~ ~ ] ~ ~ ~ ~ ~ ~ ~ ~ ~ ~ ] ~ ~ ~ ~ ~ ~ ~ ~ ~ ~ ~ ~ ~ ~ ] ~ ~ ~ ~ ~ ~ ~ ~ ~ ~ ] ] ~ ] ] ] ] ] ] ] ] ] ] ] ^ ^ ] ^ ] ^ ^ ^ ^ ^ ^ ^ ^ ^ ^ ^ / / / / / _ { ( [ < : S T V l 5 | 0 ;.M i.E b y c n Y D .   . . $ 5 [ , ^ M.*.R.A.$.$.7 = _ a . .   * @ x F j A x a ;.!.F A b 8 7 4 V U S : < [ ( { _ / / / / ^ ^ ^ ^ ^ ^ ^ ^ / ^ ^ ^ ^ ^ ^ ] ] ] ] ] ] ] ] ] ] ] ] ] ~ ] ~ ~ ~ ~ ~ ~ ] ~ ~ ~ ~ ~ ~ ~ ~ ~ ~ ~ ~ ~ ~ ~ ~ ~ ~ ~ ~ ~ ~ ~ ~ ~ ~ ~ ~ ~ ~ ~ ~ ~ ~ ~ ~ ~ ~ ~ ~ ~ ~ ~ ~ ~ ~ ~ ~ ~ ~ ~ ~ ~ ~ ~ ~ ~ ~ X ~ ~ ~ ~ ~ ~ ~ ~ ~ ~ ~ ~ ~ ~ ~ ~ ~ ~ ~ ~ ~ ~ ~ ~ ~ ~ ~ ~ ~ ~ ~ ~ ~ ~ ~ ~ ~ ~ ~ ~ ~ ~ ~ ~ ~ ~ ~ ~ ~ ~ ] ] ] ] ] ] ] ] ] ] ] ] ] ] ] ] ] ] ^ ^ ^ ^ ] ^ ^ ^ ^ ^ ^ ^ ^ ^ / / / / _ { ( [ < : S T V 4 7 8 b A H 1.y a B c t E K .         } [ = W %.$.Q.",
"R.*.&.W - { 2   @ .   . I J r c B a M 3.K A b | 7 l V U S : < [ ( { _ / / / / ^ ^ ^ ^ ^ ^ ^ ^ ^ ^ ^ ^ ^ ^ ] ] ] ] ] ] ] ] ] ] ] ] ~ ~ ~ ~ ~ ~ ~ ~ ~ ~ ~ ~ ~ ] / ~ ~ ~ ~ ~ ~ ~ ~ ~ ~ ~ ~ ~ ~ ~ ~ ~ ~ ~ ~ ~ ~ X X ~ X ~ X ~ X ~ ~ X ~ X X X ~ X X ~ ~ X X X ~ ~ ~ X X ~ ~ ~ ~ ~ X X X ~ ~ ~ ~ ~ ~ X ~ ~ ] ~ ~ ~ ~ ~ ~ ~ ~ ~ ~ ~ ~ ~ ~ ~ ~ ~ ~ ~ ~ ~ ] X X ~ ] ~ ~ ~ ~ ~ ~ ~ ~ ~ ~ ~ ~ ~ ~ ~ ] ] ] ] ] ] ] ] ] ] ] ] ] ] ] ] ] ] ] ^ ^ ^ ^ ^ ^ ^ ^ ^ ^ ^ / / _ { ( [ < : S U V l 5 | 0 ;.M i.J b z c n Y Y .   . . . 5 ( , ^ M.*.R.A.$.$.} = / 1 * & $ . . y F j ;.y a ;.4.G A b 8 7 4 T U S : < ( ( { _ / / / ^ ^ ^ ^ ^ ^ ^ ^ ^ ^ ^ ^ ^ ] ] ] ] ] ] ] ] ] ] ] ] ~ ~ ~ ~ ~ ~ ~ ~ ~ ~ ~ ] ~ ~ ~ ~ ~ ~ ~ ~ ~ ~ ~ ~ ~ ~ ~ ~ ~ ~ ~ ~ ~ X X X X X ~ X ~ ~ ~ ~ ~ ~ ~ ~ ~ ~ ~ ~ ~ ~ ~ ~ ~ ~ ~ ~ ~ ~ ~ ~ ~ ~ ~ ~ ~ ~ ~ ~ ~ X X X ~ X ~ X ~ ~ ~ ~ ~ ~ ~ ~ ~ ~ ~ ~ ~ ~ ~ ~ ~ X ~ X X X X ~ ~ ~ ~ ~ ~ ~ ~ ~ ~ ~ ~ ~ ~ ~ ~ ~ ~ ~ ~ ~ ~ ~ ~ ] ] ] ] ~ ] ] ] ] ] ] ] ] ^ ^ ^ / ^ ^ ^ ^ ^ ^ ^ ^ ^ ^ ^ _ / / _ { ( [ < : S T V l 7 | b A H 1.y a B c s E K . @ . $ @ 6 ( > W %.$.Q.",
"R.$+&.S , [ 2 .   . & + J E m a -.a -.3.K A b | 7 l V U S : < [ ( { _ _ / / / / / / ^ ^ ^ ^ ^ ^ ^ ^ ^ ^ / ^ ] ] ] ] ] ] ] ] ] ] ] ] ] ~ ~ ~ ~ ~ ~ ~ ~ ~ ~ ~ ~ ~ ~ ~ ~ ~ ~ ~ ~ ~ ~ ~ ~ ~ ~ ~ ~ ~ ~ ~ ~ ~ ~ ~ ~ X X ~ ~ ~ ~ ~ ~ ~ ~ X X ~ X X X X X X X ~ ~ ~ ~ ~ X ~ X ~ ~ X X X X X X ~ X X ~ X ~ ] ~ ~ X X ~ ~ ~ ~ ~ ~ ~ ~ ~ ~ ~ ~ ~ ~ ~ ~ ~ ~ ~ ] ~ ~ ~ ~ ~ ~ ~ ~ ~ ~ ~ ~ ~ ~ ~ ~ ~ ~ ] ] ~ ] ] ] ] ] ] ] ] ] ] ] ] ] ] ] ^ ] ^ ^ ^ ^ ^ ^ ^ ^ ^ ^ / / / _ { ( [ [ : S U V l 5 | 0 ;.M i.J b z a o D Y   . $ @   5 U ' / M.*.Y.A.$.$.} = _ 9 $ @ . . . z F j ;.z c ;.4.G A b | 7 l T U S : < [ ( { _ / / / / / / ^ ^ ^ ^ ^ ^ ^ ^ ^ ^ ^ ^ ] ] ] ] ] ] ] ] ] ] ] ~ ~ ~ ~ ~ ~ ~ ~ ~ ~ ~ ~ ~ ~ ~ ~ ~ ~ ~ ~ ~ ~ ~ ~ ~ ~ ~ ~ ~ ~ ~ ~ ~ ~ ~ ~ X ~ X ~ X ~ X X ~ ~ ~ ~ ~ ~ ~ ~ ~ ~ ~ ~ ~ ] ~ ~ ~ X ~ ~ ~ ~ X ~ X ~ ~ ~ ~ ~ ~ ~ X ~ X X X ~ ~ X ~ ~ ~ ~ ~ ~ ~ ~ ~ ~ ~ ~ ~ ~ ~ X X X ~ ~ ~ ~ ~ ~ ~ ~ ~ ~ ~ ~ ~ ~ ~ ~ ~ ~ ~ ~ ~ ~ ~ ~ ] ] ] ] ] ] ] ] ] ] ] ] ] ^ ^ ^ ^ ^ ^ ^ ^ ^ ^ ^ ^ ^ ^ ^ / / / _ { { [ < : S U V l 7 | b A H 1.y a -.c t I H . .   @   | _ ; T #.=.A.",
"R.$+&.U - { 2   $ . . . J E m a -.c -.3.K A b | 7 l V U S : < [ ( { { _ / / / / / / / ^ ^ ^ ^ ^ ^ ^ ^ ^ ^ ^ ^ ^ ] ^ ] ] ] ] ] ] ] ] ] ] ] ] ~ ~ ~ ~ ~ ~ ~ ~ ~ ~ ~ ~ ~ ~ ~ ~ ~ ~ ~ ~ ~ ~ ~ ~ ~ ~ ~ ~ ~ ~ ~ ~ ~ ~ ~ ~ ~ ~ ~ ~ ~ ~ ~ ~ ~ ~ ~ ~ ~ ~ ~ ~ ~ ~ ~ ~ ~ ~ ~ ~ ~ ~ ~ ~ ~ ~ ~ ~ ~ ~ ~ ~ ] ~ ~ ~ ~ ~ ~ ~ ~ ~ ~ ~ ~ ~ ~ ~ ~ ~ ~ ~ ~ ~ ~ ] ~ ~ ] ~ ~ ~ ] ] ~ ~ ~ ] ~ ] ^ ] ~ ~ ~ ] ] ] ] ] ] ] ] ] ] ] ] ] ] ] ] ^ ^ ^ ^ ^ ^ ^ ^ ^ ^ ^ ^ ^ / / / / / / _ _ { ( [ < : S U V l 5 | 0 ;.M i.J b z a p D Y . .   @   8 T , ^ M.*.R.Y.=.$.} ; / 1 . # + .   z I j d y c A 1.G A b | 7 l T U S : < [ ( { _ _ / / / / / / ^ / ^ ^ ^ ^ ^ ^ ^ ^ ^ ^ ^ ] ] ] ] ] ] ] ] ] ] ] ] ] ] ~ ~ ~ ~ ~ ~ ~ ~ ~ ~ ~ ~ ~ ~ ~ ~ ~ ~ ~ ~ ~ ~ ~ ~ ~ ~ ~ ~ ~ ~ ~ ~ ~ ~ ~ ~ ~ ~ ~ ~ ~ ~ ~ ~ ~ ~ ^ ~ ^ ~ ~ ~ ~ ~ ~ ~ ~ ~ ~ ~ ~ ~ ~ ~ ~ ~ ~ ~ ~ ~ ~ ~ ~ ~ ~ ~ ~ ~ ~ ~ ~ ~ ~ ~ ~ ~ ~ ~ ~ ~ ~ ~ ~ ~ ~ ~ ~ ~ ~ ~ ~ ~ ~ ~ ~ ~ ~ ~ ~ ~ ~ ~ ~ ~ ~ ~ ~ ] ] ] ] ] ] ] ] ] ] ] ] ^ ^ ^ ^ ^ ^ ^ ^ ^ ^ ^ ^ ^ / / ^ ^ / / / / / _ _ { ( [ < : S U V l 7 | b A H 4.z a B c t I K . . +     2 / - U #.=.Y.",
"R.$+&.U ; ( | .   + . . E E r c B c -.2.H A b | 7 l V U S S < [ ( ( { _ _ _ _ / / / / / / / / ^ ^ ^ ^ ^ ^ ^ ^ ^ ^ ^ ^ ^ ^ ^ ] ] ] ] ] ] ] ] ] ] ] ] ] ] ] ] ] ] ~ ~ ~ ~ ~ ] ] ~ ] ~ ~ ~ ~ ~ ~ ~ ~ ~ ~ ~ ~ ~ ~ ~ ~ ~ ~ ~ ~ ~ ~ ~ ~ ~ ~ ~ ~ ~ ~ ~ ~ ~ ~ ~ ~ ~ ~ ~ ~ ~ ~ ~ ~ ~ ~ ] ] ~ ~ ~ ~ ~ ~ ~ ~ ~ ~ ~ ~ ~ ~ ~ ~ ~ ~ ~ ~ ~ ~ ~ ] ~ ] ] ] ] ] ~ ] ~ ~ ~ ] ] ] ] ] ] ] ] ^ ] ] ] ] ] ] ] ] ] ] ] ] ] ] ^ ^ ^ ^ ^ ^ ^ ^ ^ ^ ^ ^ / ^ ^ / / / / / / / / _ _ _ { { ( [ < : S U V l 7 | 0 ;.M i.J b z c o Y D .   #     3 S - / M.*.R.A.=.$.7 ; / 9 . * . + . z F j ;.z a ;.1.G A b 8 7 l T U S : < [ ( { { _ _ _ / / / / / / / / / ^ / / / ^ ^ ^ ^ ^ ^ ^ ^ ^ ^ ^ ] ] ] ] ] ] ] ] ] ] ] ] ] ] ] ~ ~ ~ ~ ~ ~ ~ ~ ~ ~ ~ ~ ~ ~ ~ ~ ~ ~ ~ ~ ~ ~ ~ ~ ~ ~ ~ ~ ~ ~ ~ ~ ~ ~ ] ] ] ] ] ~ ~ ~ ~ ~ ~ ~ ~ ~ ~ ~ ~ ~ ~ ~ ~ ~ ~ ~ ~ ~ ~ ~ ~ ~ ~ ~ ~ ~ ~ ~ ~ ~ ~ ~ ~ ~ ~ ~ ~ ~ ~ ~ ~ ~ ~ ~ ~ ~ ~ ~ ~ ] ~ ~ ~ ~ ~ ~ ~ ~ ~ ] ] ] ] ] ] ] ] ] ] ] ] ] ] ] ] ^ ^ ^ ^ ^ ^ ^ ^ ^ ^ ^ / / / / / / / / / / / / { / _ _ { { ( [ < : S U V l 7 | b A H 4.B a -.c s I H . . . . + 2 { - S #.=.Y.",
"R.$+%.U = ( | . @ . . . I E r a B c -.2.H A b | 7 l V T U S : < [ ( { { { _ _ _ _ _ / _ / / / / / / / / ^ / ^ ^ ^ ^ ^ ^ ^ ^ ^ ^ ^ ^ ] ^ ^ ^ ^ ] ] ] ] ] ^ ] ] ] ] ] ] ] ] ] ] ] ^ ] ] ] ] ] ] ] ] ] ] ] ] ] ] ] ] ~ ] ] ] ~ ~ ] ] ~ ] ] ] ] ] ] ] ] ] ] ~ ] ~ ~ ~ ] ^ ] ] ~ ] ] ] ] ] ] ] ~ ~ ~ ~ ~ ~ ] ] ] ] ] ] ] ~ ] ~ ~ ] ] ] ] ] ] ] ] ] ] ] ] ] ^ ] ] ] ] ] ] ] ] ^ ] ] ] ] ] ] ^ ] ] ^ ] ^ ^ ^ ^ ^ ^ ^ ^ ^ ^ ^ / / / / / / / / / / / / / _ _ _ _ { { ( [ < < S U T V l 7 | 0 ;.M i.J b z c p D Z $ $ $   $ 3 < , / M.*.R.Y.=.$.} - _ 9 . & .   % y I j d y c ;.1.G A b | 7 l V T U S : < [ ( { { { _ _ _ _ / / / / / / / / / / / / / / ^ ^ ^ ^ ^ ^ ^ ^ ^ ^ ^ ^ ] ] ] ] ] ] ] ] ] ] ] ] ] ] ] ] ] ] ] ] ] ] ] ~ ] ~ ] ] ~ ] ] ] ] ] ] ] ] ] ] ] ] ] ] ] ] ] ] ] ] ] ] ~ ] ] ] ] ] ] ] ^ ] ] ] ] ] ] ] ~ ] ] ] ] ] ] ] ] ] ] ] ] ] ] ] ] ] ] ] ] ] ] ] ] ] ] ] ] ] ] ] ] ] ] ] ] ] ] ] ] ] ] ] ] ] ] ] ] ] ] ] ] ] ] ] ^ ^ ^ ^ ^ ^ ^ ^ ^ ^ ^ ^ ^ / / _ / / _ _ / _ / _ / _ _ _ { _ { { ( [ < : S S T V l 7 | b A H 2.B a z d s I H . . .   . 2 / - U @.$+R.",
"R.$+%.U = [ 8   @ . . . I E r a -.a -.3.H A b | 7 4 V T U S : < < [ ( ( { { { _ _ _ _ _ _ _ _ _ / _ / / / / / / / / / / / ^ ^ ^ ^ ^ ^ ^ ^ ^ ^ ^ ^ ^ ^ ^ / ^ ^ ^ ^ ^ ] ] ] ^ ] ^ / ^ ] ] ] ] ] ] ] ] ] ] ] ] ] ] ] ] ] ] ] ] ] ] ] ] ] ] ] ] ] ] ] ] ] ] ] ] ] ] ^ ] ] ^ ^ ] ] ] ] ] ] ] ] ] ] ] ] ] ] ] ] ] ] ] ] ] ] ] ] ] ] ] ] ] ] ] ] ] ^ ] ] ] ] ] ^ ^ ^ ^ ^ ] ^ ^ ] ] ] ] ^ ^ ^ ^ ^ ^ ^ ^ ^ ^ ^ ^ ^ ^ ^ / / / / / / / / / / / / / _ _ _ _ _ _ { { { ( [ < < : S U T V l 7 | b A K i.J b z a m D Y   @ @ $ # 5 < - / M.*.R.Y.$.$.7 = / b   # & @   z F j c y a A 1.G A b 8 7 l V T U U : < [ [ ( { { { _ _ _ _ _ / _ _ / / / / / / / / / / / ^ / / ^ ^ ^ ^ ^ ^ ^ ^ ^ ^ ^ ^ ^ ^ ^ ^ ^ ] ] ] ] ] ] ] ] ] ] ] ] ] ] ] ] ] ] ] ] ] ] ] ] ] ] ] ] ] ] ] ] ] ] ] ] ^ ] ] ] ] ] ] ] ] ] ] ] ] ] ] ] ] ] ] ] ] ] ] ] ] ] ] ] ^ ] ] ] ] ] ] ] ] ] ] ^ ] ] ] ] ] ] ] ] ] ] ] ] ] ] ] ] ] ] ] ] ] ] ^ ^ ^ ^ ^ ^ ^ ^ ] ^ ] ^ ^ ^ ^ ^ ^ ^ ^ ^ ^ ^ / / / / / / / / / / / / _ _ _ _ _ _ _ _ { { { ( ( [ < < : S U T V l 7 | b A H 2.-.a z d t I H . . .   . | / ; U @.$+Y.",
"R.$+%.S ; < | @ $ .   . I E r a -.a M 2.G x b 8 } 4 W V T U S : < [ [ ( ( { { { { { { _ _ _ _ _ _ _ _ _ _ _ / / / / / / / / / / / / / / / ^ ^ ^ ^ ^ ^ ^ ^ ^ ^ ^ ^ ^ ^ / ^ ^ / ^ ^ ^ ^ ^ ^ ^ ^ ^ ^ ^ ^ ^ ^ ^ ^ ^ ^ ^ ^ ^ ^ ^ ^ ^ ^ ^ ^ ^ ^ ^ ^ ^ ^ ^ ^ ^ ^ ^ ^ ^ ^ / ^ ^ / ^ ^ ^ ^ ^ ^ ^ ^ ^ ^ ^ ^ ^ ^ ] ] ^ ^ ^ ^ ^ ^ ^ ^ ^ ^ ^ ^ ^ ^ ^ ^ ^ ^ ^ ^ ^ ^ / ^ ^ ^ ^ ^ ^ ^ ^ ^ ^ { / ^ ^ ^ ^ ^ ^ ^ ^ ^ ^ / / / / / / / / / / / / / _ _ _ _ _ _ _ _ _ { { { { ( ( [ < : S U T V V 4 7 | b A K i.J b y c o L D . % & % @ 3 S > _ M.*.R.A.+.+.5 % ~ 1 . * $ @   y I g d z c ;.1.G A a 8 7 4 V T U U : < < [ ( ( ( { { { _ _ _ _ _ _ _ _ _ _ / _ _ / / / / / / / / / / / / / / / ^ ^ ^ ^ ^ ^ / ^ ^ ^ ^ ^ ^ ^ ^ ^ ^ ^ ^ ^ ^ ^ ^ ^ ^ ^ _ ^ ^ ^ ^ ^ ^ ^ ^ ^ ^ ^ ^ ^ ^ ^ ^ ^ ^ ^ ^ ^ ^ ^ ^ ^ ^ ^ ^ ^ ^ ^ ^ ^ ^ ^ ^ ^ ^ ^ ^ ^ ^ ^ ^ ^ ^ ^ ^ ^ ^ ^ ^ ^ ^ ^ ^ ^ ^ ^ ^ ^ ^ ^ ^ ^ ^ ^ ^ ^ ^ ^ ^ ^ ^ ^ ^ ^ ^ ^ ^ ^ ^ ^ ^ ^ ^ ^ ^ ^ ^ ^ ^ ^ / / / / / / / / / / / / / / / / _ _ _ _ _ _ { { _ _ _ { { { { ( ( [ [ < : S S T V W 3 } 8 a A G 4.-.a B d t I H . .     + 8 ( ; W @.=.Y.",
"R.$+&.S > < 1 . $ + . . E E m c -.c K 4.G x a 8 } 4 W V T U S : : < [ [ ( ( { { { { { { _ _ _ _ _ _ _ _ _ _ _ _ _ _ _ _ / / / / / / / / / / / / / / / / / / ^ / / / / / / / / / / ^ / ^ ^ ^ ^ ^ ^ ^ ^ ^ ^ ^ ^ ^ ^ ^ ^ ^ ^ ^ ^ ^ ^ ^ ^ ^ ^ ^ ^ ^ ^ ^ ^ ^ ^ / ^ ^ ^ / / / / ^ ^ ^ ^ ^ ^ ^ ^ ^ ^ ^ ^ ^ ^ ^ ^ ^ ^ ^ ^ ^ ^ ^ ^ ^ / ^ ^ ^ ^ ^ ^ ^ ^ ^ ^ ^ ^ ^ ^ ^ ^ ^ ^ ^ ^ ^ ^ / _ / _ ^ ^ / / / / / / / / / / _ _ _ _ _ _ _ _ _ _ _ _ _ _ { { { { { { ( ( ( ( [ < < : S U T V W 4 7 | b A K i.J b z a n D L @ & &   $ 4 S > _ M.*.R.A.+.+.7 ; [ 9 + &   . . y F g d z a ;.>.F x a 1 } 4 V V T U S : < < [ ( ( ( { { { { { _ _ _ _ _ _ _ _ _ _ _ _ _ _ / _ / / / / / / / / / / / / / / / / / / ^ / / ^ / / ^ ^ ^ ^ ^ ^ ^ / ^ ^ { / _ ^ ^ ^ ^ / ^ ^ ^ ^ ^ ^ ^ ^ ^ ^ ^ ^ ^ ^ ^ ^ ^ ^ ^ ^ ^ ^ ^ ^ ^ ^ ^ ^ ^ ^ ^ ^ ^ ^ ^ ^ ^ ^ ^ / ^ ^ ^ ^ ^ ^ / ^ ^ ^ ^ ^ ^ ^ ^ ^ ^ ^ ^ ^ / ^ ^ ^ ^ ^ / ^ ^ ^ ^ ^ ^ { { / ^ ^ ^ ^ / / / / / / / / / / / / / _ / _ / _ _ _ _ _ _ _ _ _ _ _ ( ( { { { { { { { ( ( [ [ < < : S U T V W 4 } 8 a x G 4.-.a y d t I H .   . . + | [ X U @.$+Y.",
"R.$+&.S - < | . $ . +   I E m a B c K 2.G x a 8 } 4 W V T U S S : < < [ [ ( ( ( { { { { { { { { { { { { _ _ _ _ _ _ _ _ _ _ _ _ / / / / / / / / / / / / / / / / / / / / / / / / / / / / / / / / / / / / / / / / / / / / / / / / / / / / / / / / / / / / / / / / / / / / / / / / / / / / / / / / / / / / / / / / / / / / / / / / / / / / / / / / / / / / / / / / / / / / / / _ _ _ { / / / _ / _ _ _ _ _ _ _ _ _ _ _ _ _ _ { _ { { { { { { { { ( ( ( ( [ [ [ < : S S U T V W 4 7 8 b x H j.J b x c n L D   @ + . + } 3 ; { I.*.R.A.+.+.5 ) { 0 .   @ . . z I j c z d A >.I x a 1 } 4 W V T U S S : < [ [ ( ( ( { { { { { { { { _ _ _ _ _ _ _ _ _ _ _ _ _ _ / / / / / / / / / / / / / / / / / / / / / / / / / / / / / / / / _ / / / / / / / / / / / / / / / / / / / / / / / / / / / / / / / / / / / / / / / / / / / / / / / / / / / / / / / / / / / / / / / / / / / / / / / / / / / / / / / / _ _ / / / / / / / / / / / / / / _ _ _ _ _ _ _ _ _ _ _ _ _ _ _ _ _ { { { ( { { { ( ( ( ( ( [ [ [ < : S U T T V W 4 } 8 a x G 4.-.a z c t I K .   .   . 0 T , U @.$+Y.",
"R.$+K.U ; _ 2 . $ . +   I I n c -.c H 4.G y c 8 } 3 W V V T U S : : < [ [ [ [ ( ( ( ( ( { { { { { { { { { { { { _ _ _ _ _ _ _ _ _ _ _ _ _ _ _ _ _ _ _ / _ _ / / / / / / / / / / / / / / / / / / / / / / / / / / / / / / / / / / / _ / / / / / / / / / / / / / / / / / / / / / / / / / / / / / / / / / / / / / / / / / / / / / / / / / / / / / / / / / / / / / / / / _ / _ _ _ { _ _ _ _ _ _ _ _ _ _ _ _ _ _ _ _ { _ { { { { { { { { { { { { ( ( ( ( [ [ [ < < : S U U T V W 4 } 8 a x H i.J b y c o L Y + . + . . } U - { I.*.R.A.$.+.7 ) [ 9 . .   . . y F j d B d A >.I y c 1 } 4 W V T U U S : : < [ [ ( ( ( ( { ( { { { { { { { { ( _ _ _ _ _ _ _ _ _ _ _ _ _ _ / / / / / / / / / / / / / / / / / / / / / / / / / / / / / / / / / / / / / / / / / / / / / / / / / / / / / / / / / / / / / / / / / / / / / / / / / / / / / / / / / / / / / / / / / / / / / / / / / / / / / / / _ / / / / / _ _ / / / / _ _ _ _ _ _ _ _ _ _ _ _ _ _ _ _ _ _ _ _ _ { { { { { { { { ( { { ( ( ( ( ( [ [ [ < : : S U T V W W 3 } 1 c y F 4.-.a B c t I H . @ . . . 1 S , T #.=.Y.",
"R.$+K.S = ( 6 . $   + . E E m c -.d K 4.F z d 1 } 3 W W V T U S : : < < < [ [ [ ( ( ( ( ( ( ( ( { { { { { { { { { { { { { { { _ _ _ _ _ _ _ _ _ _ _ _ _ _ _ _ _ _ _ _ _ _ _ _ _ / _ _ / / _ / / / / / / / / / / / _ / / / _ _ / / _ _ / / / / / / _ / / / / / / / / / / _ / / / / _ / _ _ / _ / _ _ _ _ / / / / / / / / / / / / / / / / / / / / / _ / _ / / _ _ _ _ _ _ _ _ _ _ _ _ _ _ _ _ _ _ { _ { { _ { { { { { { { { { { { ( { { ( ( ( ( ( ( ( [ [ < < : : S U T V W W 4 } 8 c y G j.J a z c p L D . . . .   } ( ; { I.*.R.Y.$.$.} > : 9     .   . z F g ;.z d A >.E z d 1 6 3 W V V T U S : : < < [ [ [ ( ( ( ( ( ( ( ( { { { { ( [ [ { { { { _ _ _ _ _ _ _ _ _ _ _ _ _ _ _ _ _ / _ _ _ _ / / / / / / / / / / _ _ _ / / / / / _ { _ / / / / / _ / / _ _ _ _ _ _ _ _ / _ _ _ _ _ / / / / / / / / / / / / / _ / _ / _ _ _ / _ _ _ _ _ _ _ _ / _ _ / _ / _ / / / / _ / _ _ _ _ _ _ _ _ _ _ _ _ _ _ _ _ _ _ _ _ _ _ _ _ _ _ _ _ { { { { { { { { { { { { { { { ( ( ( ( ( ( ( ( ( [ [ [ < < : : S U T V W W 4 } 1 c y F 1.-.a B c t I H +   .   . 9 : - T #.$+Y.",
"R.$+&.: - ( 2 . $ . + . E J n c M d H 1.E B ;.0 2 3 l W V V T U S S : < < < [ [ [ [ [ [ [ ( ( ( ( ( ( ( ( ( { ( { { { ( { { { { { { { { { { _ _ { { { { { { _ _ _ _ _ _ _ _ _ _ _ _ _ _ _ _ _ _ _ _ _ _ _ _ _ _ _ _ _ _ _ _ _ _ _ _ _ _ _ _ _ _ _ _ _ _ _ _ _ _ _ _ _ _ _ _ _ _ _ _ _ _ _ _ _ _ _ _ _ _ _ _ _ _ _ _ _ _ _ _ _ _ _ _ _ _ _ _ _ _ _ _ _ _ _ _ _ _ _ _ _ { _ { _ _ { _ { _ { { { { { { { { { { { { { { { { ( ( ( ( ( ( ( ( ( ( ( ( [ [ [ < < : : S U U T l l l 3 6 9 d z F j.L c B c p L D .     . $ 7 < - / I.*.R.Y.=.+.7 % { 0 . @ . + + y F g ;.z d x ).J B ;.0 2 5 l W V T U U S S : < < : < [ [ ( ( ( ( ( ( ( ( ( [ [ ( ( ( ( ( { { { { { { { { { { { { { { _ _ _ { _ _ _ _ _ { _ _ _ _ _ _ _ _ _ _ _ _ _ _ _ _ _ { { { _ _ _ _ _ _ _ _ _ _ _ _ _ _ _ _ _ _ _ _ _ _ _ _ _ _ _ _ _ _ _ _ _ _ _ _ _ _ _ _ _ _ _ _ _ _ _ _ _ _ _ _ _ _ _ _ _ _ _ _ _ _ _ _ _ { ( _ _ _ _ _ _ _ _ _ _ _ _ _ { _ { { { { { { { { { { { { { { { { { { { ( ( ( ( ( ( ( ( ( [ ( ( [ [ [ < < < < : : S U T V W W l 5 2 0 ;.B E !.M c B d t I G +   . . @ a : - V #.$+Y.",
"R.$+%.S = [ 6 .     . . I J m c -.d G >.L M x a 8 } 5 4 4 l W V T T U U S S S : : : : : : : < < < < < < < < < < < < [ [ [ < [ [ [ [ [ [ [ [ [ [ [ [ [ [ [ [ [ [ [ [ [ [ ( [ ( [ [ [ [ [ [ [ [ [ ( ( [ [ ( ( [ [ ( [ ( ( [ ( ( ( [ ( ( ( ( ( ( ( ( ( ( ( ( ( ( ( ( [ ( ( ( [ ( ( [ ( ( ( ( ( ( ( ( ( ( ( ( ( ( ( ( ( ( ( ( ( ( [ ( ( ( ( ( [ [ ( [ ( [ ( ( ( [ [ ( [ [ ( [ [ [ [ [ [ ( [ [ [ [ [ [ [ [ [ [ [ [ [ [ < [ < < < < < < < < < < < : : : S S S U U U T V W W 4 3 3 } 8 b A -.E #+D c M d p L L .   . &   } : > / I.*.Y.Y.$.+.} = ] 9 + @     + z I f ;.B ;.x ).L M x a 8 } 3 4 l W V T T U U S S S : : : : < < < < < < < < < < < < < < < [ [ [ [ [ [ [ < < [ [ [ [ [ [ [ [ [ [ [ [ [ [ [ [ [ [ [ [ [ [ ( [ [ [ ( [ [ [ ( ( [ [ < < ( ( ( ( ( ( ( ( ( ( ( ( ( ( ( ( ( ( ( ( ( ( ( ( [ [ [ [ ( [ [ [ [ ( [ ( ( ( ( ( ( ( ( ( ( ( ( ( ( ( ( [ [ [ [ [ [ [ [ [ [ [ [ [ : [ [ [ [ [ [ [ [ [ [ [ [ [ [ [ [ [ [ [ [ [ [ [ [ [ [ [ [ [ [ [ < < < < < < < < < < < < < : : : : : S S S S U U T T V W l 4 3 5 6 8 c y M L >.M d z d t F H . . .   $ 9 ( - T #.$+Y.",
"R.$+K.S = ( 2 +     . . I J n d M A F ).Y G B ;.0 8 2 7 7 5 3 4 l l W W V V V V T V T T T T U U U U U U U U U U U U U U U U S S S S S S S S S S S S S S S S S S S S S S S S S S S S S S S S S S S S S S S S S S S S S S S S S S S S S S S S S S S S S S S S S S S S S S S S S S S S S S S S S S S S S : S : : S S : S : : : : : S S S S S S S S S S S S S S S S S S S S S S S S S S S S S S S S S S S S S S S S S U U U U U U U U U T T T T T T T T V W W W l l 4 3 3 5 7 } | 0 d z H D 4.Y ;.M d p L D + @ . . @ } [ - / I.*.R.A.$.+.} - ( b     .   . z F j d -.A z ,.Z G B ;.0 | } 7 5 3 4 4 l W W V V T T T T T U U U U U U U U U U U U U U S U U S S S S S S S S S S S S S S S S S S S U S S S S S S S S S S S S S S S S S S S S U S U S S S S S S S S S S : S S S S S S S S S S S S S S S S S S S S S S S S S S S S S S S S S S S S S S S S S S S S S S S S S S S S S S S S S S S S S S S S S S S S S S S S S S S S S S S S S S S U S U U U U U T T U U U U U U T T T T T V V V V W W l l 4 3 5 } } 6 8 b ;.B G Z ,.H ;.B ;.t I G     @ . & 1 ( - T #.$+R.",
"R.$+K.S ; [ 2 . @ . + . E L m d H x E ,.u E K z d b 1 | 2 6 6 } 7 7 5 5 3 3 3 3 4 3 3 5 4 4 4 4 l l l l l l l l l l l l l l l l l l l l l l l l W l W W W W W W W W W W W W W W W W W W W W W W W W W W W W W W W W W W W W W W W W W W W W W W W W W W W W W W W W W W W W W W W W W W W W W W W W W W W W W W W W V W V V W V W W W W W W W W l l W W W W W W W W W W W W W W W W W W W W W W W W W W W l W W l l l l l l l l l l 4 4 4 4 4 4 3 3 3 3 5 5 7 7 } 6 6 2 | 8 0 d y K I C >.C A H d o L D .   + # . 6 [ - / I.*.Y.A.=.+.} = / 1 $ . + . + z F j ;.M y -.~.q E H z d b 1 | 2 6 } } 7 7 5 5 3 3 3 3 4 4 4 l l l 4 4 4 l l l l l l l l l l W W W W W W W W W W W W W W W W W W W l W W l W l l W W W W W W W W W W W W W W W W W l W W W W W W W W W W W W W W W W W W W W W W W W W W W W W W W W W W W W W W W W W W W W W W W W W W W W W W W W W W W l W l l W W W W W W W W W W W W W W l W W l l l l l l l l l W l l l l l l l l l l 4 4 l l l l l l 4 4 4 3 3 3 3 3 3 5 5 7 7 } 6 2 8 8 1 b d z H E u {.G x M ;.w I G . .     # 1 ( - T #.$+Y.",
"R.$+K.U ; [ 2 . @ . . . E D s A K y L ].o D I K y d a 0 9 9 1 8 8 | | 2 2 2 6 6 6 6 6 6 } } } } } } } } 7 7 } 7 7 7 7 7 7 7 7 7 7 7 7 7 7 7 7 7 7 7 7 5 5 5 5 5 5 5 5 5 5 5 5 5 5 5 5 5 5 5 5 5 5 5 5 5 5 5 5 5 5 5 5 5 5 5 5 5 5 5 5 5 5 5 5 5 5 5 5 5 5 5 5 5 5 5 5 5 5 5 5 5 5 5 5 5 5 5 5 5 5 5 5 5 5 5 5 5 5 5 5 5 5 5 5 5 5 5 7 } 5 5 5 5 7 5 5 5 5 7 5 5 5 5 5 5 7 5 7 5 5 5 5 7 7 5 7 7 5 7 5 7 7 7 7 7 7 7 7 7 7 7 7 7 7 7 7 } } } } } } 6 6 6 2 2 | 8 8 8 1 0 0 a d y M F D p '.u y G A n L D .   @ ; . | < - ^ I.*.R.A.=.+.7 ; / 9 # $ @ @   z F g A M B K ^.n D I K y ;.a 0 9 1 1 8 8 | | 2 2 6 6 6 6 6 } } } } } } } } } 7 7 } 7 7 7 7 7 7 7 7 7 5 7 7 5 5 5 5 5 5 5 5 5 5 7 7 7 7 7 7 5 5 5 5 5 5 5 5 5 5 5 5 5 7 5 5 5 5 5 7 7 7 5 5 7 5 7 5 7 5 5 5 5 5 5 5 5 5 5 5 5 5 5 5 5 5 5 5 5 5 5 5 5 5 5 5 5 5 5 5 5 5 5 5 5 5 5 7 5 5 5 5 5 5 5 5 5 5 5 5 7 7 5 5 5 5 5 5 5 5 5 5 5 5 5 7 7 7 7 7 7 7 7 7 7 7 7 7 7 7 7 7 7 7 7 } 7 7 } } } } } } } } } } } } } } 6 6 6 6 2 2 2 | | 8 8 1 9 0 b a ;.z K I Y n ^.E y K A v I G . .     $ 9 ( ; V #.$+R.",
"Y.$+K.U ; [ 6 . $ .     I L v x F -.Y ^.r u D F M z A ;.d c a a b 0 0 0 9 9 9 1 1 1 9 1 1 1 1 8 8 8 8 8 8 8 8 8 8 8 8 8 8 8 8 8 8 | | | | | | 8 | | | | | | | | | | | | | | | | | | | | | | | | | | | | | | | | | | | | | | | | | | | | | | | | | | | | | | | | | | | | | | | | | | | | | | | | | | | | | 2 2 2 2 | | | | | | | | | | 8 | | | | | | | | | | | | | | | | | | 8 | | | | | | 8 8 8 | | | | 8 8 8 8 8 8 8 8 8 8 8 8 8 8 1 8 8 1 1 1 1 1 1 9 9 9 0 0 b a c c ;.A y M F L C m {.p -.F ;.n D D . @ . . . | : - / I.*.Y.A.=.+.} = _ 0 @ .   .   x F g y K -.G _.s u D F K z x ;.d c a b b 0 0 0 9 9 9 1 1 1 1 1 1 1 1 9 9 9 1 8 8 8 8 8 8 8 8 8 8 8 | | 8 | | | | | | | | | | 8 | | | | | | | 2 | | | | | | | | | | | | | | | | | | | | | | | | 8 8 8 | | | | | | | | | | | | | | | | | | | | | | | | | | | | | | | | | | | | | | 8 | | | | | | | | | | | | | | | | | | | | | | | | | | | | | | | | | | | | 8 8 | 8 8 8 8 8 8 8 8 8 8 8 8 8 8 8 8 1 8 8 8 1 1 1 1 1 1 1 1 9 9 0 0 0 b b a a c d ;.x z M F D u s _.L -.G x v E F . . .   # | ( ; T #.$+R.",
"Y.$+K.U ; { 2 . @     . F L w y I K C (.w n u D F K -.B z y x x A ;.;.d d d d c c c c c c c c c a a a a a a a a a a a a a a a b a a a a b b b b b b b b b b b b b b b b b b b b b b b b b b b b b b b b b b b b b b b b b b b b b b b b b b b b b b b b b b b b b b b b b b b b b b b b b b b b 0 0 0 0 0 0 0 0 b b b 0 0 b 0 0 0 b a b b b b b 0 b 0 0 0 b b b b b b b b b b b b b b a b b a b b a a a b a a a a a a a a a a a a a a a c a c c c c c c d d ;.;.A A x y z B M F L C p t ].n M I x n D D + @ . . . 2 S > ^ I.*.Y.A.$.+.} = / 9 $ @ $ .   z F e B K K E [.w o u L I H -.z z y x A A ;.;.d d d d c c c c c c c a c a a a a a a a a a a a a a a b b b b b b b b b b b b b b b b b b 0 0 0 0 b 0 b b b b b b b b b b b b b b b b b b b b b b b b b b a a b b b b b b b b b b b b b b b b b b b b b b b b b b b b b b b b b b b b b b b b b b b b b b b b b b b b b b b b b 0 b b b b b b b b b b b b b b b b a a b b b a a a a a a a a a a a a a a a a a a c c c c c c d d d ;.;.;.A A x y y z -.K I L C o w :.Z M F y w J G . .   @ = | { ; V #.$+R.",
"R.$+%.: = { 2 . @ . .   F J t z J F q |.h s o u D J I G H K K M -.-.B B B B z z y y y y y y y y y y y y y x x x x y x x x x x x x x x x x x x x x x x x x A x x A x A A A A A x x x A A A A A A A A A A A A A A A A A A A A A A A A A A A A A A A A A A A A A A A A A A A A A A A A A A A ;.A A A A ;.;.A A A ;.A A A A A A A A A A x x A A A A A A A A A A A A A A A A A A A A x A A A A A A A x x A x A x x x x x x x x x x x x x x y y y y y y y z z z z B B -.-.M K H F E D C o r g (.r H J y m D D +   . .   2 U , _ I.$+Y.A.$.+.7 ; { 1 & @ .   & y I h B I G J ++e s o C D E F G K K M -.-.B B z z z z z z y y y y y y y y x x x x x x x x x x x x x x A A A A A A A A A A A A A A A A A A A A ;.A A A A A A A A A A A A A x A A A A A x x x x x x x A x x x x x A A A A A A A A A A A x x A x y x A A A A A A A A A A A A A A x x x x x x x x x x x x x x A A x x x x x x x x x x x x x x x x x x x x x x x x x x x x x x x x x x x x x x x x x x x x x x x x x y y y y y z z z B B B -.M K K H G F E D u o s e |.u H I B j J G . . . . & 8 ( ; T #.$+Y.",
"Y.$+&.< = S | . @ . . . I J v B Y J n W.2.Q k e j v t s m m m n n o o p p p p q q u u q q u u u u u u u u u u u u u u u q u u u u u u C C u u C C C C C C C C C C Z Z Z Z Z Z Z Z Z Z Z Z Y D Y Y Z Y Y Y Y Y Y Y Y Y Y Y Y Y Y D D D D D D Y Y Y Y Y Y Z Y Y Y Y Y Y Y Y Y Y Y Y Y Y D D D D D D D D D D Y D D D Y Y Y D D D D D Z Y D D D L D Y D D Y D Y Y Y Y D Y D D D Y Y Z D D Y D D D Y Y D Y Y Y Y Y Y Y Y Y Y Y Z Z Z Z Z Z Z Z Z Z Z Z Z Z C C C u u u q p o o n r t g h k j.U.w E D z r Y L .         7 < ! / I.*.Y.A.$...7 > / 1 & @   +   y I i -.J E Y .+#+P h g t r n o p q p q u u q u u u q q u C C C C C C C C C C Z Z C C Z Z Z Z Z Z C Y Y Y Z Y Y Y Y Y Z Y Y Z Y D D Y Y Y D D D D Y Y Y Y Y Y Y Y Y Z Z Z Z Z Z Z Z Z Y Z Z Z Z Z Z Z Z Z Z Z Z Z Z Z Y Z Y Y Y Y Z Z Y Y Y Z u C u C Y Y Y Y Y Y Y Y Y Z Z Z Z Y Z Y Z Z C Z C C C C C C C C C C C C Z C C u C C u C C u u u u u u u C C u C u u u q u u u u q q q u u q u q u u u u u q q q q q q q q p o p p p o p n m r m r s s v g h P R 4.O.o I L -.g E G . .   . # 1 { - V #.$+Y.",
"Y.=.%.[ = ( 8 . @     . F J j M u Z w C.(.^.{.).!.1.1.4.4.2.2.3.3.3.3.#+#+#+3.3.#+#+#+#+3.#+#+#+#+3.#+#+#+#+#+#+#+k.#+k.k.k.#+3.#+#+#+#+k.#+#+#+#+#+#+k.#+#+#+#+3.3.3.3.3.3.3.3.#+3.3.3.3.2.#+3.3.3.3.2.2.2.2.3.3.2.2.2.3.3.3.2.3.3.3.2.2.2.2.2.2.2.2.2.2.2.2.2.2.4.2.2.2.2.2.2.2.2.2.3.3.2.4.3.2.2.2.2.4.4.4.4.4.1.4.1.4.4.4.2.2.4.2.4.4.4.4.2.2.4.2.4.4.4.1.4.4.2.2.4.4.4.4.4.1.1.4.4.4.4.1.4.4.2.4.4.4.1.4.4.4.4.4.4.4.4.4.1.1.1.!.!.!.1.1.!.1.!.!.!.!.>.>.>.!.>.).).).).,.{.]./.(.|.J.h Y C -.t Y L . @   +   7 < > _ I.$+Y.A.$...7 = _ 1 $ .   . @ z I h M Z Y p y.<._.^.{.).!.1.1.1.4.4.4.4.2.2.2.3.3.2.2.2.3.2.2.3.3.3.3.2.3.2.3.3.3.3.2.3.#+#+#+k.#+#+3.2.#+3.3.#+#+#+#+k.k.#+#+#+#+#+#+3.#+3.#+3.3.3.3.3.3.3.2.2.3.3.2.2.2.4.2.4.2.2.2.2.2.2.4.2.2.2.2.2.2.2.3.2.3.3.2.2.2.3.2.3.2.2.2.2.#+#+3.3.2.3.3.2.3.3.3.#+3.#+#+#+#+3.3.#+3.#+3.3.3.3.3.#+#+#+#+3.#+#+#+3.#+#+#+k.k.k.k.k.#+k.k.k.k.#+k.k.k.k.#+#+k.k.k.k.k.k.k.k.k.k.k.k.#+#+k.#+k.#+#+#+k.k.#+k.#+#+k.k.k.#+k.#+#+3.2.k.#+#+3.#+3.3.2.1.1.1.>.'.{.^.:.W.v Y C K f E G . .   . % | { ; U #.=.Y.",
"Y.=.&.< = ( b +   . . . I L e I m t R F M z A ;.c b 0 9 1 8 8 | | | | | | 2 2 2 2 2 2 2 2 2 2 2 6 6 6 6 2 2 2 6 2 2 2 | | 2 2 6 6 6 6 } 6 } } 6 6 6 2 2 6 2 2 2 2 6 2 6 6 6 6 6 6 6 6 6 6 6 6 6 6 6 6 2 6 6 2 2 2 2 6 6 6 6 2 6 2 2 2 6 6 6 6 6 6 6 6 6 6 6 6 6 6 6 6 6 6 6 6 6 6 6 6 6 6 6 6 6 6 6 6 6 6 6 6 6 6 6 6 6 6 6 6 6 2 2 6 6 6 6 6 } } 6 6 6 6 6 6 6 6 6 2 2 6 6 6 6 6 2 6 6 6 6 6 6 2 2 6 6 6 6 2 2 6 6 6 6 6 6 6 6 6 2 6 6 6 6 6 6 2 2 | 2 2 | | 8 8 8 8 1 9 0 b a ;.x z -.G R r n F w Z L     . . . } [ , ^ Q.$+Y.A.$...} - : 1 & @ . . + z F k F n r P E -.z x ;.c a b b 9 1 8 | | | | | 2 2 2 2 2 2 2 2 2 2 2 2 2 6 6 2 2 2 6 6 6 2 2 2 2 6 2 2 6 6 6 6 2 2 2 2 2 2 2 | 2 2 2 2 6 2 2 2 2 2 2 2 2 2 2 2 6 6 2 6 6 6 6 6 6 6 6 6 } 6 6 } 6 6 6 6 6 2 2 6 2 2 6 6 6 6 6 6 6 6 6 6 6 2 6 2 2 2 6 6 6 2 6 6 6 6 6 6 6 6 6 6 6 6 6 6 6 6 6 6 6 6 6 6 6 6 6 2 2 6 6 6 2 6 6 6 6 6 2 2 2 6 6 2 2 2 6 6 6 6 2 2 6 6 6 6 2 2 6 6 6 6 2 6 2 2 2 2 2 2 2 2 2 2 2 2 2 2 2 2 2 | | | | | | | 8 8 1 1 9 0 b a d A y -.I O s n E i D G . . . . % 8 ( ; S @.=.Y.",
"Y.=.&.S ; S b +   . . . I Z O C e N n C L E I G H M B B B z z y x x x y z x x y y x y x y y x x y z x y x y y y z y x x z y x y x x A x x x x A A A x y x y y x x x x y y x x x x x x y x x x x A x x x y y y y x x x x x x x x x x x x y A x x A x x x x y A A A A A x A A A A x x x x A A A x x A A A A A x x x x x A y x A A A x ;.A ;.x ;.A A A ;.A x x A x A A A A x ;.A x A A A A A A ;.;.A x A x x x y z y A x x y x x x x x x y x x x x x x y z y x x x A x z z z -.-.M H F I J Z o O f Z h u D . @ . . . 6 : > ] I.$+Y.A.$. .7 = / b . $   @ + B J R Z g N m Z L E F G M -.B z z z B z x x A y x x x x x x x A A x x x x A x A x y x A A A x A A A x x x x A x x z y x A x x y y y ;.A x y y z x A x y B y y y y z B z y y x x y A x y x x x x x x y y y x x ;.;.;.x A x x x x x x x A A A x x x x x x A x A ;.;.A A A x A A A x x x x x x x A A x x x x x x x x x y y x x x x x x x x y x y x x y y y y y y y y x x x x y x y y x y y x x x x ;.x y y z y x x x y y y x x x x x y x y y z z z B -.M K H F E L Z n P g C N Z G . . . & $ 8 { ; : #.=.Y.",
"Y.=.&.S ' ( | +   . + . E p k.j P u L F H M M B z y x x x A A ;.;.;.;.A A A ;.A A ;.;.;.A A A ;.;.;.d ;.A d d A ;.;.;.;.;.A A ;.;.;.;.;.;.A ;.;.;.;.;.A A ;.A A A A ;.A A A ;.;.;.;.A A A ;.;.A ;.;.A A A A x A A A A A A ;.;.A ;.;.;.A A ;.;.A A A ;.;.;.x A A A ;.;.A A A ;.d ;.A ;.A ;.A x A A A ;.;.;.A ;.A x A x A ;.A A ;.;.;.;.;.A A A A A A A A A A x A A A ;.A A A x x A A A ;.;.A A ;.;.x x x A y x A ;.A A A A x x A A x A A A A A A x x A ;.;.d A A ;.x A x y y z z -.-.M G I L q P v Q n Z     . . . 7 [ > _ M.$+Y.A.$. .7 = _ 0 .     @ + -.Z 4.t O o D I H K M M z z x y x A A ;.;.d ;.;.;.;.;.;.d ;.;.;.d d d d d ;.d ;.;.;.A ;.;.A ;.;.;.;.;.;.;.;.d ;.;.A A A A ;.;.A ;.;.x ;.;.;.d c d d ;.d A ;.A A x x A A A A A A A x A x x x x x A x y y z ;.d A ;.;.;.A A A A A ;.;.;.;.A A A A A A A A ;.;.;.x A ;.;.;.;.;.A ;.A ;.;.;.;.A ;.d ;.;.;.;.;.;.;.A ;.;.;.;.;.;.;.;.;.;.;.;.;.;.A ;.;.;.;.;.;.;.A ;.;.;.;.;.;.;.d A ;.;.;.d d d d d d d A x A d d d d d ;.;.;.;.;.;.;.;.;.;.;.A A A x x y z z -.M H F L q k w 3.q F . . + %   1 { ; : #.=.Y.",
"Y.=.K.: - < 6 .   + . . J t /.3.n Z E F G K K M B z z B z y x x y y z y x x x y y y z z x y y z z B B z y z z x y y y z y x x x x y y y y x x x y x y y y x x x x y y B y y z y y z y y x z y y x x A x x A A x x y y x z B y y z y y x A A x A A x x B y A A A x y y x x A x x x x x A x A A A A A x x x y y A A x x x A x x x x x A x x A A A A A A A A x A x A x x x x y x x x x x x x A x y x x x A A ;.A A A y y A A A A A A A A A x x x x A x A A y y y x A A A x x y z z -.M K K H I Y p k.{.w D   . . . + 5 [ ; _ M.$+R.A.$. .7 = _ 0 @ @ @   . -.o (.3.n Y I G H M -.B z z y x x y x y z z y y y y y y y x z y z x y y y x x y x z y x z z B z x x x x y x y y y x x x y y x x x x x y x x y z z y y x x y y x x A x A x x x x x x A x x x A A x x A A A y z z x y y y y y y y y y y z y x x x x y x x x z x x z z B z y x x z x y y y z x y B z z y y z z y x y y y x y y y y y x y y z y y B B z z z z y y y y z z z z z z y B z z B z z z B B -.y y y z z z z z y y B z z z z z y y y z z z B B B B -.K K H F J Z m 3._.r F   % # & . 9 ( > : %.=.Y.",
"Y.=.@+V - { 2 +   . @ & L e (.>.k.i.Q N O O O P P O O O N P P P O P O P k P k k P i P P k P P O P O O O O P P P k P P P P i k k k k O O O O O O O O O P k k P P P P P N O O O O N N N N O Q O O O P P P P P P P P P P P P O k P O O P P P P P P O P P P P P P P P k P P P k k k k k P O P O O P P k P P P O k k O k P P P P k P P P P O P P O P P O P O O O O P O O O O O O P P P O P P P O P O O O O O O O N N O O N Q Q N Q N Q Q N N N O P O O O P k P k k k k N P P P O O O N Q R R R j.#+3.,.[.k p .   .     7 < ; < M.$+R.A.$.` 7 % _ 0     @ @ . K j }.~.2.k.R Q Q N N O P O O O P N O O O P k k O O N O O O O O P P O P k P P O P N O O O P O k i k k P P O O N P P O k O O k P O P P O P P P N N P N P P N N P N N N N N N Q N O O O O P P P P P P O O P P O P P P P O O O O N N O O O P P O P P O N O O O P P P O O P P P O O O O P P P P N O P O k P O O P O O O P P P P O N O P P P N N O O P O P P P P O O N O P k k O O O P k k O P k k P P P P P P P P P O O O O P P k P P k P O O O O O O P O P O O O N N Q j.3.'.:.e F * &   @ . 1 { > S &.=.Y.",
"Y.=.Y.V = { 2 .     .   p 3.m u Z D D D L L L D D J L Y D L L Y D L D D D D D L D Y Y L L D Y Z D Y D L L D L L L Y Y D D L L L D D Y D D D D D D Y Y Y Y Y J J L L L L D Y Y Y D D D Y Y D Y D D L L Y D L L L L L L L L L D D D D J L D D D D L D L L D L L D D L Y Y D D L D D Y L L L L L L L D D D Y L L Y L D L L L D Z L L D D L L L L J J L L L D D L D D Y D D L D L L L L L L L L J D L D L D D L D L D L J L L L J L L L L J L L L J L J L J L L L D L J D Y D L D D L L D L D D D Y C o 3.v . @ .   + 5 { ; < z.$+Y.A.$.` 7 = { b . @ @   . I 1.r q Z L D D D D L L L J L J L J L L D L L D L D D Y D D Y L D D L D L L Z D Y D L D D D D D D L L D D Y L Y D D L D D D L L L D L L L D Y Z L L L D L L E L D D D D L L D D D D D L J J L D L L L D Y D L D Y L D L L D L L D Y Y L L L L L L L D L L D L J Y Y D J L L L L L Y L D D Y D D L L Y D L L L L L D D L L L D L D L L Y Y D D Y D L D D D D D L L D L Y D L L D L D L Y J J D J D D J L L L L L L L L L D Y D D D Z D D D Y Z D D Y Y D Y Z D Y Z Y Y C p v !.Z . * @   + 1 { ; T K.=.Y.",
"Y.=.Y.T , _ 6 + $   . ! B X X ! ! X X ! X ! ! ! X ) ! ~ ) ) ) ' ' ' ) ) ! ! ! X ) ~ ~ X X ~ ~ ! ! X ! ! ! ! ) ! ! ! ! ! ~ ~ ~ ~ ~ ~ ] ~ X X ! ! ) ) ! X X ] ^ ] ] ] ] ] ~ ~ ~ ~ X X X X ~ ~ ~ ~ ] ^ ^ ] ^ / / / ^ ^ ^ ^ ^ ^ ^ / / _ _ _ _ / / _ / / _ / / / / _ _ / / / ^ / / / _ _ _ _ _ _ / / _ / / ^ ^ / / _ _ / / _ _ ( _ { / _ / / / / _ _ { _ _ _ _ _ _ _ { _ _ _ _ _ _ _ _ _ / / _ _ / _ / / / / _ _ / ^ _ _ / ^ / / / / / / / _ _ _ _ _ ( { { _ / _ { { _ / _ _ _ / ^ / _ _ / ^ _ _ / / / _ ^ G ~   . $ % 3 S , / z.$+Y.A.$.@.7 ; / b   &   . ; H ] ] ] ~ X X ] ^ ^ ^ ~ ~ ] ] ] X ! ! X X ~ ~ ~ ~ ~ ! ! ) ) ! ! ~ ~ ! ! X ~ ~ ~ ! ! ! ) X ~ ] ^ ^ ] ~ ] ~ ) ! X X ~ ~ ] ~ ] ] ~ ~ X ! X ~ ] ~ ~ ] ~ ~ ~ ! ! X ~ ~ X ~ X ~ X ~ ~ ~ ~ ~ X ~ ^ ] ] ] ] ] ] ] ] ] ] ^ ] ] ] ^ ] ~ ~ ~ ~ ~ ] ] ^ ] ] ] ~ X ~ ~ ~ ] ~ ! ) X ~ ] ~ ~ ~ X ] ^ ^ ] ~ ! ! X ~ X X X X X X X X ~ X X X ! ) ! ! X X ! ! ! ! ! ) ! ! ! ! ! ) ! ! ! ! ! ' ' , ' ! ! ) ) ' > , , ' ' ! ! ! ! ) ' ) ' ) ) ! X ! ! X ) ' ! ! ) ) ) ! ! ! ! ~ X X ~ X ! ! ) ' , J ) # .   + 1 { = V K.=.A.",
"A.=.A.S > ( 2 +     ) 1   . @ . . +   * # @ +   .   $ . $     $ $ $ &   @ &   $ @ # & % & # *       @   @   @   . @     $     $     . * @ @ @ @     @ @ @   . @ @   @ .     .   @         @ $ @   $ . . . . +     . . .         @ . + . . . . . + . . .   . + @   . . . . . . . .     .     .     .   $ # . $   . $ $     . .   &   % # * .     +       @   @     . . .     . + . . . @ . .     . . .         @         . . . . .   @ .   @ @ # . $ .   @   .   @ @   . . @ @ @   @   $   . . . . .     b ! .   @ 5 V ; / B.$+A.Q.$.#.} = / 0 . $ @ ; d & @ $   . $ $ $   @ @   . @   @ . # $ . . $ + . + + @ & # @ & & #       . . . .   @ $ @ #     . . $ $ . @ & . $     & . . + . . . %   # .     @ . . @ & $ * .   &     & & . .   .   & @ @ . + . . .   + .   .       .     @   + . .   . . . . . . . . . . . . . % = @   . .   . @ . . . . . . + + . .   . . . + . . . . . . @ +   @ . . . . . . . . . . .   . . . . . . .   @ = . . .   . & & $ -   & .     @   .   . . . . . $ . $ $ & & $ @ . . . . . +       . . & & * @ * . d '     + 8 ( ; V R.=.A.",
"Q.$.Q.U - / 6 + . ) 9     . . @ . . . . + + . @ . . . . . + @ .   @ . . +   + . + . . . >   #     + +   . + @ + . .   . . .   . . @ . + & $   @ $ . . @ @ + . . + . + .     . + + + + . . + + + + + + . + + + +   @   . . . . . . + . . . .   @ * & + + . . + @ . . . . . . . . . . . .   . + . @ . . $ + $ @ $ . . . & @   . .   . #     . $ .         $   . @   @ @ @ + . . .   @     @             . @ $ @ & @   # * . .   .     $ & # . @ # .     .   @   . .         . %   @ & $ $ . .   . . . . . @ c ) .   } : = { V.=.I.M.+.%.7 ; _ c . # ; c # . + . . .     @     . .   .   $ @   $ $ * . . .     @ . = # * $ & . .     . & . $   . . @ # . +   . $ @   ;     @ $ ; # . . @ @ $ $ * % @ . @ @   @ $ @ * @ @   &   $ .   $ % # @   . . % . . . . . .   . + +   . @ . = $     $ . .   . . . . . . .   . . . . + # $ +   @     @ . . . . . . . . . . .     . . . + .   .   . . @ $ . + . . . . .   . .                 . $   @   . + . @ . # @ * @ @ & . . @ & . . . @   . ; %     + .   . . .   . . .     . . . . . & *   @ . @   c , . . | _ - V Y.$.I.",
"z.+.M.S * / 6 + ! b @   + .         &       @ @ . . . . @ @ . @ $ @ % .   = @ @     @ .   . * .   $         $       @ $       @ $   @ @ + . $   @ * $ . + @ @             +   @ @   . . . . .   . . . + . . . . . @ . + . . . . + + + + . . . + + @ @ * . . .     . + . . . + . . . . . . . + . + +   & $ @ + @ & & $ @ $   . $ $ @   @ @ $ @   $ $ $ # @   $ $ @             @ @ @ @   $ @     @ @ @ $ @ @ $ @ @ . . . @     @   $ #   . & $ @ .     @ & @   @ $ @ $ @ @   # & $ # # & & @ @ $ @ $ @   @ @ c ) . 7 : - { H.+.z.B. .&.7 = ] b . ; A &   $ . . . . . @ & $ $   . . . @   $ .   . # * @   @ . @ . #   $ # $ & @ .   $   & & #       . . & @ @ @ @ # * @ $ $ & * & . @       @ ; # % @ $ & # . @ @ % . * @ $ % # # .     . @ *   . $ .     @   . . . + .   . & $ $   % - +   + . . . . . . + . .   . . @ . * .       .   @ # .   @ @   @ @ @ @         @ @   @   @ $ $ & @     .         @             @ @ @ @ . $ @ & @   @ @   $   % = $ $ # @   @ & &   $ @ @ % @ * = & & $ @ $ & $ $ @ @ & $ $ & @ $ @ $ @     $ $ @ @ @   a ' + 8 _ % V A.+.z.",
"V. .z.S & ~ 7 ) 0 @   . $   . $ @ * > . &   $       $   @ $ $   $ & # * * ; $     @ @     & $   .   $           . . . @           $ @   & . & # - #     $ + @     @       $     @ $ @       .   @ &   @ @ @ @ @ . @ @ & @ @ @ $ $ @ @     @ @   . @ # $ # & . @ @       .       $   @ @ @ @ $ @ @ @ @ % $ @ * @ $ @ @     .   @ . .           $ & @   @ @ @ . . + + + + . . . . . . . . . + . .   . . . + . . . $ *   @ .   . & & @ @   # @ @ ; # .   . . + . . .     @ $ @ $ @ @ .     @ . . .   . .   .   @ a ) 5 < * { h. .V.H.@.K.5 % ) 9 - A #   .   @ # # $ @ $ .       . .   $ * & & $ $ @ @ =           = & &   # & @   @ @ & @ @ @ &     .   . . .   & & @ & +     +   @ & *   . . . &   % - #     $ %   @   . & #   @ $     $ *   . $ $ $   . $ @ @   @ @     % @   . * # &   $ $ &   @   .     @   @   @   $ . . . . . . . @     . . . . . . . . . . .   . . . . . . . .   . + + + + + + +   @ .   . + + . . . . $ +     & . . . $ . $ $ @   @ $ . . $   @   *   @ $   # $ + + . $ # + . . + +   . . . . .     $ @   $   @ # .   @ 8 , 2 ] * T Q. .V.",
"c.#.B.< & > 3 A > , , ' > > > , ) ) ) ) ! ) ! ) ! ! , , ' ! ! ! ! ! ) ' ) ) ) ) ! ' ) ) ! ! ) ) ) ) ) ' ) ' ) ) ' ' ' ' ' ) ) ) ) ) ' ' ) ) ' ) ) ' , ' ' ) ' ' ' ' , , , > > , , , , , > , , > ' ' , , , , , , , ) , , , > > > > > > - - > > > > - ; % ; - ; - - - > - > - > > - - - - - - > > > , - > > , > > - - ; ; - - ; , - - - - = = - > - ; - - > - > - - ; > - - > > - > > - - > > - - - > - - > , - - - ; - , - ) > > - > , ; ; - - > , > - - - - - > > , > - > , ' > - , - ! ! > , , > ' > > > , , - x 3 ~ * / d.@.c.e.%.@+5 $ > l M , , , , , , > > ; > ! ) ' ) > - - > > > , ' ) ) ) , > - ) , , ' X ) ' ' , > , > , > , , - > , ' , ) , ' ' , ' ! X ' , ! ) ' ) ' ' ) ~ ) ) ' ' ~ ) , ' , ' , , ' ' ' , ' , ' , ' , ) ) ! ! ] ~ ! ' , ' X ) ' ! ' , , , , , - ) ) , - , ' ' , ' ' ' ' ' ' ' ' ' ' ' , , , ' , ' ' ' ' , ' ' ' ' ) ) ' , ' ' ' ' ' ' , ' ' ' ) ) ' ) ) ) ) ) ' ' ' ! ) ! ) ' ' ) ) ) ! ) ) ~ ^ ! ! ! X X ! ! ! ! ) ) ) ! ! X ) ) ! ) ! ! ) ' ) ) ! ' ) ) X ) ) ) ) X ! X X X ! ) ! ! ! ! ! ! ) ! ! ) ' ' , ' ' ' , b U > $ V I.#.c.",
"`.Y.L.< $ ( A _ } 2 2 2 6 6 2 8 8 2 2 2 | 9 9 } 2 8 2 } 2 2 | | 6 8 8 6 2 8 1 8 | 2 8 8 c | } 2 2 | | 2 2 | | | 2 | 8 | c a | | 2 | | | 2 2 8 1 1 9 9 8 | 2 2 2 | | | | 8 1 1 1 1 1 9 1 1 1 1 1 8 1 8 8 8 8 8 2 1 9 2 | 2 2 | 1 | | | 8 8 | | 8 1 | 2 2 8 8 1 8 9 9 1 1 1 8 9 1 1 0 b 0 9 9 0 9 8 8 9 9 8 9 0 0 9 0 9 1 1 1 9 9 1 1 0 0 b 0 9 0 1 8 a 9 b 0 9 8 9 9 1 1 9 9 0 1 1 0 0 1 0 9 9 1 1 9 9 1 8 8 8 8 9 8 8 2 | b 9 8 b 0 1 | 8 8 9 1 9 b 0 | 9 1 8 8 1 | | 8 8 8 ;.0 8 2 1 6 | 6 | 2 | | 1 2 | 8 | 8 < M ^ & { c.@+T.x.A.A.5 # ' K ( } 2 | 2 6 8 2 | 2 1 | | 6 | 1 2 } | 2 2 b a 9 b 0 6 } } 7 6 | 0 1 8 1 1 6 2 1 c 8 8 6 6 6 6 | 8 6 } 2 2 } 7 } 6 1 2 8 2 6 2 2 2 2 2 | 9 0 6 8 9 | | | 8 | 1 1 1 0 8 8 8 | | | 2 2 | 1 2 8 1 9 8 2 1 2 | | 1 9 8 2 2 8 | 8 7 9 9 | } 9 a 1 8 2 } 7 } | 2 2 | | 1 1 | 2 | | | 2 8 9 1 2 2 8 8 | | 8 1 1 8 | | 2 | | 2 2 2 | | 2 | 8 | | | | | | | 6 8 | 6 1 | 2 2 2 9 1 9 9 2 2 | 2 2 | 2 6 6 8 8 2 | 8 8 1 } 6 2 2 6 9 8 | | 6 a | 6 2 | 2 | 8 | | | | | | 2 2 | | 8 8 1 8 | | 6 8 | 2 2 } 2 } 5 { d X   T z.Y.`.",
".+h.H.( ' ;.% = - , ' ' , ' ) ) ' ' , ) ~ X ~ ! ' ) ' , ' ' ! X ! X ! ' ' ' ' ' ' X ] ] ] X X ! ) ' ' X X ~ ^ ^ ~ X ~ ~ ^ / ' ' ' ! ! ) ' ' ) ) , ' ) ' ' ' ) ' ' ) ) ) ) ) ' ' ' ) ) ) ) ! ! ! ! X ! ! ! ! ) ) ] ] ) ! X ! ) / ! ! ! ! X X X X ! ! ! ) ) X ! ) ! ) ! ) ! ! ~ ! ~ ' ) ) ' ! X X ~ ! ~ ! ) ) X ) ) ! ) X ! ~ _ { ^ ) ~ { X ! ! X ! ) ! X X ] ! X ! ! ! ! ) ! ! ! X X X X ] X ] X X ~ X X ] ! ] ~ _ ~ ~ ) X ~ X ] ] ~ ! X X ) ] X ~ ] ~ ~ ^ X ! ! ] ^ ! ~ ( ~ ( ] ] ~ ^ ^ ~ ] ~ ! ~ ~ ] ^ ^ ! ~ ) ) * x ~ { e.L..+P.d.M.7 = z % = ! > ! ! ^ ~ ~ ' ) ~ ) ) ] ! ) ) ) ! ) , ~ S < ~ / ! ' ~ ) X X X X ~ ! ) ) ~ ^ ~ / X ! ' ! / ^ ' ' , ] ~ ' ' ! ! ) ) ! X ] ! ^ X X ) ! X ~ X ! ! ! ) ! ) ) ) ! ! X ! ! ! X ) ) ) ) ] ~ ! X X ^ { ~ ! ' ! ~ ~ ) ) ) ' ' ~ / ' ^ { ' ' ] ~ ~ ^ ~ ) ' , ' ' ) ' ) X ! ' ' ) ' ' ' ^ ^ ~ X ! ~ ~ ) ! ~ ! ! ! ) ' ' ) ) ) ! ) ) ' ) ! ) ! ) ) ' ) ! ) , ~ X ' ' ' , ! X ] ~ X ! ! ! ! ' ! ! ' , , ) ! ! ) ) ! X ) , ' ) ' ' ) ' , ' ~ ) , ! ! ) ' ' ' ) ) X ! ) ) ) ! ) ) ) ) X ' X ' ' ) ! ! ) ) , - = # b , S L.H..+",
"_.J.b.1 F .   $ $ $ * & # % # * * % % * # * % ; = * & # & & * * & # & # % # = ; = % * * * % * # # = = % * * * % # * * # * ; & & & # & & # ; - * % = = & & & & & & # # # # & & & * % & & & & & # & # & & & & # * * % & & & & # = = & & & & & # $ $ $ * - ; % * % % * * * % # > * # * % * * # % * $ & & & & & # $ & # # * * = $ $ & * & $ & # # # & $ $ # % - # $ & & # & & & $ & & * & & $ & & & * # & & % # = - # $ # % # # # # # & # & # # = & & # * = * % % > * = % # % - > = # % # # * , * * % * - = ; ; # * @ *   B 2 x.`._./.y.V.8 Y @   @ & & & & % # # $ # ; * # % & $ & $ $ & $ & * = ; ) * % * * # * # * & & # # # & # $ & # # # = * * * ; ; = * # # # # & = * # & % * & & # & * # # * # & & & & & & & # # * ; & & & & & # & & & & & $ # # # # # & & & & $ # % % * % * $ & - & % # * & # & & & $ & & # $ & $ $ & * = % # # * % * = # & & & & & & % % % * & & # & & # & & & & & * & & * > # & # # * # * * * * * # # # # # % * * # # # # & # # # % ; * $ & & & & & & $ $ * = % % % % * % & & & & & & & & & & # * * # # & & # # $ & $ & $   .   G 1 d.S._.",
"R ~.|.}.g O P P O O O O P N P k Q O P O O N P P N Q Q N N R i.i.R Q Q i.i.i.N P P k P P O N Q Q Q Q Q O O O O P P P P P P O Q N N N O N R Q P P i e h k P O O P P P O P k i h i h h h h h h i i i k i k i h k i i i k i h h h h i e f f g g j j w j w w v w w v v w w w w g j w w w w w g j v v v v w w v w v w w w w w j v w w j w w w w w j w w w w j w j g j j j w g g j j j j j g j g g g j g f f f j j j f f g g j j j g j g g j g g j j j j j w j t v t t j v t w g v g j g j g f g j g g g g j j g j w j e g g m :.[.[.k.i.^. +/.t j j f h h e e e h h e e f e e h e h i k i h h h f e h i k P k k i h h h h k i k P k k O k k O P P P P O P O O O O P P i h e i k k k P O O O O P P P k k k P P P P k P k k i i k k k k k i k i i i i i i k k k k P i i i k k k i i i k i k i h i i h h i P P k k i h k P P k k P P k i k i h h k k O P k k k O O P P k P N O Q k O O O O P P N O N Q Q O Q R Q Q N Q N O P O Q Q Q N N N Q R Q R R Q Q N N Q R R R j.N O O Q i.j.i.R R R N Q N N Q Q Q Q R R R j.i.Q N O O O N N Q R R R R R R N N N O O O O f <.Z.].R ",
"s h >. +X.T.e.b.c.c.f.e.b.d.h.d.h.H.H.H.H.V.V.L.L.L.V.V.V.V.V.V.V.V.V.V.L.L.L.L.B.B.B.B.L.L.L.V.V.V.V.V.L.L.L.L.L.L.L.L.L.L.B.L.L.V.V.V.L.L.V.V.L.B.B.B.L.L.B.L.V.V.V.V.L.L.B.L.B.L.B.B.B.L.L.L.L.L.L.L.L.L.L.V.L.V.V.H.h.h.h.h.H.H.h.d.h.d.d.d.d.d.d.d.d.c.d.c.c.c.c.c.c.d.d.d.c.d.d.d.h.d.c.c.h.H.H.h.H.V.L.L.L.V.V.V.V.V.V.L.V.L.B.B.B.B.B.B.B.B.B.B.B.B.B.B.B.B.V.V.L.B.B.L.V.V.L.B.L.V.V.V.L.L.L.L.L.B.L.L.V.L.L.L.L.L.L.L.L.L.B.B.B.B.B.B.B.z.z.z.z.z.z.B.z.B.L.B.B.L.B.V.L.L.V.V.V.H.H.h.d.d.d.d.d.d.c.b.d.b.w.S.U.,.k t t i >.D.S.w.e.c.b.c.c.c.d.d.h.d.h.H.H.H.V.V.V.V.V.V.V.L.L.B.B.L.L.L.V.V.L.L.L.L.L.L.L.L.L.V.V.L.L.L.V.L.L.L.L.B.L.L.L.L.V.V.V.L.B.L.B.L.L.L.L.V.V.V.L.V.V.V.L.L.L.L.L.L.V.L.V.L.L.L.L.L.B.L.B.B.L.L.L.L.L.L.L.V.V.V.V.V.H.h.h.h.d.d.c.d.c.b.b.b.b.c.c.c.c.c.c.b.b.e.b.c.b.c.d.b.c.c.c.d.d.d.d.h.h.h.H.V.V.H.V.V.H.V.B.L.V.V.V.V.L.L.L.L.B.L.L.L.V.L.B.V.H.V.L.L.L.L.V.L.L.V.V.V.B.L.V.V.V.V.L.L.L.V.V.L.V.V.V.L.V.L.V.V.H.L.L.L.V.V.V.V.V.V.L.L.L.V.L.L.V.V.L.V.V.H.H.V.V.V.V.V.V.H.V.H.H.h.d.d.c.c.c.c.b.b.b.b.e.g.`.y.D.>.h t ",
"Y q t k i.4.).,.{.~.{.].^./././._.(.(.:.[.<.<.}.}.}.<.<.}.}.}.}.}.|.|.|.|.|.|.|.|.|.|.|.|.|.|.|.|.|.|.|.|.|.|.|.|.|.|.|.|.|.|.|.|.|.|.|.|.|.|.|.|.++|.|.|.|.++++}.}.|.++++++++++++++++++++++++++|.|.|.++|.++|.|.|.}.}.<.<.<.[.:.:.(._./././././.^.^.^.^.^.].].].].].].^.^.^.^././././._._.(._.:.[.[.}.<.[.}.}.}.|.++Z.Z.++++Z.++|.Z.Z.Z.E.E.E.Z.Z.Z.Z.Z.Z.Z.Z.Z.Z.Z.Z.Z.E.Z.Z.Z.Z.Z.E.E.Z.++++Z.Z.Z.++Z.Z.Z.Z.Z.++Z.Z.Z.Z.Z.Z.++++++Z.Z.Z.Z.Z.Z.++++++++++++Z.++++++++++++++++++++|.}.}.<.[.:.:.(._._./././.].~.{.,.!.k.P v p Y Z p t i j.1.'.{.~.].^./././._._.(.:.[.[.<.<.}.}.}.|.|.|.|.|.|.|.|.|.|.|.|.|.|.|.|.|.|.|.|.|.|.|.|.++|.|.|.|.|.++|.|.|.|.|.|.|.|.|.|.|.|.|.|.|.|.}.|.|.|.|.|.|.|.|.|.|.|.|.|.|.|.|.|.|.|.|.|.|.|.}.}.|.|.}.}.}.<.<.<.<.<.[.:.:.(.(././././.^.^.^.^.].].].].~.].~.~.].].].].^.].].^.^./././././.(.(.:.[.[.<.<.<.}.|.|.|.|.|.|.|.|.|.|.++++|.|.|.++++++++++++|.|.|.|.|.|.|.|.|.|.}.|.|.|.|.}.|.|.|.}.}.}.}.}.}.}.|.}.}.|.}.}.|.|.|.|.|.}.}.|.|.|.|.}.|.|.|.}.}.|.}.}.}.}.}.}.}.|.}.<.<.<.[.:.:.(._._./.^.^.].~.{.,.'.).2.R i t q Y ",
"G I L C o r w f h k P O N Q Q R i.k.k.#+3.2.2.4.1.1.1.1.1.1.!.1.!.!.!.!.!.!.!.!.!.!.!.!.!.!.!.!.!.!.!.!.!.!.!.!.!.!.!.!.!.!.!.!.!.!.!.!.!.!.!.!.!.>.!.!.!.!.>.>.!.1.>.>.>.!.>.>.>.!.>.!.>.!.!.>.!.!.!.!.!.!.!.!.1.1.4.2.2.3.#+k.j.j.R Q N N N N O O O O O O O P O P O O O O N O N Q Q Q R R i.k.#+3.3.3.2.2.2.1.1.!.>.>.!.>.>.>.>.>.>.>.).).).>.>.>.>.>.).).).>.>.).>.).).).).>.>.>.>.>.>.>.>.>.>.>.>.>.>.>.!.1.!.>.>.>.>.>.>.>.!.>.>.>.>.>.>.>.!.>.>.>.>.!.>.>.!.!.!.!.!.!.!.1.1.1.4.2.3.#+k.j.i.R Q N N O P i f w t n u D I G G I D C n s w g h P O N N Q R R i.k.#+3.2.2.4.4.1.1.1.1.!.!.!.!.!.!.1.1.1.!.!.!.!.!.!.!.!.!.!.!.!.!.!.!.!.!.!.!.!.!.!.!.!.1.1.!.!.!.!.!.!.!.!.1.1.!.!.!.!.!.!.!.!.!.!.!.!.!.!.!.!.!.!.!.!.!.!.!.1.1.1.!.1.1.1.4.4.4.2.2.3.#+k.k.j.R Q N N N O O O O O O P P P O P P O O O O O O N O N Q Q R i.j.k.#+3.3.2.2.4.1.1.!.!.!.!.!.!.!.!.!.!.!.!.!.!.!.>.!.>.>.!.!.!.!.!.!.!.!.!.!.!.!.!.!.!.!.!.!.!.!.1.1.1.1.1.1.1.1.1.!.!.!.1.!.!.!.1.1.!.1.!.!.!.!.!.!.!.!.1.1.!.1.1.!.1.1.1.1.1.1.1.4.2.3.3.k.j.i.R Q Q N O P k e g v r o C L F H ",
"z B -.G I L Z u p o n m r s t v j f e h i P P P O N O O N O N N N N N N N Q N N N N Q N Q Q Q Q Q Q Q Q N N N N Q Q N N N Q Q Q N N Q Q Q Q Q Q Q Q Q N Q Q Q Q Q Q R Q Q Q Q Q Q Q Q Q Q N Q Q N N N N N Q N N O O P k i h e f g j w t s s r r r r r m m m m m m m m m m r r r r r s t v w j g e h i i k P O O N Q Q Q Q Q Q Q Q Q Q R R R R R Q R Q Q R R R R R R R R R R R Q Q Q R R R Q Q R R R R R R Q Q Q Q Q Q Q Q Q Q Q Q Q Q Q Q Q Q Q Q Q Q Q Q Q Q N Q Q Q Q Q N N N O P P k i e f j w t s r m m o p u Z L E G M B B B B M G I L Z u p o n m r t v v j g e h i k P P O O N N N N N N N N N N N N N N N N Q Q Q Q N Q Q Q N N Q N N N N N N Q N N N N N N N N N N N N N N N N N N Q N N N Q Q Q N N N N N N N N N N N N N N N N O O O P P P k i h e f g v v t s r r m m m m m m n m m n n m m m m m m r r s t t v w g f e h i k k P O N N N N N N N Q Q Q Q Q Q N N Q Q Q Q Q Q N Q N N Q Q N Q N N N N N N N N N Q N N N N N N N N N N N N N N N N N N N N N N N N N N N N N N N N N N N N N N N N O O P k i h e g j w t s r m o o q C Y L I H -.z z ",
";.;.A x y -.M H G F F E J D Z u p n m r t v v w j j j j j g g g g g g g g g g g g g g g f f g f f f f g g g g g f g g g g g f f g g f f f f f g g f f g g f f f f g f f f f f f f g f g f g g e f g g g g g g j j w v t t r m o p q u C Y D L L J J L J J J J J J J J J J J J J L D D Y C u q p n m s s t v w j g g g f g g g g g f f f f f f f f f f f f f f f f f f f f e f f f f f f f f f f f f f f f f f f f f f f f f f f f f f f f f f f f g g g g g g g g g g g g g g j j w v t s m o p u Z D L J I F G H M B z x A ;.;.;.;.A x y B M H G F I E L D Z u p o m r t t v w j j j g g g g g g j j j j g g g g g g g f g g f f f g g g g g g g g g g g g g g g g g g g g g g g g g g g g g g g g g g f f g g g g g g g g g f g g g g g j j w w v v t s r n o p u C Z Y D L J L J J J E J J J E J J J J J J J L L D Y Z C q o n m r s t v w j j g g g g g g g f g g g g g g f g g f f f g g g g f g g g g g g g g g g g f f f g g g g g g g g g g g g g g g g g g g g g g g g g g g g g j g g g g g g g j j j w v v t s m o q u Z D J E F G H K M B y x ;.;.;.",
"0 0 b a c d ;.A x y B -.H F E D Z q o n m s r s s t t t t v v v v v v v v v w v v v w w v w w w w w w w w w w w w w w v v w w v v w w w w w v v w w w v v w w w v v w v w w w v w w w v w v w w w w v w v v t t s s r m m o p u Z D J E I G H K K K K K M M M M M M M M M K K K H H G I E J L Z u p o m m m r s t t v v v v v v v v v v v w w w v v v w v w w w w w v w w w w v v v w w w v v v w w w w w w v w w v w v v v w w v v w v v v v v v v v v v v v v v v v v v t v t s r m m n p u Z D J F H M B y x A ;.d c a b 0 0 0 b b a a d ;.A x y B M H F E D C u p o m m r r t t t t v v v v v v v v v v v v v v v w w v v v w w v v v v v v v v v v v v v v w v v v v v v v v v v v v v v v v v v v v v v v v v v v v v v w v v v v v v t t s r r m n o q u Z L J E F G H K K K K M M M M M M M M M M K K K H H G I E J D Z u p o m m r r s t t v v v v v w w w w w w v w w w w w w w v v v v w v v w v w v w v v w w w w v v v v w v v v v v v v v v v w v v v v v v v v w v v w v v v v v v v v v v t t s r r r m n p u Z D E F H M B y A ;.d d a a b 0 0 ",
"| | 8 8 1 9 0 b a d A y -.K F L C p m r t w v v v w v v w w w w w w w w j j j j j j j j j j g j j j j j j j j j j j j j j j j j j j j g j j j j j j j j w j j j j w j j j g j j j j j j j j j j j w w w w w v v v v t s r m p u Y E F H M B z y x x x A A A A A A A A A A x x x y z B M K G I D u o m r s t t v v v w j w w w w w j j w w j j j w w w j j j j j j j j j j j j w j j j j j j j j j j j j j j j j j j j j j j j j j j j j w j j w w w w w w w w w w w w w w v w w v v t s r n q Z L F H -.z x d a b 0 9 1 8 8 | | | | 8 8 1 9 0 b a c A y B H I D Z p n r s t t t v v v w w w w j j w w j w w w w w j j j j j j j j g j j j j j j j j j j j w w j j j j j w j j j w j j j w j j j j j j j j j j g g j j j j w j g w w w j w w w w w v t t r m p u D I G K -.B y x x x x x A A A A A A A A A x x x y z B M H F J Y u o m s t t v v w w w w j j j j j j j j j j j j j j j j j j j j j j j j j j j j j j j j j j j j j j j j j j j j j j j j j j j j j w j j j j j j j j j j j w j j w w w j w v v v v v v s s n q Z L F K -.y ;.d a b 0 9 1 8 | | 2 ",
"7 7 } } 6 2 | | 1 0 a d x M I D q r w g e h e e e h e e e e e h h h h h h h h h h h h h h i i i i i h i i h h i i i h h h i i i i h i i i i i h h i i h h i h h h h i i i i i i i h h h i h h i h h e e h e e e e e f f j v r p Z E H B x ;.d c a a b b b b b b 0 b b b b b a a c d A x B K I Y p r t w g f f e e e e e e e e e h h h h h h h h h h h h h h h h i h h h h h h h h h i i h h h h h h h i i i h h h h h h h h h h h h h h h h h h e h h e e h e e e e e e e e e h e e f g j t m q D F M x ;.c 0 1 8 | 2 6 } } 7 7 7 7 } } 6 2 2 | 1 0 a d x -.F D q m t w g f f e e e e e e h h h h e h h e e e h h h h i h h h h h i i h h h h h h h h h h h h h h h h h h h h h h h i h h h h h h h h i i i h h h h i i h e h i h h h h e e e h h e e f j v m p Y I K B x A d c a a a b b 0 0 0 0 b b b b b a a c d A y B H J C o r w g f e e e e h h h h h h h h h h h h i h h h h i i i h i h i i i i i i h h i h h h h h i h h h h i i h i h h h h h h h h h h h h h h h i i h h i h h e h h h h e h h e h h h e e g j t m q D I M x d a 0 1 | 2 6 6 } 7 7 5 ",
"l l 4 3 3 5 7 7 2 8 9 b A M L o v f i O Q R R R i.i.R R R i.i.i.i.i.i.i.i.i.i.i.i.i.i.i.i.i.j.j.j.i.i.j.i.i.j.j.i.i.i.i.i.i.j.i.i.i.j.i.i.j.j.i.i.i.i.i.R i.i.i.i.R i.i.i.i.i.i.i.i.i.i.i.i.i.i.R R R R i.R R R R i.Q N P h f v o D H y d b 0 1 8 | | | 2 2 2 2 2 2 2 2 2 | | 8 1 0 b c y K J p v g h k O N Q Q R Q R R R R R Q Q R R R R R i.R Q R R R R R R R i.i.R R R i.i.i.i.i.i.j.i.R i.R R i.i.i.i.i.i.R R i.R R R R i.R R R R R R R R R R R R R i.R R R Q Q Q R R i.i.R R R Q N i e j t p J M A a 9 8 6 } 7 5 3 3 4 4 l l 4 4 3 3 5 7 7 6 | 1 b ;.-.J q s j e k O Q R R R Q Q R R R R R R Q R R R R R R R i.i.i.i.i.i.i.i.i.j.i.i.i.i.i.R R R i.i.R R i.i.i.i.i.i.i.i.i.R i.i.i.i.i.i.i.i.i.i.i.j.i.R R R R R i.i.R i.j.i.i.i.i.i.i.R R R R Q N k h g v o J M x c b 9 1 8 8 | 2 2 2 2 2 2 2 2 2 | | | | 1 0 b d z G Y m w f i O N Q R i.i.i.i.i.i.i.i.i.i.i.i.i.j.i.R i.i.i.i.i.i.i.i.i.i.i.i.j.j.i.i.i.i.i.i.i.i.i.i.i.i.i.i.i.i.i.i.i.i.i.i.R i.j.i.i.i.i.i.i.i.i.i.j.i.i.i.i.i.i.i.i.R i.R i.i.i.i.i.i.i.R N P h g t p J M A b 1 | 6 7 7 5 3 3 4 l l ",
"W W W l l l 4 3 7 6 | 0 x E v #+).~./._.(.(.(.:.:.:.(.(.(.(.(.:.(.:.:.:.:.:.:.:.:.:.:.:.:.:.:.:.:.:.:.[.:.:.[.[.:.:.:.:.:.:.:.:.:.(.:.:.:.:.:.:.:.:.(.(.(.:.:.(.(.(.:.(.(.:.(.:.:.(.:.:.:.(.(.(.(.(.(.(.(.(.(.(.(.(._./.^.].{.>.j.v J z a 8 | 6 } 7 5 5 5 5 5 5 3 5 5 5 5 7 7 7 6 | 1 b y E s i.!.{.].].^././._.(._._._._._._._._._._._._._.(.(._._._._._._.(._.(.(._.(.(.(.(.(.(.(.(.(._._._.(.(.(.(._.(._._.(./._.(._._._._._._._._._.(._._._._._._._._._._.(._._._._._.(.(._._._._.^.].~.,.!.j.s E x b | 6 7 3 4 l l l l W W W W W l l l 4 3 7 6 | 0 x E s R 1.,.].^./._._._.(._.(.(.(._.(.(.(.(.(.(.(.(.(.(.(.(.(.:.:.:.(.:.:.:.:.:._._.(.(._.(.(.(.(.(.(.:.:.:.(.:.:.(.:.(.(.:.:.:.:.(.:.:.:.:.:.:.:.:.(.:.:.(.(.(.:.(.:.:.:.:.:.(.:.(.(.(.(.(._._.^.].{.).k.s E y b 8 2 6 } 7 5 5 5 5 3 3 3 3 5 5 5 5 5 } 6 | 1 c B D j 2.'.~.^._._._.(.:.:.(.:.:.:.:.:.:.:.:.:.:.:.:.:.:.:.:.:.:.:.:.:.:.:.:.:.[.[.:.:.:.:.:.:.:.:.:.:.:.:.:.:.:.:.:.:.:.:.[.:.(.:.[.:.:.:.:.:.(.:.:.[.[.:.:.[.[.:.:.:.:.:.:.(.:.:.:.:.:.:.(.(._./.^.~.).k.t E y 0 | 6 7 3 l l l l W W W ",
"V V V V W W W 4 3 } | b K w ].W.C.O.O.O.X.X.X.X.X.y.X.X.y.y.J.J.J.J.J.y.y.X.X.X.X.X.X.y.y.y.J.S.J.J.y.y.y.y.X.X.X.y.X.X.y.J.J.y.y.y.y.y.X.X.X.X.y.S.S.S.S.J.J.y.y.X.y.y.y.J.J.J.J.J.S.S.J.y.y.y.J.y.y.y.y.y.y.y.y.J.J.J.J.J.S.S.y._.j K a | } 5 3 4 l l W W W W W W W W W l l 4 5 } | a K t ~.O.y.J.J.y.J.J.J.J.S.J.S.S.S.S.S.S.S.S.S.N.N.N.N.N.S.S.N.N.N.N.N.N.N.N.N.N.N.x.x.N.x.x.N.N.S.S.N.x.N.N.N.x.x.N.S.N.x.N.N.N.N.S.S.S.S.J.S.S.S.J.J.J.J.J.J.J.J.J.J.J.J.J.J.J.J.S.J.y.J.J.J.J.J.J.J.J.y./.w K a | } 5 4 l W W W V V V V W W W W W l 4 3 7 | a M s {.O.X.y.y.J.y.y.J.y.X.X.y.J.J.S.S.J.J.y.X.X.X.X.J.y.y.y.X.y.X.y.J.J.y.y.y.y.X.y.y.y.y.y.y.X.X.O.O.O.J.J.S.J.y.y.J.y.X.y.X.X.O.X.y.y.y.y.y.y.y.J.y.y.y.y.y.y.J.y.y.J.J.J.J.J.y.J.J.y.y.y.y.y.X.X.y.X.C.,.t M a | } 7 3 l l W W W W W V W W W W l l 4 7 6 8 d G e (.O.X.y.y.J.y.X.X.y.y.J.y.y.y.y.J.y.y.y.J.J.y.X.X.y.J.J.y.X.y.y.y.y.y.X.y.X.y.y.J.J.y.X.X.y.y.y.y.y.y.y.y.y.y.y.J.X.X.X.y.y.J.J.X.X.O.X.y.y.y.y.y.y.y.y.X.X.X.X.y.J.J.J.X.X.X.O.O.X.X.X.X.y.J.y.y.X.C.{.w M b 2 7 3 4 l W W V W V V ",
"T T T V V V W l 3 7 8 ;.Z ].g s C p p p p p o p o q p p p p p q o p p p p o n o o o o o p q p p p p p o n n n o o p o o n o p o o o n n o o o o o o n o n q p n m m m m n m m n m m p o o n o o n o o o o o m m m n n n o n n p v j /.C A 8 7 3 l W V V V V T T T T T V V V W l 3 7 8 ;.Y ~.j w n m m m r m r r r m m m r n m m r r m m m m m m m m m m m m m m m m r r m n m m o n m o n p n o n n o o n n n n n m m n n n n n m m n m m m m n r m n o o n n m r r r s s r r r r r r r s r r n v w _.Z A 1 } 3 l W V V V V V W V T T V V V W l 5 7 8 d D >.h g p o n n n o n m o o p p p o n o n o n o n n o o n o n o o o o o o o o o n p p o p p q p n n n o o p p o o o q p q p o p o o o p q p p p u q q q q p o p p o o o p o q p o n o o p p p o n o p C v f ,.Y ;.8 } 3 l W V V V V T T T T V V V V W 4 5 } 9 x q [.t u o o o o n m o o o o o o o o p p p o o o q q p o p o p q q q o n o p o p o p p q q p p q q p p o o p p o o n p o p o p p q p q p n n p o o q q q q p p p o q u u u q q q p q p q p u p o p p u C t f ].Y ;.8 7 3 l W V V T T T T ",
"U U T T T T V l 3 } 0 z s |.4.b 4 U U U V l l W V 4 W l l l W l T W 3 4 4 4 W 4 l l V V l W T W W l l V V l 4 l l l l l W W W W l l l 4 W W l W l 4 W l l | 7 5 l l l l 4 l W 3 4 l l 4 T V U V T W W 4 4 l W V W l V U l l W 5 A j.Z.t z 9 } 3 l W V T T T T T U T T T T V W l 3 } 9 z s |.3.d 5 W 4 4 3 3 4 4 l 3 4 3 l 4 4 } 5 5 3 3 3 3 4 4 4 l 3 4 3 3 4 l 4 5 5 5 l 4 4 W 4 W W 3 l 3 4 W W V 7 4 W l l 3 l l l 4 3 4 3 4 4 5 5 5 3 l 4 l T l 4 3 4 4 7 7 3 7 7 5 l l l W W W 3 4 l l l 4 ;.R ++t B 0 } 3 l V T T U U T U U U T T T T V W 3 } 9 y n :.'.A 7 S l W l l V W 4 4 l 3 l W W 4 4 4 W 4 4 l W l l 3 l l W W W W W W l 4 4 S T S T W W 3 l W l V U U S U T T W 4 5 5 4 4 3 3 4 W V V W 4 l V V W V T V V W W U U U S W W U T V T l V 4 V V U T 5 a !.[.r z 0 } 3 l V V T T T U U U T T T T V W l 5 2 b -.w F.i a T T l U V 4 5 l l l 4 l W W 4 4 4 l W W 4 5 W V } 3 W l l 4 4 l W W W W W l W W W W 4 W W T W V W l l 4 V W 3 W W W l W W W l } V U V l W W V V V V V W W 5 5 5 l l 4 l l W W W 4 7 5 T U V W 4 a 1.}.r z 9 } 4 W V T T T U U U ",
"S S S U U U V W 3 6 b -.f Z.!.d { / $   @ @ @ @ $ $   @ @ @ & @ $ #     $ & @ $ $   @ @ @ @ @ @   @   @ @       @ @ @ @         @     $ & & # & & @ @ @ $ @ & @ @ @ @ @ @ $ $ @ @ @ $ = & # * $ $ @ # & * # $ & & $ , % # # _ W c 3.D.f K a 6 3 l V T T U U U U U U U U U T V l 3 6 b M g E.4.;.T { @ @ $ & # $ & # & & & $ # @ $ @ & $ & $ $ @ @ @ @ @ @ $ $ @   $ @ $ & @ $ & ; $ @ # % & & & $ & @ & # $ @ # & $ & & & * @ @ $ & &   & % * * $ $ $ & * = ; * # $ @ $ $ * $ $ $ * @ @ @ $ ~ T a k.F.f K a 6 4 W T T U U S S S S S U U U U V W 4 } b B v |.'.-.< : $ $ @   & & @ $ $ $ & $ @ $ $ $ @ & @ @ @ $ @ @ $ & @ & @ @ @ & $ @ & # # * * $ # $ @ @ @ $ $ # @ @ & * * # # $ @ $ @ $ @ @ & $ @ # $ & $ @ & $ @ $ $ @ $ @ $ $ * @ & @ $ * # * @ # @ @ / { z >.|.j K b } 3 l W V T U U U U U U U U T T W l 5 | d G i  +N 1 T '   & $ @   &   @ $ $ $ & $ $ & @ $ @ = @   & $ $ #   $ * $ @ @ @ @ @   @ & @ @   # # - & # # $ @   # @ @   % & $ @   @ @ * $ @ # @ @ $   @ $   @   @ @ @ $ & * * = * # # % $ & # @ $ # @ _ { x !.Z.j -.b 6 4 W V T U U S S S ",
"S S S S S U T W 3 2 c K f F.1.x , ^ U ! ) ' , > > , , , , , ' , ' > , ' ) > > , ' , > > , , , ) , , ' > , > > , , , , ) > - - > > - > > - > > , , ' ' , > , > , , , , , , > > - > , ' ) > > > - ! , ! , ' > - - - ! ~ ' - S V > ;.3. +i G d 2 5 l V T U U U S S S S S U U U V l 3 2 c H e D.4.x ' U V % - ' , ) ; > ' , > > ' , , > , - > ; ; - - - - - ; ; = = - ; ; ; ; - = % - > = - = > , = , - > ; ' ; > ' ) > > , ' > - ' - > = = > ; > ; * - % = - = = - > > ; > ; > - - , ' , , ! { [ , d #+D.h H d 2 4 W T U S S S : : : S S S S U T W 4 6 a M j ++'.K ) ] l ' , - - - > > , > > , > > , ' > , , , , ' , , ' , ) > ) , , > , > > ' X > ' ' ' ) ! X ) ' ' ' ) > - > > - > > , , , > , ' ' , ) ' ) > > > - ) ! ) ) , > , ; - , , ; > ' ) > > ; ) ' : X X B ).Z.f H c 6 3 l V T U U S S S S S U U U T V l 5 8 A I P U.N d ; T < - - > > ; > , , > > - > > > > > ' ; > ' , > - ' ) = ; ! ' , X ' X ' ' X ! ' > , ) ' ) ) ! X X ! ) ~ , , ' ' - , > ) , > , , ' , , ) , ! > > , , , , ' ' ' ! , ! ! - , ! = > , ! ' X T ~ ' z !.E.f K c 6 4 W T U S S : : : ",
": : : : : S U W 3 2 d G e F.1.y , % 7 G d c c a a a b c a d c a b b a d 9 0 b a a a a a a a c b a a b b b b a b b b 0 b b a a a a a a a a a a a c b 0 b b b a a a a b b 0 b b b b a b a 0 b 0 b 0 9 9 a b 9 0 0 9 0 1 b K b @ > x 3. +i I A | 5 l V U S S S S : S S S S S U T W 3 | ;.F e D.1.x )   8 M a 0 9 9 1 0 9 9 1 9 8 1 8 1 8 1 8 1 8 1 8 1 1 1 8 8 1 8 1 8 9 8 1 1 1 9 0 9 1 8 1 8 2 | 8 8 8 9 1 9 b 9 9 1 1 1 9 0 b a 0 9 9 9 1 1 1 8 | | | b 8 1 1 9 9 9 9 9 9 1 0 0 0 9 9 b B 2 ; ' d #+D.i I A | 4 W T S : : : < < : : : : : S U V 4 6 c H j ++,.-.X $ 6 F c c 0 b b b 0 9 0 1 0 b b 0 a b b a b b b b c d b a a d c c a c a a 0 d d c a c b c a 0 a b 8 b b a a c a a a a a c a a a c 0 b c a c c c c d a c a b 9 0 b b b c 0 b 0 b a c A K 7   ~ y ).Z.f G d 2 3 l V U S S S S : : : S S S U V l 5 1 x J P P.N ;.- # d H c c c a 0 0 b b a a a b a a a b b a a d a a 0 0 b d b A c a c a c d a c c c a a b c a b a a a 0 d d c b c a 9 0 d b c c d c d c a a d b a c a c a b a b A d A d d a c b a a c d E 8 @ ) z !.F.f G d 2 4 V U S : : : < < ",
"[ < < < : : U V 3 | ;.I e F.1.y ' # S k.++!.i.O i h e e f f f e e e h h e h h e e f f f f e e h i i i i h h h h h h h h h i i i i i i i h e e e e h i i P k i h h e h h h i i h i i h h h e h e e f f e e h i k Q j.!.Z.1.S & ) ;.#+F.i J A 8 5 l T U S : : : : : : : : S S T W 3 | ;.I h D.4.y ' @ ( k.Z.>.k.Q O i i h i P k k i k k k k k k i i i k k i k k k k i k i k k i i i h h i h i h i i i h h h e i e e e e e e e i h h h h h h i h h h h h e e h h e h h h i i i i P N j.>.++!.: & , A #+ +i E A | 4 V U : < < < [ [ [ < < < < : U V 4 6 d F j Z.'.M ~ @ [ P D.>.j.N k h h h i k i h e h f e e e h h e h e f e e e e e h h h h e e i h h e f f g f f e f e h h h e e f e h e e f e e f e h f e e e e f e e g f f e h h h i h h h i k O k.>.E.i.S @ ~ z >.E.f I ;.| 3 W T S S : : : < < : : : S U V l 5 1 y L O G.N c > & W /.}.1.i.N k i e f f e h e e e e e e f f e h e e e e f f f f e f f f h f f g f f e f e j g f f e f e e f e e h i e h g e e e h e e e e f e f f f e i i i e g f g f f e h k Q j.>.Z.j.( & ' B 1.F.e F ;.2 4 V U : : < [ [ [ ",
"[ [ [ [ [ < U V 4 | ;.E h F.1.y , * < k 3.t E K z A d d d d d c c c d c c a a c c c c c c c c a c c c a c d c d d c d d c d c c c c c c c c c c c c c c c c d c c c a c c c c c c d a b a a a b a a c c c d A y K J w 4.N { * ' ;.#+D.k L x 8 3 W T S : < < < < < < < : : S U W 3 | A E h D.4.z ) @ [ i 2.v J K y ;.d c d c a a a a c c c c c a a c c a a a c c c c c c c c c c c d c c d a c c c c a a a c d a c a a a c c d a c a a a a c a a a a c c c c a a a c d d c d A z K E v 4.N [ $ , A #+ +i J x | 4 V U : < [ [ [ ( ( [ [ [ < < S V l 6 ;.I f Z.'.-.~ @ { w ).j E K y ;.;.c c c c a c a a c c c a c c c c a c c c d d c c c a a c d c c c d c c a a c a a a c c c c d d c c c c c c c c c c c c c a b a c a a a a a c c d c d d ;.z K E j !.i <   ] z >.Z.e E A | 3 W U S : : : < < [ < < : : S T l 5 1 z Z N U.N c > $ V 2.#+r E K z ;.d d d c a a a a a a a a c c c c c a a a a c c c a a c c c d c a a a a c c b b c c a c c c a c c c c c c c a c d a a a a a c a a a c a a a a a c c c d d ;.z K E w 3.e [ $ ) M 4.E.e E ;.2 4 V S : < [ [ [ ( ",
"( ( ( ( [ < S V 4 2 A E h D.1.y , & : w w v v C E F H H M x z x z z x x y y z y z y x y x y y z B -.-.B B B z B z B B B B B -.-.-.B B B B z z y z B -.M -.B z B z y y y y z z z B x z y y A x y y z z B -.B K E q j h t e [ $ ! d #+D.k L y 8 3 W U S < < < [ [ [ < < < < : U W 3 | A J h D.4.z ! @ [ w v j g u J G H G B -.B B B z z y z z z z z B z z z z B B B B B -.B B B B B -.z z y B B B z B z y B M -.-.z z M z B B -.B y y z B z M B y z M B z z B x x y z B B -.M G J u w e v e U $ , x #+D.k J x | 4 T S < [ ( ( ( ( ( ( ( ( [ < S T l 6 d I f Z.'.-.X @ ( r f t j u J H M -.-.-.B z x A x x x y y z M y y y y y z y z z M z B -.z K K K -.K x x x y y z B B B B z z z z z z y y x x A z B y z y y y x A y B y A x y B z z -.B M H J u w v g j :   ! -.>.Z.e E A 2 4 W U : : < < [ [ [ [ < < < S T W 5 1 z C Q G.N d ; # V R o h t u J G M -.B B z y y y y y x x y -.z x x y y y x x y y y y -.M -.z y M z z z z -.y z z z z z z y y y z z -.y y y z B y z y y z z y z x y z y y x y A z y z B M G D u g w v j < $ ~ z 4.F.h E ;.2 l T S < [ [ ( ( ( ",
"{ ( { ( [ [ S T l 2 ;.E h D.1.x , & : s o C Z n L H -.z y y A ;.A A d d A ;.;.;.;.A A A A A A A y z z z y y y y x y y z y z z z y y y y y y A x x y z y z y y A A x A A A x x x A A ;.;.d ;.;.;.A A A x y B K E n q o p e < @ ! ;.3.D.k L x | 3 W U : < [ [ [ [ [ [ [ [ < : U V 3 | A L i D.4.z ' $ [ v p q u q J K B x x x x x ;.;.d d d d ;.;.A ;.;.;.;.;.;.;.;.;.;.A A ;.;.;.;.;.d A A ;.;.;.A A A A x A ;.;.d ;.;.d ;.;.;.;.;.;.d c c d d c c c d ;.x c d ;.A x x y z B K J o p p q f < $ ' A #+F.k L x 2 l T S [ ( ( { { { { { { ( ( [ : T l 6 d I f ++'.-.X @ { m s Z C o J H -.B B y x A d ;.d d ;.;.A A ;.A A A A A A x A A A A x z y A y y y A A A A x y x x y y x x x y x x x A A x y x A z y y ;.;.;.;.d d ;.d A A x z y y z B -.G L m C u r s : @ ! B >.Z.e E A 2 4 V U : < [ [ [ ( ( [ [ [ < S U W 3 1 z Z N G.N c ; & V O Y o q n L G M B z z z x x x A A A ;.A ;.;.;.A A x x x x x y x A x y x x A x y x A A x x y x x y y A A x y y y x x x A y x x y A x x A ;.A x x A A A A ;.;.A y z z -.H Y s u C n t S $ ~ y 1.F.e E ;.6 l T : [ ( ( ( { { ",
"_ { { { ( [ : T l 2 ;.E h D.1.A ) & < t C L H v u -.A d c d b b 0 0 1 8 8 1 1 1 1 9 9 9 9 0 0 0 0 0 b 0 0 b b b b b b b b b b b b b b b b b b b b b 0 0 0 0 0 0 0 0 0 0 0 9 9 9 9 0 9 9 9 9 0 0 b a a d d A B C t H u Z f [ @ ~ ;.#+D.k L x | 3 V S < [ ( ( ( ( ( ( ( ( [ < S V 4 2 ;.J i F.4.y ) @ < t C D K s u M y ;.d c a b b 0 9 9 9 9 9 0 0 0 0 0 0 b b 0 b b b b b b a b a a b b b b b b a a b b a a a b 0 0 0 0 b 0 b b 0 0 b 0 0 9 9 0 9 9 b c d 0 0 b b a c d ;.x -.u w G Z Y w [ $ ! ;.k.F.i L x 2 l T S [ ( { { { _ _ { { { { [ : U l } d I f ++,.-.X $ { n n J K r u -.x d d c b b 0 0 9 1 9 9 9 0 9 0 0 0 0 0 0 0 b a b 0 b a 0 0 b b a 0 0 0 0 0 0 0 0 b b 0 0 b b b 0 0 0 0 0 0 0 0 a b b 9 9 1 1 1 1 1 8 1 9 9 b b a d d A B C r H D q s { $ ! M >.Z.h E ;.2 4 V U : [ ( ( ( { ( ( ( [ [ : S V 3 8 z Y N G.N c ; & T P E Z F v Y -.A d c a b 0 0 9 1 1 1 1 1 9 9 0 9 9 9 9 9 0 9 9 9 b b b b 0 0 0 0 0 0 0 0 0 0 0 0 b b b 0 0 0 0 0 0 0 0 0 0 9 0 9 9 9 0 9 9 9 0 b 1 1 1 1 9 0 b a d d A B o t H J q r : @ ~ y 1.F.e E ;.6 l T : [ ( { { _ _ ",
"_ _ _ _ { ( : T l 6 ;.E h D.1.A ! & : s D F x D F -.| 6 2 } 5 5 5 l l W W W l l l l 4 4 4 4 4 4 3 3 3 3 3 3 3 3 3 3 3 3 3 3 3 3 5 3 3 3 3 3 3 3 3 3 3 3 3 3 3 3 3 3 4 4 4 4 4 l l l l l l l 4 3 3 5 7 } 6 | B L D z J L f ( # ~ ;.#+D.k J x 2 4 V S < ( ( { { { { { { ( ( < : T 4 2 ;.J h F.4.y ) & ( s L F x D I z | 6 6 } 7 5 3 4 l l l l l l l 4 4 4 4 4 4 4 4 4 4 3 3 3 3 3 3 3 3 3 3 3 3 3 3 3 3 3 3 3 3 3 3 4 3 4 3 4 4 4 4 4 4 4 4 l l l l l 3 3 3 4 4 5 3 7 } 6 6 | B L D y E J w S # , d #+F.k J A 2 4 T : ( { _ _ _ _ _ _ _ { { ( < U l } d I f Z.'.M ! @ _ n q H x D F H | 6 6 } 7 5 3 l l W W l 4 l l l l 4 4 4 4 4 5 3 3 3 3 3 4 4 3 5 3 3 4 4 4 3 3 3 3 3 3 3 3 3 3 3 3 4 4 3 7 3 4 4 3 4 3 4 l l l W W W W l l 4 5 7 } 6 6 | M I L y F u r _ & ^ y >.E.h E ;.6 4 V U < ( ( { { { { { ( ( [ < S V 3 8 z Y N U.N c = & V k G E z D D y 8 2 6 } 7 5 3 4 l W W W l l l l 4 4 4 4 4 4 4 4 4 3 3 3 4 4 4 4 4 4 4 3 3 3 3 4 3 3 3 3 4 3 3 3 4 4 3 4 4 3 4 4 4 4 4 4 l l l l l l W l l 4 3 5 } 6 6 | H E D y F Y m < $ X y 1.F.e I ;.6 l U : ( { { _ _ _ ",
"/ / _ _ { ( : U l 6 ;.I h D.1.y > $ [ r L H a G a c b l l V T U U < [ ( ( ( ( [ [ [ < < < < : : : : : : : : : : : : : : : : : : : : : : : : : : : : : : : < < < : < < < < < < [ [ [ ( ( [ [ : : S U V V W 9 x b I d F E g < $ ^ A #+D.i J A 2 4 T : [ ( { { _ _ _ { { { ( [ : T 4 6 ;.E h F.4.z , $ ( s J H c G a d 1 W W V T U : < [ [ [ [ [ [ [ < < < < : < < : : : : : : : : : : : : : : : : : : : : : : : : : < < < < < : : < < < < < < < < < < < : [ < < : U T V W W 9 y c G d F F v : $ - ;.#+D.k J A 2 l U : ( _ _ / / / / _ / _ _ ( < U W } c I f Z.'.-.X $ { n C M c F a c a l W V U U : < [ ( ( [ [ [ [ [ [ < < < < < < : : : < : : : : : S : : : : : : : : : : : : : : : : < < : S S S : : < < < < [ [ [ ( ( ( [ [ : S U V W W a c b G c G C r ( $ X B !.Z.h E ;.6 l V S [ { { { _ _ _ _ { { ( [ S T 4 8 z D N G.N a ; & V k K G d G b z | W W V U S : < [ [ [ ( [ [ [ < < < < < < < < < < : < : < < < < : : : : : : : : : : : : : : : : : < < < : : < < < < < [ [ [ [ [ ( [ [ [ < : S U V W W ;.;.c H d H Y t < $ ] y 1.E.h I d 6 W T : [ { _ _ / / ",
"^ / / / _ ( < U W } ;.I h D.1.y > % _ s L -.0 M 1 3 6 | U S < ( ( _ / ^ ^ ^ ^ / / _ _ _ { { { { { { { { { { { { { { { { { { { { { { { { { { { { { { { { { { { { { { { _ _ _ _ / / ^ ^ ^ ^ / _ { ( < : S 2 9 3 1 M b G I g < & X d k.D.i J A 2 4 T : [ { _ _ _ _ _ _ _ _ { ( < U l 6 d E h E.4.z ' @ [ s J M b M 1 4 | 6 S : < [ { _ / ^ ^ ^ ^ / / / / _ _ _ _ _ _ _ _ _ _ { { { { { { { { { { { { { { { { { { { { { { { { { { { { _ { _ _ _ _ / / / / / / / _ { [ < : S 2 0 4 1 M b K I w < @ ' ;.#+D.i J A 6 W U < ( _ / / / ^ / / / / _ ( < U W } c F f E.,.M ! @ { o Z B 0 K 1 3 | 0 S : : [ { _ / ^ ^ ^ ^ / _ _ _ _ _ { { { { { { { { { { { { { ( { { { { { { { { { { { { { { { { { { { { { { { { _ _ _ _ / / / ^ ^ ^ / / { [ < : S 1 8 3 1 M b K C m [   ) -.>.Z.e I ;.6 l T : [ { _ _ _ / _ _ _ _ { [ : T 4 | y Y N G.N a = & V i M H b -.8 4 b 7 S : < ( { _ / ^ ^ ^ ^ / / _ _ _ _ { { { { { { { { { { { { { { { { { { { { { { { { { { { { { { { ( ( { { { { { { _ _ _ / / / ^ ^ / / _ { [ < : S b 8 3 9 -.b -.D t [ @ ) -.1.E.h I d 6 l T < ( { _ / / / ",
"^ ^ / / _ { < U W } d I h D.1.x > = _ s L -.9 -.8 4 T 5 } : [ { _ / ^ ] ] ] ^ ^ / / _ _ { { { { { { { { { { { { { { { { { { { { { { { { { { { { { { { { { { { { { { _ _ _ _ / / ^ ] ] ] ] ^ / _ { [ < } 1 S 4 | B 0 H F g [ ; ) ;.#+D.i J A 6 l U < ( _ _ / / / / / / _ _ ( < U l 6 d E h F.4.B ' @ [ s J -.0 -.8 4 S | } < [ { / ^ ] ] ~ ] ] ^ ^ / / _ _ _ _ _ _ _ { { _ { { _ _ { { { { { { { { { { { { { { { { { { { { { { { { { { _ _ _ / / ^ ^ ] ] ] ^ / _ { [ < 6 9 S l 8 -.0 -.I w S & ' ;.#+D.k J ;.6 W U < ( _ / / ^ ^ ^ ^ / / _ { < U W } c F f E.'.-.! @ _ n Z z 0 M 8 4 U 2 9 < [ { _ ^ ] ] ] ^ ^ ^ ^ / / _ _ _ _ { { { { { { { { { { { { { { { { { { { { { { { { { { { { { { { { { { { { _ _ _ / / ^ ^ ] ] ] ^ ^ / { [ < | 2 U 4 8 -.b M Z m <   ! B !.Z.e I d } l U : ( { _ / / / / / _ _ { [ : T 4 | x Y Q U.O a ; & T i -.K b B | l S 1 3 < [ { _ ^ ] ] ~ ] ] ^ ^ / / _ _ _ { { { { { { { { { { { { { { { { { { { { { { { { { { { { { { { { { { { { _ _ _ _ / / ^ ^ ] ~ ] ] ^ / { [ < 9 | U 4 8 -.b B D t ( # ^ y !.E.h E d } W U < { _ / / ^ ^ ",
"^ ^ ^ / _ { < U W } d I h D.1.x ' * ( r J -.1 -.| l U S 3 } { _ ^ ] ~ ~ ~ ~ ] ^ / / _ _ { { { ( ( ( [ ( ( ( ( ( ( ( ( ( ( ( ( ( { ( { { { { { { { ( ( { { { { { { { _ _ _ / / ^ ^ ] ] ~ ~ ~ ] ^ _ ( 5 2 : S W 2 -.9 H G j U $ ! x k.D.i E ;.6 l U < { _ / / ^ ^ ^ ^ / / _ { < U W } d I h E.4.z ' @ [ s E -.9 -.| l S < 2 7 { _ ^ ] ~ X X ~ ] ] ^ / / _ _ _ _ { { { { { { { { { ( { { { { ( ( ( ( ( ( ( ( ( ( ( ( ( ( ( ( ( ( { { { { { _ _ / / ^ ] ] ~ ~ ~ ] / _ { 7 8 : U W | B b K F v : @ ' ;.#+D.k J ;.6 W U < { _ / ^ ^ ^ ^ ^ ^ / / { [ U W 7 c F f E.'.-.! # _ n Z z 9 -.| l S : } 8 { _ / ] ~ X X ~ ] ^ ^ / / _ _ _ _ { { { { { { { { { { ( ( { { { { { { { { { { { { ( ( ( ( { ( ( { { { { { { ( _ / ^ ^ ] ~ ~ ~ ~ ] / _ { 2 6 : S l | B 0 M Y m S $ ! M !.Z.e I d } W U < { _ / ^ ^ ^ ^ ^ / / _ [ : T l | x D N G.N a = # T k M M 0 z 2 W S < 8 l ( _ / ] ~ ~ ~ ~ ] ^ ^ / / _ _ _ { { { { ( ( ( { { { { { { { { { { { { { { { { { { { { { ( ( ( ( ( { { { { { _ / / ^ ^ ] ~ ~ X ~ ] ^ _ ( | } : S l | y b M D t S $ ~ y !.E.e I d } W U < { / / ^ ^ ^ ",
"^ ^ ^ / / { [ U W } d I e F.1.y - $ ( s J -.1 -.2 l U : < 5 7 / ] ~ X X X ~ ^ ^ / _ { { { ( ( [ [ < < [ [ [ [ [ [ [ [ [ [ [ [ [ [ [ [ [ [ [ [ [ [ [ [ < [ [ [ [ ( ( ( ( { { _ / / ] ] ~ X ~ ~ ] / l } [ < : W 2 z 9 K F j [ & ] A k.D.i E ;.6 W U < { / ^ ^ ^ ^ ^ ^ ^ / _ { [ U W } d I h E.4.z ) $ [ t E -.1 B 2 W : < [ } 3 ^ ] X X X X ~ ] ^ / _ { { ( ( ( [ [ [ [ < [ [ [ [ [ [ [ [ [ [ [ [ [ [ [ [ [ [ [ [ [ [ [ [ [ [ [ [ [ [ ( { { { _ _ ^ ] ] X X X ~ ^ / 3 | [ < S W | B b M F v S $ ' x #+D.i J ;.6 W S < { / / ^ ^ ] ] ^ ^ / / { < S W 7 c F f Z.).-.) $ [ m Z B 0 B | l S : [ 3 } / ] ~ X X X ~ ] ^ / / _ { { { ( ( ( ( ( [ [ [ [ ( [ < [ [ [ ( ( [ ( ( [ [ ( [ [ [ [ [ [ [ [ [ [ ( [ [ [ ( ( { _ / ^ ] ~ X X X ~ ^ / 7 7 < : S W 2 z 0 -.Z m ( @ X -.!.Z.f I d } W U < { / ^ ^ ^ ^ ] ^ ^ / _ ( < U l 2 x D O G.N c = # V i -.M 0 y 6 W : < [ 1 W / ^ ~ ~ ~ ~ ] ] ^ / _ _ { { ( ( ( ( [ [ [ ( ( ( ( ( ( ( ( ( ( ( ( ( [ ( ( ( ( ( ( ( ( ( ( [ [ [ [ ( ( ( { { _ / / ^ ] ~ X X X ~ ] / 6 3 < : S l | y b M D s : $ ~ y !.E.e I c } W S < { / / ^ ^ ^ ",
"^ ^ ^ ^ / { [ U W } d F e F.1.A ' $ { s L -.1 B 2 l U < ( { 4 3 ~ ~ ~ ~ ~ ] ^ / _ { ( ( [ [ < < < < : : : : : : : : : : : : : : : : : : : : : : : : : : : : : < < < < [ ( ( { _ / ^ ] ~ ~ X ~ ] V 3 ( [ < : V 6 B 1 M F w : $ ~ A k.F.i E ;.} W U [ { / ^ ] ] ] ] ] ^ ^ / { [ S W } c I e E.4.z ) $ ( s E -.1 B 2 W : < [ { 7 l ] ~ X X ~ ] ^ / _ { ( [ [ [ < < : : : S S : : : : : : : : : : : : : : : : : : : : : : : : : < < < < [ [ ( ( { _ / ^ ] ~ X X ~ ] l 6 { [ < : W 2 z 9 -.F w : $ , x #+D.i E ;.} W T < { / ^ ^ ^ ] ] ^ ^ ^ / { [ S W 7 c F g E.).M ! $ ( n Z z 0 B 2 l : < [ { l 3 ] ~ X X ~ ] ^ / _ _ ( ( ( [ [ < < < : S S : : : S : < : : < : : : : : : : : : : : : : : : < < < < < : [ [ ( _ _ / ^ ] ~ X X ~ ] 3 3 ( < < S W 2 x 0 B Y r [ $ ~ y !.Z.e I c } W U [ { / ^ ^ ] ] ] ] ^ ^ / ( < U W 2 x D N G.N c = # T i M -.0 y 6 V : < [ { | T ] ~ X X ~ ] ^ / _ { ( [ [ < < < : : : : : : : : < < : < : < < < : < < < < < : : < : < : : : < < < [ [ ( ( { _ / ^ ] ~ ~ X X X ~ 5 4 ( [ < : W 2 y 0 -.J m V @ ' x !.E.e I c 6 W S [ { / ^ ^ ^ ] ",
"] ] ^ ^ / { < S W } d F e F.1.A X ' ] v J -.1 B | l S [ ( { / W 4 ~ ] ~ ] ^ _ { ( [ < < : S S U U U U T T T T T T T T T T T T T T T T T T T T T T T T T T U U U S S : : : < [ [ { _ / ] ~ ~ ~ T 3 / ( [ [ : V 6 z 1 M F w { & ' A k.D.i E d } W S [ { / ^ ] ] ] ] ] ] ^ / _ [ S W } c I e Z.4.B ' $ ( t E -.1 B 6 W < [ ( { / 4 V ~ ~ ~ ] / _ ( ( [ < : : : S U U U T T T T U T T T U T U T T T T T T U T T U T U T T T U U U U S S : : < : < ( { _ ^ ] ~ ~ ~ W } / { ( [ : V 2 z 9 B F v : $ ! A #+D.i E ;.6 l T < { / ^ ^ ] ] ] ^ ^ ^ / { [ S W 7 c F f Z.'.M ) $ [ n Y B 9 B 2 W : < [ { _ T 4 ~ ~ ~ ] ^ _ { ( [ < < : : S S U U U T U T T T T U U T U U U U T T T T T T T T U T T U U U U U S S S S : < [ ( { _ / ] ~ ~ ~ 4 4 _ ( [ < : W 2 B 0 -.D n U @ X z >.Z.f I c } W S [ _ ^ ^ ] ] ~ ] ] ^ ^ / { < U l 2 x D N G.N a ; # T i M M 0 y } V < [ ( { / 2 S ~ ~ ~ ] / _ ( [ < < : : S S U U U T T T T T T T T T T T T T T T U U U U U T U T T U U T U U U S : : < < [ ( { _ / ] ~ ~ X ~ 3 V _ { ( < : W 2 z 0 -.E r < # - y !.E.e I c } W S [ { / / ] ] ] ",
"] ] ^ ^ / { < S W } d I e F.4.z ) * _ t J M 9 B | W : [ ( { / ^ W 4 ^ ^ / { < : U T T V V V V W W W l l l l l l l l l l l l l l l l l l l l l l l l l l l l W W W V V V V V T U S < ( / ^ ] V 5 ^ _ ( ( [ < V 6 z 1 -.F j _ # ) A #+D.h I d } W S [ { / ^ ] ] ] ] ] ] ] ^ _ [ S W } c I e E.1.z , @ ( v E -.1 B 6 V < [ ( { / ^ 5 V ~ ^ / ( < S U T V V V V V W W W l l l l l l l l l l l l l l l l l l l l l l l l l l l W W W W V V V V V T U S < ( / ^ ~ W } ^ _ { ( [ < V 6 z 9 B I w : $ X A #+D.i E ;.6 l U < { / ^ ] ] ] ] ] ^ ^ / { [ S V 7 c F f E.).-.) & < o C -.0 z 2 W : [ ( { _ / V 3 ~ ] / { < S U T T V V V V W W W W l l l l l l l l l 4 4 4 4 l l l l l l l l l W W l W W W V V W W W V V T U S < ( _ ^ ~ 4 3 ^ _ { [ < : W 2 z 9 -.L m S @ ! -.>.Z.e I c } W S [ _ ^ ^ ] ] ~ ~ ] ] ^ / { < S W 2 x D N  +O a ; & T i -.M 0 y 6 V < [ ( { / ^ 8 U ] ^ / ( : S T V V V W W W W W l l l l l l l l l l l l l l l l l l l l l 4 4 3 3 3 3 4 l 4 l l W W W V V T U S < ( / ^ ] 4 V ^ _ { ( < : V 2 B 9 -.E m : & , B 1.F.e F c } W S [ { / / ^ ] ] ",
"] ] ] ^ / _ < S W } d F e F.1.x ' * ( s J M 0 K 2 W : [ ( { _ / ^ W 3 / < W 5 } 6 6 6 6 2 2 2 2 2 2 2 2 2 2 2 2 2 2 2 2 2 2 2 6 6 2 2 2 2 2 2 2 2 2 6 6 6 6 6 6 6 6 6 6 6 6 6 6 } 5 W : _ W 5 ] ^ _ { ( [ < V 6 z 1 -.G w _ * ' x k.D.h I d } W S [ { ^ ] ] ] ] ] ] ] ] ^ _ [ S V 7 c I e E.4.z , @ ( v E B 1 B 6 V < [ ( { _ / ] 5 l _ < W 5 7 } } 6 6 6 6 6 6 } } } 6 6 6 6 6 6 6 6 6 6 6 6 6 6 6 6 6 6 6 6 6 6 6 6 6 } } } } } 6 6 6 } } } 7 5 4 V : { l 7 ] / _ { ( [ < V 6 z 9 B G v : & ! ;.k.D.k E ;.6 3 S [ { / ^ ^ ] ] ] ] ^ ^ / _ [ S W 7 c F f Z.).B X $ [ m u -.0 K 2 W : [ ( { _ / ^ T 7 / < V 3 7 7 } } } 6 } 6 6 6 2 6 2 2 6 6 | | 2 6 2 8 | | 2 2 2 2 2 2 2 2 2 2 2 2 1 6 6 6 2 2 6 6 6 6 } } 7 5 5 V < _ 5 3 ] / _ ( [ < : W 2 z 1 B Y m [   X B >.Z.e I c 7 W S [ _ ^ ] ] ] ~ ~ ] ] ] / { [ S W 2 x L O  +O a = & T i -.M 0 y } T < [ ( { _ / ] | T { S l 7 } 6 6 6 2 2 2 2 2 2 2 2 2 2 2 2 2 2 2 2 2 2 2 2 2 2 2 2 2 2 2 | | | 2 | 2 | | | 2 2 2 2 2 2 2 2 6 6 7 W : ( 4 U ^ / _ { ( [ : W | B 9 z E m : & > x !.F.e I c 7 W S [ { / ^ ^ ] ] ",
"] ] ] ^ / _ [ S W } d I e D.4.y ! # ( s J K 9 z 6 V : [ ( { _ _ / ^ 5 a G p r t t t s s m r m r r s s s s s r r r r r r r m m m m s r r r m m r r s s r r m m r r r s r r r r r r n q E 0 | / / / { { [ [ < V 6 z 9 K G w < * ~ c #+ +h E d } W S [ _ ^ ^ ] ~ ~ ~ ] ] ] ^ _ ( S V 7 c I e E.4.z , @ [ v E B 1 z 6 V < [ ( { _ / ^ ^ 2 b K C o n n o n n n o o o o o o o o o o n o o p p p p o s o o n n n o o p o p o p q p p m o p n n n r n n p q C I 0 | ^ ^ / _ { ( [ < V 6 x 1 B F v U $ ) A #+ +P J ;.6 V S [ { / ^ ] ] ] ] ] ] ^ / _ [ S W 7 c F f Z.).-.) @ : n D -.0 B 2 W S < ( { _ / / / 3 c K q o m m r r r s s s s r t r s s s m s v r m r r r r r r r s s s s t t s m m t r r r r r s r s r m m m n o p F c 6 / / / { ( [ < : V 2 z 9 -.u s _ $ ! B >.Z.e F c 7 V S [ _ ^ ] ] ~ ~ ~ ~ ] ] ^ { [ S W 2 x L O G.O a = # U k -.K 0 y } T < [ ( { _ / / ^ b b L n t t t t t v t s t s t t s s t t s r s s s t s s s s t t t s s s t t t t t t t t t t t t t t s s s t t s o F a l / / / { { ( < < V | z 9 B J v _ $ , A 1.F.e F c 7 W S [ _ / / ] ] ] ",
"] ] ] ^ ^ _ [ S W } d I e D.4.x ! & < r J M 0 B 6 V : [ ( { { { / { T Y y 0 c ;.;.;.A A x A x x x x A A A A x x A A A A x x x ;.;.;.A y y y x x y y x x y z y y y z y x A A ;.A A A d x Y T { / _ _ ( [ [ < V 6 z 1 B F g S * X d k. +h I d } W S [ _ ^ ^ ] ~ ~ ~ ~ ] ] ^ _ ( S V 7 c I h E.4.z ) @ [ t E -.1 B 6 V < [ ( { _ _ / { S Y M x x y z z y y y z z z z z z z z z B B B B -.-.z -.z -.-.-.-.-.B -.B -.-.B B B B B B z z x y z B z z -.z z y B Z U { / _ _ { ( [ < V 6 x 9 -.F v ( & ! ;.3. +k E d } W S [ _ / ^ ] ] ] ] ] ] ^ / _ [ S V 7 c F f Z.).-.) $ ( n Y z 9 -.| l U [ [ { _ _ / { S J M 0 a c c c d ;.A A ;.A A A A x ;.d d d d ;.A x y y y x x x A ;.;.;.x x y x A A x y A x A ;.;.;.A A A A A a a y D U { / _ { ( [ < : W 2 z 0 M Y r { . ! -.>.Z.e F c 7 V S [ _ ^ ] ] ~ ~ ~ ~ ] ] ^ { [ S W 2 A D O G.O b ; & V h B M 0 y } V < [ ( { { _ _ { 4 C d a c c d c d d ;.A x A ;.;.A A ;.;.A A A ;.d A A d d ;.d d d A A ;.;.d ;.A A x A ;.;.;.;.A A ;.A ;.;.d c a 0 y L T { / _ { { ( [ : W | y 9 B D r ^ $ , y 1.F.e F c 7 W S [ _ ^ ^ ] ] ~ ",
"] ] ] ^ ^ _ [ S V 7 c I e D.1.B ) & [ s J K 9 z 6 V : [ ( ( { _ { [ 5 h < < , ) X ~ ] / / _ _ _ _ { ( { { { _ { { { _ _ _ _ _ { { _ _ _ _ { _ _ ( { { _ _ _ _ _ _ _ _ / ^ ^ ^ ] ! > / V j 2 < { _ { [ [ [ < V 6 z 9 B I g S $ ' ;.k.D.h I d } W S [ _ ^ ] ] ~ ~ ~ ] ] ] ^ _ ( S V 7 c I e F.1.y ! $ : v E -.1 B 6 V < [ [ ( { _ _ [ 7 f 4 { > ) ~ ] ^ / / _ _ _ _ _ _ _ _ { _ _ { _ { { { _ { _ _ _ _ _ / _ { _ _ _ _ / _ { _ _ _ { { / ^ ] ^ ! ! , / T g } < { _ { ( [ [ < V 6 y 1 -.F v < @ ! y k. +i E d } W S [ _ ^ ] ] ] ] ~ ] ] ] ^ _ [ S W 7 c F f Z.).-.X $ _ n Y M 0 -.2 l S < [ ( { _ { [ 5 e < : - ) X ^ ^ ^ _ ^ _ _ _ _ _ _ _ _ _ { [ _ _ _ / / / _ _ _ _ _ _ _ _ _ _ _ _ { _ _ _ _ _ { { { / ^ ^ ] ! ! _ : g } < { { ( [ < < : W | -.0 -.Y m ( . X -.>.Z.e I c 7 V S ( _ ^ ] ~ ~ ~ ~ ~ ] ] ^ { [ S W 2 x L O G.N b ; # V i B M 0 x } T < [ [ ( { { { < 0 n 4 ~ , ! ~ ] ^ / / _ _ _ [ { _ _ { _ _ _ _ _ { { _ _ _ _ _ _ _ _ _ _ ( { { _ _ _ _ _ _ _ _ _ / ^ ^ ] ~ ~ ! > < : g 7 < { _ ( ( ( < : W 2 y 9 B D r { $ ) x 1.F.e I c 7 V S [ _ ^ ^ ^ ] ~ ",
"] ] ] ^ ^ _ [ S V 7 c I e F.1.B ' # { r J G 0 B 6 V : [ [ [ ( { ( S | k ; < U ) / _ { [ < : : < : : : < : : < < < < < : < < < < < < < [ [ [ [ < < < < < < < < < < < [ [ < ( _ ^ ! _ S * i b U ( { { < < [ < V 6 y 9 B G j < $ ' A #+ +h I d } W S [ _ ^ ] ] ~ ] ~ ~ ~ ] ^ / ( S V 7 c I e E.1.x ! @ : t E -.1 B 6 V < [ [ ( { { ( S 8 P ; V S X ^ { { ( [ < < < < < < < < < < < < < < < < < < < < < < < < [ < < < < < [ [ < [ < < < : [ ( _ / ] ! { S ; k 1 S ( _ { ( [ [ < V 6 y 9 -.G v ( $ > d #+ +i E d } W S [ _ ^ ] ] ] ~ ~ ~ ] ] ^ _ ( S V 7 c F f Z.).z / $ < n Y z 9 z 2 W : < [ ( { { ( : 8 k > ( S X ] _ { < [ < < < : : < < : < < : S [ [ [ [ [ [ [ [ [ [ < [ [ [ [ [ : : : < < : < < < [ [ [ ( _ ^ X [ ( - i 1 U [ ( ( [ < < : W 2 -.9 B Y m _   ~ K >.++f I c 7 V S ( / ^ ] ~ ~ ~ ~ ~ ] ] ^ { [ S W 2 A L O G.N d ; & V i -.K 0 x } T < [ [ ( { { [ U A j * l ^ ! ^ { ( [ < < < < < < < < < < : : < < < < < < < : : < < < < < < : : < S < < : < < < : < [ ( { _ ^ ) V { ) k 8 S < { ( ( [ < : V 2 z 0 -.J m [ & X z !.F.e F c 7 V S [ _ ^ ] ] ~ ~ ",
"~ ~ ] ] ^ _ ( S V 7 c F e F.1.B > $ ( s L H 0 z 6 W : [ [ ( ( ( < T 1 k , ^ S 3 { W } 2 | | 8 8 1 8 8 8 8 | | | | 8 | | 2 2 2 2 2 6 6 6 6 2 8 | 2 2 2 | 2 | 8 | 2 | | | | } W { S V ' - i c V < { { [ [ < < V 6 y 9 -.F j : @ ' x k.D.h I d } V S [ _ ^ ] ] ~ ~ ~ ~ ] ] ^ / ( S V 7 c I e E.1.z ' & : t E M 1 B 6 V < [ [ ( ( { [ T 9 P > ! W V / W 7 } 2 2 2 2 2 2 2 2 2 2 2 2 2 | 8 | | 8 | | | 2 2 | | 2 2 2 | 2 2 2 6 2 1 1 | | 2 2 6 2 W / S S ! > k 0 T < { { ( [ < < V 6 y 1 -.F v < % , ;.#+D.i E d } V S [ _ ^ ] ] ~ ~ ~ ~ ] ] ^ _ ( : V 7 a F g Z.).-.~ @ ( n Z -.9 y 2 W : < [ ( ( ( < T 1 P ) ! [ l { V 5 2 | 8 8 | | | 8 8 1 8 | 1 1 | | | | 8 8 8 8 8 8 1 8 8 | | | 9 8 | | | | | | 1 | | 2 7 W / T S ! ' i 9 V < ( [ < : < : W 6 z 0 M Z r _   ! M >.Z.f F c 7 V S ( / ^ ] ~ ~ ~ ~ ~ ] ] ^ _ [ S W 2 A L O G.O c > $ W h -.K 0 x } T < < [ ( ( ( < W x j > ' 5 U { W 7 2 | | | | | 8 8 8 8 8 8 8 | | 8 | 8 8 | | 8 8 | | | | 8 8 8 8 1 8 8 8 8 8 8 8 8 | 6 7 V ^ 5 : ! ! i 1 V < ( ( ( [ < : V 6 B 9 z J m : @ ) B 1.E.e I c 7 V S ( _ ^ ] ] ~ ~ ",
"~ ~ ] ] ^ _ [ S V 7 c I e F.1.z ; @ ( s D M 9 z 6 W : [ [ [ ( ( < V 0 k ! ^ ] 2 K v e f e f f e h e h h e f f g g f g f f f e e e h e g f g h e h i i e g f h f f e h e h e w -.1 ! ~ ' i d W : ( ( [ < < < V 6 y 9 M F j < $ ' x #+D.h I d } V S ( _ ^ ] ~ ~ ~ ~ ~ ~ ] ^ / ( S V 7 c I e E.4.B , % [ s J -.1 B 6 V < [ [ [ ( ( < V b P ' ] X b -.t g g e f f g e f f f f e h h e e f f e h h h h e h h e e e f e g f e f j e g g g f g j g t z | ! ^ ' k a V : ( ( [ [ < : V 6 y 1 -.I v S $ , A #+D.h I d } V S [ _ ^ ] ] ~ ~ ~ ~ ~ ] ^ _ ( : V 7 a G g Z.).-.]   U o Y B 9 -.2 W : < < [ [ [ S V 9 k ! ] X 7 M v e f f e f f e e e e g e f e e i g f g f e e e e h h h h e e e e f f g g g j j g j e f g v -.6 ^ ~ ! k b W : [ < < : < : W 6 z 9 M Y s _   ) B >.Z.e F c 7 V S ( / ^ ] ~ ~ ~ ~ ~ ~ ] ^ _ [ S W 2 A L O G.O b ' & V h B K 9 x } T < [ < [ ( [ : l y w , ~ X d K v g f f f f f f h e h h h h e f e e j j g f f e g e f f f e i h e h f e h e e e h h e g g t M 7 ] / ~ i 0 W : ( ( [ [ < : V 2 B 0 B L r < @ ) y 1.E.f F c 7 V S ( _ ^ ] ] ~ ~ ",
"~ ~ ] ] ^ _ ( : V 7 c I e F.1.x ' & [ t Y M 9 B 2 W : < [ [ [ [ : W 0 k X ^ ( 0 I 7 _ ( / ( _ _ [ { _ { { [ ( { < [ [ ( [ < [ < { _ { { ( : : ( { _ / ( < [ [ < : < < [ [ _ W M A { ^ ) h d l S [ ( [ < < < V 6 y 9 B I g : @ , y #+ +h E d } V S [ _ ^ ] ~ ~ ~ ~ ~ ~ ] ^ / ( S V 7 c I e E.4.-., % < t J -.1 B 6 W : < < [ [ [ : W b P ! ^ ( c G 4 S ( : [ : U < S < U S [ < : U T T U S U [ : [ S < < : < S S : : S ( [ : S : S S : : S < T M a { / ) k a l : ( ( [ < < : V 6 y 9 M I w : & ' ;.#+D.h I d } W S ( _ ^ ] ~ ~ ~ ~ ~ ~ ] ^ / ( : V 5 a F f ++>.-.~   / m Z B 1 -.2 W : < < [ [ [ U l 0 P X { { 1 I 3 ^ ^ / _ { _ { ( { { [ ( { [ [ < : : : < [ < : [ : < [ ( < < < [ : < [ : < [ { ( { < { { U K y < { X i a l S [ [ [ < < : W 2 z 0 -.Z s _ @ ~ y >.++e F c 7 V : ( / ^ ] ~ ~ ~ ~ ~ ] ] ^ _ [ S W 2 A L O G.O b > # S k B K 9 x } T < [ < [ [ [ S 4 y w ) ^ ( M z : ( { { ( ( ( { / / { _ ( _ { _ ( { ( ( { { _ / { ( / [ _ ^ ^ _ _ _ / / / / _ { / / { { ^ 3 I c [ ^ ~ k 0 W S [ [ [ < < : V 2 z 0 z D r < $ ) B 1.F.e I c 7 V : ( _ ^ ] ~ ~ ~ ",
"~ ~ ~ ] ^ _ ( : V 7 c E e F.4.x ) & [ v J K 9 B 2 W : < < [ [ [ S 4 0 k ] ( U M Y / {   $         . $ . .     $ @ .   @   @ @ @ $ . .     $ @ . @ @ .     @ @ @     $ . . X : -.J U _ ! i d 4 S [ [ < < < : V 6 y 9 -.F g < $ - x #+ +i I d } V S [ { ^ ^ ] ~ ~ ~ ~ ~ ] ^ / ( S V 7 c I e E.1.M , $ : v L -.1 B 6 V : < < [ [ [ S l b P X { U G F { ~ . . . $ @ @   @   $   .       $ @       .       . . .   @ @ $ @ @ . $         @ @   ! ^ G G S _ X k a l S [ [ [ < < : W 6 z 9 H F j < # , A #+D.h J ;.6 W : [ _ ^ ] ~ ~ ~ ~ ~ ~ ] ^ / ( : V 5 a G g ++).-.! & _ n Y -.1 -.2 W : < < < [ [ S l 0 P X _ S z C ! ^ . . . . .         @ @     @ @ @ $ @ @ @     @ $ $ @   @   @       @   . . @   $   @ ! ] H J T _ X i b 4 U [ [ < : : : V 2 B 9 -.Y r _   X z >.++f F a 7 V S ( / ] ] ~ ~ X X ~ ~ ] ^ _ [ S W 2 A L O U.P a ; & U h B K 9 x } T < < < < [ < U 3 y j ) _ T u b S ,   @ . @   + . + + + . .   .   $ $   $ @ @   @         @   . @   . . .   + . . + . @ ^ ! Y M U / ] k 0 l S < [ < < < : V 2 y 0 -.L m [ $ ! z 1.F.e E c 7 V : ( _ ^ ] ~ ~ ~ ",
"~ ~ ~ ] ^ _ ( S V 7 c I i F.4.x ' $ [ t E -.9 B 2 W S < < < [ < S 4 0 k ^ [ W I Z # : K 2 2 2 6 2 2 2 | 2 2 2 7 2 2 6 6 | 6 6 } } 8 2 7 } } 7 6 0 8 2 8 2 2 | | | | 1 0 G 6 # H Y l { X k ;.3 U < < < < < : W 6 y 9 M F g : $ - x #+ +i I d } V S ( _ ^ ^ ~ ~ ~ ~ ] ~ ] ^ / ( S V 7 c I e F.1.-.' $ [ v D -.1 B 2 W : < < < < < S 4 b P X { W J L = l K 9 8 | 8 | | | | | 1 8 0 9 9 9 | 1 1 1 9 1 1 1 | 8 | | 6 | 2 6 7 } 6 6 6 2 8 2 | B V # J J W { ~ P c 4 S < [ < < < : W 2 B 0 G I j { & ' x #+D.h E ;.6 W : ( _ ^ ] ~ ~ ~ ~ ~ ~ ] ^ / ( : V 5 a G g ++'.z ^ @ ( o Y B 1 -.2 W : : < < < < U 4 0 P ] _ V K u & { G 1 1 2 7 6 2 | 9 0 | 2 | 1 1 8 | 8 1 1 1 9 0 9 | 1 0 2 2 | 6 | 6 } } } 6 8 2 } } K V @ F J W _ ] i a 3 U < < < : : : V 2 z 9 -.D r _ @ ! B >.++f F c 7 V : ( / ] ] ~ ~ X ~ ~ ~ ] ^ _ [ S W 6 A L O U.P a = & T i B K 9 x } V < < < < < < U 3 y j X { 4 o d   9 z | 2 2 | 8 1 8 1 1 8 | | | 2 2 | 5 6 2 6 7 6 | 6 2 2 2 8 | 6 | 2 8 8 8 8 | | 1 | M ( = C G V _ ^ k 0 4 S < < < < : : W 2 x b B L s ( $ ' z !.D.f F d 7 V : ( / ^ ] ~ ~ ~ ",
"~ ~ ~ ] ^ _ ( : V 7 c I h D.4.x , $ [ r J M 9 B 2 W S < < < < < S 4 b P ^ ( l I Y & ^ d 5 ! , , ' , , , ' ' , > > ' ' , ) X ) ) ' , ! ^ ' , , ) ^ ~ , ' ' ! X ) ! ' X l y : # H Z 4 { ~ k ;.3 S < < < < < : W 6 y 9 M F g < # ; A #+ +h I d } W S ( / ^ ] ~ ~ ~ ~ ] ~ ] ^ / ( S V 7 c I e F.!.z ! @ [ t L -.1 -.2 W : < < < < < S 4 b k ] < l L L $ _ x 3 ~ ! ! ' ! ! , ' ~ , , ) ' X , , , , ' ' ' , ' ! , , ! ) ' ) > , ' , > ' ! ^ l ;.{ # E L 4 { ] k a 4 S < < < < < < W 2 B 1 H F j [ $ ) A #+D.h I ;.6 l : ( _ ^ ] ~ ~ ~ ~ ~ ~ ] ] / ( : V 5 a G g ++).B ] @ [ n Y -.9 -.2 W : < < < < < S 3 a N ^ ( l H u # X d 5 ) > > , > ' X ~ ' - > ! ' > ' , ' , , ! X X X X ) ' ' ' ' ) ' ' , > > ) , , 3 ;._ $ F D l { ~ k a 3 U : < S : : S W 2 z 0 -.Z m :   ~ -.>.++f F c 7 V : ( / ] ] ~ ~ ~ ~ ~ ~ ] ^ { [ S V 2 A L O U.P a ; # T i B K 9 x } V < < : < < < U 3 y w ~ ( 5 n ;.  l A S ! ' > > , > > > > , ' > - ) ' ' ' - > ; ; > - - > - , > > , - > > > , , , ) 3 b ] % u F l ( / k 0 4 S < < < < : : W 2 y 9 B L r { & ) A 1.F.e F c 7 V : ( / ^ ] ~ ~ ~ ",
"~ ~ ~ ] ^ / ( : V 7 c I h F.2.z ' @ [ r L -.9 B 2 W S : : : < : S 4 b P ^ [ l E C $ ^ l S 3 T S : S S : : : [ < [ S [ : < < ( < U ( [ _ [ : < S [ [ : < [ < ( [ : T l 3 T : # K Z 4 ( ~ i d 3 U : < : : : : W 6 z 9 K F g : $ > A #+D.i E d } V S ( _ ^ / ~ ] ~ ~ ~ ~ ] ^ / ( S V 7 c I e F.1.z ,   [ v D B 1 -.2 W : < < < < < S 4 0 k ] < 4 L D & ^ W V l U : < [ ( S U [ [ [ [ < : : : S : S [ [ [ ( ( { { { < ( < ( ( [ < : : U V V T _ & J L 4 ( ] k a 4 S < < < < : : W 6 B 0 H I j < & ' A #+D.h I d } W : ( _ ^ ] ~ ~ X X X ~ ] ] / ( : V 5 a G g ++).z X   { n Y -.1 M 2 W : : : < < < S 3 a O ^ [ 4 H q # ~ 7 < 5 U S S S : < [ : < : [ ( ( { { { ( ( [ S S ( < _ < ( [ [ [ [ [ < : : : V 7 W 4 / $ F D 4 ( ] k a 3 U : : S S : S W 2 z 9 -.Y n : $ ~ z >.++f F c 7 V : ( / ] ~ ~ ~ X X ~ ~ ] ^ _ [ : W 6 A L O U.O b = & U i B H 0 x } V : < : < < : U 5 y w ~ [ 5 n A . l < 5 3 U T T U S U U S < < < : [ < < [ < S : S S S : : S S S : T S S U U U U V 7 < l ] # q I 4 ( _ i 0 4 S : : : : : : W 2 B 9 z D r [ # ) A 1.F.h E c 7 V : ( / ^ ] ~ ~ X ",
"~ ~ ~ ] ^ _ ( : V 7 c I e E.4.B , $ _ s L -.9 B | l S : : : : : U 4 b O ^ [ l E C & / l ] T ^ X ! ' ' ' ) ) ) ' ) ! ) ! ! ' ' ] X ) X X ' ' , > ' ) ' , , ) ) ~ / ^ : _ T : $ G q 3 [ ] i d 3 U : : : : : : W 2 z 9 K F f < $ > ;.#+ +i E d } V S ( _ ^ ] ] ] ~ ~ ~ ~ ] ] _ ( S V 7 c I e E.1.z ,   [ v L B 8 B 2 W : < : < < : S 4 b k ^ [ 3 L L & ^ V ] W / X ! ! ' ^ ~ X , , , ' ) , , ' , , > > ' ' ' ! ' ) X ! ) ' ) ) ! ! X ^ S ^ S _ & E J l [ ] k a 4 U : < : : : : l 2 B 9 K I j S @ ) A #+D.h I ;.} V : ( / ] ] ~ ~ X X ~ ~ ] ] / ( : V 5 a G g ++>.B ! @ [ o Z -.9 M 2 W : : : : : : U 3 a O ^ [ 4 G q & ~ 7 ) T ^ ! ! ) ) ) ' , , ) ! ' ) ) , ' , ' , > ' X ) ' , , ' ' ' ' ' ' ) ! X ^ T / 4 ^ @ F Y 3 ( ] k a 3 U : : S S : S W 2 B 0 -.Y s < @ ^ B !.++f F c 7 V : ( / ] ] ~ ~ X X ~ ~ ] ^ { [ : W 6 A L O U.O b = & T i B H 9 x 6 V : < : : : : U 5 y w ] [ 7 o y $ W S ( : ~ X X ! ' ' ' ' ' ' X ' , ! ' ! ' ' , ' ) ) ' ' ' ' ' ' ) ) ) ) ) ! X ^ 4 ! l ] * u E 4 [ _ i 0 4 U : : : : : S W 2 z 9 B L r : & ) x 1.F.e F c 7 V : ( / ^ ~ ~ ~ X ",
"X ~ ~ ~ ] / ( : V 7 c I f Z.4.z , $ [ s L M 0 B | l S : : : : : U 4 b O / [ 4 E D = / W ~ < ) , - ; ; = - = ; - = % = ; ; = - > = - ; = - - > ) - % = = = = > X ! ! [ / S [ $ H C 3 [ ] i ;.3 U S : : : : : l 2 z 0 K F g : $ - y #+D.i E d } V S ( _ ^ ] ] ~ ~ ~ ~ ~ ] ^ _ ( S V 7 c I e F.!.y )   ( v D B 1 B 2 W : : : < < : U 4 b k ^ < 3 L Y & / U ~ S X , - ; = > ; ; = ; = - - = = ; ; ; = ; ; = ; ; = ; - ; ; ; ; ; - > , ) ( ] : ^ $ E L 3 : / k a 3 U S : : : : S W 2 B 9 F I w S $ ! A #+D.h I d } V : ( / ] ~ ~ ~ X X ~ ~ ~ ] / ( : V 5 a G g ++>.-.X   [ n C -.9 M | W : < : : : : V 5 a P / [ 4 F u # ! l ' < ) > - - - ; = = = ; = ; ; ; = ; ; = = = ; ; = - = = = ; = = = ; ; - ' ! [ ^ T / $ F D 3 [ ] k a 3 U : : S S : S W 2 B 0 M Y r ^ * ^ y !.++g F a 7 V : ( / ] ~ ~ X X X ~ ~ ] ^ { [ : V 6 A L O U.O 0 ; $ T i B H 0 x 6 V : < : : : : U 5 y w ] < 5 o A $ V ( [ / ' > ' ; = = = = = = = % = = % = = = = ; ; - - ; = ; ; ; - ; ; ; - > ' ! S ! l ^ & u E 4 < { k 0 4 U : : : : : S W | B 9 B D s [ $ ! x 1.F.e F c 7 V : ( / ] ~ ~ X X ",
"X ~ ~ ] ^ _ ( : V 7 c I f E.1.x ' $ ( s L M 0 B | l S : : : < : U 4 b P / [ 4 I Z # / W X [ ! > - - % % % % = % * * = = ; > ; * * # = - - * % * * * * * * % % ; > ' { ^ : [ # K C 3 [ ] i ;.3 U : : S : : : W 2 z 9 K F f : $ > x #+D.i E d } V S ( _ / ] ] ~ ~ X ~ ~ ~ ^ _ ( S V 7 c I e F.1.z ,   ( v D z 1 B 2 W S : : : < : U 4 b P ^ < 5 C D % _ U ~ [ ' - = % % * * * * % * % = * # * * ; * * - % * * * * * % * * * * % = - , _ X U ] # E Z 7 < ^ k a 4 U : : : : : S W 2 z b F I w V @ ) A #+D.h E ;.} V : ( / ] ~ ~ ~ X X ~ ~ ~ ] / ( : T 5 a F g ++>.-.X @ [ n Z B 9 H | W : : : : : S T 3 c Q ^ ( l H C & X 4 ' : ' - ; = % % % % * % * # * * * # % % * * * * * # * % % % % - = = = = - > / ^ l { & F L 3 [ ] k a 3 T S S S S : S W 2 B 0 M Y r { @ X y >.++f F a 5 V : ( / ] ~ ~ X X X ~ ~ ~ ^ { [ : V 6 A L O U.O b - & T i -.H b y 6 V < < : : : S T 3 y w ] [ 7 r A & V { / ^ ) - , % * * * * = * # * # * * % # * # # & & & # * # # # * # # * % = > ) : ! l ~ * u I 4 < _ k 0 4 U S : : : : S W | z 9 B D r [ $ ! y 1.F.e F c 7 V : ( / ^ ~ ~ X X ",
"X ~ ~ ] ^ _ ( : V 7 c I e F.4.y > @ { s J M 0 B | l S : : : : : U 4 a P / [ 4 I Z # ^ V ! _ ' ; % # * & # & & # & & # & # * $ $ & @ & $ # $ & & & $ & & & & # % = > / ] : [ & M C 3 [ ] i ;.3 T S : S : : S W 2 B 9 H F f S $ , A k.D.i I d } V : ( / ^ ] ~ ~ X X ~ ~ ~ ^ _ ( : V 7 c I e E.1.y '   [ t J B 9 z 2 W : : : : < : U 4 b i ^ [ 3 D F % _ U X _ , = * # & & # & $ $ & * % * # % # * # $ # & $ $ $ $ & & $ $ & & # * = > ( ~ } { * E C 5 < ] k b 4 U S : S : : S l 2 B 0 H E w S $ , A 3.D.h E d } V : ( / ] ~ ~ X X X X ~ ~ ] / ( : T 5 a G g ++>.M X $ { n Z M 9 M 2 l S : : : : S T 3 a O / [ 4 F u * ! l ' : ; = * & & $ $ $ & $ $ $ $ $ & $ $ & $ $ $ & & & $ $ & # & - - * # % ; - ] X V _ $ F D 3 ( ] k a 3 T S : S S : S l | B 0 -.Y s ^ @ X z !.++f F a 5 V : ( / ] ~ ~ X X X ~ ~ ] / { [ : V 6 A L O U.O b - # T i -.K 0 x | W : < : : : S T 3 y w ^ [ } n ;.# V ( ^ ^ , = - # & & & # % $ $ $ $ $ * & $ & $ $ $ & & & & & * # # & # # * = - ' T ! l ~ # u I 4 < _ k 0 4 U S : : : S S W | z 0 -.L r [ & > z 1.F.e F c 7 V : ( / ] ~ ~ X X ",
"X ~ ~ ] ^ / ( : V 7 c I e F.4.y , & ( r L M 0 z | l S : : : : S U 3 a P / [ 4 I Z # ^ W ! { > % * & # $ $ @ @ & @ $   $     @   @ & @ @ @ @ @ @ @ @ @ @ @ @ & # % - ^ ] : < * K C 3 [ ~ i ;.3 T S : : : : S W 2 z 0 H F g S @ - ;.k.F.i E d } V : ( _ ^ ~ ] ~ X X ~ ~ ] ] / ( : V 7 a F e E.4.z ) @ [ t J -.9 z 2 W S : : : < : U 3 a k ^ : 5 Y E $ / : ! _ - % # & @ @ $ @ @ & & @ @         @ @   @   @     @ $ @ @ @ @ @ & # = - { ~ S _ # I J 3 [ ] k a 3 T T S S S : U W 2 B 0 K E w U $ , ;.3.F.k E d } V : ( / ] ~ ~ ~ X X X ~ ~ ] / ( : V 7 a G g ++>.B ! $ ( o Z M 0 -.| l S : : : U U T 3 0 O / [ 3 I u & ! 4 , ( - * $ @           @         & $ @ @ @ @       @ @ @ @ @ @ @ @ $ & # % - / ~ V { & I L 4 [ ] P a 3 T S : S S S S l | B 9 -.Y r {   X z !.++g G a 5 V : ( / ] ~ ~ X X X ~ ~ ~ ^ _ [ : V 6 A J O U.P a - & T i -.K b y 2 W : : : : : S T 3 y j ~ [ 5 n A & T : ^ ~ ; % - $ $ $ @ @ $ @ @ @ @ @ $ @ @ @ @ @ @ @ $ @ @ @ @ $ & @ $ # * * = , S ) l ] % u I 4 [ _ i 0 4 U S S : : S S l | B 0 -.L m < $ X y 1.F.e F c 7 V : ( / ] ~ ~ X X ",
"X ~ ~ ] ] _ ( : V 7 c I e F.1.y , & { r L M 0 z | l U : : : : S U 3 c P / [ 4 I Y # _ T ! _ , ; & & @ @   &   $ @ @   # +   * . $ $ . @ . % $             @ @ $ * = ^ ] : < & K C 3 [ ~ i d 3 T : : S : : S W 2 B 0 H F g S $ ; x k.D.i I d } V : ( _ / ~ ~ X X X X ~ ~ ] / ( : V 7 a F e E.1.z ) @ : s L M 0 z 2 W S : < : < : U 4 a i ^ < 3 L E @ ^ S ! { > * & @         $ $     . . . . .     .   . $             $ @ * % * = ; ^ X : / * E L 4 [ ] P ;.5 T U S : : : S l | -.b G F t : # , A 3.F.i E d } V : ( / ] ~ ~ X X X X ~ ~ ] _ ( S V 5 a G g ++>.B ] @ [ n C -.9 M 8 3 : : : S S U U 3 b O ^ < 4 F u # ) 5 , : ; & $   . . . .   @   @ @ @ @ . *                             @ @ & % - / ~ } [ $ I D 5 [ ] k c 3 T S : : S S S l 2 B 0 -.D r _   ] -.!.++f F a 7 V : ( / ] ~ ~ X X X X ~ ~ ^ _ [ : V 6 A J O U.O b - & V i -.K b y 2 W : : : : : S T 3 y j ~ [ 5 o A   T / ^ X ; * & @   @ $       & @   . . .         . . @     @ $   @ $ $ @ $ & * > : ) l ~ # u E 4 [ _ i 0 4 U S : : : S U l | B 0 -.L r ( * X y 1.F.f F c 7 V : ( / ] ~ ~ X X ",
"X X ~ ~ ] _ ( : V 7 c I e F.1.y ' $ [ s J -.0 z | 4 U : : : : S U 3 a N ^ [ 3 I Y & ] V ! / - ' # & @ @ $ $ @ $   @ & & $ # @ . . @ .     % . .   . @ @ @   @ & * = [ ] [ { $ K C 3 [ ~ i d 3 T : : : : : S W 2 B 0 H F g S @ ; x k.D.k I d } V S ( _ ^ ~ ~ X X X X ~ ] ] / ( : V 7 c F e E.1.B ) @ [ t L M 0 z 2 W : : : : : : U 4 a i ^ < 3 J J $ / V ) _ ; * $ @   .   @ $ & @ . . . + . .   . + @ . . .           & = * # # = - ^ X : / # E L 4 [ ] P c 5 V U S : : : S W | B b M I v : & ' x #+F.i E c } V S ( / ] ~ ~ X X X X ~ ~ ] _ { : V 7 b G g ++>.B ~ $ { n C -.9 M | 4 S : S S S S U 3 b P / < l F u # ! 3 , [ = & & # $ @ $   . %   $ @ &   . @   +   . + . .               @ $ & * - _ X W : # E Y 3 [ ] k a 3 T S : : S : S l | -.0 M D m / @ ' -.!.++f F a 5 V : { / ] ~ ~ X X X X ~ ~ ^ _ [ : W 6 A J O U.O b - & T i -.K b y 2 W : S : : : : U 3 y j ~ [ 3 o x   T _ ] X = * $ @     @         @   @ # . . . . . . . .   .   @ $ $     @ @ $ * - [ ' l ] # u I 4 [ _ i 0 4 U S : : : : U l | B 0 -.L m : & ! z 1.E.f F c 7 V : ( / ] ~ X X X ",
"X X X ~ ] / ( : T 7 c I e F.1.y ' @ ( r J -.0 z | l U : : : : S U 4 b P ^ [ 4 I Y & / V ! { ; > &   $ . . . . . @ @       $ .     $ . . @ + .     .     . @ @ & * ; ] ~ S : @ K C 4 [ ~ i d 5 T : : : : : S l 2 -.0 H G g S $ - A k.D.k E ;.} V : ( _ ^ ~ ~ X X X X ~ ~ ] / ( : V 7 c F f E.1.-.X $ [ t L M 0 y 2 W S : < : : S U 4 b P ^ [ 3 Y J & ^ S ) { ; # $ @   . @ $ & . .   . . . . .   . . @ + . . . $     . . . .   $ # > U ~ W _ # E D 3 < ~ P c 7 V U : : : : S l | z 0 -.I v U @ ' ;.#+D.h I d 7 V : ( / ] ~ ~ X X X X ~ ~ ] / [ : T 5 a G g ++>.-.! @ / n Z -.9 K | l U : : S S S T 4 9 k ^ [ W F u # ! 7 , { - % * # @ @ @     . .   $ $ . @ @ . .     & .   .   .     @ & = # $ * ; / X : [ # I D 4 [ ] k c 5 T S : : : S U l | -.0 M L n ( & ) -.!.++f F a 5 T : { / ] ~ X X X X X ~ ~ ] _ < : W 6 A J O U.O 0 - & V i -.K b z 2 l S S : S : : T 3 x j ~ [ 5 o x   V [ ~ ) = * & $   $   @ $   . .       . @ . . .   . .   $ & @   @ .     @ & # ; { ' V ] # p I 4 [ _ i 0 4 U S : : : : U l | B 0 M J s < & ' y 1.E.f F a 7 V : ( / ] ~ X X X ",
"X X X ~ ] / ( : V 7 c F e F.4.y , $ ( r L -.0 B | l U : : : : S U 3 b O ^ [ 4 I Y $ ^ l ! < , , * # $ & $ # &   # # $ % * $ @ @   & # $   @ @ @ $ $ $ @ @ @ $ & * ; ^ ~ S < $ M C 3 [ ] i d 5 T S : : : : S l 2 M 0 H G g S @ - ;.k.D.P E d } V : ( { ] ~ X X X X X ~ ~ ] / ( : V 7 c F f E.1.B ) @ [ s L M b y 2 W S : < : : S S 4 0 k ] [ l L L & ^ T X { = # $ @   @ $ $ @     . . . + + . . . $ @ + + . .               @ & # = { X U _ % F C 4 ( ~ O a 3 T S : : : : S l | z 0 M I v U $ , x #+F.h I d 7 V : ( / ] ~ ~ X X X ~ ~ ~ ] / ( < T 5 b G g ++>.B ! @ / n C -.0 M | 4 S : : : S S U 3 0 k ^ ( l F u $ ! 5 , { - = # $ $ $ @ # $ $ . . @ # = * * % % % ; & + . . .       &     @ $ # = / ~ : ^ & I L 4 [ ] k d 5 T S : : : S U l | -.0 -.L m ( * ! K !.++f F a 5 V : { ^ ] ~ X X X X X ~ ~ ] _ [ : V 6 A J P U.O b = & V i -.H b z 2 W S S : : : S U 3 y g ~ [ 5 n d   V ( ~ ' % # $ @     & @ *   . . . + + .   . .       @ @ . .   @ @   @   $ & * - { ) W ] # q I 4 [ _ k 0 4 U S : : : S U l | -.0 M J r ( # X x 1.E.f F c 7 V : ( / ] ~ X X X ",
"X X X ~ ] / ( : T 7 c I e F.4.y ' @ < r J -.0 B | l U S : : : S U 3 b O ] [ l I Y # ] V ! _ , % # $ @ @ @       $   & $ @ . @       & @ .         @         @ & * ; ] ~ < < $ M C 3 [ ~ h d 3 U S : : : : S l 2 M 0 K G j S @ > ;.k.D.i I d } V : ( _ ^ ~ ~ X X X ~ ] ~ ] / ( : V 7 d F f E.1.z / @ [ t D H b y 2 W S : < < : : U l b O ] : 4 L J % _ W X _ = # $ @ @   @ @ &       . . . . . . . @ . + . . . . .     . .   @ $ # = _ X 4 _ * F D l ( ] O a 3 T : : : : : S l | y 0 -.I w S & , x #+D.h F c 7 V : ( / ] ~ X X X ~ X X ~ ] _ ( < T 5 b G g ++).B X $ / o C M 0 M 8 l S : : : : S U 4 9 k ^ ( 4 E u # ! 7 , ( ; # # $     * * * @ # * = # # * * * * * = +       * @   @ $ @ @ $ & * ; / ] S ^ $ E Y 5 < ] k c 5 T S : : : S U l | -.0 M Y r ( $ ^ -.!.++g G a 5 T : { ^ ] ~ X X X X X ~ ~ ] _ ( : V 6 A L O U.O 0 ' & W i -.K a z 2 l U S : : : S U 3 y j ~ [ 5 n A @ V { ~ ) = * & @     @ @ @ @   @ @ @ @ @ @ @ $ $ & $ .   $ # & @ # @ @ $ & # = , < ' l ] * u I 4 [ _ k 0 4 U S : S : S U l | -.0 M L r ( * , z 1.E.f F a 7 T : ( / ] ~ X X X ",
"X X X ~ ] / ( : T 7 c I e F.4.z ' & [ r L -.0 B | 4 U S : : : : U 3 b O ^ [ l I Y $ ] V ) [ ! * # @ $ @               $ . $ .   #   @ , .   .   @         * @ $ * ; ^ X S < & H u 3 [ ~ h d 3 T S : : : : S l 2 -.0 M F g S $ > A k.D.i I d } V : ( / / ~ X X X X X X ~ ] / ( : T 5 c F f E.1.-.! @ W t D H b z 2 W S : < < < S S l c P ^ : 5 D D & { V ! _ ; * & @       @ & @     . . . .       &     . . . . .     @ @ @ $ $ * ; / X : _ % I Y l [ ] O c 3 T U : : : : S l | y 0 -.I v S $ > x #+D.h F c 7 V : { / ] ~ ~ X ~ ~ X X ~ ] ^ { < T 5 b H g ++).B ! @ _ p Z -.0 K 8 l S : : : : S U 4 0 P / [ 3 E u # X 3 , { = * * * # % & & @ @ # $ & & * % @ # * * @ @         @ & @ & # # @ & * = ^ ] S / * F D 5 [ ] k c 7 V S : : : S U l | -.0 M Z s (   ^ B >.++g G a 5 T : ( ^ ~ ~ X X X X X ~ ~ ] _ ( : V 6 ;.J P U.O b ) # V h -.G a z 2 l S : : : : S U 3 y j ~ [ 3 o d @ T { / X = * & $ @ @   $ &     @         .   . $ @ . .         @ $     @ $ & * > < ' 4 ~ # u I 4 [ _ P 0 4 U S : : S S U l | -.0 M L m [ # , B 4.E.f F c 7 T : ( / ] ~ X X X ",
"X X X ~ ] / ( : V 7 a I e F.1.z ) & [ r L -.0 -.8 4 U S : : : : U 3 b O ] [ 4 I Z # ~ T ! ( ; * & $   @     @ . . @ $ @   =   =   $ % ; . .   .         $ @ & $ % = ~ X l : $ H C 4 ( ~ i d 3 U : : : : : S W 2 M 0 K G j S * , A #+ +k I d } V : ( / ^ ~ X X X X X X ~ ] / ( : T 5 d F f E.1.B '   S t D M 0 B 2 W S : < < < : U 4 a P ~ [ 5 D D & ( l ~ ^ ; * & @     $ # $ .     . . + .   @ .   $     .     @           # & * ; _ ] U [ $ J Y l ( ] P a 3 T U : : : : S l | y b M I v < $ - x #+D.h F c 7 T : { / ] ~ X X ~ X X X ~ ] ^ { < T 5 b H j ++>.y X $ / n Z z 9 B 8 l S S : : : S U 4 0 k / ( l F u % X 4 ' < ; * * % = $   @     * $ & .     $ $ . @ @ @ $   $ $ $ $     @ $ & & * ; ^ ~ S { & E Y 3 [ ] k c 3 T S : : : S U l | -.0 -.Z m (   ] z >.Z.g G a 5 T : { ^ ~ X X X X X X ~ ~ ] / ( : V 6 ;.J P U.O 1 ) # V i -.K a z | W S : : : : S T 3 y j ~ [ 3 o x   V < ] ~ = * $ @         $     . . + + + + + & & . . . . . @   @ @     @ $ & * - < , 4 ] # q I 4 [ _ k b 4 U S : : : S U l | -.0 M L m [ & ! x 1.E.f F a 5 T : { / ] ~ X X X ",
"X X X ~ ] / ( : T 7 a F e F.4.z , & [ r L -.0 M | 4 T S : : : S U 3 b O ^ [ l E Y # ^ W X { ; * & $ @ @ @   @   .   .   # . @ =   * # *       .     $     @ * % * - ] ~ : : @ K u 3 [ ~ h d 3 U : : : : : S l | -.0 K G j W & > x k. +i I d } V : ( _ ^ ~ X X X X X X ~ ] ^ ( : T 5 c F f E.1.y ! $ S t D M b B | l S : < < < : U 4 a P ] : 3 L L * { T ~ / = # & @   @ @ & @         . . .       . .   .                 @ & & % ; _ ~ V { $ L Y 4 [ ] P a 4 T S : : : : S l | z 0 -.I v : & > x #+D.h F c 7 V : { / ] ~ ] X X X X X ~ ] ^ { < T 5 b G g ++).B X @ _ n Y B 0 K | l U S : : : S T 4 b k / [ l K C = ~ V ) _ = # $ @   @ $ @         .   .   . @   . .     .         @   @ @ @ & * ; / ] S [ # I Z 4 [ ] P a 3 T S : : : S U 4 | -.0 M D r {   / x ).++g G a 5 T < ( ^ ~ X X X X X X ~ ~ ] / ( : V 6 ;.J O U.O 0 > & V i -.K a z 2 W S : : : : S T 3 x j ~ [ 3 o x @ T < ] X = * $ @             . . . . + . @ #   . . . . . .   @ @ @     @ $ & * - < , 4 ~ # q I 4 [ _ k 0 4 U S : : : S U 4 | -.0 M D r ( . ! x 1.E.f F a 7 T : { / ] ~ X X X ",
"X X X X ] / { : T 5 c F f F.1.y ! $ [ r L -.0 -.| 4 U : : : : : U 4 b O ^ [ l I Y * ^ V ! _ ; % # $ @   @   $ % $ @     $ @ &     $ ; * . @ .     & @       $ & % - ] ~ [ ( % -.q 4 ( ~ h d 3 U : : : : : S l 2 B 0 M F w V $ , ;.k. +k E d } V : ( _ ] ~ X X X X X X ~ ~ ^ ( : T 5 c F f F.1.-.X # T v L K b -.2 l S : : : : : U 4 0 P ] ( 3 L L & { T X / ; * # $ & #   $ @ @     .   $ . .   & &   @ @ @     @ @ @ $   @ $ & - , { X U ( & D Y 4 < ] i a 4 U S : : : : S l | z 0 -.E v S $ , A #+D.h F c 7 V S { ^ ] ~ X X X X X ~ ~ ] ^ { < T 5 b G g ++>.z ) $ _ o Z B 0 B | 4 U S : : : S U 3 0 k ^ < 3 G u * ! V ) ( = % $ @ % * $   @     .   . $   .   @ @   @ .   @           @   @ & * ; ^ ~ : { $ J Y 3 [ ~ P c 3 T S : < : S U l | -.0 M D r { . ] B >.++g G a 5 T < ( ^ ~ X X X X X X X ~ ] / [ : V 2 ;.J O U.O 0 , # W i -.G b y 2 W S : : : : S T 3 y j ~ [ 3 o ;.@ U < ] ! = * & @               .   @ * * # . . . .   .   .   $ $ @   @ $ $ & * - : ' l ] & q I 4 [ _ k b 4 U S : : : S U l 8 -.0 K D s ( @ ! x 4.E.f F a 5 T < { / ] ~ X X X ",
"X X X ~ ] / { : T 5 a I e E.4.z ~ @ [ r L M 0 -.8 4 U : : : : S U 3 b P ^ [ l I Y * ^ W ! _ - % & $ @   @     & $     # & @ & &   # # @ . @     $ $ @     $ * $ - ; ^ ~ < < # M C 3 [ ] e d 3 U : : : : : S l 2 B 0 M H j V & ' ;.k.D.i I c 7 V : ( _ ] ~ X X X X X X X ~ / { : T 5 c F f D.1.B X $ T s L K b M | l S : < < : : U 3 b O ] [ 4 L D $ [ T X / ; * & $ # @ @ $ @   &   > ' # @   @ $ $   @ @ @ $ @ @ $ $ $ $ $ = % % , { ~ U ( $ J D 3 < ] k a 4 U S : : : : S l | y b B E w : $ , A #+D.h I c 7 V : { / ] ~ X X X X X ~ ~ ~ / { < T 5 a F g Z.).B !   { n Z z 0 M | l U S : : : S U 3 a k / < 4 F u % ] 6 ' _ X * = # @         @     $ .   . . .   $ @ @ . @   .         @   @ $ # = / ~ < { @ F D 4 [ ~ O c 3 T : : < : S U l | -.0 M Y m (   ^ y >.++g G a 5 T < { ^ ~ X X X ! X X X ~ ] / ( : V 6 ;.J O U.N b , # V i -.H b y | W U : : : : S T 3 y j ~ [ 3 o ;.  V [ ^ ! = * & @ @         @   & # @   + .   . . .   .         @       @ $ # * > < ' W ~ # q I 4 [ / k b 4 U S : : : S U l | -.0 M D s ( & ! y 4.E.f F a 5 T < { ^ ] X X X ! ",
"X X X X ~ ^ { : T 5 a I e E.4.B ' & ( m J -.0 z | 4 U : : : : : U 3 b k ^ [ 4 I Z # ^ V ! _ - * & $ $ @ @   ; $   . . . &   @ * @ @ $ * . . @   $ ; $     @ $ & % ' / ] < < & K C 3 [ ] h d 3 U : : : : : S l 2 z 0 M H j S # > d k.D.i I c 7 V : ( { ] ~ X X X X X X ~ ] ^ { : T 5 c F f F.1.y ^ @ : t L H b -.| W S : : < : S U 3 b P ] [ 5 Y L & { U ~ { > = # & # & # # # # $ @ # - @       @ @             @ $ @   @ $ & & # = / ~ U { % J D 5 [ ] k a 4 U S : : : : S l | z b -.I v [ @ > x #+D.i I c 7 V : ( / ] ~ X X ! X X X ~ ~ / { < T 5 b G g Z.).B ! @ _ o Y z 0 -.| l U S : : : : U 3 a k / ( 4 G q % ~ W ' ^ = # & @ @           # * , . . . . . .     .       .         #   @ $ # = / ~ < ( $ I D 4 < ] k a 3 T S : : : S U l | M 0 M Y m (   X B ).++g G a 5 T < { ^ ~ X X ! ! X X X ~ ] / ( : V 6 ;.J P U.N b ; # V h -.H b y | l U : : : : S T 3 y j ~ [ 5 o A * V / / X = # & @ @     @   & $ @       . . .   . . @ .       @ &     @ @ $ & * - [ ) l ] # q I 4 [ / k 0 4 U S : : : S U l | -.0 M D s ( @ X z 4.Z.f F a 5 T < { ^ ~ X X X ! ",
"X X X X ~ ^ { : T 5 a F h Z.4.z ! $ < m L -.0 z | l U : : : : : U 3 b k / [ 4 E Z & ] V ! { ; * & $ $   @ @ $ $   . .   & $ $ % @ # & .   . .   $ * @       @ & * ; ^ ~ : < & K u 3 [ ] h d 3 U S : : : : S l 2 z 0 M H w T # , d k.D.i I c } V : ( _ ~ X X X X X X X X ] ^ { : T 5 c F f  +1.z / # : t L M b G | W S : : : : : U 4 b k ] [ 3 D J * ( T ~ _ = * & $ % % $ @ $ @ @ @   @     . . @ @       @     @ $ $ $   % # * * = / X S _ * J D 4 [ ^ k a 4 U S : : : : S l 8 y b M E w : & , d 3.D.i I ;.7 V : ( / ~ X X X X X X X ~ ] ^ { < T 3 b G g Z.).z X @ { o Y z 0 -.| l U : : : : S U 3 b k / [ 4 F q % X l ) _ ; * $ $       & % - * & $   . . . .     .         @   @   @ $ $ $ & * = ^ ] S ( & F L 4 [ ^ k c 3 T S : < : S U l | -.b M Y m {   ^ B >.++g G a 5 T < { ^ ] ] X ~ ! X X X ~ ] / [ : T 6 ;.J P U.O a ; # V i -.H b z | W S : : : : S T 3 y j ~ [ 5 o x & V _ / ! = # & @       @ & @           . . . .   . @   . .   @ $   @   @ @ $ * ; { ) 4 ~ # q I 4 [ / P 0 4 U S : : : S U l | B 0 M D s ( & ] B 4.E.f F a 5 T < { ^ ~ ~ X X ! ",
"X X X X ~ ^ { < T 5 a F e Z.4.B ] $ < r D -.0 z | l U : : : : S U 4 b P / [ 4 E Y # / W ! { ; * & @ $ @   @ &       . @ * & $ . $   @ $   $ @ @   @         @ & * , ^ ~ < : # M u 5 [ ] h d 3 U S : : : : U l | y 0 M G j S # , c k. +i E c 7 V : { / ~ X X X X ! X X X ~ ^ ( : T 5 c F e D.1.z ~ # S s L K b K | W S : : : : S U 4 b P ^ [ 7 L L # ( U ~ / ; % & @ @ & $ $ $ $ @ @ $ @       @ $             @ $ $ @ @ @ @ $ # * - T X T / * E L l [ ^ k a 3 T S : : : : S l | z 0 B I v < & > d 3.F.h I c 7 T : { ^ ] X X X X X X X ~ ~ ^ { < T 5 b H g Z.).B ) $ _ n Z z 9 M | 4 U : : : : S U 3 b k / < 3 G u % X W ' { > * # & $ $ & ' = * - &   @ @         @ @ @ @ @ @ @ @ @ @ @ @ @ @ $ * = / ~ : { & F L 4 < ] P a 3 U : : : : S U l | -.b M D r {   { z !.++g G a 5 T S _ ^ ~ X X X X X X X ~ ] / ( : T 6 ;.J P U.N a - # T i -.H b z | W S : : : : S T 3 y j ~ [ 5 p ;.@ U / _ X = # $ @         @       . .     . @ @ . . . @ . .   @ @         @ & * - ( ) W ] # q I 4 [ / P b 4 U S : : : S U l 8 -.0 M D r (   , B 1.E.f F a 5 T < { ^ ~ X X X ! ",
"! X X X ~ ^ { : T 5 a F f Z.4.A ] $ [ r J B 0 y | l U : : : : : U 4 a P / < 4 E Y % ^ V ! / ; * # @ @ @   @ #           . & $     . $ . # #         @     @ @ & * > ] ] S < & M u 5 [ ] e d 3 U S : : : : U l | B b M G j S & > d j.D.i E c 7 V : { ^ ] X X X ! X ! X X ~ ^ { : T 5 d F e  +!.y ) @ [ s L M b -.8 l S : : : : S U 4 a i ^ : 3 L L $ _ S X _ - * & $ @     @ @   @         @     @             @ @ @ @ @ @ @ & & * - ( ) W ^ & E L 5 [ ^ i a 3 T : : : : : S l | B 0 B I v S @ , d #+D.h I c 7 T : { ^ ] X X ! ! ! X X X ~ ^ { < U 3 b H f Z.'.y !   ( m Y z 0 M 8 4 U S : : : : U 4 0 P / < 4 I q # ~ } ) _ = & $ @     . % & * $ . . . . *   . . #   . .           @ @ @ . @ $ # = ^ ~ V ( * F J 4 [ ] P a 3 U S : : : S S l | B 0 M Y s (   X B !.++g G b 5 T < { ^ ~ X X X X X X X ~ ] / ( : T 6 ;.J P U.O c = # T i -.H b z 2 W S : : : : S T 5 y j ] [ 5 o d $ : / / X ; * & $ @   @ @ @ @     @ @   .     @ .   @   .   .           @ $ & * - ( ) W ~ * q I 3 [ / P 0 4 U S : : : S U l 8 -.0 M L s [ @ , B 1.E.f F a 5 T < { ^ ~ X X ! ! ",
"! X X X ~ ^ { < T 5 a F e E.4.B ! & ( r J -.b z | l U : : : : S U 3 b k / [ 4 I Y # ] l ) / ; % & $   @ @ $ $     . . @ . $ $ $ & . . @ &                   $ * * ; ^ ] : [ & B C 5 < ] e c 3 U S : : : : U 4 | B b M H w S # > d k. +i E d 7 T : { ^ ~ X X X ! ! ! X X ~ ^ { < T 5 ;.F h D.1.-.! $ : t L -.b -.8 l S : : : : S U 4 b i ^ < 4 L L # / U X / ; * # $   $ @ $ $ @   . . . .     @   . . . . . . .             @ % * > ( ! T _ & J D 3 ( ^ i a 3 U S : : : : S l | z 0 -.I v U $ , ;.3.D.h I c 7 T : { ^ ~ X X X ! ! ! X X ~ ^ { < T 3 b G g Z.).z ! $ { n Z z b M 8 4 U S : : : S U 4 b P / ( l E u * ! l ) [ > ; % & & & & $ @ $ & & $ $ $ @ @ $ @ @ @ @ @     @ & & & & $ # % % = > _ ~ W [ * F J 4 [ ~ O a 3 U S : : : : S l | M 0 M D s { @ / z >.++g G a 3 T < { ^ ~ X X ! ! X X X X ] / ( : T 6 ;.L P U.O c ; & V h -.K b y 2 W S : : : : S T 3 x j ] [ 5 p c $ < / / ~ ; * & $ @     @ @ $ $ @     @       $ @ & $ # & & @ @ @         @ & * ; ( ) l ] * p E 3 [ / P 0 4 U S : : : S U l | -.b K L r < & ) y 1.E.f F a 5 T < { ^ ~ X X ! ! ",
"! ! X X ~ ^ { < T 5 a F e E.4.y ) @ ( r J B 9 y 8 l S : : : : S U 3 b k _ < l I Y = ^ l ! _ ; * $ ; &   $ @ @ @   @ . . . @ $ @ &   . $ $         @   @     $ # * ; ^ ^ : [ # M C 3 [ ] h d 3 U S : : : : S l 2 z 0 -.G j S & , ;.j.D.k L ;.7 T : { ^ ] X X X ! ! ! X X ~ ^ { < T 5 d I e F.1.y ' @ S s L -.b -.8 l U S : : S S U 5 c i ^ < 4 L J * { U ~ ^ ; % % @   .     $ & @       . . . @ . . . .   . .       @       @ $ * , ^ ) S / # E L 5 [ / i a 3 T S : : : : S l | z 0 B F w : $ ' ;.#+D.i I c 7 T : { ^ ~ X X X ! ! ! X X ~ ^ _ < T 3 b G g Z.).y ' $ ( n Y z 0 K 8 4 U S : : : U U 4 0 k / ( 4 G u # X W ' ( - * & $ @ @ @ @ @ @ @ @ @ @ @ @   $ $ @ @ @ @ @ $ & & $ @ @ @ $ # # * ; / ] V [ & E L 4 [ ~ O c 3 U S : : : : S l 2 -.0 H L s _ @ ] ;.).++g G b 5 T : _ ] ~ X X ! ! X X X X ~ / ( : V 6 ;.J P U.P a > & 3 e -.K b z 2 W S : : : : S T 3 x j ~ [ 3 o d & S / _ X ; * & @ @     @ @ @             @   $ & $ @ $ & & @ & % @ @ @ $ & * ; > [ ) l ~ # p E 3 < / O 0 3 U S : : : : S l | -.0 K D r : @ ! z 1.E.f F a 5 T < { ^ ~ X X ! ! ",
"! X X X ~ ^ { < T 3 b F e E.4.x ) & { r J -.0 y | l S : : : : S U 3 b k _ [ l E Y = ] l ! { ; * # ' -   $     $ &           @ $ = . $ * $       @ @       @ $ & * - ] ] S < % -.u 4 < / h ;.3 U S : : : : S W 2 y 0 M H j U # , d j. +i J ;.7 T : { ^ ~ X X ! ! ! ! X X ~ ^ { < U 5 a F f E.1.y ~ $ S t L -.0 M | l U : : : S S U 3 a h ^ < 3 L L & { T X ^ - ; * $ @ @ @ @ $ $ @     .       @   @       @ $ @ @ $ &     @ $ $ * = ^ ! U _ # J L 5 [ ^ i a 4 U S : : : : S l | z 9 -.I w < & , A 3.D.h E c 5 T : { / ~ X X ! ! ! ! X X ~ ^ { < U 3 b H g Z.).B '   { n Z z 0 K 8 4 U : S : : S S l 0 k _ [ 4 H u * ~ W ) ( - * & $ @ @ @ @ @ @ @ @ @ @ @         @   *     @ @ @ @ @ @ @ @ @ # % - / ~ W ( # F D 4 [ ~ P c 3 U S : : : : S W 2 H 0 M D s / @ ] z >.++g G b 5 T < _ ] ~ X ! ! X X X X X ] / ( : T 6 ;.J P U.P c ; # W h -.K b z 2 W S : : : : S U 3 y j ~ [ 3 p ;.$ U _ _ X ; % & @ @ @ @ @ @ @ @               $           @ @ $ $ & & & & & # % , U ) 4 ~ # q E 3 < / O b 3 U S : : : : S l | -.0 M D s < @ ! B 1.E.f F a 5 T < { ^ ~ X X ! ! ",
"! ! X X ~ ^ { < T 5 a F e E.1.A X $ < m Y M b z | 4 U : < < : S U 3 a k _ [ 4 L Y * / W ) { - % % ; % $ $ @ $ $ @       @ @   $ * @ % #       @ @ $ @ @ @ @ & # % - _ ] U < * M u 4 [ ^ i d 3 U S : : : : : W 2 y 9 -.H j U & > ;.j. +i E d 7 T : { ^ ~ X X X ! ! ! X X ~ ^ { < T 5 a G f E.1.y X $ < t J B 0 -.| l U : : : : S U 5 a h ^ [ 4 J L & ( U X / > ; * $ $ # @ @ $ @ $ $ $ @ @ @ @ @ @ @ @ $ @ @ @ @ @ & & $ $ @ $ & * ; ] ! V { * J D 3 ( ^ i a 4 U : : : : : S l | B 9 -.I w : $ , A #+ +i E c 7 T < { / ~ X X ! ! ! ! X X ~ ^ { [ U 3 b G g Z.).z ! @ ( n Z B 0 K | l U : : : : : S l 0 k _ [ l G u ; ~ l ) < - % & $ @ @   @     @     @ @     $ @   $   @   @ @ @ @ @     $ $ & * ; / ] V { # I D 4 [ ] P a 3 U S : : : : S W 2 K 0 -.D m ( $ X y ).++g G b 5 T < _ ] ~ X ! ! ! ! X X X ] / ( : V 6 ;.J O U.P c = $ T i -.K b y 6 W : : : : : S T 3 y w ~ [ 5 o A & V _ _ ~ - % # & $ @ @ @ $ @ @ @ @ @ @ @ @ @ @ @ @ @ @ @ $ $ $ & $ $ $ & # * = ' T ) l ~ # u E 4 < / N 0 3 U S : : : : S l | -.0 -.D r T @ X z 1.E.f F a 5 T < { ^ ~ X X ! ! ",
"! ! X X ~ ^ { < T 5 a F e E.4.x ) # / r E -.b y 2 l U : < < < : U 3 b k / [ 4 E Z % ] W ! ( > = * = # & $ # & $ # $ $ $ @ & $ @ @ $ * % $ $ $ $ $ $ $ & $ & # * = > / ^ : < @ M C 3 < ] i d 3 U : : : : < : W 2 x 0 -.H j S & , d k. +i I d 7 V < { ^ ~ X X X ! ! ! X X ~ ^ { < T 3 a G f E.1.y !   T s J B 0 B | l S : : : : S U 3 a h / < 4 E E & { S X _ ' , ; & * & & # $ $ $ $ $ $ $ $ @ @ @ @ @ @ $ $ $ @ @ , $ $ $ $ & # * > ( X S { * L L 3 ( ^ k a 3 U : < : : : : W 2 B 9 -.I w : $ X d #+D.i I c 5 T < ( ^ ~ X X ! ! ! X X X ~ ^ _ < U 3 b G g E.'.z X @ _ n Y y 9 M | l S : : S : : S l 0 k _ [ 3 G q % ] 4 ) < - % * # & $ $ @ & $ @ @ $ @ @ @ & @ @   @ * $ @ @ $ $ $ $ & $ $ & * % - _ ] V { # E D 4 [ ] P a 3 U S : : : : S W 2 K 0 M D m [ $ ^ -.>.++g G b 5 T < _ ] ~ X X ! ! ! X X X ~ / ( : T 6 ;.J O G.P c = & T i -.K b y 6 V : < : : : : T 5 y j ~ [ } o x $ V { _ ] > ; * # & $ $ $ & & & $ $ $ $ $ @ @ $ $ $ & $ $ $ $ & & & & & # * % ; ' U ) 4 ~ % u I 4 [ / O 0 4 U S : : : : S l | -.9 -.L s < # ' z 1.Z.e F a 5 T < { ^ ~ X X ! ! ",
"X X X X ~ ^ { < T 5 b G e E.4.y ! $ { r I -.0 z | l S : < < : : U 3 b k / [ 4 E Z # ^ W X [ , ; % * # # # * & # # & & & & & & & & & * & $ $ & # & & # & & # * % ; , / ^ U : @ H C 3 < ] i ;.5 T S : : : < : W 6 y 9 -.H j U & , ;.k. +i I d 7 V < { ^ ~ X X ! ! ! ! X X ~ ^ { < T 5 a G g E.1.z X @ : s E B 0 y | W S : : : : S U 4 a h ^ [ 4 J L $ { S X _ ' , ; # * # & & # # & & # & # & & # # & # # # * * % = % % % % = % = - ! < ! U { & L L 4 ( ^ k c 3 U : < : : : : W 2 B 9 -.I v l $ , A #+D.h I a 5 T < { ^ ~ X ! ! ! ! X X X ~ ^ _ [ U 3 b G g Z.'.z ~ $ / m Z z 9 M 8 4 S : : : : : S l 0 k _ [ 3 F p * ] l ! : > = % % * # * % * # # # # # # # & & # & & * # * # # = # # # & & # * = - _ ] V < $ E D 4 [ ] P c 3 U : : : < : S W 2 M 0 K D m < $ ~ -.>.++g G b 3 T < _ ] ~ X ! ! ! ! X X X ] ^ ( : T 6 ;.J P U.O 0 > & W i -.K b x 6 V : < : : : : U 3 y j ~ [ } o x # V { { ^ , - % * * # # # # # & & & & & & & & # & # & # # # # # * # # # * % = ; ' S ) l X # u E 3 [ / N b 4 U : : : : : S l | -.0 M L r < & ! x 1.Z.f F a 5 T < { ^ ~ X X X ! ",
"! X ! X ~ ^ { < T 3 a F e E.1.y ) @ : m J -.9 -.2 W S : < < < : S 4 b k / [ 4 E C & / W ! : ' - = % * % * * % * # * & # # & # * # # & & & & # # # # # # # * % = - , _ ^ S : @ K C 3 [ ] h d 3 U : : : < < : W 2 y 9 -.H j S & , d k. +i I c 7 T < { ^ ~ X X X ! ! ! X X ~ ^ { < U 5 c G f E.1.y X $ : s J -.0 z 2 W S : : : : : U 3 a i ^ [ 4 L E * { T X ( ! ' > % = ; % * * * * * * % = % % = % * * * * * * % * * * * % % % = - ! ( ! : _ & L D 4 ( ] k a 4 U : < < : < : W 2 B 9 -.F v U $ ' A #+D.h I a 5 T < { ^ ~ X X ! ! ! X X X ~ ^ _ < T 3 b G g Z.'.y X @ / m Z z 9 -.| l S : S < < : S 4 b i _ [ 4 F p * ~ l ! : ) - = % % % * * % = * * * * * # # # # * # ; * * * * * # % * * % % = ; , { ~ V {   E Y 3 < ] P a 3 U : : < < : S W 2 H 0 K Y m < $ ^ z !.++g G a 5 T < _ ^ ~ X ! ! ! ! X X X ~ ^ ( : T 6 ;.J P  +O 0 > * T h -.K 0 x 6 V : : : : : : U 3 y j ~ [ } o x & V { { ^ , - = * * * # # # * # # # # # # # # # # # # # # # * * * * * * * = ; - ) U ' 3 ~ * q I 4 < / N 0 4 U : : : : : S l | -.0 -.D s [ $ ! B 4.Z.e F a 5 T < { ^ ~ X X X ! ",
"! ! ! X ~ ^ { < T 3 b G f E.1.z ) # [ m J -.9 z 2 W S : < < < : S 4 b P ^ ( l E u & ^ l ! U X ' > - - ; - ; ' ; = - ; = = = % = ; = % % = = = = ; = = = = ; - > , ! [ / S S $ H C 3 [ ] i ;.3 U S : : : : S W 2 -.9 M K j : & - ;.k. +h I c 7 T < { ^ ~ X X ! ! ! ! X X ~ ^ { < T 5 a G f E.1.z ~ @ [ s J z 9 z 2 W S : : < < : U 4 b k ^ ( 4 J E % { 3 X S ~ ! > > - - - ; - = = , = = ; ; ; ; ; ; ; ; ; ; ; ; ; ; ; ; = ; - > ' ~ U ~ S / & J D l ( ] k a 4 S : < < < < : W 2 -.9 M F g S $ , A #+D.h I a 5 T < { ^ ~ X X ! ! ! ! ! X ~ ] _ < U 3 b G j Z.).z ! $ _ m C B 9 K | l S : : < < : S 4 0 k _ [ l F p * ~ 4 X U X ' , - - - - - - - = ; ; ; ; ; ; ; ; ; - , ; ; ; ; = = ; = ; ; ; - , ! < ~ V (   I Y 3 [ ] P c 3 U : : < < : : W 2 M b H Z r ( @ X -.>.Z.f G a 5 T < _ ] X X ! ! ! ! X X X ~ / { : T } ;.J O  +O 0 > # T h B K 0 y 6 W S < : < : : U 3 y w ~ [ } n A $ W { ( { ) , - - ; ; - ; ; ; = = = = = = = = ; ; = ; ; ; ; ; - > - - - - > > ' ~ V ) 3 ~ * q E 4 [ / P 0 4 S : < < < : S W 2 -.9 -.D s [ $ ! B 1.E.e F a 5 T < { ^ ~ X X ! ! ",
"! ! ! X ~ ^ { < T 5 b G e E.4.z ! @ : m E M 9 -.6 W S < < [ [ < S 4 b P ^ ( 4 E u & ^ 4 ] 4 ( / / ] ] ^ { ] / ] X ~ _ ] X X X X X X / X X ~ ~ X X ~ ~ X ~ ~ ~ ] / { W { V < $ K C 4 ( ~ h c 3 U < : < : < : W 2 z 9 -.G j U * ' c k.D.h I c 7 T < { ^ ~ X X X ! ! ! X X ~ ^ { < T 5 a G f E.4.x ^ @ < s E B 9 y 2 W S < : < < < U 3 b k ] { 4 J L $ : V ^ 5 : _ ^ ^ ^ ^ ] ] ~ X ] : ~ [ ^ ~ ~ ] ] ] ] ] ] ] ~ ~ ~ ~ X X X ~ / _ ( : 4 ^ V _ & J J l { ] k a 4 S < [ < < < : W 2 B 9 -.F v S $ - x #+ +h I a 5 T : { ] ~ X X ! ! ! X ! X ~ ^ _ < U 3 b H g Z.).x / $ [ o Y B 0 M 2 l S < < < < < S l 0 i _ ( l F p * ~ 3 ~ 5 < { / / ^ ^ ] ~ ] ^ ~ ~ ~ ~ ~ ~ ~ ] ^ ~ ] ] ~ ~ ~ ] ] / ] X ~ ] ^ ] / { W ^ V ( @ I Y 3 [ ~ P a 3 U : : < < : : W 2 M 0 M D n { $ X -.>.Z.f G a 5 U < _ ] X X X ! ! ! X X X ] ^ ( : V 6 ;.L P U.N b - $ V h B K 0 y 6 V : < < < < < U 5 x w ~ [ } o x @ W [ S T { ^ ~ ~ X ~ X X X X ~ ~ ~ ~ ~ ~ ~ X X ~ X X ~ X ~ ~ ~ ] ~ ~ ] ^ / / _ [ 5 X 5 ] # q I 4 ( / P 0 4 S < < < < : : l 2 B 9 -.D s < $ ' B 4.F.e I c 5 T < { ^ ~ X X ! ! ",
"! ! ! X ~ ^ { < T 5 b G e E.4.B ~ & ( m E M 1 B 6 W S : < [ [ [ S 4 b O ^ ( l E u & / 3 | S ( { _ _ _ _ _ _ _ _ ^ / _ _ / _ _ ^ / ^ / / / / _ / / ^ ^ ^ ^ / / _ { ( [ c W [ @ K C 4 ( X h c 4 S < < < < < : V 6 z 9 M H w S # - d j.F.h I c 7 T < { ^ ~ X X ! ! ! ! ! X ~ / { < T 5 a G f E.1.x ] @ < s E B 0 y | l : < < < < < U 4 b P ~ { l L J & < 7 6 : ( _ _ _ _ _ _ _ _ ^ ^ ( _ : ( _ / / / _ / / / / / / ^ / ^ ^ ] ^ ^ _ _ ( < 6 4 _ & L J l { ~ k b 4 S < [ < < < : W 6 B 9 -.I w S $ > x #+D.h I a 5 T < { ^ ~ X ! ! ! X X X X ~ ^ ( : U 3 b G f ++).z / $ [ n Y B 9 B 2 W : < < < < < S l 9 i / ( l G q # ~ 4 9 U ( { { _ _ _ _ _ / _ ^ / _ / / / / / / / / / ^ / / _ / / / ^ / / { / { { [ 1 3 ( & F D 4 ( ~ P a 4 S < < < < < : W 2 z 0 M D n { $ ! z ).Z.f G a 3 T < { ] X X X X ! ! X X X ] ^ [ : T 6 ;.J O  +O a - # l h B M 0 y 2 V : < < < < < U 3 y j X [ } m A   W U 1 < { { / ^ ] ^ ^ ^ ^ / ^ ^ ] ^ / ^ ^ ] ] ^ / ^ / / / / ^ ^ / / { _ { _ _ { S | 7 ] * q I l ( / k 0 l S < < < < < : W | z 9 -.D s [ @ ' z 4.F.e F a 5 T < { ^ ~ X X ! ! ",
"! ! X X ~ ^ { < T 5 b G e E.1.B ) # { s E -.1 z 6 W : < [ [ [ [ S 4 b N ] { l I Z & ^ J 3 < ( ( { { _ < ( _ _ _ [ / [ ( < < { [ _ _ ( _ _ _ / / { U { { / { ( _ _ { ( U L U @ M Z l { X h c 4 S [ [ < < < : W 6 x 1 -.K w < & , ;.j.D.h I c 7 T < { ^ ~ X X ! ! ! ! ! X ~ / { < T 5 a G f Z.1.x ] $ [ t E B 1 z 2 W : < < < S : S 4 a k X _ l L J & < I 4 W < / { ( { { ( { { [ U { _ { { ( ( ( { { { _ _ { _ { ( { { { [ ( [ { _ ( : 4 G { & L J l { ~ i b l S [ [ [ < < < V 6 z 1 -.I w : $ > ;.3. +h I c 5 T < { ] ~ X X ! ! ! ! ! X ~ ] { < U 3 b G g Z.).z / @ < o Z y 9 M 2 V < < < < [ [ S l 9 i ^ { W G q # ~ D 3 ( ( { { { { _ _ { { [ T [ _ < [ _ { { { { { ( : _ S { [ ( : T ( _ S { { ( U 3 L {   I D l ( X P a 4 S < [ [ < < : V 6 z 0 M D r _ @ ! z ).Z.g G b 3 T < _ ] X X X ! ! ! ~ X ~ ] ^ ( : T 6 ;.J O  +O b - # W e B M 0 y } V < < < [ [ [ S 3 z j ! [ 5 o x   3 F T ( { _ S U [ 4 [ { { ( ( ( ( ( { { < [ ( { ( _ ( ( ( ( { ( { ( ( ( ( ( ( [ < 5 E ] * q I 4 { ^ P 0 l S < < < < < : l 2 z 9 -.D s [ $ ' z 4.E.h I a 5 T < { ^ ~ X X ! ! ",
"! ! X X ~ ^ { < T 5 b F e F.1.y X @ ( t J -.1 B 6 V : < [ ( ( ( : 4 0 N ~ _ T G Z * 4 } l l W l W V T W T W V V T T V V V T U T T T V T T T V T V l V T V V V T W W l V 5 } $ M Z W { ! h c l : [ [ [ [ [ < V 6 y 1 K H j S % ) d k.D.i I c 7 T < { ^ ~ X X ! ! ! ! X X ~ ^ { < U 7 a G f E.1.x ^ & [ r E -.9 y 2 W : < < [ < < S 4 a k ! { l J J $ 2 5 V l T V V V V V V T T U V V V V T U T T U U T T U V T U S S S U T V T : < S V T W 3 & E I V _ X k b l S [ ( [ [ < < V 6 z 1 -.I w U @ ' A 3. +i I a 5 T < { ] ~ X X ! ! ! ! ! X ~ ] _ [ U 3 b H f Z.).z ~ & { m Y B 0 M 2 V < < < [ [ [ : W 1 i ] _ U K q % 7 7 V U S T V T T T U V S T l l T V l V T T U T T U W : T S U T V l V S V V V W V W 4 2 . J E T { ! k b 4 S [ [ [ [ < : V 6 y 9 -.D r _ $ ) z ).Z.g G b 3 T < _ ] X X X ! ! ! ! ! X ~ ^ { : T 6 ;.J O  +O b ; % T h B M 0 x } V < [ [ [ [ [ S 4 y j ! { 4 q x & 0 4 V V T U U U W V T V V V V W V W W W 4 V T V l W W W l l l W l W W W W W W W l l } 6 * q F W { ] k 0 l S [ [ [ < < : W 2 y 9 B D s [ @ ' B 4.E.e I c 5 T < { ^ ~ X X ! X ",
"! ! ! X ~ ^ _ < T 5 a I e E.1.y ! $ [ s J M 1 z 6 V : < [ ( ( ( S 4 b P ! ^ < B I T - @         @ & @ $ $     @ $ @ @ $ $ # @ @ @ $ @ @   $ @ @     $ $ @ @ @ @ @   @ $ $ % S A L S { ) i c l : ( ( [ [ [ < T } x 1 M K j : % - d k.D.i I c 7 T < { ^ ~ X X X ! ! ! ! X ~ ^ { < T 5 a G f E.1.x ]   ( s E -.9 y 6 V : < [ [ < : : l a P ) / : K H } - & @ & @ @ @ $   @ & $ & & @ $ & @   @ @ @ @ @ @ $ @ $ @ $ @ @   @ @ $ $ $ @ $ $ @   = U M M < / ! k b W : ( ( ( [ [ < V 6 z 9 B I w U $ , x 3. +i I c 5 T < { ^ ~ X ! ! ! ! ! ! X X ] _ [ U 3 0 G f Z.).z ~   [ n Z B 0 B 6 V : < [ [ ( ( < T 1 k ~ ^ [ x J 5 > $ @ $   & $ @ $ @ $   & & @   & @ @ $ $ @   @ $   @ @ @ @ @ $ $ @ @ $ $ $ $   @ @ @ % 4 M H < / ) P a l : [ ( [ [ < : V 6 y 9 M D m (   ! z ).Z.g G b 3 U < _ ] X X ! ! ! ! ! X X ~ ^ { : T } ;.E P U.O b - # V h B H 0 A } T < [ [ [ [ [ : l A j ' _ T D b } # @ $ $ @ $ $ $ $         .     @ $ & $ & $ @   @ $ & @ @ @ @ & @ $   @   @ @       @ , 6 J B S _ ~ k 0 W : ( ( [ [ < : W 2 y 9 z D s < @ ' y 1.F.h J a 5 T < { ^ ~ X X ! ! ",
"! ! ! X ~ ^ { < T 5 c I e F.1.y ) $ ( s J B 1 z 6 V : < [ ( { ( < l b P ! ^ ^ } E 0 d y x ;.d ;.A d ;.c ;.;.d A d ;.d d ;.c ;.;.;.;.;.d d d ;.;.;.;.a d A x x ;.;.;.;.d ;.d 1 G 9 _ _ ' h c W < { ( ( [ [ < T } y 1 K H j U # ' d j.D.i I c 7 T < { / ~ X X ! ! ! ! ! X ~ ^ { < U 5 a G f E.4.y _ @ < t J B 1 z 6 V < [ [ ( ( ( : W b k ' / ( } J b A A ;.;.x A A A ;.x A A A A ;.;.x A x x y x x x A ;.;.A A A A ;.A A A A A ;.d A A A x A b I } / ] ) k b V < { { ( [ [ < V 6 y 9 B E w < * , A #+ +i I c 5 T < { ^ ~ X ! ! ! ! ! ! X X ] _ [ U 3 0 G g ++).y X @ [ n Z B 9 B 6 V < [ [ ( ( ( < T 1 k X ] { 7 J b x A x A ;.y y y A ;.;.x A ;.;.;.;.;.A ;.;.x A A A ;.A ;.;.;.d y x ;.x ;.A A A A A A A ;.0 J 6 / ^ ' P c W : ( { ( [ [ : V 6 y 0 B Y s [ @ ^ x ).Z.g G b 3 T [ _ ] X X ! ! ! ! ! X X ~ ^ { : T } ;.J P U.O 0 ; # V i B M 9 x } T [ [ ( ( { ( : W x j , / [ b I 0 A A x A x ;.;.A x d ;.x A ;.A A A x d ;.c d d ;.d ;.A x A A A y x x ;.A d d ;.;.;.A ;.d b D 7 _ ] X k 0 W < ( ( ( [ < : V | y 9 B D s : @ ! x 1.F.h F c 5 T < { ^ ~ X X ! ! ",
"! ! ! X ~ ] { < T 7 c I e F.4.-.) @ : s E B 1 y 6 V < [ [ { { { [ T 0 P ) ~ ' 8 9 Y q p n r n m n n n o n o o o r n n m n o o o o o o n n m o o o n o o n m n o n m n o p p Y 1 a , ^ , h a V [ { { ( ( [ < T } y 8 -.H g U @ ' ;.j.D.i E d 7 T < { ^ ~ X X ! ! ! ! ! X ~ ^ { < U 5 a G f E.4.B X $ [ t J M 1 z 6 V < [ [ ( { { [ T b k ' { ' 9 1 Y p o p o o o o o n n n o m n n o o n o o o n n n o o o p o p o p p p p q q q q o p q u C J | 9 ' ~ ' k b T [ { { ( ( [ < V 6 y 9 B E j : & , x 3.D.h I c 7 T < { ^ ~ X ! ! ! ! ! ! X X ] _ [ U 3 0 H g ++>.y X @ ( n Z y 1 B 6 V < [ [ ( { { [ S 1 h X ~ ' 1 6 J q o o o o o p o o p o p r n o o o o p p o o p p p p o n p o o m o o p p o n o o o p o u Y 8 0 ' ] > P c V < ( { ( ( [ < V 6 y 9 -.Y s < @ ~ z ).Z.g G b 3 T [ _ ] X X ! ! ! ! ! X X ~ ^ { : T } ;.J P U.O 0 - & V h B -.9 x 7 U [ [ ( { { { < V A j - ] ~ b 0 Y p o o o p n n r o n n n n n n n n o o n m n o n n n n n m m n n o n n m m r m n m m n o Y | b ) ~ ! P 9 T [ { { ( [ [ < V 2 y 1 z L s : @ ) y 4.E.h I a 5 T < { ^ ~ X X ! ! ",
"! ! ! ! ~ ^ { < T } c F f F.4.z ] @ < s J z 1 y 6 T < [ ( { _ _ ( S 1 k ' > W ~ { : T 4 5 5 5 5 7 5 5 5 5 5 5 5 7 5 3 5 5 3 3 3 3 4 3 5 5 7 5 7 } 7 3 7 7 7 5 3 3 3 3 4 4 l S ^ ~ 7 ! - k b U ( _ { ( ( ( < T } z 8 -.K j S $ , ;.j.F.h E d 7 T < { ^ ~ X X ! ! ! ! ! X ~ ^ { < U 7 a G e E.1.B '   [ s J K 0 z 6 V < [ ( { { _ ( U b O - , } X / : l 4 3 5 3 5 7 7 5 7 5 5 6 } 5 7 7 7 7 7 7 7 } } 7 7 7 7 7 7 } 7 } } } 5 5 5 5 5 5 3 l V < ^ ! 5 ' , k 9 S ( _ _ { ( [ < V 6 z 9 -.E w [ & , A 3.F.i I c 5 T < { ^ ~ X ! ! ! ! ! ! ! X ] _ [ U 3 0 H f ++>.B ! @ { m Y z 1 B 6 W < [ ( ( _ _ { : | P ) > 4 ] ^ < V 3 5 3 5 5 7 7 7 } 7 5 } } 7 7 7 7 7 } 7 7 7 7 7 5 5 5 5 5 7 } 7 5 5 5 7 } 5 3 3 7 3 W S ^ X 5 ) - O c V [ _ _ { ( [ < V 6 y 9 B D r < @ ~ z ).Z.g G b 3 U [ _ ] X X ! ! ! ! ! X X ~ ^ { : T } ;.J P U.N 9 ; * S h B M 9 x 7 U [ [ ( { _ _ ( T ;.w ; ' 6 ) _ : l 3 5 5 5 } } } 7 5 7 7 7 7 7 7 5 7 5 7 } 7 7 7 7 7 7 7 } } } 7 7 7 7 7 7 7 7 7 7 7 3 W : ^ ] 7 ) ' k 8 S ( _ { ( [ < < V 2 B 1 B L r : @ ' z 1.Z.e F a 5 T < { ^ ~ X ! ! ! ",
"! ! ! X ~ ^ { : V 7 c F f E.4.x / @ : t J z 1 z } V < [ ( { _ / _ < 2 k ; l ! ~ ] / / _ _ { ( [ [ ( ( ( ( ( ( ( ( ( ( { ( ( ( ( ( ( ( ( [ [ [ [ [ [ < ( ( { ( ( ( ( { { { / _ ] { ' } * h 9 : _ / _ { ( ( < T } y 8 -.K j U $ - ;.k.F.i E c 7 V < { ^ ~ X X ! ! ! ! ! X ~ ^ _ < U 5 a G e E.1.z '   [ s J B 8 z 6 V < ( ( { _ / { : 8 k * } X ^ ^ / ( _ _ { ( ( [ : [ ( ( ( : < ( ( ( [ [ [ < < [ < [ ( [ [ [ [ [ [ < [ [ ( [ [ [ ( [ { { _ / ] ] ! 5 % k 8 < _ / _ { ( [ < V } z 9 -.E w < $ ' A #+F.h I ;.7 T < { ^ X X ! ! ! ! ! ! X X ] _ [ U 4 0 H g Z.).z X   _ n D y 1 -.2 W < [ [ ( _ / _ [ } P - W X X _ ^ _ ( ( { ( ( ( ( [ < [ < [ [ ( ( ( [ ( [ ( ( : [ ( ( { { { { ( [ ( { { ( ( ( { { { < { / ] ~ X ' 5 * P 8 : _ / _ _ ( [ < V 6 y 9 B J r < $ ~ y ).Z.g G b 3 U [ _ ] X X ! ! ! ! ! ! X ~ ^ { : T } ;.E P  +O 0 = # U h B -.0 K } T [ ( { { _ / { : c v * 7 ' ^ ^ _ ( ( { ( ( < [ [ [ [ [ [ [ [ ( ( ( ( [ ( [ [ [ ( ( [ [ [ [ ( ( ( ( { { ( ( ( ( { { { / / ^ ~ X ! 3 - k 6 < { _ _ { ( < < V 2 z 0 z J r U & ) y 1.Z.f F a 5 T < { ^ X X ! ! ! ",
"! ! ! ! ] ^ ( : V 7 b G f E.1.y ] @ < s E y 1 z 6 T < [ { _ / ^ ^ { W r 6 , ; , , ! X ! ~ ~ ~ ] ] ] ] ~ ~ ~ ~ ~ ~ ~ ~ ~ ~ ~ ~ ~ ~ X ~ ~ ~ ] ~ ] ] ] ] ~ ~ ] X X X ~ ~ X ! ) ! , ) ; ; 6 m 5 ( / / / _ { ( < T } y 1 B K w U & ; A #+D.h I c 7 T : { ^ ~ X ! ! ! ! ! ! ! ~ ^ _ < U 5 a G f F.1.z ' @ ( t J -.8 B 6 V < [ { _ / / / ( 4 t 9 = = > , ' ) ! X X X ~ ] ] ] ~ ] ~ ] ^ ~ ~ ~ ~ ~ ~ ] ] ~ ] ^ ] ^ ] ] ~ ] ] ~ ~ ] ] ] ^ ^ ] ~ ! ! ) ' , > ; = } r 4 { / / / _ ( ( < V 6 y 1 B I w S $ , A 3.D.e I d } T < { ^ X ! ! ! ! ! ! ! X X ] _ [ U 4 0 G g Z.).M X   ( n Y B 1 B 2 W < [ ( { _ / ^ _ 4 r } > = > ! ) ' ! X ~ ~ ~ ~ ~ ] ^ ~ ~ ] ^ ~ ] ~ ] ~ ] ] ] ^ ] ~ ~ ~ ~ ~ ~ ~ ^ ~ X ~ ~ ~ ~ ~ X X ~ X ) ' , > = ; 2 s 4 { / / / _ { [ < V 6 y 1 B J m [ $ / y ).Z.g G b 3 U [ _ ] X X ! ! ! ! X ! X ~ ^ { : T } ;.E P  +O 0 % # U h B -.0 z 6 U [ ( { _ _ / / ( 6 C 2 # > , ! ' ) ! X X ~ ] ] / ~ ~ ~ ~ ~ ~ ~ ~ ~ ~ ~ ~ ] ~ ~ X ~ ~ ] ~ ~ ~ ~ ~ ~ ~ ~ ~ ~ ] ~ ~ X ! ! ) ) , > = , 2 s W ( / / _ { ( [ < V 2 B 1 z J r : $ ' B 1.++f F a 5 T < { ^ ~ X X ! ! ",
"! ! ! X ~ _ ( : V 7 b G f E.1.B ! @ S s E z 1 z 6 V < [ ( _ / ^ ] / [ F D v w v v t w w t v v t t w v v w w w j w j w v v v w w v v w v v t v v t t t v j t w w w w v v v w v j w w t Y Z < / ] ^ / _ ( [ < T } x 1 B H j : # ; y k.D.h I c 7 T < ( / ~ X X ! ! ! ! ! X ] _ { < U 7 a G e E.1.z ' @ [ t J -.1 B 6 V < ( ( _ / ^ ] / < D u j g g g g g g f g g j j j j g j j j g j j j f f g g g f f f f f g f g g j g j j j j j j j g g g g g g g j w C E < / ] ^ / _ { ( < V 6 z 1 -.I w < $ , x 3. +i I d 7 T < { ^ ~ ! ! ! ! ! ! ! ! X ] _ [ U 3 0 H g ++).B ~ . { n Y z 9 y 6 V < [ ( { / ^ ] ^ { M Y v w j j j g j j j j j w j j w j j g j j j j j g j w w j g f g g j g g j j j j w w w j w j j g j w j j g g j Z J < / ] ^ / _ { [ < V 6 y 1 -.J n : @ ^ z ).Z.g G b 3 U [ _ ] X X ! ! ! ! ! ! X ~ ^ { < V } ;.E P U.N b = * T h B -.0 -.} U [ ( { _ / ^ ] / S Z C v w w w j j j j w w w w j j g j w w w j j j j j w w j j j w j w w j w w w j j j w g j j w w w w w j w w w v D I ( / ] ^ / { ( [ : W 2 B 1 B J s [ @ ) z 4.Z.f F a 5 T < _ ^ X X X ! ! ",
"! ! ! X X ^ { < T 5 a G e E.1.y X @ S s L z 8 B 6 V : [ ( _ ^ ] ] ~ 9 V } d y y y y y z B z z z B B B z z z y z z z z z z z B M B z B B z y z z z y z B -.x z z z z z z z z y z B A c | W b ] ] ^ / _ ( ( < T 6 y 1 B H j U & - A j. +h I c 7 T < { / ~ X ! ! ! ! ! ! X ~ ^ { < U 7 a G e E.1.z ) $ [ s J -.1 z 6 V < [ ( _ / ^ ] ~ d T 2 c ;.x x x x x x x x x x y x z x z y z x y x A y z B z y x x y y y y y y y x x x x x A A A x x x A A A A ;.b 5 U d ] ] ^ / _ ( [ < V 6 z 1 -.E w : $ , x 3.D.i I c 7 T < { ^ X ! ! ! ! ! ! ! ! X ] _ [ U 3 b G f ++>.-.!   ( o D y 1 z 6 V : [ ( _ / ^ ] X 9 V 6 a d A A A y y x y x x x x x x B z y y z y x x y y x A y y x x x x z z x x x x x x z -.z x y M B y x x x ;.a } T c ~ ] ^ / _ { [ < V 6 y 9 -.L m < @ ^ z ).Z.g H b 3 U [ _ ] X X ! ! ! ! ! ! X ~ ^ { : V 6 ;.E P U.O c ; * V i -.M 9 x } T [ ( { { _ ^ ] ^ ;.U 6 c A x z B -.y y y z -.M -.z z z B z z z z z B B -.z z z z z B z y z y z B z B B B z z y y y y y y x y x A c 7 W a ~ ] ^ / { ( [ < V 2 B 9 B L s [ @ ! x 4.Z.f G a 5 U < _ ] X X ! ! ! ",
"! ! ! X X ] ( < U 5 a G f Z.4.z ) $ U s J z 8 B 6 V : [ ( { / ^ ~ 8 [ / { : T W l 4 7 6 } 7 2 } } 7 } } 7 6 7 7 7 7 7 7 5 7 7 } 6 7 } 7 7 7 7 5 7 5 7 5 7 7 5 7 7 5 5 5 3 3 3 4 5 U < ( _ / 1 ] ^ / { ( [ < V 6 z 1 B G w S & ; A k. +i E c 7 T < { ^ ~ X ! ! ! ! ! ! ! ~ ^ { < T } a G e F.!.y ! $ ( s J -.1 -.2 W : [ ( { / ^ ~ b { / { : T W l 4 5 5 5 5 7 7 7 7 7 7 7 } } 7 5 5 7 7 7 7 7 7 } 7 7 7 7 7 7 5 7 7 5 5 5 5 7 7 7 5 5 7 5 3 l W V U < _ ^ _ 0 ] ^ / { ( [ < V 6 z 1 -.E w : $ > x 2.F.h I c 7 T < { ^ X ! ! ! ! ! ! ! ! X ] _ [ U 5 b G g ++>.z X   [ n C z 9 M 2 W S < [ { / ^ ] 2 [ ^ _ < U V W 4 3 5 5 5 5 5 5 5 7 7 7 } 7 7 7 7 7 7 } } 7 7 7 7 7 7 7 } } } 7 } 7 7 7 7 } 6 } 7 5 5 } 5 4 l W T : { ^ { 0 ] ^ / _ ( [ : W 2 z 9 -.L s { @ ] -.).Z.g G b 3 U [ _ ] X X ! X ! ! ! ! X ~ ^ { : T } ;.E P U.N a ' # U i -.M 9 x } T < [ ( _ / ^ ^ 0 ^ { _ < U V W 3 5 7 5 7 7 } 6 } 5 7 7 7 7 7 7 7 7 7 7 } 7 7 7 7 7 7 7 7 7 7 7 7 7 7 } } 7 7 } 7 7 7 7 5 3 4 W T S { / [ 9 ~ ^ _ ( [ < : W 2 -.9 -.L s ( @ ' y 4.Z.f F a 5 T < { ] ~ X X ! ! ",
"! ! ! ! ~ ^ { < T 5 a G f Z.4.B ) $ < s J B 8 -.6 W : < [ { _ ] | ( ~ ~ ] / { [ : S U T T T T U U T T T T V T T T V T T T T V V T V T V T T V V V V V T T T T T T U T U U U S : S ( / / ^ ~ / 9 ^ _ { [ [ : V 6 z 1 B G g S @ - A j.D.i I c 7 T < { ^ ~ X ! ! ! ! ! ! X ] ^ _ < U 7 a G e F.4.x ! $ < t J -.1 B 2 W : < [ { _ ^ b ( ] ~ ^ / { [ : S U U U T T T T T T V V V W V V V V V V V V V V V W V V V V V V V V T T T T T U U U U U U S : [ ( / ^ ~ ~ _ 0 / _ { [ < : W 2 z 1 -.E w < $ ' x #+F.e E ;.7 T < { ^ X ! ! ! ! ! ! ! ! X ] _ [ U 3 b G g |.>.-.~ $ : p D B 0 K | l : < [ ( ( / 6 ( ~ ~ ^ _ ( < : U U T T U U U T T T T V W W V W W V W l W T V V T T V V V V V V V V V T T T T T U T T T T U S < [ _ ^ ] ~ _ 8 _ _ { ( < : W 2 z 9 B L s (   ~ -.).Z.g G b 3 U [ _ ] X X ! ! ! ! ! ! X ~ ^ { : V } ;.E P U.N b - & T i -.K 0 y } V < [ ( { _ _ 9 ^ ~ ~ ] / { [ : S U U T T T T V T T V V V V V V V V V V V V V V V V V V V V V V W V W V V T T T T T T T U S : [ { / ] ~ ~ [ b ^ _ ( [ < S W 2 B 9 M L s [   , z 1.E.f F a 5 U < _ ] X X ! ! ! ",
"! ! ! X ~ ^ { < T 5 a G f E.4.B ! $ < s J M 1 -.2 W : : < ( _ 2 [ ] ~ ~ ~ ^ / { ( ( [ [ : < < < : S : : : : S S S S S S : : S S S S : : : S S S S S S : S : : : < < < < [ [ ( ( ( / ^ ] _ ~ ~ _ 0 _ ( [ < : W 2 y 9 B G g < & ; ;.k.D.i I c 7 T < { ^ ~ X ! ! ! ! ! ! X ~ ^ _ < U 7 a G e E.1.z ' $ < t J -.1 z 2 l : < [ ( _ c ( ] ~ ~ ~ ^ / _ { ( ( [ [ [ < < < : : S S S U S S S S S S S S S S S S S S S S S S S S S : S S : : < < [ [ [ ( ( { / ^ ] ~ ~ ~ { 0 { ( [ < : W 2 z 1 -.E w [ & > ;.3.F.e E c 5 T < _ ^ X ! ! ! ! ! ! ! ! X ^ _ S V 5 b H g |.>.B ~ @ < m Y z 9 K 2 V : < [ [ _ 2 [ ] ~ ~ ~ ^ / _ { ( [ [ [ < < : : : : : : S U S S S S S U U S S S S S S S S S S S S S S S S : : : < < < [ [ [ ( { _ _ ] ~ ^ ^ ( 2 _ ( [ : U 4 8 B 0 B D r [ @ ! z ).Z.g G b 3 U [ _ ] X ! ! ! ! ! ! ! X ~ ^ { < T } ;.E P U.O d ' $ T i -.K 0 y 6 V < < [ ( { b / ] ~ ~ ] ^ / { ( ( [ [ < : : S S : : : : S S S S S S S U S S S S : S S : : : S S S S S : : : : < < [ < [ [ ( ( { / ^ ~ ~ ~ ~ < 0 _ [ [ : U l | B 1 -.D t _ & ' z 1.Z.f G a 5 T < _ ] X ! ! ! ! ",
"! ! ! X ~ ] _ < U 3 b G e E.1.z ) @ : t J K 1 M 2 W S : < ( | < ^ ] ~ ~ ~ ] ^ / _ _ { { ( [ [ [ < < < < < < < < < < < < < < < < < < < < < < < < < : : < < < < [ [ [ [ ( { { _ / / ] ] ~ ~ ~ ] ^ ( c ( < : : W 2 y 1 B G j U @ % ;.j.D.i I c 7 T < _ ^ ~ ~ ! ! ! ! ! ! X ~ ^ _ < U 5 a G h F.1.y ' @ ( t E -.1 z 2 l S : < ( a [ ^ ] ] ~ ~ ] ] ^ / / _ { { ( ( ( [ [ [ < < < < < < < < < < < < < < < < < : < < < < < < < < < < [ [ [ ( ( ( { _ / / ^ ] ~ ~ ~ ] ^ [ a ( < : S W 2 z 9 B I w [ % / ;.#+F.e E c 7 V < { ^ X ! ! ! ! ! ! ! X X ^ _ S T 7 a F g |.>.-.X   [ o Z -.9 B | W S : < [ 1 : / ^ ~ ~ ~ ] ] ^ / _ _ { ( ( [ [ [ [ [ < < < : < < < < < S : < < < < < < < < < < : < : < < < < < [ [ ( ( { { { _ _ / / ] ] ] ^ / < 8 ( < : U 4 8 B 0 B L m [ & ! B '.Z.g G b 3 U [ _ ] X ! ! ! ! ! ! ! X ~ ^ { < T 7 ;.E P U.N a - & V h -.K 0 z 6 V : < < [ d { ] ~ ~ ~ ~ ~ ] ^ / _ _ { ( ( [ < < < [ [ < < < < < < < < < [ < < < < < < < < < < < < < < < < < [ [ [ [ [ ( { _ / / ^ ] ~ ~ ~ ] ^ S b ( < : U 4 2 B 9 B D s [ $ ' z 1.E.f F a 3 T < _ ] X ! ! ! ! ",
"! ! ! X ~ ] _ [ U 3 b G e E.1.y ) & < t L M 1 -.2 W S : < 9 S _ ^ ] ~ ~ ~ ~ ] ^ / / _ _ { { ( ( [ ( ( ( ( ( ( ( ( ( ( ( [ ( [ [ ( ( ( ( ( ( [ ( ( ( [ ( ( ( ( ( ( ( { { _ _ / ^ ^ ] ^ ] ~ ~ ] ^ _ < A < : S W 2 x 9 -.H j S $ - A j. +i I c 5 T < _ ^ ~ X ! ! ! ! ! ! ! ~ ] _ [ T 5 a G e E.4.z > & : r E B 1 z | W S : < a : { / ^ ] ~ ~ ] ] ^ ^ / / _ { { { ( ( ( ( ( ( ( ( ( ( ( ( ( ( ( ( ( ( [ ( ( ( ( [ [ [ ( ( ( ( ( ( ( ( { { { _ _ / / ^ ] ~ ~ ~ ~ ] ^ _ : c < : S W 2 z 1 B I v V # ' d #+D.k E c 7 T : { ^ X ! ! ! ! ! ) ! ! ~ ] { : W 3 a G g ++>.B X   [ m Z B 9 K 8 l U S : 1 U { / ^ ~ ~ ~ ] ] ^ ^ / / _ _ { { { ( ( ( ( ( ( ( [ [ [ [ ( ( ( ( ( ( ( [ ( [ ( [ [ [ [ ( ( ( ( ( ( ( ( { { { _ / / / ^ ] ~ ~ ] ] / _ : b < S U 4 8 -.b M L r [ $ ) y ).++g G b 3 U [ _ ] X ! ! ! ! ! ! ! X ~ ^ { < T 7 ;.E P U.N a ; & T h -.H 0 z 6 V : : : A [ _ ^ ] ~ ~ ~ ~ ] ^ ^ / / _ _ { { ( ( ( ( ( ( ( ( ( ( ( ( [ ( ( ( ( ( ( ( ( ( ( [ ( [ [ [ [ [ [ [ ( ( ( { { { _ _ / ^ ] ~ ~ ~ ~ ] ^ _ T a < S U 4 | B 9 z L r S @ ' z 1.F.f G a 3 U < _ ] X ! ! ! ! ",
"! ! ! X X ] _ [ U 3 a G e F.1.y ) @ < v D -.1 B 2 W S : 0 T { _ ^ ] ~ ~ ~ ~ ] ] ^ ^ / / / _ { { { _ _ { { { { { { { { { { { ( { { { { { { { { { { { { { { { { { { _ _ _ _ / ^ / ^ ] ] ~ ~ ] ] / _ ( S z < S W 2 x 9 M H j : & > d k.U.i I c 5 T < _ ^ ~ X ! ! ! ! ! ! ! X ^ _ [ U 5 b F h E.1.x ' % < r E B 9 z 2 W U : c U ( _ / ^ ^ ] ] ] ] ^ ^ / / / _ _ _ { { { { { { { { { { { { { { { { { { { { { { ( { { { { { { { { { _ _ _ _ _ _ / / ^ ^ ] ~ ~ ~ ] ] / { < U c : S W 2 z 1 -.I j U $ ! A #+F.i E c 7 T < { ^ X ! ! ) ! ! ) ! ! ~ ] _ < U 3 b G j |.>.z X @ [ o Y B 9 M | l U S 1 V < ( _ / ] ] ] ] ] ] ^ ^ / / _ _ _ _ _ _ { { { { { { { { { { { { { { { { { { { { { { { { { { { { { { { _ _ _ / / / ^ ^ ] ] ] ] ] ^ / { ( U 0 S U 4 8 z 0 B J r :   X y ).++f G b 3 U [ _ ] X ! ! ! ! ! ! ! X ~ ^ { < T 7 d E P U.O a ; & T i -.H 0 z 2 W S S c < ( _ / ] ] ~ ~ ] ] ^ ^ / / / _ { _ { { { { { { { { { { { { { { { { ( { { { { { { ( ( { { { { { { { _ { _ _ _ / / ^ ^ ] ] ~ ~ ~ ~ ] ^ _ ( V b : U 4 8 z 9 z L s S @ ' B 1.F.e F b 3 U < _ ] X ! ! ! ! ",
"! ! ! ! X ] _ [ U 3 b G f F.1.y ! $ [ t L B 1 -.| l S b W [ ( { / ^ ] ~ ~ ~ ] ] ] ^ ^ / / / / _ _ _ _ / / _ _ / / / / / / _ _ _ { _ _ _ _ _ _ _ _ _ _ _ _ _ _ _ _ _ / / / ^ ^ ^ ] ] ] ] ^ ] ^ / { ( < U x S l 2 y 9 M G j : * , A k.D.i I c 5 U < _ ^ ~ ! ! ! ! ! ! ! X X ] _ [ U 5 a G h E.1.x , * : s E B 9 B | l S a T < ( { / / ^ ^ ^ ] ] ^ ^ ^ / / / / _ _ _ _ _ _ _ _ _ _ _ _ _ _ _ _ _ _ { _ _ _ _ { _ _ _ _ _ _ _ _ _ _ _ / / / / ^ ^ ^ ] ] ~ ~ ] ] ^ ( [ < S T d S l 8 K 9 -.E v S $ ' A k.E.e F c 7 T < { ^ X ! ! ! ) ) ) ! ! ~ / _ [ U 3 b F g ++).-.~ $ < o D x 1 B 2 W S 9 W : ( { / ^ ] ] ~ ~ ~ ] ] ^ / / / / / / _ _ _ _ _ _ _ _ _ _ _ _ _ _ _ _ _ _ _ _ _ _ _ _ { _ _ _ _ _ _ _ _ _ / / / / ^ ^ ^ ] ] ] ] ^ / _ { [ < V b U 4 1 M b -.L m { @ ) y ).++f G b 3 U [ _ ] X ! ! ! ! ! ! ! X ~ ^ { < T 7 d E P U.N b ; # T i -.H 0 B 2 W S a S < ( { / ^ ] ] ~ ] ] ] ^ ^ / / / / _ _ _ _ _ _ _ _ _ _ _ _ _ _ _ _ _ _ _ _ _ _ _ _ _ _ _ _ _ _ _ _ _ _ / / / / / ^ ^ ] ] ~ ~ ~ ~ ] ^ / _ ( [ W a U 4 1 B 9 z L t : @ ) z 1.F.e F b 3 U [ _ ] X ! ! ! ! ",
"! ! ! X X ] _ [ U 3 b G f F.1.x ! @ < t L -.0 K 9 3 c 4 U S : [ ( { _ _ _ _ _ _ { { { { { ( ( { ( ( ( ( { { { { { { { { { { ( ( [ ( ( [ [ ( ( ( ( ( ( ( ( ( ( ( ( ( ( { { { { { _ _ _ _ _ _ { ( < : S U W A 3 9 B 0 -.H j : & > ;.k.D.i I c 5 U < _ ^ ~ ! ! ! ! ! ! ! ! X ] _ [ U 5 a F e E.4.z > * [ r I -.0 M 0 5 A l T U : < [ ( { { _ _ { _ { { { ( ( ( ( ( ( ( ( ( ( ( ( ( ( ( ( ( ( ( [ [ ( ( ( ( ( ( [ ( ( ( ( ( ( ( ( ( ( ( ( ( { { { _ _ _ _ _ _ { ( < : S S T l A 5 9 K 0 -.I v U & ) x k.E.e F a 5 U [ _ ^ X ! ! ! ) ) ) ! ! X ] _ < U 5 a G g }.>.B X   [ n D z 9 H 1 3 ;.3 V U : < [ ( { _ _ _ { _ _ { { { { { ( ( ( ( ( ( ( ( ( ( ( ( ( ( ( [ < ( ( ( ( ( ( ( ( ( [ ( ( ( ( ( ( ( ( ( ( ( ( { { { { { { { { { ( [ < : U T 4 d 7 b -.c K D r [ & ! y >.++g G b 4 U [ _ ] ~ ! ! ! ! ! ! ! ! ~ ^ _ < T 7 d E P U.Q b ; & T i M H a K 9 5 A V U S : < ( { { _ _ _ _ _ _ { { { { ( ( ( ( ( ( ( ( { ( ( ( ( ( ( ( ( ( ( ( ( ( ( ( ( ( ( ( ( ( ( ( ( ( ( ( ( ( { { { { _ _ _ / / _ _ { ( < : S U 3 d 7 a H b B D s : $ ) z 1.F.e G b 3 U < _ ] X ! ! ! ! ",
"! ! ! X ~ / _ [ S 4 b G f F.!.y ! @ [ s D M d I d M 2 3 4 4 W V T U U S S S S S U U U U V U U U U T U U U U U U U U U U T U T T T U U T T V T T U T U T T T U U U U U U U U U U U S U U U U T V W l 4 4 3 } M d G c H F g : $ > ;.k. +i I c 5 U [ _ ] X ! ! ! ! ! ! ! ! X ] _ [ S 5 a F h E.4.x , & [ s J H c E d K 2 5 3 3 l W V V V T U U U U U U U U U U U U T T T T T T T T T T T T T T T T T T T T T T T T T T T T T T T T T T U U U U U U U U U U U U T V W l 4 3 5 6 G ;.J c K J v T & , K #+F.e I a 3 U [ _ ] X ! ! ) ) ) ) ) X X ] { < T 5 b H g }.).-.X $ [ p Y B d E d H | 7 5 3 l W V T U U U U S U U U U U U U T T T T T T T T T T T T T V V W W T T T T V T V T T T T T U U U T U T U T U U U U U S U U S U U T V W l 4 3 3 | M ;.I ;.H D r / $ ) y '.++g H b 4 U [ / ] X ! ! ! X ! ! ! ! ] ^ _ < U 7 d E P U.Q a - & T h K F A I ;.F 7 3 3 4 l W V T U U S S S S U U U U U U U U U U U U U U U U U T T T U T T T T T T T T T T T T T T T T T U U U U U U U U U U S S S S U U T V W l 4 3 3 | K A J d K Z s < & ) B !.E.f G b 4 U [ _ ] X ! ! ! ! ",
"! ! ! ! ~ ] / ( S 4 b G f E.1.x ) @ [ t Z G y Y Z y 0 1 8 | 2 6 } 7 7 5 5 5 5 7 7 7 7 } 7 7 7 } 7 7 } 7 7 7 7 7 7 7 } } } 7 } } } 7 } } 6 7 } } } } } } } } } 7 7 7 7 7 7 7 7 7 } 7 7 } } 2 } } 6 2 | 8 1 0 A Y D z I E g : $ , d k.D.i I c 5 S [ _ ] X ! ! ! ! ) ! ! ! X ] _ ( S 5 a G h F.4.y , $ [ v D F x Z C y b 9 1 8 | 2 6 } } } 7 } 7 7 7 7 7 7 7 } } } } } } } } 7 7 } } } } } } } } } } 6 6 6 6 6 6 6 6 6 } } } } } } } } } } } 7 7 7 7 7 7 7 7 7 } 6 2 | 8 1 1 0 x u u B I D w S $ ) c 3.D.e I a 3 S [ _ ] X ! ! ) ) ) ) ! ! X ~ _ [ S l 0 H g }.>.B ~ @ { o u F z p C z b 9 1 8 | 2 6 } 7 7 7 } } 7 7 7 7 7 7 } } } } } } } } } } } } } } 6 6 6 | 6 } } 6 2 6 6 6 } } } } } } } 6 } } 7 6 7 7 7 7 7 7 7 7 7 7 7 } 6 2 2 8 8 1 b y C Z z G C r ( @ ! z ).Z.f G b 3 S ( / ~ ! ! ! ! ! ! ! ! X ~ ^ _ < U 7 ;.E P U.N a = # W i F D -.C q ;.0 1 8 | 2 6 6 } 7 7 7 5 5 7 7 7 7 7 7 } 7 7 7 7 7 7 7 7 7 7 } } } } 7 } } } } } } } } } } } } } } } } } } } } } } 7 7 7 7 7 7 5 5 5 7 7 } 6 2 | 8 8 1 0 B u u B I C s [ $ ' M 1.E.f G b 4 S [ / ] X ! ! ! ) ",
") ! ) ~ X ~ / ( S 4 b G f E.1.y ! & [ t u E K f Z F M -.B z x x A ;.;.;.;.d d ;.;.;.x A A A A x d A x A d ;.;.;.;.;.;.A A ;.;.;.;.d ;.;.x ;.A A d d d d ;.A x A A A A A ;.;.;.A ;.;.x x x y y A x x y z B -.G Y w H D L f < & , x #+F.h I c 5 S [ / ] X ! ! ! ! ! ! ! ! X ] / ( S 3 b G e F.4.A , $ ( v Z L M j C J G M -.B z x x x ;.;.A ;.;.;.;.;.d A x x A A A ;.;.A x A A A x A x x z z A A x x A x x x A A A A A A A A ;.;.;.A A x x A A A ;.A A A x x x x y z B -.M K J u f G D Z w < & - A #+F.e F a 5 S ( / ] X ! ) ) ) ) ) ) ! ! ~ / ( : l 0 H g <.>.B X @ ( r o E G f q D H M B y y x A ;.;.;.A x A A ;.x A A A ;.x x A y A A x x x x A A x A A A A y x x y z y y x x x x y x A ;.A A ;.;.A ;.;.;.d d d d d d d ;.;.A A y z B B M I C j K J q t [ @ ) z ).|.g F b 4 S ( / ~ ! ! ! ! ! ! ! ! ! X ] _ [ U 7 ;.E P U.N a > & T i E u I e Z I K -.-.M z y A ;.A A ;.;.;.;.;.A A ;.A A A A ;.d ;.;.;.A ;.A x A A ;.;.A A A A ;.A A x x x x A A A ;.;.A A A A A A ;.;.A A ;.A A ;.;.;.;.;.A y z B B M K E q f G D q t [ @ ! B 1.Z.f G b 4 S ( / ~ X ! ! ! ! ",
") ) ! ! X ~ / ( : 4 b G f Z.4.B ) $ [ v n C q E -.x c b 0 0 0 9 1 8 8 8 8 8 8 8 1 1 1 8 8 8 1 1 1 1 1 1 1 8 8 8 8 1 8 1 1 1 1 1 1 1 1 1 1 8 1 8 8 8 8 8 8 8 1 8 8 1 1 1 1 1 8 1 8 8 1 8 1 1 1 1 9 9 9 0 b a ;.z I o o u e [ $ > ;.k.F.e I c 3 S ( / ] X ! ! ! ! ! ) ! ! X ] / ( : 3 b G e E.1.x > @ [ j p C q I -.A c b 0 0 9 9 9 8 8 8 8 8 8 | 8 8 8 1 8 8 8 | 8 8 8 8 8 8 8 8 8 1 8 8 8 8 8 8 8 8 1 9 9 1 8 8 8 8 8 8 | 8 8 8 8 8 | 8 8 | | | 8 8 | 2 | | 8 8 1 9 9 0 b a ;.B I o o p w T $ ' ;.3.F.h F a 3 : ( / ~ X ! ) ) ) ) ) ) ) ! ~ ^ { : l 0 K j }.>.B ~ $ < r r C n J -.A a b 0 0 9 1 8 8 8 8 | | 2 | 1 8 | 8 8 | 8 8 1 8 8 1 1 1 1 8 8 8 1 8 1 8 1 8 8 8 8 8 | 8 8 8 8 8 8 8 8 | | | | | 1 8 | 8 8 | | 2 | | | | | 8 1 1 9 0 b a ;.-.I p C m t ( @ ) z ).++g G b 4 : ( ^ ~ ! ! ! ! ! ) ! ! ! X ] / ( S 7 d E P U.N b ; & S P Y s p I B ;.c b b b 0 9 1 8 8 8 8 8 8 8 8 8 8 8 8 1 1 1 8 8 8 1 8 8 8 1 1 1 1 1 1 1 1 1 1 1 9 1 1 1 1 9 1 1 1 1 1 8 8 8 1 1 8 1 1 1 1 1 8 8 8 8 8 8 1 1 9 0 0 a a c A M J r q m v < $ ' -.1.Z.f G b 4 : ( / ~ ! ! ! ! ) ",
") ) ! ! ! ~ ^ { : 4 b H f Z.4.B ! $ < g e w v p Z D J I G H F E G H -.-.B B -.B H H K K H K G K K z B M G -.K M M K H K M M -.M M M -.H H H H M M M B B B -.H H M K M M M -.B H B -.G G F I I I E F H K H H F J o w h j k < & , ;.k.D.h F a 3 : ( / ~ X ! ! X ! ) ! ! ! X ~ / { : 4 b G e F.1.x ' @ S f e j v p D E F G G G K K K M M -.H K M -.-.M K K -.M M M M M K -.M M M M H K K H H K G K K H G F K M M M M M M -.M M -.M M H M -.-.-.M -.M -.-.-.-.-.M M M K M K K H I D p r f h e U & ' A #+F.h F b 3 : { ^ ~ ! ) ) ) ) ) ) ) ) ! X ^ { < l 9 K w }.).B ~ @ ( t k j w n Y E G H K M H -.-.H G M K M -.K M K -.H -.B B H G K M H H K M K -.-.B -.-.-.K M M -.K -.M M K M M H K K K K K M M B -.-.B -.K -.B B -.B B K B M -.-.M M K G F J C r g h w (   ) z >.++j H b 4 : { ^ ~ ! ! ! ! ! ) ! ! ! X ] / ( S 5 c E k U.N b - * U R v i s u D J I F H K G H G K -.K -.-.-.-.K B -.M -.-.M H M -.-.M K H M K -.H M M M M K H M M -.-.M K H H M M M K M M M K M M M M -.-.-.M M H K M -.M -.-.M K H G I I J u m j e h g [ $ ) z 1.E.f G b 4 : { ^ ~ ! ! ! ) ) ",
") ) ) ) ! X ^ { < 4 0 H g Z.4.M ! $ : P ~.g Z E H -.z y z z B z B z z z y B -.-.z z -.B B B -.-.-.-.-.z B B y z z z B -.z B -.B y z z z z B B B M B y z z z z B z z y y y y z -.M B -.B -.-.y z z B -.K -.B B H J q g {.3.: & , c k.F.e F a 3 : { ^ ~ ! ! ! ! ) ) ) ! ! ! ~ ^ { : 3 b H f E.1.y , $ T Q ^.f u L I G K K M M M M -.-.-.M M -.-.M M M -.-.-.-.-.M M M M M -.M -.-.M M -.M K K M -.M M M M K K M M K M M M -.-.-.-.-.-.-.-.M -.-.-.M K M M M K M -.M K K M M M H F L Z f ].Q T & , ;.#+D.e G b 4 < { ^ ~ ! ! ) ) ) ) ) ) ) ! X ^ { < l 9 M v }.'.-.] @ [ h ^.h u L F H K M M M -.-.K K B B -.-.M -.-.-.M M B M M -.-.M -.M -.B -.M -.M -.-.-.M -.-.B -.M -.B -.-.M K B B -.-.B B B -.-.-.-.-.-.M -.B B B B B B -.K -.-.-.-.-.-.H F L u h ].k { @ ) y >.|.j H 0 4 : _ ] X ! ! ) ) ) ) ) ) ! X ~ / { S 5 c I k U.N a - * V >.>.j u D G M -.M -.H -.B -.-.B z B z B z B -.z y z B z z B z z z B B z B z z z z z z z z B B B B B B B -.B B B B -.-.z z z B B -.-.-.B -.-.B B -.B B B z B B B B B z B K E Z f ~.N < $ ) z 1.Z.g H 0 4 : { ^ ~ ! ! ) ) ) ",
") ) ) ! ! X ] _ < l 9 M j Z.4.y X $ U Q ~.#+Q O k k i k i i k h i h h h e i i i k P P P k k k i i P h h i k k k k k k k i i i i h h i k i i h e k h e i i h e e h e e e i k k k P i k k h h h h i i e i P h f h P N k.'.3.U & ' ;.k.F.f H 0 3 < _ ^ ~ ! ) ) ! ) ) ) ! ! ! X ^ _ < 4 9 M j E.1.x ' & V R '.i.O i h h h h i h h h i h h h i e e h h h e h h h e h h h h h i h h h i h h e h h h h h h h i i h i h i h e h h h h e h e e h e e e e h h e h e h e h e h h e e e f e i P i.1.Q W % , A 3.F.g H 0 l < _ ] X ] ! ) ) ) ) ) ) ) ) X ] _ [ 4 1 M v }.).K X @ < i '.i.P i e h i h e e f f i e e f e f e e i e e e f f f f e h h h i h e i e e h e e h i h e e i h e h h e h e h i i h h h h h e h h h i e e e e h e e e h e h h e g e h h k O k.{.O : & ! y ).|.w M 9 l U _ ] X ! ) ) ) ) ) ) ) ) ! ~ ^ { : 3 c G h  +N a , # 3 !.).k.O O k i i i h k h h P i i h h h k i h i i i i h h i i i i i i k i i i h i i k k k P P k k i i k P O O P k k k k k k k k k P P P P k k k k P i k i i i i i i k k k k N Q 3.].R < $ ) z 1.Z.j K 9 l < _ ^ X ! ) ) ) ) ",
") ) ) ) ! X ] / [ W 8 B v ++4.y ~   a 6 W W l W W W V l : T U W V V V V V 4 V T T V 4 V V V V 4 l V l W W V T V T V V l T l l W 4 l 4 W V 4 3 3 W 3 W S < U l 3 5 5 7 3 4 W V V V V U T l 3 W V T S T 4 W W V S S T T W 3 ;.$ - d k.Z.j M 1 l [ _ ] X ! ) ) ! ) ) ) ) ) ! X ] / [ l 1 B w |.4.A ! @ c | l V l W W V V U T U 4 V W T U T T T V U U U T V T V 4 T V V T U T V V T U V V l l T V V U U T U T V U S U V T T U U S U W U U T T S U T U T V T T U T S U V S U T U V T T T S V 4 d # ' A 3.E.w -.1 l [ / ] ~ X ) ) ) ) ) ) ) ) ! X ] / [ V 8 z r <.).B ]   8 5 U : : T T : : < T T T V U T V W V V U S S V U V U T U U U T U U U S T S 3 U U T T T V V T V U T T T V S S V U T T W W T T U V T U T W 3 T U T T U V U U T T W 4 l W U l W W T T 6 c @ ' z ).}.t B 8 W < / ] ! ) ) ) ) ) ) ) ) ) ! X ^ _ : 3 b K f D.N b = * B 7 T l l W l W l V T 4 T l U V 4 4 l 5 W W 4 W V T W l l W V l V V V T V V 4 W W l W V W W 4 4 4 4 4 l 5 4 4 l l 4 3 3 3 l 3 l 4 l W W V W W W V l W V V W l V V V W T T l l V W l 1 ;.  ) z 1.++v B 8 W [ / ] X ) ) ) ) ) ",
") ) ) ) ) ! ~ / ( T 2 A r |.4.y ! W ' % = % * # # # = % > , , # * # # * # * & & # # # & & # # % * * ' , = # # & # & # % * # % = % ; = * * % % * # % % , ' , > % # # & # # & & # $ $ # # & # $ @ & # & # * = # # & $ # & # ; T = c k.++t x | V [ / ] X ! ) ) ! ) ) ) ) ) ! X ~ ^ ( V 2 A s }.4.y - 3 ) * & $ * & # # & # & $ % & & # & @ * $ * @ % $ # * & & & * * = & # * # # % * # # # * & # # # % * & & & & & # & # & # & & & & # # # & # # & & # & & # # & # * & & # & # # # * $ = & ; = l > ;.3.++s x | V ( ^ ~ ! ) ) ) ) ' ' ' ) ) ) ! ~ ^ ( U 6 ;.o :.).M , < ; # # & @   * # $ & # & # % & * # * $ & & # ; * & $ & * * * * & & % # * * $ # % * # * * * * # # % * * # * % # # & @ $ $ & * % * # # # # # * * % # & * % # * * & $ * % % & # $ # # $ # , V , z >.<.m A 6 T ( ^ ~ ! ) ) ) ) ) ) ) ) ) ! X ] / < l 8 z w F.N a = 6 = $ & * & & & # # # * * * # - * * $ & # = = * > ; $ # & % # # & # * * = = , - = % = = = % % = % % * = % * * # % # # # % # # # * # # * * & # # # # # * # & # # # # & # # # % = $ # & ; ! 7 > z 1.}.r A 2 T ( / ~ ! ) ) ) ) ) ",
") ) ) ! ! ! ~ ^ { S 7 a p [.4.b 2 > * = > - , ; = & * * * % = > ; - ; * = % - ; - > ; = ; , , , ; = = % = % - % & - ; = = - ; - ; = > ! > - ; - - = ; = ; % = = ; - = = = > , > > ; = = ' ) , - > > - ; > ; % % - ; > > ; > - S 8 k.}.n c } U { ^ ~ X ! ) ! ) ) ) ) ) ) ) ! ~ ^ { U 7 a o :.4.b 6 , = ; ; > % > ! , , , > , - , - - ' = , , , , ~ - ; ) - > ' , , > > ; ; - ) - > ' , , ' ' - - > ) ; - - - - - - ; > > > > ' - > , , ; - = > > ; , - > , > > ; - > > - > - > > > > = % = ; - 5 1 3.<.p c 7 S _ ^ ~ ! ) ) ) ' ' ' ' ) ) ) ) X ^ _ S 3 b u /.>.;.W ' - ; - ; = ; ) , - - - = > - > > ) ! ; ; - ; X > > > - ; = ; - - ; , ; ; = ! > = - ; ; - - ; , , * , = ) - > > ; ; , - - , , > ; > - - ; ; ; ; > = ; - > ; - ; > , ) ; > ' > ' > > ; - ; , 3 a >.(.q a 5 S { ^ ~ ! ) ) ) ) ) ) ) ) ) ) ! ~ ^ ( V 6 ;.r Z.Q 7 8 = - - , , - , > ; > ; = = % - = % % , , - = ; = % % % , = % ) - ) % = % # * # % % = ; ; - > - ; ; = % = ; ; ; ; = % % ; ; ; % % % = ; = = - = ; = % - , ; > = ; = = = = ; ; * % = * * # % ' 7 c 1.:.p a 7 S { ^ X ! ) ) ) ) ) ",
") ) ) ) ) ) X ] _ < l 8 J ^.R G 7 a a 0 a 9 8 1 1 9 0 b 0 0 c b 0 b 9 1 0 0 b c 0 b b 0 a 0 b b c a a a b 0 | 8 9 8 9 0 9 0 8 0 9 0 1 9 1 b b a b 9 0 b b b 0 a b b b 0 0 b b b b b a d 0 0 0 9 8 8 1 b 9 0 b 9 1 9 9 b c b a 5 z k /.D 1 4 : _ ] X ! ! ! ) ) ' ' ) ) ) ) ! X ] { : l 8 D ~.Q G 5 c c c c c c b 0 b b 0 b a 0 9 b c b a b c a b 8 0 a a a a a b 0 0 a d d a b d ;.;.a d a c ;.;.c a x c c c c c c a b b c a c d b a b c a c c b c a c b a c c a a a b c c c ;.0 b 0 a b c c c 6 G P /.L 1 l < / ^ ] ! ! ) ' ' ' ' ' ) ) ) ! X ] _ [ l 8 E {.#+H 2 a a b b b a c b A ;.b b a b 0 c ;.d a d d a c c c a ;.A 0 a d A ;.a a a d a a c d c c b b b 0 9 a a b a 9 0 ;.b d a 0 b 0 0 b a c b d a a d c a b b a b a c a a a a b b 9 a b c a a b 0 b b 6 B k.{.E 8 l < _ ] X ) ) ) ) ) ) ) ) ) ) ) ! X ] _ : 3 0 Z [.w H 7 a b b b 0 b b a b 0 0 0 a b b b a c b b c c d d 0 0 9 1 b 0 1 8 1 c b 9 0 9 9 9 1 a a 0 9 b 0 0 9 0 b b b b c a b b b b 9 8 9 0 b b 0 b b 0 b b b b a c a 0 9 1 9 1 1 8 9 8 9 b 9 9 b a c b } H j.].L 1 l < _ ] X ! ) ) ) ' ' ",
"' ' ) ) X ) ! ~ / ( T 7 y i.w j.P k k P k k k k k P k P P P P k k k k k k P k k k k k P O P P P P P P P P P O O P P k P P k k k P P O P P P P P P P P P P P O O P P O P O O P P O P P k P P P P O P P P P P k P P k P k P P k O Q w k.z } T ( / ~ X ! ! ! ) ! ' ' ' ) ) ) ) ! ~ / ( T 7 y Q j k.Q N Q Q N N N N Q Q Q Q N N N N N N N N Q N Q Q Q R Q N Q N R N N Q Q N Q Q Q N N N R Q N Q N N N Q N Q Q Q Q Q Q Q Q R Q Q Q Q Q Q R Q Q Q Q Q Q Q Q Q Q Q Q Q Q N Q Q Q Q N R i.Q Q R R Q Q R #+g i.z } U { ^ ~ ~ ! ! ' ' ' ' ' ' ' ! ) ! ! ~ ^ { W } z P j 2.N N N Q Q N N N R Q Q Q Q N N R R R Q N Q Q Q Q Q Q Q N Q Q Q Q Q Q Q N N N N N Q Q Q N Q Q N R Q Q N N Q N Q O O N N Q Q N Q N N N N N N N O N N N N N N N N N N O N O O N O N N N N Q N O O O #+j O x 7 U { ^ ~ ! ) ) ) ) ) ' ' ' ) ) ) ) X ] / [ V 6 B 4.f O N P O O O O O O O O P P P P P P P P P P P P P k P O P P P k k k k P k P P O O P P P k k k P P P P P P P P P O P P O P P P P P P P P P k k k P P P P P k k P P k k k k k P k k P P k O P k k k P j.j R z } U ( ^ ~ ! ) ) ) ' ' ' ",
"! ! ! ) ) ) ! X ^ { < l 8 K R :.|.Z.F.D.D.D.F.F.D.D.D. + + + + + + +U.U.U.U. + + + +D. + + + +U.U. +U.U.U.U.U.U.U. +D.D. +U.U.G.U.U. + + + + +U.U. + +U.U.U.D.D. +U. + +U.G. + +U.U.U. + + + + +D. + + + + + + +U. +F.F.F.E.Z.}.(.R H 1 l : _ ^ ~ ! ) ) ) ) ) ' ' ' ' ) ) ) ! X ] _ < W 8 K N :.}.E.F.D. +D.D.D.D.D.D. + + + +D. +D. +U. + + +U. + +D.D.D.D.F. +D. + + + + +D. + + + + + +U. + + +G.U.U. +D. + + + + + + + +D. + + + + + + + +D. + + +D.D. + + + + +D.D.D.D.D.D.D.D.F.F.F.E.Z.}./.Q M 9 5 < _ ^ ~ ! ) ) ' ' ' ' ' ' ' ' ) ) ! X ] _ : W 2 z k ^.<.++Z.E.E.F.F. + +D.F.D. +D.D. +U. +D. + + + + + + + +D.D.D.D.D. + + +U. + + + +D.D.D. + + + + + + + + + + + + + + + +D. + + +D. + + + +F.D. +D. +D. +D.D. + + +D.D.D.D.D.D.D.F.D.D.E.E.F.E.Z.|./.P -.| W < _ ] X ! ) ) ) ' ' ' ' ' ) ) ) ) ! X ^ _ : 4 1 G #+:.Z.F.F.D.D.D.D. + + + + + + +U. + +U.U. + + + +U.U. + + + + +U. + +U.U.U.U. + +U.U.G.U. + +U. + +U.U.G.U. + +U. + +U.G.G. + +U.U. + + +U.U.U.U.U.U.U. + + +G.U.U.U.U.U.U.U. +D.D.D.D.F.D.F.F.E.|.(.Q M 8 l : _ ^ X ! ) ) ) ' ' ' ",
") ) ' ' ' ) ) X ~ / { S 3 1 B Z r w g e i k P O O O O N Q Q Q N N Q N N N N N Q Q R Q N N N N Q N N N N Q N N N N N Q N Q Q Q Q N N N N N N N N N N Q N N N N Q Q Q Q N N N N N N N N N N N N N N N N O O O P P P P i h e g j s Z B 1 3 U ( / ~ X ! ) ) ) ) ' ' ' ' ' ' ) ) ! ! ] / { S 3 1 z Z r j g e h i k k P P P N Q O O O O N O O N O O O O O O N N N O O N O O O N N O O O O N N N N O O O O O O O O O O O N O O O O O O O O O O O O O O O O O O O O O O O O O O P P P P k k h h e g w m Y z 1 5 S ( / ~ X ) ) ) ' ' ' ' ' ' ' ' ) ) ) ! ~ / _ U 4 8 y L n t j f h i O P k P O O N N O N Q Q Q N N N N O O O O O O O O O O O O O O O O O O O O O N O O N O O O O O O N O O O O O N N O O N O O N N N N O N O N O O N N O O O O O O O P P P P i h e g w r D z 1 4 S { ^ ~ ! ) ) ) ) ' ' ' ' ' ' ' ) ) ! X ] / ( T 5 0 M u t g e h i k P O O O N N N N N Q N N N N N N N N Q N N N N N Q Q N N N N N Q N Q N Q N Q Q Q Q Q Q Q Q Q Q Q Q N N Q Q Q N Q Q Q Q Q Q Q R Q Q Q Q Q Q Q Q R R Q Q Q N Q Q N N N O O k i h f j s Z B 1 3 S { _ ] X ) ) ) ) ' ' ' ",
"' ' ' ' ' ) ) ! X ] _ ( U 3 | a y M G E D Z Z C C u u q q p q p p p p q q q q p o o p q q q q p p q q p p q q q q q q q q p q q q q q q q q q p p q u u u u q q p p q q q p q q q q q q q q q q q q u u u u C Z Z Z Y L E G M y c | 3 U [ / ^ X ! ) ) ' ! ' ' ' ' ' ' ' ) ) ) ! ~ ^ / [ U 3 | a y M F J D Y Y Z Z C C u q q u u u q q q q q q q q u u q q q u u q u u q q q u u u q q q q q u u q u q u u u u u q q q u u u u u q u u u u u u u u u u u q q q q u u u u u C C Z Z Y D L E G -.x b 2 3 V [ / ] X ! ) ) ) ' ' ' , ' ' ' ' ' ) ) ~ ] ^ _ ( U 4 2 b A B G I L q Y Y Y Z C u u q u p p p q u q u u u u u u u u u u u u u u u u u u u u u u u u u u q u u u u u u q u q u u u q q u u q q q p q q q q q q q u u q q q q u u u u u C C C Z D L E G M x b | 4 U ( / ] X ! ) ) ) ' ' ' ' ' ' ' ' ' ) ) ! ~ ^ _ [ T 5 8 c z K F J D Z Z C C u u q q q q p q p q q q p q p q q q q q q p p q q q q q q q q q p q q q p q p p p p p p p p q p p p p p p p p p p p p p p p p p p p p p p p p q q p p q q u u u C Z D J F M y a | 3 U ( / ] ~ ! ) ) ) ' ' ' ' ",
"' ' ' ' ) ) ) ! X ~ ^ _ [ S W 7 | 0 c ;.x y x z B -.-.-.-.M M M M K M M M M M M K H K M M M M M M M M M M M M M M M M M M M M M M M M M M M M M M M M M M M M -.M M M M M M M M M M M M M M M M M -.-.-.-.B B y y x x A d a 9 | } l U [ _ ^ ~ X ! ) ) ' ' ' ' ' ' ' ' ' ! ) ) ) ~ ~ ^ _ [ S W 7 | 0 a ;.A y x y y z B B -.-.-.M M M M M M -.-.M M -.-.-.-.M -.-.M -.-.-.M -.-.-.-.-.-.-.M -.-.-.-.-.M -.-.-.-.-.-.-.-.-.-.-.-.M -.-.-.-.-.-.-.-.-.-.-.-.M -.-.M -.-.-.-.B B z z y x A A d b 9 2 7 W U [ { { ~ ! ) ) ) ) ' ' ' , , , ' ' ' ) ) X X ~ ] / ( S W 5 2 1 a c ;.A x x y z B B -.-.-.-.M -.-.-.-.-.-.-.-.-.-.-.-.-.-.-.-.-.M -.-.-.-.-.-.-.-.-.-.-.-.M -.-.-.-.-.M -.-.-.-.-.-.M -.-.-.-.-.-.M -.M M M -.-.M M -.M M -.-.-.-.B B B B z y x A ;.d a 0 | 5 W S [ _ ^ ] X ! ) ) ) ' ' ' ' ' ' ' ' ' ) ) ! X ] ^ _ [ U l } 8 0 c ;.A x y z B B -.-.-.M M M M M K M M M M M M M M M M M M M M M M M M K K M M M M M M M M M M M M M M M K M M M M M M M K M M M M M M M M M K M M M M M K M M K K K M -.-.B z z y A ;.c 0 | 7 l S ( _ ^ ~ X ) ) ) ' ' ' ' ' ",
"' , ' ' ' ' ) ! ! ~ ] ^ _ ( < S V 4 5 7 } 6 6 | 1 1 1 9 0 0 9 0 9 b 9 9 9 9 9 9 9 9 b 9 9 9 9 9 9 9 9 9 9 9 9 9 9 9 9 9 9 9 9 9 9 9 9 9 9 9 9 9 9 9 9 9 9 9 9 9 9 9 9 9 9 0 9 9 9 9 9 9 9 0 9 9 9 9 9 9 1 1 8 | 2 6 } } 7 3 l W T : ( _ / ] X ! ) ) ) ' ' ' ' , , ' ' ' ' ) ) ) ! X ] ^ _ ( < U V 4 5 7 } 6 2 2 | 8 8 8 1 1 9 9 9 9 9 9 0 9 9 9 9 9 1 1 1 1 1 1 9 1 9 9 9 9 1 1 1 9 9 9 9 9 9 1 1 9 9 1 1 1 1 9 9 9 9 9 9 1 1 9 9 9 9 9 9 9 9 9 9 1 1 1 9 9 9 9 9 1 1 1 1 1 8 | 2 6 } 7 7 3 l V U < ( _ _ ^ X ! ) ) ) ' , ' , , , , , ' ' ) ) ! X X ^ ^ _ ( [ S V l 3 5 7 } 2 2 | 8 1 1 9 9 9 9 1 1 1 9 9 9 0 9 1 1 1 1 9 9 9 9 1 1 9 1 1 1 1 1 1 1 1 1 1 1 9 9 9 1 1 1 1 1 9 9 9 1 9 1 9 9 9 9 9 9 1 9 9 9 9 9 9 9 9 1 1 9 9 9 9 9 9 1 1 1 1 8 | 2 } 7 7 5 4 V S < ( _ / ] X ! ) ) ) ) ' ' ' ' ' ' ' ' ' ) ) ) X ~ ] / _ [ < U W 4 5 7 } 6 2 | 8 1 1 1 9 9 0 0 0 0 0 0 9 9 9 9 9 9 9 9 9 9 9 9 0 0 9 9 9 0 9 0 9 9 9 9 9 9 9 0 9 9 9 9 9 9 0 9 9 9 9 9 9 9 0 9 9 9 9 9 9 9 9 0 0 9 9 9 9 9 0 0 9 0 0 0 0 9 1 8 | 2 2 } 7 5 4 V U < ( _ ^ ] X ! ) ) ) ' ' ' , , ",
", , ' ' ' ' ) ! ! ! ~ ] / { ( < : S T W l 4 3 5 7 } } 2 2 6 6 6 6 6 6 } 6 6 6 6 6 6 6 6 6 6 6 6 6 6 6 6 6 6 6 6 6 6 6 6 6 6 6 6 6 2 6 6 6 6 6 6 6 6 6 6 6 6 6 6 2 2 6 6 6 6 6 6 6 6 6 6 6 6 6 } } 6 6 6 } } } 7 5 3 4 l W T U : < ( { / ] ~ X ! ) ) ' ' ' ' , , , , ' ' ' ' ) ) ! X ~ ] / { ( < : U T W 4 4 3 5 7 7 } } } } 6 } } 6 6 2 2 2 2 6 6 6 } } } 6 6 6 6 6 6 6 2 2 6 6 6 6 6 6 6 6 6 6 6 6 6 } } 6 } 6 6 6 6 6 6 6 6 6 6 6 6 6 6 6 6 6 6 6 6 6 6 6 6 6 } } } 6 } } } 7 5 3 4 l W T U : [ ( _ _ ^ ~ ! ) ) ) ' ' , , , , , , , ' ' ' ) ) ) ! X ] ^ _ ( [ < S T V l 4 3 5 } 6 6 2 2 6 6 } 6 } } 6 6 6 2 6 6 6 } 6 6 6 6 6 6 6 } 6 6 6 6 6 6 6 6 6 6 } 6 6 6 6 6 } } 6 6 2 2 6 6 } 6 6 6 6 6 6 6 6 2 6 2 2 2 6 6 6 } 6 6 6 6 6 } } } 6 } 7 5 3 4 l W V U : [ ( _ / ] ~ X ! ) ) ) ' ' ' ' , , , , ' ' ) ) ) ! X ~ ] / { ( < S U T W l 4 5 5 7 } } } 6 6 2 6 6 6 2 2 2 6 2 2 6 6 6 6 6 2 6 6 2 6 6 2 6 6 6 6 6 6 6 6 6 6 6 6 6 6 6 6 6 6 2 6 6 6 6 6 6 6 2 2 6 6 6 6 6 6 6 6 6 6 6 6 6 6 6 6 2 2 6 6 2 2 6 } 7 5 4 l V T U : < ( _ / ] ~ ! ! ) ) ' ' ' ' , , ",
", , , ' ' ' ) ! ! ! X ~ ^ _ _ ( < : U T W l 4 3 5 7 } } 7 } } } } } } 7 } } } } } } } } } } } } } } } } } } } } } } } } } } } } } } } } } } } } } } } } } } } 6 6 } } } } } } } } } } } } } } 7 7 } } 7 7 7 7 5 3 4 l W V U : < ( { _ / ] X ! ! ) ) ' ' , , , , , , , ' ' ' ) ) ! ! X ~ ^ / _ ( < : U V W l 4 3 3 5 5 7 7 7 7 } } } 6 6 6 6 } } } } } 7 } } } } } } } 6 } } } } } } } } } } } } } } } } } } } } 6 } } } } } } } } } } } } } } } } } } } 7 } } } } 7 } } } 7 7 5 3 4 l W V U S < [ { _ ^ ~ X ! ) ) ) ' ' , , , , , , , , ' ' ) ) ! ! X ~ / / { ( [ : U T V l 4 3 7 7 } 6 6 } 7 } 7 7 } } 6 } } } } } } } } } } } } } } } } } } } } } } } } } } } } } } 7 } } } } 6 } } } } } } } } } } } 6 6 } 6 6 6 6 } } } } } } 7 7 7 } 7 7 5 5 3 l W V U S < ( _ / ^ ] X ! ! ) ) ) ) ' , , , , , , , ' ' ) ) ! ! X ^ ^ _ { [ < S T V W 4 4 3 5 7 7 7 } } } } 6 } 6 } } } 6 6 } } 6 6 6 6 } } } } } 6 } } } 6 } } } } } } } 6 } } } } 6 } } } } } } 6 } } 6 } } 6 } } } } } } } } } } } } } 2 2 } } } } } } } 5 3 4 W T U S < ( { / ^ ~ X ! ! ) ) ' ' ' , , , ",
", , , , ' ' ' ! ! ! X X ] ^ _ { [ : S T W W l 4 3 5 7 7 5 7 7 7 7 7 7 7 7 7 7 7 } 7 7 7 7 7 7 7 7 7 7 7 } 7 } 7 7 7 7 7 7 7 7 7 7 7 } } 7 7 7 7 7 7 } 7 7 } 7 7 7 7 7 7 7 7 7 7 7 7 7 7 7 7 7 7 7 7 7 7 7 7 5 3 4 4 l W U S : [ ( _ ^ ] ~ X ! ! ) ) ' ' ' , , , , , , , ' ' ) ) ! ! X X ] ^ / ( [ : S T V l 4 4 4 3 5 5 7 5 7 7 7 7 } } } } } } } 7 7 7 7 7 7 7 } 7 7 7 7 } } 7 } 7 7 } } 7 7 7 7 7 } 7 7 7 7 7 } } } } } 7 7 } 7 7 7 7 7 } 7 7 7 7 7 7 7 7 7 7 7 7 7 7 7 5 5 3 4 4 l V T U S [ { / ^ ] ~ X ! ) ) ) ' ' , , , , , , , , ' ' ' ) ! ! ] ^ _ ^ _ { ( : S U T W l 4 3 5 5 7 7 5 7 7 7 7 7 7 7 7 7 7 7 7 7 7 } 7 7 } 7 7 7 7 7 7 7 7 7 7 7 7 7 7 7 7 7 } 7 7 7 7 7 7 } } 7 7 7 7 7 7 7 7 7 7 } 7 } } } } } } 7 } 7 7 7 5 5 5 5 7 7 5 3 4 W V U S : [ { _ ^ ] ~ ! ! ! ) ) ' ' ' , , , , , , , ' ' ' ) ) ! X ~ ] ^ _ ( [ : U T V W 4 3 3 5 5 5 7 } 7 7 7 7 7 7 7 7 7 7 7 7 6 7 } 7 } } 7 7 } } 7 } 7 7 7 7 7 7 7 } 7 7 7 7 7 7 7 7 } 7 7 } } } } } } } } } } 7 7 } 7 } 7 7 7 7 7 7 } 6 } } 7 7 7 5 7 5 3 3 l V T S : < { _ ^ ] ~ ! ! ) ) ) ' ' ' , , , ",
", , , , ' ' ' ! ! ! X X ~ ^ / { [ : U T W W l 4 3 5 7 5 5 5 7 7 7 5 7 7 5 7 7 7 7 7 7 7 7 7 7 7 7 7 7 7 7 7 7 7 7 7 7 7 7 7 7 7 7 7 7 7 7 7 7 7 7 7 } 7 7 7 7 7 7 7 7 7 7 7 7 7 7 7 7 7 5 7 5 5 5 5 7 5 5 7 5 3 3 l V V T S : [ { / ^ ~ X X ! ! ) ) ' ' , , , , , , , , ' ' ) ) ! ! X X ] ^ / { [ < S U V l 4 4 3 5 3 5 5 5 5 7 7 } } } 7 6 } } 6 } 7 7 7 7 7 7 } 7 7 7 7 7 7 7 7 7 7 7 7 7 7 7 7 7 7 5 7 7 7 } 7 7 7 7 7 7 7 7 7 7 7 7 7 7 7 7 7 7 7 5 5 7 7 7 5 7 7 7 5 5 3 3 4 4 W V V S < [ { _ ^ ] X X ! ) ) ) ' ' , , , > , ) ' ' ' ' ' ) ! X ! ] ~ ^ / { [ < S U V W l 4 4 3 5 5 5 5 5 5 5 7 5 7 7 7 7 7 7 7 7 } 7 7 7 7 7 7 7 7 7 7 7 7 7 7 7 7 7 7 7 7 7 7 7 7 7 7 7 7 7 7 7 7 7 7 7 7 7 7 7 7 } 7 7 } } 7 } 7 7 7 7 7 7 5 5 5 5 5 5 3 4 l W T U S : [ { / ^ ~ X ! ! ! ) ) ' ' ' , , , , , , ' ' ' ) ) ! X X ~ ] ^ _ { < : S T V W l 4 3 3 5 5 7 7 7 5 5 5 5 5 7 7 7 7 7 7 } 7 7 7 7 7 } 7 } } 7 7 7 7 7 7 7 7 7 7 7 7 7 7 7 7 7 7 7 7 7 7 7 7 7 7 7 } 7 7 7 7 } } } } 7 7 7 7 } 7 } 6 7 7 7 5 5 5 5 3 4 4 l V T S < [ { / ^ ~ X ! ! ! ) ) ' ' , , , , ",
", , , , ' ' ' ) ) ! X X ] ^ / { < : S T V l 4 l 3 5 5 5 5 7 7 7 7 5 5 7 7 7 7 7 7 7 7 7 7 7 7 7 7 7 } 7 7 7 7 7 7 7 7 7 7 7 7 7 7 7 7 7 7 7 7 7 7 7 } } 7 7 7 7 7 7 7 7 7 7 7 7 7 7 7 7 7 7 5 5 5 5 7 5 5 7 5 3 3 4 W V U S < [ { / ^ ] ~ X ! ! ) ) ' ' , , , , , , , , ' ' ' ) ! ! ! X ] ^ / ( < : S U V W 4 3 3 5 5 5 5 5 5 7 } } } } 7 6 6 } } 7 } 7 7 7 7 7 } 7 7 7 } 7 } 7 7 7 7 } } } 7 7 7 7 7 7 7 } } 7 7 7 7 7 7 7 7 7 } } 7 7 7 7 7 7 7 7 7 5 7 7 7 7 7 5 7 7 5 5 5 5 4 4 W V U S < [ { _ ^ ] ~ X ! ! ) ) ' ' , , > , , , ' ' ' ' ) ) ! X ^ ] ] ^ _ { [ < S U W l 4 4 3 3 5 5 5 5 5 5 5 7 7 7 7 7 7 7 7 7 7 7 7 7 } 7 7 7 7 7 7 7 7 7 7 7 7 7 7 7 7 7 7 7 7 7 7 7 7 7 7 7 7 7 7 7 7 7 7 7 7 7 7 7 7 } 6 } 7 7 7 7 7 7 7 } 7 7 5 5 5 3 4 l W V T S : [ { _ ^ ] X ! ! ! ) ) ' ' ' , , , , , , , ' ' ) ) ! ! X ] ] ^ _ ( < : S T V W l 4 3 5 5 7 7 5 7 5 5 5 7 7 7 } 7 7 7 7 } 7 7 7 7 7 } 7 7 } } } 7 7 7 7 7 7 7 7 7 7 7 7 7 7 7 7 7 7 7 7 7 } 7 7 7 } 7 7 7 7 7 } } } 7 7 7 7 } } } } } 7 7 5 5 5 3 3 4 4 l V U S : [ { / ^ ~ X ! ! ) ) ) ' ' , , , , ",
", , , , ' ' ' ) ) ! X ] ^ / _ [ S S U T V l 4 4 3 5 7 7 7 7 7 7 7 7 7 } } } 7 } } } 7 } } } } } } } } } } } } 7 7 } } } 7 } } 7 7 7 7 7 7 7 7 7 } } } } 7 } } 7 } } } } } } } 7 7 7 7 7 7 7 7 5 5 7 7 5 7 7 5 3 4 l W V T U : < ( _ / ^ ~ X ! ! ) ) ' ' , , , > , , , , ' ' ) ) ! ! X ~ ^ / _ ( < : U T W l 5 3 3 5 5 5 5 7 7 7 } } 7 } 6 6 6 6 } } } } } } } } } } } } } } } } } } } } } } } 7 7 } } 7 7 7 } } } } } } } } } } } } } } } } } } 7 7 7 7 7 7 7 7 7 7 7 7 7 7 7 5 4 4 W V T U : < ( _ / ^ ] X ! ! ! ) ' ' , , , > , , , , , ' ' ) ! ! X ] ^ / _ ( [ : U T V l 4 4 3 5 } 7 7 7 7 7 7 7 7 7 7 } 7 7 } 7 } } } } } } } 7 7 7 } 7 7 } } } } } 7 7 } } } } 7 7 7 } } } } } } 7 } } 7 } } } 7 } } } } } } } 7 7 7 7 7 7 7 7 7 } } 7 5 5 3 4 W V T U : [ ( _ / ^ ~ X ! ! ) ) ' ' , , , , , , , , ' ' ) ) ! ! X ] ^ / { ( < S U T W l 4 3 3 5 7 7 7 7 7 7 7 7 7 7 7 } } } } } } } } } } } } } } 7 } } } 7 7 } 7 7 } 7 } } } 7 } } } 7 } } 7 7 } } } 7 } } } 7 } } } 7 } } } 7 7 } 7 } } 7 7 } 7 7 7 5 5 3 3 4 l W T U : < [ { / ] ~ X ! ) ) ' ' ' ' , , > ",
"> , , ' ' ' ' ) ! ! ~ ] / _ { < : T T V l 3 3 3 5 7 } } } } } 6 } 6 6 6 6 6 6 6 6 6 6 6 6 6 6 6 6 6 6 6 6 6 6 6 6 6 6 6 6 6 6 6 6 6 6 6 6 6 6 6 6 6 6 6 6 6 6 6 6 6 6 6 6 2 6 6 6 6 6 6 6 6 6 } } } } } } 7 5 3 5 3 l l V T U : [ ( _ / ] ~ X ! ) ) ' ' , , , , > , , , ' ' ) ) ! X ~ ] / _ ( < : U T W l 4 3 3 5 7 } 7 } } } 6 6 6 6 6 2 2 | 2 2 2 6 6 6 6 6 6 2 6 6 2 2 6 6 6 6 6 6 6 2 6 6 6 6 6 6 6 6 6 6 6 6 2 6 6 6 2 2 2 2 6 6 6 2 2 6 6 6 6 6 6 6 6 6 6 6 6 6 6 6 6 } 7 5 3 4 l W T S : [ ( _ / ^ ~ X ) ) ) ' ' , , , > > , , , ' ' ' ! ! X X ] / _ ( [ : U T W l 5 5 7 7 } } 6 6 } } } 6 6 6 6 6 6 6 2 6 6 6 2 2 2 2 2 6 6 6 6 6 6 6 6 6 6 6 6 6 6 6 2 6 6 6 6 6 6 | 6 6 6 6 6 2 6 6 6 2 6 6 6 6 6 6 6 6 6 2 6 6 6 6 6 } } } } } } } } 7 3 4 4 l V U : [ ( _ / ] ~ X ! ) ) ' , , , , , , , , , ' ' ) ) ! X ~ ^ / { ( < S T V W 3 3 3 5 7 7 } } } } } 6 6 6 6 6 6 6 6 6 6 6 6 6 6 6 6 6 6 6 6 6 6 2 6 6 6 6 6 6 6 6 2 2 6 6 6 6 6 6 6 6 } 6 6 6 6 6 2 6 6 6 6 6 6 6 6 6 6 6 6 6 6 6 6 } } 6 } } } } 7 7 5 3 3 l W W T : < [ _ / ] ~ X ! ) ' ' ' , , , > ",
"> > , , ' ' ' ) ! X ^ ^ _ ( < T l 5 7 6 | 8 8 8 1 9 0 0 0 0 b b b b b a b a a a a b a a b a a a a a a a a c a a b b b b a b b b b b b b b b b a b a b b a b b b a a a a a a a a a a a b b a b b b b b 0 0 9 1 8 1 8 2 2 6 } 5 4 T : ( _ / ] X ! ) ) ' ' , , , , > , , , ' ' ) ) ! X ] / _ ( : T l 5 } 2 | 8 1 8 1 9 0 0 b b b b b b a a a a c c a c c b a a a a c c a c c a a a a a a a a a a a a a a a a a a a a a a a c c a a a a a a a a a a a a a a a a a a a a b b a b 0 9 1 1 8 | 2 } 3 l T : [ { / ] X ! ) ) ' ' , , > > > , , , , ' ) ) ! X ~ ^ _ ( : T l 5 } | 1 9 9 9 9 0 0 b a b b a a a a a a a a a c a c a a c c a a a a a a a a a a a c c a a a a a a a b a a a a a c c a a a a a a a a a a a a a a a d a a a a b b b b b 0 0 0 9 9 1 1 | 2 } 5 l T : ( _ ^ ~ ~ ! ) ) ) ) , , , > , , , ' ' ' ) ) ! ~ ] _ _ [ S T l 5 6 2 | 8 1 1 9 9 0 0 b b b b b b b b b b a a a b b b b b b b a b a a a a a b b b b b b b b a a a b b b b b b b b b a a b a a b a b b b a a a a b b b b b b b b b b 0 0 0 0 0 9 1 8 2 6 } 5 l T : ( _ ^ ] ~ X ) ) ' ' , , > > ",
"> , , ' ' ' ) ) X ] / _ ( U l 7 | b c ;.x y z z B -.-.-.-.M M M M K K K M K K M K K K K K K K K K K K K K K K K K K K K K K K M K K M K K K K K K K K K K K K K K K K K K K K K K K K K K K K K M K M M -.-.B z B z y x ;.c 0 9 7 l S ( _ ^ ~ X ) ) ) ' , , , > > , , , ' ' ) ) X ~ ^ _ ( S l } | 0 c A y z B B B M -.-.M M K K K K K H K H H H H H H K K K H H G H H G G H H K K H H H H H K K H H H K K H K K H H H K H H H H H K K H H H H H H H H H H H H H K K K H K M -.-.B -.z z x d 0 | } l U < ( / ~ X ) ) ' ' , , , > > , , , ' ' ) ) ! ~ ^ _ ( S l 7 8 b d x z -.B B M M M M K K K K K K K K H H H H H H H H H H H H K H K K H H H H H H H H H H K H H H K K K H H K H K K K H H K K K K K K H H H K H K K K K K K K K M M M M M M -.-.z z y A d 0 | 7 4 U < _ ] ~ X ) ) ) ' , , , > > , , , ' ' ) ) X ~ ^ { [ U l } 8 b d A y z B B -.-.-.M M M K K K K K K K K K K K K K K K K K K K M K K K K K K M K K K M K K K K H K K K M K K M M K K K M K K K K K K K K K K K K K K K K M M M M M M -.-.-.B B z y x ;.c 0 | 7 W S ( _ ^ ] ~ ) ) ' ' , , , , ",
", , ' ' ) ' ) ! X ^ _ [ U 4 6 0 A M H I J D Y Z C Z C C C C u u u u u u u u u u u u u u u u u u u q u u u u u u u u u u u u u u u u u u u C C u u u u u u u u u u u u u u u u u u u u u u u u u u u u C C Z Z Y Z Z D L E H B x a 2 4 S ( / ] ~ ! ) ' ' ' , , , , , , ' ' ' ) ! X ] / ( S 4 6 b x -.H E L Y Z Z C u Z C C u u u u u u q q q q q q q q u u u q q p q q p q q q q q q q q q q u q q q u u u q q q q q q q q q q q q q q q q q q q q q q q q q q q q q q q q q u C C Z Y L E G -.A b 2 3 T < _ ] X ! ) ' ' , , , , > > , , ' ' ' ! X ] / { S 4 2 b y -.G J Y Z Z Z C C u u u u u q q q q q q q q p q q q q q q q q q q u q q q q q q q q q q q q q q q u u u q u q q u q u q q u u q q u q q q u u u u u u u u u u q u u u C u C u C Y D L E G -.A 0 2 4 S { / ] X ! ) ) ' , , , , , , , ' ' ' ) ! ~ ^ / [ U 5 | b A -.G J D Y Z Z C C C u u u u u u u u u u u u q u u u u u u u u u u u u u u u u u u u u C u u u u u u u u u u u C C u u u u u u u u u u u u u u u u u u u u u u u u C C C u C Z Z Y D J I H B ;.0 6 4 S ( / ^ ^ X ) ' ' , , , , ",
", , , ' ) ' ) ! ~ ^ { < 4 | ;.F u r t w j f e f h h h i h h i i h h i i k i k k k k i k k k k k k k k k k i k k k i k i i k i i i i i i i i i i i k k k k k k k k k k k k k i i i k k k k k k i i i i i i h e h i h f g w t s p E A | l : { ^ ~ X ) ) ' ' , , , , , , ' ' ' ) X ~ ^ _ S 4 2 A E p s v j g e i i i h i i i k k k k k k P k P P P P P P k k k P P O O P P P P P P P P P P P P P P P P k k k P P P P P P P P P P P P P P P P P P P P P P P P P P P P P P P P P k k i i h f g j t o J x 8 3 : { ^ ~ ! ) ' ' , , , , > , , , ' ' ) ! ~ ^ { : l | y E p t w g e h i i k k k P P P P P P P P P P P O O O P P P P P P P P P P P P P P P P P P P P P k P P P k k k P k P P P P k P P k k P k k P k k k k k k k P k k P P P k k k k k P k k h e g j w s q I ;.| l < _ ^ ~ X ) ) ' ' , , , , , , ' ' ) ! X ] / { U 4 8 y J o s j g f e i i i i i i k i k k i i k k k k k k i i i i i i i i i i i k i i h i i k i i i i i k i i i i k i i k h i i k k i i k i k i i i i k k k k k i i k i i k i i i h h h h h e g j v s r q F ;.2 l : { / / X ) ' ' , , , , ",
", , , ' ' ) ! X ] _ [ V 6 y f '.:.|.++Z.Z.++++Z.++E.F.F.F.F.D.D.D.F.F.F.F.D.D.F.E.F.E.F.F.F.F.F.D. + +D.F.F.F.E.E.F.F.E.F.D. +D.D.D.F.F.F.D.D.D.F.D.D.D.D.F.D.D.D. + +D.D.D.D.F.E.D.D.U. + + +D.D.D.D.D.D.F.F.F.D. +F.F.F.E.++<.~.k z 2 W < _ ] ~ ! ) ' ' , , , , , , ' ' ) ! X ] _ [ W 2 y i ].<.Z.F.F.F.D. + +D. + + + + + + + +U.U.U.U.U.U.U.G.U.U. + + + +U.G.U. + +U.G.G.U.U.U.G.G.G.G.U.U.G.G.U.U.U.G.G.G.G.G.G.U.U.U.U.U.U.U.U.U.U.U.U.U.U.U.U.U.U.U.U.G.G.U.U.G.U.U. + + +U.D.D. +F.E.<.].N -.| W < _ ] X ! ) ' ' , , , , , , ' ' ) ) X ] _ [ V 2 B P ].}.F.D. + +U. + +U.G.P.P.U.U.G.P.U.G.U.U.G.G.G.G.P.G.G.P.G.U.U.U.U.U.U.G.G.G.G.G.G.U.U. + +U.U.P.P.G.G.U.G.G.U.G.G.G.U.U.G.G.U. +U.U. +G.G.U.U.U.G. + +G. +U.U.G.U. +U. + +U.U.U. +D.D.F.F.F.Z.[.{.h z 6 V [ / ] X ! ' ' ' , , , , , ' ' ' ) ! X ] _ < l | -.N ^.<.|.F.F.E.F.F.F.F.F.D.D.D.D. + +D.D.D.D.D.D.D. +D.F.F.F.F.D.F.F.D.F.F.F.E.E.Z.E.F.D.D.D.F.F.F.F.F.D.D.F.F.D.F.D.E.E.F.D.D.F.F.D.D.F.F.F.F.F.D.D.D.D.D.F.F.F.F.F.F.F.F.F.F.F.F.E.F.F.E.E.Z.++|.:.'.f y 2 W [ _ ] X ) ) ' ' , , , ",
", , , ' ' ) X ] / { S 3 d h e ).!.>.>.>.>.>.>.>.>.>.).>.).).).'.).).>.).>.).>.>.>.>.>.>.!.>.>.>.>.).).>.>.>.>.>.>.>.>.>.>.>.).).>.>.>.>.>.>.!.>.!.>.!.!.!.!.>.>.>.>.>.>.>.!.!.!.!.!.>.>.>.>.!.!.!.!.!.1.1.1.1.1.1.1.1.1.1.1.4.1.!.e Q x 5 U { ^ ] ! ) ' ' ' , , , , ' ' ' ) ! ~ / { S 5 ;.k g 1.4.2.2.4.2.2.2.4.2.2.4.4.4.4.4.1.4.2.2.2.4.4.4.2.2.2.2.2.4.2.2.2.2.2.2.2.2.4.2.4.2.2.2.4.2.2.2.2.2.2.2.2.3.2.2.2.2.2.2.3.2.3.2.2.2.3.3.3.2.2.2.2.2.2.2.2.2.3.3.3.2.2.2.3.3.3.3.3.#+3.3.3.#+#+#+3.2.g N A 7 U { ^ ~ X ) ' ' ! ' ' , , , ' ' ! ! ~ ^ { S 5 d h f !.3.#+#+3.3.2.#+3.3.3.3.3.3.3.3.#+3.3.2.2.2.2.2.2.2.2.2.2.2.3.2.2.3.2.2.3.3.3.3.3.3.3.3.3.3.3.3.2.2.2.3.3.2.3.3.3.3.2.3.3.2.3.3.2.2.3.3.2.4.2.2.2.2.2.2.2.2.2.2.2.2.2.4.2.2.4.2.4.4.4.2.2.2.2.2.2.1.f h d 3 S { ^ ~ X ) ' ' , , , , , ' ' ' ) X ~ / ( T } x Q e 4.1.4.1.1.1.!.!.!.!.!.!.!.>.!.!.!.>.!.>.>.>.>.>.).).>.>.>.>.>.>.>.).>.>.>.>.>.>.).).).>.).>.>.>.>.).).'.'.).).).).>.>.).).).).).).).).).>.).).).).'.).).).).).).>.>.>.).).).).).).).).>.>.>.).>.).).h e ;.5 S { ^ ~ ! ) ' ' ' , , ",
", , ' ' ) ! X ] _ < W | F {.k E a B -.y -.B z -.B -.M G -.B B B -.M -.-.-.B -.-.-.-.-.-.B B B B B y y z z x y z B z z M z z y y B z z z z z B B B B z z B -.B B z z B B B -.B B B x x z x z z x y y z B B -.y x x z -.B A A ;.b I k (.J 0 4 : _ ] X ) ) ' ' ' , , , ' ' ' ) X ] _ [ W | I ~.P F 8 y -.z B y x x y B x y x y y -.B B -.x x x x z B z z x y -.B y x y z x x A A x ;.;.x y A A ;.y y x y z y A ;.A A A A A x x x x x x ;.A A A x y x A A A A x x z x x x A A x x x y ;.;.x ;.A ;.8 H i ^.E 8 l < / ] X ) ) ' ' ' ) , , , ' ) ! X ] / [ V 2 G '.#+J 1 x y A A x y x x x x x y y y x A A d A x A x x y x x x A x d A x ;.x x x y y z y x z x A x y A x x y y y y x A x A x x y x A ;.A A x A x A y y ;.A ;.;.x x y ;.;.A A A x y y y x y z x y A x 1 F R {.G 2 V : / ] X ! ' ' ' , , , , ' ' ) ! X ] _ : 4 1 L (.w G b -.-.-.B z z z -.-.-.B z y z B K K B -.B z z z B B x x z z B K B -.-.B B -.B B B H M -.-.M K -.-.-.-.-.K -.M M B z B M M B B z B B z -.B B B B -.-.B B z B z -.-.B -.-.M K -.K M M -.-.-.M H c L O ,.F | W [ / ] X ! ' ' ' ' , ",
"' ' ' ' ) ! ~ / { S 3 0 u :.1.| 7 , ) ^ X X ~ ! ! ) ) ' / X ^ ! ! , ! ) ) { X ' ~ ~ ) ) ! ! ! ' ~ X X ) ~ ~ ] ! ! ! ! ] ' ^ ^ ~ ~ ] ~ X ] X ) ! ) ' ! ! ! ' ) ! X ) ) ! ! ! ! ! ! ~ ! ! ~ ^ / _ / ~ ! X ) ) ~ ' X X ' X ~ X ' 7 2 #+<.n c 7 U ( ^ ~ ! ' ' ' ' ' ' ' ' ' ) ! X ^ { S 5 b q :.2.1 3 ' ) ! ! ] ] ' ) ! ! ! ) ) , > - ' ! ! X X ' ! , , ' ) ' , ' ) ' ' ' ! , ' ) ] ! ) > ) X ! X ~ ) ! ' ) ' ~ ~ ~ X X ) ! ! ! ! ! ) ) ! ' , > ' , , ! , ! ! , ' > , > > , > > - ' ) ) ! , ! ! > V 9 3.[.q a 5 S _ ^ ~ ! ) ) ' ) , , ' ' ) ! X ~ ^ _ : 3 0 C _.).d 6 ) , > , ) ' > , , , , , > X ~ ) ' ' , ' ! X ' ' ) ] X ' ~ ) ' ) ! ] ! ) ! ^ ! > , ' ! ) , ) ' , ' ' ) ) - ' > ! ~ X ~ X ] ^ ] ] ~ ! ' ) ) ' ' , X ) ' ' ) ! ) , ) ' ' ) > , ' ' , , ! , , > W 0 >.(.C 9 3 S _ ^ X ! ' ' ' ' , ' ' ' ' ) ! ~ ^ { U 7 d n }.Q 2 4 , , ) ! X ~ X ) ) ) ) X ! ) ) ^ ] X ! ! X X ! ! ! ^ ! X ! ! ! X ! ~ ~ ~ ) ! X ) ~ X X ~ ~ ~ ! X X ! ) ! ~ X _ X ) ' ) ] X ! ) ) X X X ] ~ X ] ] ! ~ ! ~ ) ) ' , ) ) ) ' ! X ~ ] X ! ! ! ] > 0 0 1._.u b 5 S _ ^ X ! ) ' ' ' , ",
"' ' ' ) ) ! ~ / ( T } d r }.4.;.- U # $ $ $ @ @ $ #   * @ @       @ @ # * @ @ $ @ @ @   @ @ & @ @   & & $ $ $ $ @   & $ @ @ @ @ $ $ @ @ $ $ # & & # $ & $ @ # = & $ @ @     @ @ $ @ @ $ $ @ @ $ & @   @   @ @ @ @ @ $ $ @ $ 4 ) c #+++s x 2 T ( ^ ~ ! X ' ' ' ' ' ' ' ' ) ! ~ ^ ( T 6 ;.s }.2.y , l & $ $ & # & & & $ $ & @ $ @ $ * & @ @ @ $ @ @ @ $ @ @ $ $ $ $ # @ $ & @ @ @ & $ $ & $ &   @ & @ $ $ @ @ @ & = & $ . @ $ $ & $ $ $ $ @ $ @ $ $ @ # $ $ & @ & $ & & & $ & & # $ $ $ $ $ * S ) y #+Z.t A 6 T ( ^ ~ X ) ' ) ' ' ' ' ! ) ! ! ~ ^ { U } d n [.).B ) 4 * $ @ @ & # * & & & # # $ $ $ $ & # ; = * # * = % * & & & $ @ $ & $ @ $ $ @ $ = % * $ * $ # $ @   & & @   $ & & $ $ $ $       @ @ @ @   @     $ @ $ @ $ $ @ * & $ $ $ & # $ # & # & * # S - z !.<.n d } S { / ~ ! ) ' ' ' ' ' ' ' ) ! X ~ / [ V | y w ++Q d > S $ & & * % $ $ # # @   #   $ @ $ @ @ @ @ $ $ @ @ @ & @ @ @ @ @ & & $ & & @ @ @ $ &   @ @ @ @ @ @   & $   @ & @ $ $ & @   @ $   @   $ @   @ $ @ @   @ & & & $ @ @ @ @   @ @ @ @ @ @ @ $ $ 2 > B 1.<.r ;.} T ( / ~ ! ) ' ' ' ' ",
"' ' ' ) ! X ] / [ V | y t ++1.;.' % 1 ( [ [ [ U S { ( ( { { ( ( ( { { _ { [ < [ [ S U S U S S ( [ [ _ { < : ( ( < < ( { ( [ [ [ [ ( ( [ ( ( ( [ < _ _ _ ( { _ { ( ( : < [ : [ S [ ( < ( ( < ( ( : : : < [ ( { _ U U : S V x - ' x #+E.w z 8 W [ / ] X ! ) ' ' ' ' ' ' ' ) X ] _ [ V | z v ++2.z , $ 9 : : : [ : { ( : : < [ [ ( [ _ [ < [ [ < [ [ < < < < < < < < : S : [ S : < [ : : < < < [ [ ( [ ( [ S : [ { ( < ( < [ [ < : < : < : S ( < < : < [ < : S S S < : : < S U < < S T : T l 1 * , z #+Z.w z 8 W [ / ] X ) ' ' ' ' ' ' ' ) ) X ] / ( V 2 x s }.).B ! @ 1 W S : S < ( S T < S < : S < < ( ( S T W l T U : T S : : < U : [ : : : S ( { { [ S S < [ < U : < [ : [ ( < < < : : < < < < < < < < < : ( ( [ < < < U [ [ ( S : [ T [ : < S U : : ( S 8 $ , B !.|.t x 2 T [ / ] ! ) ' ' ' ' ' ) ) ) ! ~ ] _ < l 9 -.f F.Q 0 , ; | : < : S S < < < S [ : : [ [ : ( ( [ ( < [ [ { ( { { { ( ( [ ( < ( { ( { ( [ ( < { ( [ < < < < < < : S S : [ [ < [ [ < < { < [ < ( _ { { ( ( : < S : ( [ _ [ ( [ _ { ( [ ( ( ( _ ( [ A * ! B 1.Z.t z 8 W [ _ ] X ) ) ' ' ' ",
"' ' ) ) ! X ^ _ < l 9 -.w Z.4.A ^ & < k O g t r m m m m m m m m m r m m m r r m m n o r n n n s m r m m r m m m m n r r r r r r r r r m r m m n m r s r t m r n n m m m r r r s s r s s r s t s r s r s s s s s v j f R R U @ ' A #+E.j M 9 l < _ ^ X ! ) ' ' ' ' ) ) ) ! X ] _ < l 1 -.j Z.2.B '   W k j.h j j v v v v v w v v v w w v v v v t v t v v v v w j w v v v w v w j w v v v j w w w j w j v v v w w w v v w v v v t t t t v t w v v v v v v v t v v w w w v v t v g j g h k.O 4 & , y #+E.g M 9 l < _ _ ~ ! ' ' ' ' ' ' ' ) ! X ] _ < W 8 B t |.).B X $ ( k 3.O f g j v v w w v v w w w w w t v v v v w w j w w j w v v w w w w j g j v w v v w v w v j w w j t w v v w v v w w v v v v v v v v v w v v t w w t w t v s v s t t t t w j i j.i S & ' B !.++v z 8 W [ _ ^ X ! ) ' ' ' ) ) ) ) ! ~ ^ { < 3 b H e F.R c > & 3 O P g w v t s s s m r r r r s r r r r m m r m m n m m n m m m r n m m r m r s m m m r m m n m m r r m r n n r m o r n m m r m m m r s r m m n m s m r m m m m m m m r r r s t j O k : $ ! z 1.|.w -.1 l < _ ^ X ! ) ' ' ' ",
") ) ) ) ! ] / { : 3 b K j E.1.B ] & ( Q [.N s o C D Y D D D D D L D L L L L D D L L D L L L D D L L L J J J J J L J L L L L L D L L L L L J J L J J L L L L L L J L J J L L J J J J J L J J J E J J J J L L D Y q n k /.k.< $ X d #+F.g H 0 4 : { ^ ~ ! ) ) ' ) ) ) ) ) ! ~ ^ { : 4 0 K j Z.2.y ~ $ V i.(.i o C J I I E E E E I I I F F I I I F G G G G F F F I F G F I I F I F E I I E E J J I I I I I F I F F F I I I F F F F F F G F J G G F G G G F G G G G G G G F F F E L Z p e ^.j.S & , x #+E.f H 0 4 < { ^ ~ ! ) ) ' ' ' ' ) ) ! ~ ^ { < l 1 M v |.).B ^ # { i :.P n C L E E E F F G G F G G G G G G H G F F F F F F F F F F F I I F F F F G G F I G G G F F F I F F F G G G F G F F G G F G G G G G G G G H E G F F F G F F I I F I L u n k /.N S & ' B !.Z.w -.1 l : [ ^ X ! ) ) ' ' ' ) ) ) ! ~ / { : 5 a G h D.Q a - # U ).].h m o Z D J J L J J J J L L L D L J J L L J E J J J J J J J J J E D L D Z L L L L D D D D L D L L D D D L Y D Y Y D L L D D D D D Y Z L D Z Y D Y L J J L D D Y Y Z u o t N <.N : # ) z 1.++j K 0 4 < ( / ~ ! ) ) ' ' ",
") ) ) ! X ~ { ( S 5 b H g D.!.B , $ { f k g o Z E G K H M -.-.-.B z B B B B z B B M -.B B z z z B z z B B B M M M K M M -.-.M -.-.B B B B B B B -.M -.-.B B -.-.-.B B B -.B B B B B B B z y y -.z z z z -.-.K I Z p j f i ( & ! d #+F.f G b 3 : ( / ~ ! ! ) ) ) ) ) ) ) X ~ / { : 4 b H f E.2.y ~ $ < e e g m Z J F H H H K M -.-.-.M M -.-.-.M M -.M -.-.M -.-.M -.-.M K M M G M K -.-.-.-.M M -.B M M M -.M K M B -.-.-.M -.-.z B B z B -.B B B -.-.B B B -.M M K K M M H G E Y n w f h S $ , x 3.F.e G b 3 : { / ~ ! ) ) ' ' ) ) ) ) ! ~ ^ { : l 9 K j ++).M ^ @ [ s O j r C E G K H G K K -.B B B z B B B B B -.M -.M M -.-.-.-.-.-.-.K M K H H K M B M -.M M -.M M M K K -.-.-.-.-.-.B B B B z z z z z z z z z B B y B y z B -.-.B -.M H I Y o t h g < # X B >.Z.w M 9 l : ( / ~ ! ) ' ~ ) ' ) ) ! X ] / ( S 5 c I i  +Q a - & T i.f e o Y I H M M -.-.B z z z B z z B z z z B B -.B z B z z z z B z z z B B -.B z B B B B z z z z z z z z B B y y B z x x z B z z z z y y y y z B z z y z B z B B z B M I Y p j k g ( @ X y 1.++g G b 4 : { / ~ ! ) ) ) ) ",
"~ ! ) X ] ^ / [ U 5 b H f F.1.y , $ { v r o r J K A d d c a a b 9 9 1 1 1 1 1 1 9 9 9 9 0 9 9 9 9 9 9 9 9 9 9 9 9 9 0 0 9 0 0 9 0 9 9 9 0 9 9 1 9 1 9 9 9 9 9 9 9 9 9 9 9 9 1 1 8 1 1 1 0 1 1 b 0 0 0 0 b a d z I n m q f [ $ X x #+F.e F a 3 S ( / ] X ! ) ) ) ) ) ) ! X ] / ( S 3 b G e E.2.y ~ @ < g n n m F z d a b 0 0 0 9 1 1 1 1 1 1 8 1 1 1 1 1 9 9 9 9 9 9 9 1 9 9 9 9 9 1 1 9 9 9 9 9 9 9 9 9 9 9 0 0 0 0 0 0 0 0 9 1 1 1 1 1 1 1 9 9 9 1 1 1 9 1 9 0 b b b b b c ;.B I o o p f : $ ' z 3.F.e F a 3 : ( / ] X ) ) ) ) ) ) ) ) ! ~ / ( : l 0 H j ++).-.~ @ [ r j u n E -.A c a a 0 0 9 1 1 1 8 8 8 8 8 1 1 1 9 1 9 9 9 0 9 9 9 9 0 0 9 9 9 9 9 9 9 9 0 9 9 9 9 9 b 9 9 9 9 1 1 1 1 1 1 1 1 8 1 1 8 8 1 1 8 1 8 8 1 1 1 9 b b 0 b a d B F p u n s : & X M !.Z.j K 0 l S ( { / ~ X ) ) ) ) ) ) ! X ] _ ( S } d E i  +Q c - $ S k C t r F z A c a b b 0 0 9 9 9 9 9 9 9 9 9 9 9 0 0 0 0 0 b 0 0 0 9 9 9 0 0 b b 0 9 0 0 0 9 9 9 9 9 1 1 9 0 0 1 9 9 0 9 9 0 9 1 1 9 9 1 1 1 1 9 0 9 9 1 1 9 0 0 b b a ;.M J m o s s < @ , y 1.Z.g G b 4 S ( / ] X ! ) ) ) ",
"X ! ! X ~ ] _ S T 5 a G f F.1.y ' & ( t q Z E f u J G K K M M -.-.-.-.B -.-.-.-.-.-.-.B B B -.B B -.-.B M M K H H K M M M M M M -.M M M -.-.M K K K M M M -.-.-.B z B B B B -.-.-.B z y B z B M K B -.M K H E u k E C Z f < @ ! x 3.D.e F a 3 S [ _ ] X ! ) ) ) ) ) ) ! X ] _ [ S 3 b F e F.2.B ! @ U j u C J h q L I F G H M M -.-.B B z z z B B z B B B B B z B B -.B -.B -.B -.M -.-.-.B B -.B B B K M B z B z y y y z z y B B z z z z z z y y z z y y z z B B M K H G G J C g I Z u j S & ~ x 3.D.h F a 3 S [ _ ] X ! ) ) ) ) ) ) ! X ] / ( S l 0 H g |.).-.]   ( r s L I f u I K M M K M B z y x y y y y y y y y z -.B B y y y z B z B -.M M -.M -.-.B z B -.-.-.M -.-.M B B -.-.B -.B B B B z z z z z z y y z y z y y z z -.B M M K H E C w E Y q t : @ ) B >.Z.j H 0 l S [ { _ ~ ! ) ) ) ) ) ) ! X ] _ [ U } d J k  +Q c - $ U i L p L h C I F H M M M -.-.B B z z z z y z B -.M -.z B -.-.M G H G H K -.-.H G G H K H K K K M M M K K G G G G K -.M H M -.-.M M M K M -.-.B z z B B M K K H G G G F J p e L Z o r : @ ~ x 1.Z.f G a 3 S [ _ ] X ! ) ) ) ",
"X ! ! X ~ ^ _ : U 3 a G f F.1.x ' & ( t Z E M q p y c b 0 0 9 1 1 8 | | 2 2 | | | | 8 8 8 8 8 8 8 8 1 1 1 1 1 1 1 1 1 1 1 1 1 1 1 1 1 1 1 1 1 1 1 8 8 1 1 8 8 8 8 8 8 8 | 8 | | | | | | 8 1 8 9 9 9 0 b b c y q p M L J j < @ ) ;.2. +h F a 3 U [ _ ] X ! ! ) ) ) ) ! ! X ] _ [ U 3 a F e F.2.y ' & W v Y J K p p y c b b 0 9 1 8 | | | | | 2 | | | | | 8 8 8 8 8 | 8 8 8 8 8 8 8 8 8 8 8 8 8 8 8 8 8 8 1 8 | 8 8 | | 8 1 | | | | | | 2 | 8 | | 2 2 2 2 2 | | 8 1 9 0 b b c y p u -.J D w : @ ] ;.3.D.h I a 3 U [ _ ] X ! ) ) ) ) ) ) ! X ] / [ S 4 0 H g |.).B ] & _ r n I M u u B a 0 9 9 1 8 1 2 2 6 6 6 6 2 2 2 | | | 2 | | | | | | | | 8 | | 8 8 8 8 8 8 8 8 8 8 8 1 8 8 8 | | | | | 8 8 8 8 8 | | | 2 2 2 2 2 2 2 2 2 | 8 1 1 9 0 b c y C q M I Z r [ $ ~ y !.Z.j H 0 4 S [ _ ^ ~ ! ) ) ) ) ) ! ! ~ ^ { < T 2 ;.J k U.Q a - & T h E C H p n x ;.b b 0 9 1 8 8 | | | | | | | | 8 8 8 | | 1 1 1 1 1 1 1 1 8 1 1 1 9 9 9 0 9 9 1 1 1 1 1 9 0 0 9 9 0 1 1 8 1 1 1 8 1 1 1 1 8 8 8 | | | 8 8 1 0 0 b a a d z q p K E u t ( @ ] x 1.Z.g F a 3 U [ _ ^ X ! ! ! ) ",
"] ! X X X ] _ [ U 3 a G f E.1.y ' $ ( s L H ;.D y F 2 6 } 7 5 3 4 l l l W W l l l l l l l 4 4 4 4 4 4 4 4 4 4 4 4 4 4 4 4 4 4 4 4 4 4 4 4 4 4 4 4 4 4 4 4 4 4 4 l l l l l l W W W W V l 4 4 l 4 3 3 5 7 7 6 H x J A F I j :   ' ;.3. +h F a 3 U [ _ ] X ! ! ! ! ) ! ! ! X ^ _ [ U 5 a F e E.2.y , # S v J G A J y F 2 } } 7 5 3 4 l W W W W W W W l l l l l l l l l l l l l l l l l 4 l 4 4 4 4 4 4 4 4 4 4 4 4 4 4 4 4 l l l W W W W W W l l W W V V V V W W l 4 3 7 } } 2 F y L A F E v S @ ) x 3.D.h I a 3 U [ _ ^ ~ ! ! ) ) ) ! ! ! X ] _ [ U 4 0 G g ++).B ^ @ { m q K ;.J x H | 7 7 5 3 l l W V V T V V V V V W W W W W W l l l l l l l l l l l l l l l l l l 4 4 4 4 4 l l l l l l l l l W W W W W W W V V V V V V V W W l 4 5 5 7 2 K x E ;.K J r : # ! y !.Z.j H 0 4 S [ _ ] X ! ! ) ) ) ! ! X ~ ^ { < V 6 ;.E k  +Q a ) & U e H L z J z G 6 } 7 7 5 4 4 l W W W W W W W W l l l W l l 4 4 4 4 4 4 4 4 4 4 3 3 3 3 3 3 3 3 3 4 3 3 3 3 3 3 3 3 3 3 4 4 4 4 4 l l l l l l l W W W l l 4 5 5 7 } 6 2 E y D x G Y s [ $ ! x 1.Z.f G a 3 U < _ ] X ! ! ! ) ",
"! ! ! X ~ ] _ < U 3 a G f E.1.y ' $ < m J K a F a 6 ;.4 l V V U S : < < [ < < < < < < : : : : : : S S S S S S S S S S S S U S S U U U U S S S S S S S S S S S S : : : : : : < < < < < [ S S S S U T V W W x 6 a F a H F v :   ' A #+F.h F a 3 T < _ ^ X ! ! ! ! ! ! ! ! X ^ { [ T 5 a F e F.4.y , # ( v I K a F a 6 y 4 l W V U S : : < < < : : : : : : : : : : : S S S S S S S S S S S S S S S S S S U U S S U S S S U : : : : : : : < < : : < < [ [ [ [ < < : U T W W 4 B 6 a L d H I w : # , x 3.D.h F a 5 U < _ / ] X ! ! ! ! ! ! ! X ] _ [ U 3 0 G f |.).B ] $ _ m u -.a G b } ;.4 V T T U : < < [ [ [ [ [ < < < < < < < < : : : : : : : : S S S S S S S S S S S S S S S S S S S S : : : : : : < : < < < < < [ [ [ [ [ < : S U T V l c } b H a B J m [ & ) z !.Z.j G b 4 U [ _ ] X ! ! ! ! ) ! ! X ~ ^ { : T } d J P  +Q a - @ S e M H d G b 2 x l W W V U S : < < < < < : : : : : : : : S S S S U S S S S U U U T T U U U U U U U S U U U S S U T U U : S S : S : : : < < < < < < < < : U U T V l 4 K 6 a F c K D r ( @ ' B 4.Z.f G a 3 T < _ ] X ! ! ! ! ",
"~ X ! X ~ ] _ < T 3 a G f E.1.z ) $ < r J -.b G 9 5 W d V T S < [ ( { { { { { ( ( ( [ [ [ [ [ < [ [ [ < < < [ < < < < < < < < < < < < < < < < < [ [ [ [ < [ [ [ [ [ [ [ ( ( ( { { { { { { ( ( [ < : U T A W 5 1 K a H G v : $ ) ;.#+D.e I c 7 T < { ^ ~ ! ! ! ! ! ! ! X ~ ^ { < T 5 a F h E.2.y ! $ ( w I M b H 9 5 W x V T S : [ ( ( { { { { ( ( ( [ [ [ [ [ [ [ < < < [ < < < < < < < < < < < < < < : < < < < < [ < < [ [ [ [ [ [ [ [ [ [ ( { { { { _ { { ( [ < S T V M W 5 9 F b K I v S & ' A 3.D.h I c 5 T < { ^ ] ~ ~ X ! ! ! ! X ~ ^ _ [ U 3 0 G g }.).B ^ @ [ m C B b K 1 5 V c l S : < [ ( { { { { { { { ( ( ( ( ( [ [ [ [ [ [ [ [ [ < < [ < < < < < < < < < < < < < < < < < < < < [ [ [ [ [ [ ( ( ( ( { { { { { { ( [ < : U V b V 5 1 M b -.L s ( # ' B !.++j H a 4 U < { ^ X X ! ! ! ! ! ! X ~ ^ { < T 6 ;.J P  +Q c , & S e M K a M 1 5 4 d T U S : [ ( { { { { { ( ( ( ( [ [ [ [ [ [ [ [ < [ [ < [ [ [ < < < < < < < < < < < : : < < < < [ < < < < : < < [ ( ( ( ( { { { { { ( ( < : S T V y l 7 9 H a M L r < & , y 1.Z.f F a 3 T < { ^ X X ! ! ! ",
"! ! ! X ~ ] _ < T 5 a G e F.1.y ) $ [ r L -.0 M 9 3 W W x T S < [ ( { { { { { { ( ( ( [ [ [ < < < < < < < < < < < < < < < < < < < < < < < < < < < < < < < < < < [ < [ [ ( [ ( { { _ _ _ _ _ { [ < S U A W l 3 8 M a F G v [ * ' ;.3.D.e E c 7 V < { ^ ~ X ! ! ! ! ! ! X ~ ^ _ < T 5 a F e E.2.y , $ U v I M b K 9 5 W V A T S < [ { { _ _ _ { { ( ( ( [ [ [ < < < < < : < < < < < < < < < : < < < < < < < < < < < < < S : < < < [ < [ < [ [ ( { { _ _ _ _ { { ( < S T H V W 5 1 H 0 H I w S $ , x 2.D.h I c 5 T < { ^ ~ ! ! ! ) ! ! ! ] { _ { S T 3 b G g |.'.z ] & [ m u M a K 1 5 W T d V S < [ ( { _ _ { { { ( ( ( [ [ [ < < < < < < < < < < < < < < < < < < < < < < < < < < < < < < < < < < < < < [ [ ( ( ( { { _ _ _ { { ( < : T a V V 3 8 -.b -.J s _ $ X z !.++j H 0 3 U < { ^ X ! ! ! ! ! ! ! X ~ ^ { : V 2 ;.J k U.Q c - $ T e M M a M 1 3 V l d U S < ( ( { _ _ _ { { ( ( ( [ [ [ [ [ < < < < < < < < < < < < < < < < < < < < : S : < < < < [ < < : < < [ [ [ ( ( ( ( { { { { _ { ( [ < S T d V W 5 1 K b -.D r : & , y 1.Z.e F a 5 T < ( ] ~ X ! ! ! ",
"! ! X X ~ ] _ < T 5 a G e F.1.B > @ [ r L -.0 M 9 3 V V V x S < ( { _ _ { _ { { ( ( [ [ < < < < : : : : : : : : : : : : : : : : : < : : : : : : : : : : : : : < < < < [ [ [ ( { { _ _ / / _ { ( < : ;.V T l 3 1 -.b G F v ( & ' c 3.F.e I ;.} T < { ^ ~ X ! ! ! ! ! ! X ~ ^ _ < T 5 a I h E.2.y ' $ : t I M 0 K 1 5 V V V A S < ( { _ _ / _ _ { ( ( ( [ [ < < < < < < < < < < < < < : : < < : < < < < : < < < < < : < < < < < < < < < < [ [ ( { _ _ / / / / _ ( [ U K T V V 3 1 K 0 H I w < $ , x 2.D.h I c 5 T < { ^ ~ ! ! ! ! ! ! ! ! X ^ [ : V 3 d G g |.'.-.~ # ( o u -.a K 1 5 V U U d T < ( { _ / _ { { { ( ( ( < < < < < < < < < : : : : < < < < : : < < < < : < : : : : : : : : < < < < < < < < < [ ( { { _ / / / / _ ( < S 1 T T V 3 8 B 0 z D r [ & X -.!.++j H b 3 T : { ^ X ! ! ! ! ! ! ! X ~ / ( < T } d J P  +R d ; & U e M K b M 1 3 V T W d : < ( { _ / _ _ { { ( ( [ [ [ < < < : : : : : : : : : : : : : : : : : : : : : : : : : : : : : : : : < < < [ [ ( ( { { _ _ _ _ _ { ( < S a V V V 3 9 K b K Y r [ $ ' y 1.Z.e F a 5 T : { ^ X X ! ! ! ",
"! X X X ~ ^ _ < T 5 c G e F.1.z > $ [ r L B 9 M 1 3 V T U S z [ ( _ / ^ ^ / _ { { ( [ [ < < < < : : : : : : : : : : : : : : : : : : S : : : : : : : : : : : : < < < < [ [ ( ( { _ / / ^ ^ ^ / { [ a U U U T 4 1 K b H I v [ @ > x #+F.e I ;.7 T : { ^ ~ X X ! ! ! ! X X ~ ^ { < T 5 a I h F.2.x ) & S v I M 0 M 1 3 V T U S c [ { _ / / / / _ { ( [ [ < < < : : : : : : S : : : : : : : : : : : : : : : : : : : : : : : : : : : < < : < [ [ { { _ / / ^ ^ ^ / { [ -.S U T T 3 8 M 0 K I w : % , x 2.D.h I c 5 T < { ^ ~ ! ! ! ! ! ! ! X X ] _ < T 5 a G g |.).-.! @ { n C K b M 8 5 T U U S b S [ { / ( _ _ _ { ( [ < < < < < : < : : : : : : : : : : : : : : : : : : : : : : : : : : : : : : < < < < < [ ( ( { _ / / ^ ^ / / { < 1 S U U T 4 8 z 0 B L r : & ~ z !.++j H b 3 U < { ^ X X ! ! ! X ! ! X ~ ^ { : T } d E k  +R d - $ S e K K b -.8 3 T U S T a [ { _ / ^ ^ / _ { { ( [ [ < < < : : : : : : : : : : : : : : : : : : : : : S : : : : : : : : : : : < < < [ [ ( { { _ / / ^ ^ _ { ( < 9 S U T V 3 1 M b K Y s : $ ) y 1.E.e F a 5 T : { ^ X X X ! ! ",
"] ~ X X ~ ^ _ < T 5 c F e F.1.A ' $ [ r J -.0 M 1 4 T U S : < B { _ ^ ] ^ / _ { ( [ < < < : : S U T U S S S S S S S S S S S S S S S S S S U U U S S U U S S S : : : < : : < ( ( ( { / ] ] ] ^ _ b < : S U T l 9 G 9 M I w S * ! A 3.F.h F c 7 T : { ^ ~ X X X ! ! X X X ~ ^ { < T 5 a F h F.2.x ! & : t I M 0 M 8 4 T U S : < b { / ^ ^ ^ / _ { ( [ < < < : : S S S S S U S S S S S S S S S S S S S S S S S S S S S S S S S S : : : : < < : [ ( { _ / ^ ] ] / { H [ : S S T 4 8 M 0 H I w S # , y 3. +h I c 5 T < { ^ ~ ! ! ! ! ! ! X X X ] _ < T 5 a F g ++).M _ & [ n C -.9 M 8 3 T S S < [ b < ^ ] ~ / / _ ( [ [ < < < < : S : S S S S S S S S S S S S S S S S S S S S S S S S S S S S S S S S : < : < < [ ( { _ / ^ ] ^ / { 1 < : : S U 4 8 z 9 B J m : & ] B !.Z.g H b 3 U < { ^ ~ X X ! ! ! ! ! X ~ / { : T } ;.J P  +Q c - & S e K M 0 -.8 4 T S : < S b _ ^ ] ] ^ / _ { ( ( [ < < : < : : : S S S S S S U S S S S S S S S S S U U U S S S S S S S S U S S S S S < [ [ ( { _ / ^ ^ ^ ^ ( 0 : : S U T 4 8 M 0 M D r ( @ ~ y 1.E.e I c 5 T < < ^ ~ X ! ! ! ",
"X X ~ ] / ^ _ < T 5 c F e F.1.x ' $ : r L B 9 M 8 4 U S : < ( { ;./ ] ] ^ _ ( [ : S S U U U U U U U U U T T T U U U U U U U U U T U T T T U T T T T T T T U U U U U U U S S : < [ ( _ ^ ] ] ^ 0 ( ( [ < S U 4 8 M 9 M I w [ @ , x 3.D.h F c 7 T < { ^ ~ X X X X ! X X X ~ ^ { < T 5 a F h E.2.x X # U v F M 9 -.8 4 U : : [ ( _ 9 ^ ] ] ^ _ ( < : S S U U U U U U T V T T T T T T T T T T U T T T T T T T T T T T T T T T T T T U U V U U T : : [ ( _ ^ ] ] / y _ ( [ : : U l 8 -.9 H I j S & , y 3.D.i I c 5 T < { ^ ~ X ! ! ! ! ! X X ~ ] _ < T 3 b G j |.'.-./ @ < n u K 0 M 8 4 U : : [ ( / c { ] { { { [ : S S T T T T T T T T T T V T T T T T T V T T T T T T T T T T T T T T T T T T T T T T T T T U S : < ( { / ] ^ / 8 { ( [ < : S l | z 1 z E m < $ X z 1.Z.g G b 3 U < { ^ X X X ! ! ! ! X X ~ / ( : T } ;.J P  +Q d , $ S e K M 0 B | l U : < [ ( [ 9 ] ] ] ^ _ ( [ : S S U U U U U U T T T T T T T T T T T T T T T T T T T T T U T T T T T U U T T U V T U U S : < [ ( _ ^ ] ] ^ a { < < : S U 4 | M 0 M D r [ @ ) y 1.E.e I c 5 T < { / ~ X X ! ! ",
"~ X ~ ] ^ / { < T 5 c F e F.1.z ' @ < s L B 9 M 8 l S : < ( { / / 0 ^ ^ _ < U V W l l l l 4 4 4 4 4 4 4 4 4 3 3 3 4 4 3 3 4 4 4 4 4 4 4 4 4 4 4 4 3 4 4 4 4 3 3 4 3 4 4 4 4 l W V T : { ^ ] 9 / / _ ( [ < S W 2 B 1 K F j < $ > x 3.D.h F c 7 T < { ^ ~ X X X X X X X X ~ ^ { < T 5 a I e E.2.B X & U t F -.9 -.| l S : < ( { / ^ 9 ^ / ( S V W l 4 4 3 3 3 3 5 3 3 5 5 3 3 3 3 5 3 3 3 3 3 3 3 3 3 5 3 3 3 3 3 3 5 7 5 5 5 3 3 3 3 3 3 3 4 4 W W T : { ^ ^ A ] / _ ( < < S l | B 9 K I w : & ' y 3. +i I c 5 T < { ^ ~ X ! ! ! ! X X X ~ ] _ < T 3 a G w |.).-.^ # { m Z M 9 M | l : < [ ( _ / ] 0 ( _ [ U V 4 W l 3 5 5 5 3 3 5 3 3 3 5 3 3 3 3 5 5 5 5 5 3 5 5 5 3 3 5 5 3 3 5 5 5 5 5 3 3 3 3 5 5 5 5 3 4 l W V S { / / 9 / / { ( [ < : W 2 z 1 z E r [ $ X y !.Z.g G b 3 U < { ^ ~ X X ! ! ! ! X X ~ ^ { < T 6 ;.E k  +R d > & U e M -.9 z 2 W S < [ ( _ / { 9 ] / { S T W l l 4 4 4 3 3 3 3 3 3 3 3 3 3 3 3 3 3 3 3 4 3 3 4 4 3 3 4 4 4 4 3 4 4 4 4 4 4 3 5 5 3 3 4 l W W V U : ( / ^ d ^ / { [ < : U l | -.9 -.L s { $ ) y !.F.e F c 5 T < { ^ ~ X X ! ! ",
"^ X ~ ~ ] ^ { < T 5 c F e F.1.z ' @ : s L -.1 K | W : < [ { _ ^ ] ^ a < l | b c d ;.d d d ;.d d d ;.;.c d d d c d d d d d c c c d c c c c c c c c c c c c a a c c c c c c c c c a 0 | l < b / ] ^ / { [ < S W 6 B 1 M F j [ @ > A 2.F.h F c 5 T < { ^ ~ X X X X X X X X ~ ^ { < T 5 a F e F.2.z > # : t I -.1 -.2 W : < [ { _ ^ ~ ] a S 3 1 a d d ;.;.;.;.;.x ;.d A y x A ;.;.d d d ;.;.;.A ;.;.A ;.;.;.;.d ;.;.d ;.x y A d c d d d d ;.A d d d c b 1 3 : ;.] ] ^ / { [ < : W 2 -.9 M I w : & ' x 3.U.h I c 5 T < { ^ ~ X ! ! ! ! X X X ~ ^ _ < T 3 a F j Z.'.M ^ $ < r Z B 9 B | W : < [ { / ^ ] ] c V 4 9 d d d ;.;.y x x A ;.A ;.;.A A ;.;.;.;.A A A A A A A A A ;.A A A A A A A ;.A ;.A A A ;.A ;.;.x A x A d c 9 3 S 9 ^ ] ^ _ { ( [ : V 6 B 1 z E r : $ ! z 1.Z.g G b 5 U < { ^ X X X ! ! ! ! X X ~ ^ { < T 6 ;.E P U.R d > $ : e M -.9 y 6 W : [ [ { / ^ ] { c < 4 8 b c d d d d d c c c c c c c c a c d d d d d d c d c c c c d d c c c c c a a a a a b a ;.a a a b a a b 9 6 W < x ] ] ^ _ { [ < U 4 8 M 9 B L s [ & ! y 1.E.e F a 5 T < { ^ ~ X X X ! ",
"_ ] ] X ~ ^ _ < T 5 c G e E.1.z ' @ < r J M 1 M 2 W : [ [ { / ^ ] ^ < G p P P O N N N N O O N N N N O O O O O O O N N N O N N N Q O P O N O P P k k k P P P O N O N N O O O P i h k i p E : ^ ] ^ / { ( < : V 6 z 9 -.F v S & > A 3.D.h I c 5 V < { ^ ~ ~ X X ~ X X X X ~ ^ { < T 5 a I e E.2.x ] & : w I -.9 B 2 W : < ( { / ^ ~ ] < J n P P k k k P P P P P k k k k P k P P k i i k i k i h i h i h h k h i i h h i i P i k k k i i k k k k k k i i p J [ ^ ] ^ / { ( [ : V 2 B 9 K I w : $ , x 2.U.h I c 5 T < { ^ ~ X X ! ! ! X X X ~ ] _ < T 3 c F g Z.'.H ~ @ : p D z 9 B 2 W < [ ( { / ^ ] ^ ( J C h i i h h k i i k P P k i P k i i k i i k k k i i i i k k k k k k k k P i k k k P k k k k k h i i i i i i h n J : ^ ] ^ / _ ( [ < V 6 M 1 z E s : $ ! B 1.Z.g G b 5 T < ( / ~ X X ! ! ! ! X X ] / ( : T } ;.E P U.R d , # T e M -.9 y 6 V : [ ( { / ^ ] ^ T L r P P O O P k k k P P O P P k k k k P O O P O P N O P k k k P N N O O P P P k P P P P P P k P P P P O O P P k p G [ ^ ] ] / { ( [ S l | -.0 B D s [ $ ! y 1.E.e F a 5 T < { ^ ~ X X X X ",
"X X X X ~ ^ { < T 5 c G e E.!.z , @ < s L M 1 M 2 W < [ ( { / ^ ^ _ V u 2 - , ' ) ) ! X ~ ~ ~ X X ~ ~ ~ ~ ~ ~ X X X ~ ~ ~ ~ ~ ~ X ~ ] ~ ~ ] ] ^ ^ ^ / ^ ] ] ] ~ X X X X ! ! X X ) ' % 2 q l { ^ ^ / _ ( [ : W 2 H 0 G E w < @ > A 2.D.h I c 5 T < { ^ ~ ~ X X X X X X X ~ ^ _ < T 5 a F e E.2.;.^ & T v I -.9 B 2 W : [ ( _ / ^ ] _ W o b % - , ' ' ) ! X ~ ~ ~ ~ X ~ ~ ~ X X X ] ] ~ ~ ~ ~ ~ ~ ~ ~ ~ ] ] ] ~ ] ] ~ ~ ] ~ ~ ~ ~ ~ X ~ ! ! ) ' ' , - * 9 n W _ ^ ^ / _ ( [ : V 6 z 9 M F v : & ' x 3. +h I c 5 T < { ^ ~ X X ! ! ! X X X ~ ] _ < T 5 c F g ++).M ~ & < n Y B 9 H 8 l S [ ( _ / ^ ^ _ W r 9 > = - ) ! ) ! X X ! X ~ ~ X X ~ X X X X ! ! X ! ! ! ! ! X X X X X ! X X ! X ! ! ! ! ! ! ! ! ! ! ) ! , - ; * 8 p l { ^ ^ / _ ( [ < V 6 z 1 z L t [ $ ! B !.Z.g G b 5 T < { ^ ~ X X ! ! ! X X X ~ / ( : T } ;.E P U.R c , & T e K M 0 y 6 V : [ ( _ / ^ ^ { 5 u | * - , ) X X ~ ] ~ ~ ~ ~ ] ] ] ] ] ] ] ] ~ ~ ~ ~ ] ] ] ] ~ ] X ~ ] ] ] ] ] ] ~ ~ ~ ~ ~ ] ] ] ] ] ~ X ! X ) - 1 p W _ ] ^ / { [ [ : W 2 B 0 B D r ( * ' B 1.Z.f F a 5 T < { ^ ~ X X X X ",
"X X X X ~ ^ { < T 5 c G e E.!.z > $ < t J K 1 M 2 W : [ ( { / / _ [ 6 i ; 5 > ~ ~ ^ / _ _ { _ _ { { { { { ( { ( { { { { { { ( ( { { { { ( { { { ( [ ( ( ( ( ( { ( ( ( { { _ / _ ( ~ 4 % i 8 < _ ^ / { ( [ : W 2 -.9 K E g : @ > x 2.D.h I c 5 T < { ^ ~ ~ X X X X X X X ~ ^ { < T 5 a F e F.4.y ' @ S v I -.9 B 2 W : [ ( { _ / / [ | k * 8 > ~ X ^ / _ { { ( { { { { { ( { { ( ( { ( ( [ [ { { ( ( ( ( ( [ ( { { { _ ( ( ( ( { < [ < [ ( _ _ ^ ] ' 2 % i 2 [ _ ^ / { ( [ : V 6 z 1 M F w S & ' y 3.D.i I c 5 T < { ^ ~ X X X X X X X X ~ ^ _ < T 3 a G j ++).M ~ & S o D B 0 K | l : [ ( { _ / / [ 7 P = 7 X / ] / / _ ( { { ( { ( { { _ { _ { _ _ _ { _ _ _ _ { { { { { { { { { { { { { { { ( ( { { { _ / _ ~ ~ > } % i 2 < _ ^ / _ ( [ < V 6 B 9 -.J r ( & X z 1.Z.g G b 3 T < { ^ ~ X X ! ! ! ! X X ~ / ( : V 6 d E P U.R d , & S e K -.9 y } V < [ ( { _ / _ < b g ; } ) ^ ^ ^ / _ _ { _ _ _ _ _ _ _ _ { { _ _ { _ { ( { ( { ( ( { { { ( { { { { { { { { { { ( { _ / ^ ] ~ ~ > 5 ; P 9 [ / ^ / { ( [ : W 2 y 0 z D s < & > z 1.Z.e F a 5 T < { ^ ~ X X X X ",
"X X X X ~ ^ { < T 5 c G e E.1.y , @ [ t J M 1 M 2 W : [ ( ( _ _ ( : 8 P , , 2 ' ^ { < S T U T T T T T T T T T V V V V V V V W W V V V V W W V V V W l l l W W V V V W V T S ( ^ , 5 , ; i 0 U { _ _ { ( [ : W | M 9 K J g < $ - A 2.D.h I c 5 V < { ^ ~ ~ X X X X X X X ~ ^ _ < T 5 a F e F.4.z ' $ S v I -.9 B 2 W : [ ( { _ _ { : 9 P ; , 0 ! _ ( S V W W W W W V V V W W W W l W W l l l W W l l l W l W W W W W W l 3 3 3 W 4 3 l W T S ( ] ' 2 , > i 1 : { / _ { ( [ : W 2 z 9 M I v U & , z #+D.i I c 5 T < { ^ ~ X X X ! ! X X X ~ ^ { < T 5 a H j ++'.K ) & : n Z B 9 K 8 4 : [ ( { _ _ { : | i , ) 6 ! ] { : U V V V V V V V W W l l l l W W l l l l l l l l 4 l l l l l l l l l l 4 l l 4 4 W V U [ ] ' | > ' k 1 S ( _ _ { ( [ < V 6 -.1 B E r [ # ! y 1.Z.g G b 3 U < { ^ ~ X X ! ! ! X X X ~ / ( : V 2 ;.E P U.Q c > & T e K M 9 z } V : [ ( { _ _ ( T d e = ) | > ] { : T T V V V T V V V V W V W V W W W W W W V V V V V V V V V T V V V V V V V T T V U S < _ ~ , 5 ' ' k b T ( / _ { ( [ : W 2 z 9 B D s [ $ ! y 1.E.e F a 5 T < { ^ ~ X X X X ",
"X X X X ~ ^ { < T 5 c G e F.1.x , @ [ v J M 1 M 2 W : [ [ ( { { [ T 9 P , ] ' ;.3 B E J J E E E E E J J J J J J J E E E E E E J J E E J J J J J J J L L L L L L L L L J E I B 3 0 ) X > i b V [ { { ( [ [ : W | M 0 H J w S & ' A 2.D.i I c 5 T : { ^ ~ ~ X X X X X X X ~ ^ { < T 5 a I h F.2.y ! & : w I -.9 B 2 W : < [ ( { { [ U 0 P - ] ' A } H D Y Y Y Y Z Y D D Y Y Y Y Y Y Y Y Y Z Y D D D D D D D Y D Y Z Y D Y Z C C Z Y Y Y Y D J K 5 c ' X ' P 9 U [ { { { [ [ : V 6 z 9 M E w S # ) x 3. +i I c 5 T : { ^ / ] X ! X X X X X ~ ^ { < T 5 a G j ++).K ] & < n Z B 0 H | l < [ [ ( { { [ T 1 k ! [ , c } B E L D Y Z u C C C C C u C C C C Z C C u u C C Z C Z Z Z Z Z Z Z Z C C Z Y Y Z Z C Z Y D F 6 c ) X ' k b T [ { { { ( [ < V 6 M 1 z E s < & ~ A 1.Z.g F b 3 U < { ^ ~ X X ! ! ! X X X ] / ( : T } ;.J P U.R c , $ S h K -.0 z } T : [ [ ( { { [ V ;.f - X ! d 7 M I E J J L J J J J L J J J L J J L L J J J E I I E I I I E I I E E E E E E I I E J E F G x W 8 ! ^ ) k b V [ _ { ( [ [ : W 2 y 9 z D s [ @ X y 1.E.e F a 5 T < { ^ ~ X X X X ",
"X X X X ] ^ { : T 5 c F e D.1.y > $ [ v J M 9 -.| l : < [ [ ( ( < V b O ' ] ^ 4 C G D Z C Z Z Y Z Y L L Y C Y Z Y Y Z Y Z Z Y Y Z D Y Y Y Y D L Y Z D Y Y Y Y Z Y D Y D D D K E } ^ ] ' i a W < ( ( ( [ < : V 6 -.1 M I w : $ , y 2.D.i I c 5 T < { ^ ~ ~ X X X X X X ~ ~ ^ _ < T 5 a I e F.2.A X   [ v I -.9 -.2 W : < [ ( ( ( : V b O , ^ ] 7 D B E I I I J I I F I E E E E E I I E I I E F G I G I F G G G F G F G F I F I H H I F F I F y L 5 ^ ] ! k 0 V < ( { ( [ < : V 2 z 9 -.I v S $ , M 3. +i I c 5 T : { / ] ~ X ! ! X X ~ ~ ~ ^ _ < T 7 c G g ++'.K ~ $ < o Y z b -.| W < < [ ( ( ( < V 0 P X { ^ l D x G F F I F F F F G I I F E I G I G F H G F G H H H G F G G F F G G H H G G F G F I H M G y D } / ~ ! k a W : ( { ( [ [ < V 2 z 1 -.E t [ @ ^ x 1.Z.g G b 3 U < { ^ ~ X X X ! ! ! X X ] / ( : V } ;.J O U.R d , # S f K M 9 y 6 V : < [ ( ( ( : l ;.e , ] ^ 8 J H Z Z L L D D D D Y Z Y D Y Y Z Z Z Y Z Z Z D Z Z Y D Y D Y Z Z Z C C C Z Z C Y Z Z Z Y Z G J 4 ^ / X k b V < { ( ( [ < : W 2 z 9 B D s ( $ ! z 1.E.e F a 5 T < { ^ ~ ~ X X X ",
"X X X ~ ] / { < T 7 c F e D.!.x > & < t J -.9 -.| l : < < [ [ ( : W b O ) / < B H 0 * $ * * * % * # # * * # & & $ $ $ & & & $ & & # % $ $ # # @ & # @   @ @ $ & & $ $ & $ & 4 y H S / ! i a l S ( ( [ < < : V 2 -.1 M I j < $ , z 3.D.h I c 5 T < { ^ ~ ~ X X X X X X X ~ ^ { < T 5 a I e F.2.A !   < v I M 9 -.2 W : < < [ [ [ S W a O ' _ [ K -.| & $ @ @ & & % & & $ * $ & % $ $ $ $ & @ * * & * # @ & $ & $ & $ & # *   @ % * * $ # $ * 5 K B [ / X i b W : [ ( [ [ < : W 2 z 9 -.E v < & , y 3. +i I c 5 T < [ / ^ ~ X ~ ] X X X ~ ~ ^ { < T 5 a G j ++'.K X $ ( p Y z 9 M | l : < [ [ ( ( : l 9 k ] / [ ;.L } = & $ $ $ $ $ @ & @ & @ @ # # $ & # & @ # & & # # $ & * & $ & * & * = & $ & & $ & # * & 7 M M : ^ ! P ;.4 S ( ( [ [ < : W 2 z 9 -.E t < & ] -.4.Z.g G b 3 U < { ^ ~ X X X X X X X X ] / ( : T 6 ;.E O G.Q ;.> & 4 f K K 0 z 6 V : < < [ ( [ S l ;.e ' / < J d 5 & $ & & & % # * & # * % % & & & & & & $ # * # # # * # * = % & & $ & $ $ & * * # # * & & 3 G B [ ^ ~ i b W : ( ( [ [ < : W 2 B 9 B D r ( $ ! y 1.E.e F c 5 T < { ^ ~ X X X ! ",
"X X X X ] ^ { < T 7 c F e F.!.x , @ : t J -.9 -.| l : < < < [ [ S l b O X _ T F C * 2 { _ ^ _ _ / / / / / / ^ / / / / / / / / / / / / _ _ _ / _ / _ _ _ ( [ ( _ _ ( { _ _ 4 * F L V _ X i a 4 S [ [ [ < < : W 2 -.9 M I w ( # ) y 3.D.h I c 5 T < { ^ ] ~ X X X X X X ~ ~ ^ { < T 5 a F e F.2.x ! $ [ w I M 9 -.2 W : : < < [ < S l a O ! _ T L E # | < [ [ ( ( ( { ( [ [ [ < ( ( [ [ [ [ < ( { [ [ [ ( ( ( ( [ [ < < [ [ ( ( < ( [ < < : 3 # D F T _ ~ k b l S [ [ [ < < : W 2 z 9 B E v < # , y 3.D.h I c 7 T < { ^ ] X ] ~ X X X X X ~ ^ { < T 5 a H g ++'.M ! @ ( o Y B 0 M | l : < < [ [ [ S 3 0 k ^ _ U M p # 3 T : : < < : < : : < : : < < [ [ < < < [ ( ( ( ( < ( [ [ < ( [ [ ( [ ( [ [ S < { ( < 6 & I E V _ X k a 4 S [ [ [ < < : W 2 z 9 -.J s : & ] z 1.E.g G b 3 T < { ^ ~ X X X ! X ! X X ] / ( : V 6 ;.E P U.R d , & T e K M 0 z 6 V : < < [ [ [ U 4 ;.e ) _ V Z -.% 3 [ _ ^ / _ _ _ _ / / _ { _ _ _ _ { _ / _ _ _ _ ^ ] ] ^ / ^ ] ^ ^ / _ _ / _ _ / _ _ _ 4 & Y M U _ ~ i b 4 : [ [ [ < < S l 2 B 9 -.Y s [ $ , z 1.E.e F c 5 T < { ^ ~ X X X X ",
"X X X ~ ~ ^ { < T 7 c F e F.1.y , $ < t J B 9 -.| l : : < < < < S 4 0 P ] { l E Z & ( p 5 l l W 4 W V V W W l W W l W W l W W W W W W W V V V V V V W W W l l 4 l W 3 } Y : # G Y l ( ~ i c 4 U < [ < : : S W 2 -.9 M J v [ @ ) A 2.D.h I c 5 T < { ^ ] ~ X X X X X X ~ ~ ^ { : T 5 a F e F.2.A !   ( w E M 0 -.| l S : : < < : U 4 a O ! { l D I $ : L 5 V T S U T T S U : T S S U S : S V S S : : U U U T U T T 3 U T V U T l T S V 5 L ( % D I l { ] i b 4 S < < < < : S W 2 z 9 -.I t S # ) y 3.D.h I c 7 T < { / ] X X X ! X ] X ~ ~ ^ { < T 5 a F f ++'.H ~ $ < p Y B 0 M | W : : < < < : U 4 0 k / { W H o * ~ Y } T U S S S : S : U U : : : < : S S S : : < : : T W V < < : : < : : < S T : U W I [ @ I J 4 [ ~ k a 3 S < [ < < < : W 2 z 9 -.L t : * ~ z 1.E.f F a 5 T < { / ~ X X ! ! X X X X ] / ( : W 6 ;.E O  +R ;.- & U f K M 0 z 6 V : < < < < < U 4 ;.h X { l u M @ l J 3 W V V V W V T V T W V V W W W W l 4 l W V T V T l W W W l l W W W l l l l 3 6 C ] # Z F W { ^ i b 4 S < [ < < < S l | -.0 -.D r [ $ ' z 1.E.e I a 5 T < { ^ ~ X X X X ",
"X X X X ~ ^ { < T 7 c F e F.1.y ' @ < t J B 9 -.| l S : : < < : S 4 b P ] ( 4 J C $ _ 6 9 / ] ~ ~ ~ ~ ~ ] ] ~ ~ ~ ~ ~ ~ ~ ~ ~ ~ ~ X X ~ ~ X ~ ~ ~ ~ ~ ] ] ] ^ ^ ^ ^ _ 9 4 { & F Y 4 < ] i c 3 U < < < : : S W 2 B 0 K J w [ $ > x 3.D.h I c 5 T < { ^ ~ X X X X X X X X ~ ^ { : T 5 a F e F.2.x X @ ( j E K 0 -.| l S : : : < : U 4 a P ~ { 4 Y J @ [ 4 1 _ _ ^ ^ ] ] ] ~ ] ] _ ] ^ ] ^ ] ~ ] ] ] ] ] ] ] ] ] ] ^ ^ ] ] ] ^ ] ^ ^ / _ 8 } { * D J l ( ^ i b 4 U < < < : : S W 2 z 0 -.F s U & ' x 3.F.h I c 5 T < ( _ ^ X X ! X ! ~ X X ~ ^ { < T 5 b G g Z.,.M , @ [ p Z z 0 M | W S : : : : : U 4 b P / ( l H o % ~ 6 9 ( _ / / / ^ ^ ^ ^ / / ^ ^ ^ ^ ] ^ ^ ^ / ^ ] ^ ] ^ ~ ] ] ^ / ] ^ / ^ ^ ^ ^ { 1 l [ $ I Y 5 ( ] P c 3 U < < < < < S W | B 9 -.E t < & X z 1.E.f F c 5 T : { / ~ X X X X ! ! X X ] / ( : V 2 A J O  +R c , # S e H K 0 z 6 V : < < < < < U 3 ;.e ~ { 4 u B $ U 3 6 / ^ ] ^ ~ ~ ] ] ] ] ^ ^ ] ] ] ~ ] ~ ~ ~ ~ ~ ] ] ] ~ ~ ] ] ] ] ] ~ ~ ] ^ ^ { a 8 ] * Y I l ( ^ k b 4 S < < < < : S l | -.0 -.D s [ $ ) z 1.E.e I c 5 T < { ^ ~ X X X X ",
"X X X ~ ] ^ { < T 7 c F f F.1.z ' @ < t J B 9 B | l S : : : : : U 4 b P ^ ( 4 J Z & _ 4 ] 3 : [ ( { ( ( ( ( ( ( ( { { { { [ { { ( { { _ { _ _ _ { { _ ( { ( ( [ [ : W _ T < # F Y 3 [ ] i a 3 U : : : : : S W 2 B 0 G E w { $ > x 3.D.h I c 5 T < { ^ ~ ~ X X X X X X ~ ] ^ { : T 5 a I e F.2.y )   [ w E H 0 M | l S : : : : : U 4 c P ~ ( 4 Y E $ [ U ] 3 [ ( { [ ] / ^ _ / : ] / < / _ ^ ^ ^ / / ] / / / { { [ : ^ _ _ _ ^ ( _ < V ~ V { # D J 4 [ ^ i b 4 U : : < : : S W 2 z 0 B I v S $ ' x 2.F.h I c 7 V : [ / ] X X X X ! X X X ~ ^ { < T 5 b G f Z.'.-.' # [ o Z B 0 B 8 l S : : : : : U 4 0 k { [ W H p % ~ 5 X l [ { _ _ _ _ _ _ _ _ _ _ { / ^ ^ / ( _ _ / { [ S { ( < ( / _ [ { [ : < < 5 { T < $ F Y 3 [ ] k a 3 U : : : : : : W 2 -.9 -.E s : $ ! z 1.E.e I c 7 T : { / ~ X X X X ! ! X X ] / ( : V 2 ;.E N U.R c , & : e K H 0 z 2 W : < < < < : U 3 ;.f ~ ( 3 n z & : : ( W < [ : { { ( _ { [ { [ ( _ / ( / _ ( { : ( [ { { _ _ { { ( [ { _ { { ( < } ~ l ] * C I 4 [ / i b 4 S : : : : : S l | M 0 -.L s < & ' z 1.E.e F c 5 T < { ^ ~ X X X X ",
"X X X X ] ^ { < T 7 c F e E.1.z , @ S s J z 9 z | l S : : : : : U 4 b O ] [ 4 J Z $ / l X U X ) ' , > > > > > > - > - - - - - - - - - - - - - - - > - > > > , ' ) X : ^ T ( * G Z 3 [ ^ k c 3 U : : : : : S W | B 0 K E w ( & ~ x 3.D.h I c 5 T < { ^ ] ~ X X X X X X ~ ] ^ { : T 5 a I e F.2.y > @ < v I H 0 M | l U : : : : S T 3 c P ] [ 3 Z E @ [ S ~ S ] ) ) > ; > - , - ; > ' ~ - - - - ; - - ; = - - ; - > - - - > - , ) ) ~ [ X V _ & D L 3 [ / i b 3 U S : : : : S W 2 z 0 -.I v S $ , x 3.F.i I c 7 V : ( / ~ X X X X ! X X ~ ] / { < T 3 b G f Z.'.B ! $ ( p Z B 0 B | W S : : : : : S 4 0 i _ < l G p % X 4 ) : X ' , > > - - - - - - - > - - - - > > - ; - ' X ) > - - - - , > , ' ' X : / [ [ $ I Y 3 [ ] k a 3 U : : : : : S W 2 B 9 K J t U # ! z 1.E.g F c 5 T < { / ] ~ X X ! ! ! X ~ ] / ( : V } ;.E P U.i.c , $ S f H K 0 z 2 W : : : < < : U 3 ;.e ~ ( 4 p y & [ { ^ [ ~ ! ) , > , > > , - > - > - > > > ^ ' ) > - > > > , > ' ' X > > > > , ' [ ! 3 ~ & C I 4 [ _ k b 3 U : : : : : S l | M 0 M L r : $ ) z 1.Z.f F c 5 T < { ^ ~ X X X ! ",
"X X X ~ ] ^ { < T 7 c F e E.4.z ' $ : t J B 0 z | 4 S : : : : S U 4 b k ^ [ 4 J Z & ^ l ! : ) , - ; ; = = = = = = = % % = = % % = % = % = = % % = = - ; = ; ; > , ! [ ^ : : @ I Z 3 < ^ k a 3 U : : : : : S l | M 0 K I v ( $ ' y 2.D.h I c 5 T < { ^ ] ~ X X X X X X ~ ] ^ { : T 5 a F e D.2.y ! $ ( v I G b M | l U S S S S S T 3 c P ] [ 3 Z E $ [ : ~ < ) , > ; % = = - ; = ' , ; % % % % % % ; % % = = - % % % = = = = ; - , ) { X S / $ Y J 4 [ ^ k b 3 U S : : : S S l 2 B 9 B E t S $ ' x #+F.h I d 7 V : { ^ ~ X X X X X X X X ] ^ { : T 3 a G g ++).B X @ [ o C B b -.| l S : : : : S U l b i { < l G p * ! W ' [ ) > - ; = = = % = % = = = = % % % ; % = = - ; % = = % % % = = = - > , ) [ ^ : [ $ E Y 3 [ ^ k a 3 U U : : : : S W 2 B 9 M J s S $ ) z 4.E.f F c 7 V < { / ] X X X X ! ! X X ] / ( : V } ;.E P U.R ;.> @ U f K K 0 B 2 W : : : : : S U 3 ;.e ~ ( 4 u y @ : S ^ / ) , > ; ; = = = = = ; % ; = = ; = , = % % > % ; % = = = = = = = ; ; , ' [ ! 3 ] # Z E 3 [ / i b 3 U S : : : : U l | M 0 M D r [ $ ! y 1.Z.e F a 5 T < { ^ ~ X X X X ",
"X X X X ] ^ { < T 7 c F e E.4.z , $ [ t J B 0 z | 4 S S S S S S U 4 b P ^ T 5 E Z & ^ l ! [ ' - = % * * * * * * * * * # # * # # * # * * % * # # # * % % * * % ; - ~ ( ^ : : & I Z 5 < ^ k a 3 U S S U S : S W 2 -.b G E g [ @ ' x 2.D.h I c 5 T < { ^ ] ~ X X X X X X X ] ^ { : T 5 a I e D.2.z > & { w I G 0 M | l U S S S S U T 3 a k ] [ 3 Y E $ < < X ( ' > ; = # # * % % * * ; ; = # # # # * = & & % * # # & * * % # ; - = > ' _ X S ^ & D J 4 < ^ k b 4 U S : : : : U l | -.9 B E t : $ ) x 3.F.e I c } V : { / ] X X X X ! X X X ~ ^ { < T 5 a G g Z.'.-.! @ ( p Z B 0 K | l S : : S S S S l b k { [ l H q % ! 4 ' ( , ; = % * * * * * % % * # * # # # = # * # % % % ; > ' * # * # % = ; - , ( ^ : [ $ I D 5 < ^ k c 3 U S S : : : S W | B 0 M J t < & X x 1.E.f F a 7 V : { ^ ] X X X ! X X X X ] / ( : V } ;.E P U.R a ) & S g K M 0 z 2 W S : : : : S U 3 ;.e ~ [ 3 u B & S S ] / ' > ; % * % * * % % % * % * = % # = # * # = # * # * = % * # ; = = = > ' < ) W ] # Z F 3 [ / k b 4 U S : : : : U l | K 0 K Y s ( $ ' B 4.Z.e F c 7 T : { ^ ~ ~ X X X ",
"X X X ~ ] ^ { < T 5 c F e E.4.z , & : s J z 0 B 8 4 U S S S S S T 4 b P ] [ 3 J C $ ^ l ! ( , = * # & & $ & & & & # $ $ $ & $ $ $ $ $ $ $ $ $ $ $ & & # $ & # % = ] ( ] S < & F Z 5 < ^ i c 3 U S : S S : S l 2 M b I E w [ @ ) x 2.D.h I c 5 T < { ^ ] X X X X X X X ~ ] ^ { : T 5 c I e D.2.y ' @ [ w I H 0 K | l U S S S S U T 3 a k ] < 3 Y E $ < : X { , ; % * $ $ & # & $ & = & $ $ @ $ $ # $ @ $ & & $ $ @ $ & # & > % % ; > / X V / # D J 3 < ^ k b 4 U S S : : : U l | B 0 -.E t < $ ' A 3.F.h I c 7 T < { ^ ~ X X X X ! X X X ~ ^ { < T 3 b G g ++'.z !   { p Z -.0 M | l S S S S S S U 4 0 i { ( W H q # ! l ' / - = % # & & & & & & & & $ $ $ $ $ # $ & & $ & & = ' % & $ & $ # % * = - { ~ U < & I Y 5 < ^ k c 3 T U T : : : S l | B 0 M J v [ & X y 1.Z.f G a 5 T < ( / ~ X X X X X X X X ] / ( : V } ;.E P U.i.c - * S g K M 0 z 2 W S : : : : S T 3 d e ~ < 3 u B $ S < ] ] > = * & & # & & # # * # # & # = $ * $ * $ * $ & & * ; # # & & # # * > > { ) 3 ^ # C F 4 < / i b 4 U S : : : S U l | K 0 K D s < $ , z 1.E.h I c 7 V S ( ^ ~ ~ X X X ",
"X X X ~ ] ^ { < T 7 c F e Z.4.y , & [ s J z 0 -.8 4 U S S S S S U 4 b P ] [ 4 J Z $ ^ l ! { - % # $ $ @ @ $ @ @ @ @ @ @ @ @   @ @ @ & @ @ @ @ @ @ $ @ $ @ $ $ # = > _ ] S : # F Z 5 < ^ k c 3 T S : S S S S l | H a G L w [ @ ' x 2.D.h I c 5 T < { ^ ] X X X X X X X ~ ] / { : T 7 c F e D.2.z ' & [ w E G 0 M | 4 U S S S S U T 3 a k ] < 3 Y J $ [ U X _ - = * # @ @ @ # $ @ @ @ @ @   @ @ @ #     $ $ @ @   @ @ @ & $ $ & # % - / ) U / % D J 3 [ ^ k b 4 U S S : : : U l | B 0 M E t S $ ) A 3.F.i I c 7 T < { ^ ] X X X ! X X X ~ ~ ^ { < T 5 b G f Z.'.z ! $ ( o Z -.0 K | l U S S S S S U 4 0 k { ( W H p % X 7 , _ > % & * & @ @ @ $ @ @ @ @ $ @ $ @ $ $       @ @ @ & @ @ @ $ @ @ = # * = _ ~ : < & E D 3 [ ^ k a 3 T U S : : S S l | z 0 -.E s : $ ! x 4.Z.f G a 5 T < ( / ] X X X X X X X X ] / ( : V } ;.E P  +R c , $ T f F K 0 z 2 W S : : : : S T 3 ;.e ] [ 3 u B & S < ] ~ ; % * $ $ $ $ & # $ $ @ &   $ &   & @ # $ &   $ & , # & $ @ @ # % # * ; _ ) l ^ * C F 4 < / k b 4 U S S : : S U l | -.b K D s [ @ ~ z 1.F.e F c 5 T : { ^ ] X X X X ",
"X X X ~ ] / { < T 7 c F f Z.4.z ) $ < v J B 0 -.8 4 U S S S S U T 4 b P ] [ 4 J Z $ / W ! _ - * & @ @   @ @ @ @ @ @       @   @ @   @   $ @     @ @ @ $ @ @ $ # % - _ ] : < $ F Z 5 < ] k d 3 T S S S S S S l | -.a G L w S @ - z 2.D.i I c 7 T : { / ] ~ X X X X X X ~ ] ^ { : T 7 c F e D.2.B ) * : v F H b M 8 4 U S S S S U T 3 a k ] [ 3 Y J @ ( U X / - % * #     @ & $                 $ $ .   @ $           @ $   @ & & * ; ^ ! U / * Z J 4 [ ^ P b 4 U U S : : S U l | B 0 M I v S $ ' A 3.F.h I c 7 T < { ^ ] X X X X X X X ~ ~ ^ { < T 5 b F f Z.).-.! & / n C -.0 M 8 4 U S S S S S T 4 b k _ ( W H q % ! 4 > ( > = * $       @ @ & @ @           @     @         # # & # @     # & # = _ ~ U < # E D 3 < ] k a 3 T U S S S : S l | z 9 B E s < @ ! x 4.Z.f G a 5 T < ( / ^ ~ X X X X X X X ] / ( : V } ;.E k U.i.c , $ U f G K 0 y 2 W S : S S : S T 3 ;.e ~ [ 3 u -.$ S < ~ ~ ; * * @ $ & @ @ & @ &   $     # . #   $ @ @ @ & $ # # $ $     $ & # # ; _ ) V ~ = C F 4 < / k b 4 U S S : : S U l | -.b K Y s { @ ' y 1.E.e F c 5 T < { ^ ~ X X X X ",
"X X X ~ ] / { < T 7 c F f Z.4.z ) $ : t J B 0 -.8 4 U S S S S U T 4 a P ^ [ 3 J C & / W ) _ - * & $ @ @ & @ @     @       @     @     @ $       @ @ @ $ @ @ $ & * > _ ] : < $ E C 5 [ ] k d 5 T S S S S S S l | K c F L w [ @ , x 2.D.i I c 7 T : { ^ ] ~ X X X X X X ~ ] ^ { : T 7 c I e  +2.-.- & < v I K 0 M 8 4 U S S S S U V 3 c k ] [ 3 Y E @ < < X / ; % * &     @ $ @   @             $ #     @ $         @ @ @     $ & * ; / ! W _ $ Y L 3 [ ] P b 4 T S S : : S U l | -.0 M I t : & > x 3.F.i E c 7 T < { / ] X X X ! X X X ~ ] ^ { < T 5 a G g ++).B ! @ { p C -.b -.8 4 U S S S S S U 4 0 k { ( l G q * ) 3 , ( > = & * # @     & $   @ @       . @       .     @ @   @ # $ @ @ & & # = _ ~ T [ $ F D 3 < ] k a 3 T S S S S S S l | B 9 -.J t < @ ! y 1.Z.f G a 5 V < ( / ] ] X X X X X X ~ ] _ ( : V } A E k D.i.d ' $ T f H G b -.2 W S : : : : U T 3 d e ~ [ 3 u -.& S : ] ] = * * $   $   @ $ $ $   $     @   @   & @ $   $ $ @ # @ $     $ $ & * - / ) l ~ % C I 3 : / k b 4 U U S : : S U l | -.b M D s < & > y 1.E.e F a 5 T < { ^ ~ ~ X X X ",
"X X X ~ ] / ( : T 7 c F f Z.4.z ' # : s L -.0 -.8 4 U S S S S U T 4 a O ^ [ 3 J Z $ / W ! _ ; * & $ @ $ % * # # @ @       @     @   @ @ @ @   @ @ @ @ $ @ @ $ # % - _ ] < < $ J Z 5 [ ^ k c 5 T S S S S S U l 8 B b K J w [ @ ' x 2.D.i I c 7 T : { ^ ] ~ X X X X X X ~ ] ^ { : V 7 c I h  +2.-.- & < v E K 0 -.8 4 U S S S S U T 3 a k ] [ 5 Y E @ [ < X / > % * & @ @ @ & @   @             $   @   @ @       @ @ @ & $ @ $ & * - / ! U { & L L 3 [ ^ P b 4 T S S : : S U 4 8 -.0 K I t : $ , y 3.E.h I c 7 T < { / ] X X X ! X X X ~ ] / { < T 5 a G f ++).B ) @ [ p C -.b M 8 4 U S S S S S U l 0 k _ [ W G q # ) } , < ' % % * = $ @ @   $   @ @ @ @             .   $ @ @ @ $ # @ @ & & & * ; _ ~ T [   I Y 5 [ ] k a 3 T U S S S : S l | B 0 -.J t :   ) x 1.E.f F a 5 W S { / ] ~ ~ X X X X X X ] / ( : V } ;.E k D.i.d - $ V g H G b B | W S : S S S S T 3 d e ~ [ 3 C B # < { ^ _ ; * & @ @ $ @ @ & @ $   $   @ @ & &   & @ &   @ @ @ $ @ $   @ $ & & # ; _ ) 2 ] = C I 3 < / k a 3 U U S : : S U l 8 -.0 -.D s [ @ ' z 1.F.e F c 5 T : { ^ ~ X X X X ",
"X X X ~ ] / ( : V } c F e E.4.-.>   : t L M 0 M 8 4 T S S S S U T 3 a P ^ [ 4 J Y & ^ W ! _ - % & $ @ # $ & # # *         @     $         @   @ $ $ @ $ @ @ $ # * - { ] < [ # J C 5 [ ^ k c 3 T S S S S S U 4 8 B b H J w [ $ ' A 2. +i I c 7 T : { ^ / ~ X X X X X X ~ ] / { : V 7 c I e D.3.-.- & < t I H b M 8 4 U S S S S U T 3 a k ] < 5 D E @ [ : X ^ - % % & @ @ @ & @   @           @ @ @   @ @ @       @ @ @ @ $ $ $ # % - / ! T _ * L L 4 < ^ P b 4 T U : : : S U 4 | -.0 K I t : & ] ;.3.F.h I c 7 T < { / ] X X X X X X X ~ ] / { < T 5 a F f Z.).B ' @ { n C -.b M 8 4 U U S S S S U 4 0 i _ < 3 G q * X l > / - = * ; @ @ $ $ $ @   @ &   @ @ $ $     . @       @ @ @ & % & & * # * ; / X U < $ F Y 3 < ] k a 3 T S S S S S U l | B 0 -.J v <   ~ x 1.F.f F a 5 T < { / ] ~ ] ~ X X X X X ] / ( : V } A E i D.j.c , & U f H K b B | l S : S S S S T 3 d e ~ [ 3 u B $ < [ ^ ~ ; * # @ @ $ @ @ $ @ $   & @   @ @ $   &   #   $   @ # @ $ @ @ $ $ & * ; { ! W X ; C E 5 : / P a 3 T S S : : S U 4 | -.0 B D r < $ ' z !.F.e F a 5 T < { ^ ~ X X X X ",
"X X X ~ ] _ ( : V 7 d F e F.4.B , $ [ t D M 0 M 8 4 T S S S S U T 3 a P ^ [ 4 J Y & / W ! _ > % # # % % $ = & * & @       @     *         @   @ @ @ @ $ @ @ $ # * - { ] < < # J Z 5 [ ^ k d 3 T S S S S S S 4 8 B b M J v [ $ , y 2. +i E c 7 T : { ^ ] ~ X X X X X X ~ ] / ( : V 7 d I h D.2.B - $ < v I K 0 M 8 4 U S S S S U V 3 a k ] [ 5 Y E @ ( < X ^ - % % $ @ @ @ & @   # $         @ @ @ @   @     @   @ @ $ @ $ $ $ # % - _ X T _ # D L 3 [ ^ O c 5 T U S : : S U 4 | M 9 K I v [ $ ' y 2.D.i I c 7 T : { / ] X X X ! X X X ~ ] / { < T 5 a F f Z.).B ' # { n C M b -.8 4 U S S S S S U 4 0 i { ( W K q = X l ' U ! = % & @   @ @ $ & $ @ @     & & & $ @     .   @ @ @ $ % # * $ & & * ; _ ~ : < & I D 5 < ] k c 3 T U S S S S U l | B b M L v S $ X x 1.F.f F a 5 T < { / ] ~ ~ ~ X X X ] ~ ] / ( : V } ;.E i  +i.b X & : f G M b B | l S : : : S S T 3 d e ~ [ 3 C B & < U X X ; ; % #   $   @ $ @ & @ @     @ @ &   &   $   @ @ @ & & * & @ & $ & * - _ ) l ] % C I 4 < / k a 3 T U S : S S U 4 8 -.b B D s < & ! B !.F.e F a 5 T < { ^ ] X X X X ",
"~ X X ~ ] / ( : T 7 c F e F.4.B ' @ : t L M 0 M 8 4 T S S S S U T 3 a P ^ [ 3 E Z $ / W ! < - * # # & & @ @ @ @ @ @           .                 @ @   $ @ @ $ # * - _ ] : [ & F Z 5 [ / i a 3 T S S S S S S l | B b M L v : $ - y 2.D.i I c 7 T : { ^ ] ~ X X X X X X ~ ] / { : V 7 c I h D.2.B - @ : w I H 0 M 8 4 T S S S S U V 3 c k ] [ 3 Y I $ [ < ~ / - % % $ @ @ @ & @   %           @ @       @         @ @ @ @ $ $ $ # % - / ] T _ $ L J 3 < ^ O c 3 V S S : : S U 4 | M 0 K E v U & ' x 2.D.h I c 7 V : { / ] X X X X X X X ~ ] / { < T 5 a G f Z.>.-.' $ { n Z M b K 8 4 U S S S S S U 4 0 k _ ( l H u % X l , [ > * & @ @     @ @ $ $ $   @   * $     @ $     . $ @   @ % # # $ $ # * ; _ ] < [ $ I D 5 < ] k a 3 T U S S S S U l 8 B 0 -.J t < @ ] y 1.E.e I c 5 T < { / ] ~ X ~ X X X ~ ] ] / ( : V } ;.E i  +i.b ' $ U f G H b B | l S : S : S S T 3 d e ~ [ 3 C -.@ _ < ] / , ; % ; % $   $ # @ $   @     @ $ $ . &   @ @ & &   @ $ # & $ $ $ & * - { ) 4 X = C I 3 [ ^ P c 5 T U S S S S U 4 8 B b -.D r [ $ ' B !.F.e I a 5 T : { / ] ~ X X X ",
"X X X ~ ] / ( : V 7 c F e F.4.-.> @ < v D M 0 M 8 4 T S S S S U T 3 b k ^ [ 3 E Z & _ V X { - * & & # @ @ @           .     . .     . . . %       @   $ @ @ $ & * - _ ] < ( # F D 3 [ ^ h c 5 T S S S S S U l 8 M a F L v < $ , y 2.D.i I c 7 V : ( / ] ~ X X X X X X ~ ] / ( : V 7 c I h D.2.z ' $ [ j F H 0 M 8 4 U S S S S U V 3 c k ^ [ 3 Y E $ ( < X ^ - * % $ @ @ @ & @ @       .   .   @ . @   @   .     @ @ @ @   & $ # * - / X T ( @ Y J 3 < ^ P b 3 T S S : S S U 4 8 M 0 K E v [ * ) A 3.F.i I c 7 V : { / ] ~ X X X X X X ~ ] / { < T 5 a G f ++>.z !   { n Z M b G 8 4 T S S S S S U 4 0 k _ [ 4 H q * X 4 , { ; # & $ @       @ & & $ @ @ # @ @ $ $ $ . @   $   @ $ $ * # $ # @ # % , _ ~ U < $ I Z 3 : ^ k a 3 T U S S S S U l | B b M L t S @ _ x 4.E.f F a 7 T < { / ^ ~ X X ~ X ~ ~ ] ^ / ( : V } d E i  +i.c , & S f H H b B 2 l S S S S : S T 3 d e ~ [ 5 C -.@ _ < ~ { , ' # * $ = @ @ $   $   @ @ .   $   . $   @ @ $ @   @ $ $ @ @ $ & # * - ( ) l ~ # C F 4 < ^ k b 3 V U S S : U U 4 8 -.b M Y s < @ ' M 1.F.e F c 5 T : { / ~ ~ X X X ",
"X X X ~ ] / { < V 7 c I e F.4.B ' $ [ v D K 0 M 8 4 T S S S S U T 3 a k ^ [ 3 E Z $ _ V ! _ ; * & $ @       @       . .     . .   . . . . $ % .       $ @ @ @ & * - / ~ < [ $ I D 3 [ ^ k c 5 T S S S S S U l 8 -.a F L w [ $ ' x 2.D.i E c 7 T : { / ] ~ X X X X X X ~ ] / ( : V 7 c I h D.2.z ' & < j F K 0 -.8 4 T S S S S U V 3 a k ] [ 3 Y E $ [ < ~ ^ ; * % $ @   @ &       .   . .       . . . @ . .     @ @   @   $ $ # * - _ X V { & Y J 5 < ] P b 3 T S S S S S U 4 8 M 9 K I w S # ) A 3.D.h I c 7 T < { / ] ~ X X X X X X ~ ] / { < T 5 a F f ++).z ^ @ : o Z M b G 8 4 T U S S : S U 4 0 i / [ l H p % ~ 4 ' [ ; * $ @ @ @ @ @ @ $   . & $ # #   % & $ . .     & @ @ # & @ $ @ $ % * - ^ ~ S [ & F Z 3 < ^ k a 3 T U S S S S U l 8 B b H J t S & ^ x 1.E.f F a 7 T < { / ] ~ X X ~ ~ ~ ~ ] ] / ( : V } d E i  +j.b > $ S g H G b B | l S : S S S S T 5 d e ~ [ 5 u -.& { : ] _ ) % = = * - @   $   $ $ @   * . & .   $ . $       @ $ $ $   @ $ $ & * ; < ) W ] * C I 4 [ ^ O d 5 V U U S S S U 4 8 B b -.L m < $ ! -.!.F.e I a 5 T : ( / ] ~ X X X ",
"X X X ~ ] / { < T 7 c F e E.4.B , $ [ v D K 0 K 8 4 T S S S S U T 3 a P ^ [ 3 E u & ^ W ! / ; * & @ @             . . .   . . + . . . . .   %         $ @ @ @ & * ; / ~ < < # F Y 3 [ ^ k c 5 T S S S S S U l 8 M a G J w < @ > x 4.D.h I c 7 T : { / ] ~ X X X X X X ~ ] / ( : V 7 c I h D.2.x ) $ [ j F K 0 -.8 4 T S S S S U V 3 c k ] [ 3 Y E $ { < ^ ^ ; = % @     @ $ & .   . . . . . @   . . . @ . .     @   @     @ & # * - { X V { $ D L 5 < ^ P b 3 T S S S S S T 4 8 M 0 H F v : & ) ;.3.D.i I c 7 V : ( / ] ~ X X X X X X ~ ] / { < T 5 a G f ++).-.'   { m Z -.b G 8 4 T U U S : S U 4 0 P _ ( l G p % ] 5 ' / - % & @     @ @ @   .   @ $ . . @ $   . . . .   $   $ $ $ * #   $ * # = / X U [ * F Z 3 : ^ i a 3 T S S S S S U 4 8 -.b M J t S   / ;.1.E.f F c 5 T < { _ ^ ~ X X X ~ ~ X ~ ^ / ( : V } ;.E i D.j.a ) * S f G H b B | l U S S S S S T 3 ;.e ] < } u -.% [ V ^ [ - = * - * @ $   % @ $   & $ # . @ . @ @   @ . @ @   @ @ $   @ @ $ & # ; { ) l ~ & u I 4 [ ^ k a 3 V U S S S U T 4 8 -.b -.D r < % , -.1.F.e I c } V : ( / ] ~ X X X ",
"X X X ~ ] / ( < T 7 c F f F.4.z ) $ : t D K 0 K 8 4 T S S S S U T 3 a P / [ 3 J Y & _ W ! ^ ; * & @               . . .     + + . + . . + @ @ .       $ @ @ @ & * = / ~ : : & F Y 3 [ ^ i c 5 T S S S S S U l 1 K a H J w < $ > y 4.D.h I c 7 T : { / ] ~ X X X X X ~ ~ ] / ( : T 7 c I h D.2.y > $ [ w I M 0 -.8 4 T U S S S U T 4 a k ] [ 3 Y L & _ [ ] / - * % @     @ $   .     . . . . @ .   @ . @ . +         @   @ @ & & * - _ ~ W / # L D 3 : ^ P b 3 T S S : S S T 4 | M b H I w [ & ! d 3.D.i I c 7 T : ( / ] ~ X X X X X X ~ ] / { < T 5 a G f ++).B ! @ _ m Z M b K 8 4 T U S S S S T 4 0 P _ < 4 G q # ~ l ' _ , % & $     .       @ @ $ . .   & $   @ @       . @ $ ; # =     @ # * ; _ ~ S < # I Y 3 [ ^ P c 5 T U S S S S U 4 | -.a M L t U $ / x 1.E.f F c 7 V : ( / ] ~ ~ ~ X X X X ~ ] / ( : V } ;.E k  +j.d , & U g F H b B | l S S S S S S T 3 y f ] : 7 q K $ < T ^ U - = # @ @ $ > & & & & . =   * . @ .   @   @ +   $ @ & @ $ @   $ $ # # ; { ) 4 ] * C I 3 < / P b 4 T U S S S U T 4 8 -.b -.Y r S & , -.1.E.e I c } V : ( / ] ~ ~ X X ",
"X X X ~ ] / { < T 7 c F e F.4.B ' & ( w D K 0 K 8 4 T S S S S U T 3 a P / [ 3 J Y & / W X / ; * & @               . . +   . + . . . . . + @ @ .       @ @ @ @ $ * ; / X U : & I Y 4 < ^ i c 5 V S S S S U U 4 1 B a M J v : $ ' x 4.D.h F c } T : { / ] ~ X X X X X ~ ~ ] / ( : V 7 c F h D.2.y - $ < w I M 0 -.8 4 T S S S S U V 3 c i ^ [ 3 Y I @ { < ] / - % % @     @ $   . . . . . .     . .   . @ . .   @ * $ $ @ &   & & # - _ X W _ * D L 3 < ^ P b 5 V S : : S S T 4 | K 0 G E w < & ) ;.3.D.i I c 7 V : ( / ] ~ X X X X X ~ ~ ] / { < T 5 a F f |.>.B ~ @ _ m Z -.b -.8 4 T U S S S U U 3 b P / [ 4 F q * ! 4 , [ > % # & @ @ @         .   @ @ . @ = * @   $   @   * % $ # # $ @ & # * ; / ] U ( # E Z 3 [ ] P a 3 T U S S S S U l | z a M J t : $ ^ A 1.E.e F c } V < { / ] ] ~ ~ X X X ~ ~ ] / ( : V } d E i  +j.c - & T g G F b z | l U S S S S S T 3 c f ] < 6 q K * [ [ ] ^ > ; = @ $ # % * * $ ; . & . .   @ . @ $   @     &   $ @ @ $   @ $ & # , ^ ' 4 ] % Z I 4 [ ^ P b 3 T U S S S U U 4 8 -.b B Y s T & ! M 1.E.f F d 6 V : { / ] ~ X X X ",
"X X X ~ ] / { : V 7 c G e F.4.B ' & [ v Y K 0 K 8 4 T S S S S U T 3 a P / [ 3 E Y # / W ! { = * & @               . . +   . + .   . . + . @ $ . .     $ @ $ @ $ * ; / X V < & I Y 3 < / i d 5 T S S S S U T 4 1 B b K J w : @ ' x 2.D.h F c 7 T : { / ] ~ X X X X X ~ ~ ] / ( : V 7 c I h D.3.x , $ [ w I M 0 -.8 4 T U S S S U T 3 c k ] [ 3 Y G % / S ] / ; * % @     @ $ . . . . . . .     + . . . @ + @ @     $   @   & * * * ; / X V / % L J 4 < ] P b 5 V U S S S S U 4 | M 0 K E v : & ) A 3.D.h I c 7 T : ( / ] ~ X X X X X ~ ~ ] / { < T 5 a G f Z.>.B ] @ _ m Z -.b M 8 4 T U U S S S U 4 0 P _ ( 4 G u % ~ 3 , ( - ; #       $ @ @   .     . @ @ # ; &   . .   & % % # & %   . @ & # % , { ] U [ $ I C 3 [ ] P a 3 T U S S S U U l | z b M J t : $ / ;.1.E.e F c 7 V : ( _ ] ~ X X X X X X ~ ] / ( : V } d E i  +j.c > * U g G G a z | l U S S S : S T 3 c h ~ [ 3 u K # : [ ] ] - * - $   & # & & @ $ . @ . . @ $ . . & .       &   @ $ $ # &   $ & # > / ) V ~ * C I 4 [ ^ O a 3 T U S S S U U 4 8 B a -.D t : $ ~ -.1.E.e F c } V : ( / ] ~ X X X ",
"X X ~ ~ ] / { : V 7 c G f F.4.z ' $ : t D K 0 H 8 3 T S S S S U T 3 a P / [ 3 J Y & _ W ! _ ; * & @               .   +   . . + . + + + . & .         @ @ @ @ $ # = / ~ W [ $ I Y 4 [ ^ h c 5 T U S S U U T 4 8 B b M J w : $ , x 4.F.h F c 7 V : < / ] ~ X X X X X ~ ~ ] / { : V 7 c E i D.2.A ' $ < w I -.b -.8 4 T U S S S U T 3 c P ] [ 3 Y G = / : ] / - * * @     $ $ .   . . . . .   . $ .   . @ & .   . @         # # & * ; _ ~ V _ * D L 4 < ^ O b 3 T S S S S U T 4 | K 0 K E v : # ) A 3.D.i I c 7 T : ( / ] ~ X X X X X X ~ ] / { < T 5 a G g ++).B ~ @ / n Z M b M 8 4 T U S S S S U 4 0 P _ [ 4 H p # X l , / > = $ @ . # @     @     . . . . @   @ $ = % = & @ & $ % * @ @   * & = - { ^ S [ $ E C 4 < ] P a 3 T U S S S U T 4 | B b M J v : $ ^ d 1.F.e F c 7 V : [ _ ] ~ X X X X X ~ ~ ] / ( : V } d E i  +j.a , @ V g F H a M 8 l U S S S S S T 3 d e ~ < 5 u G & : < ^ ( ; * * $   @ $ $ & # @ . @   . @ @ .   $ . @   . & . $ # $ & $ @ @ & # ; _ ) l ~ * C E 4 < ^ P b 3 T U S S S U T 4 8 -.a -.D v ( $ ) M 1.E.f F c 5 V : ( / ] ~ ~ X X ",
"X X ~ ~ ] / { : V 7 c F g F.4.z ! & < v D H 0 K 8 3 T U S S S U T 3 a k / [ 3 J Y & _ V ! _ = * & @               .   + @ . . +   + + + . @ $ .         @ @ @ $ # = _ ~ T ( @ I Y 3 [ ^ i d 5 T S S S U U T 4 8 -.b K J v U $ ' x 4.D.h F c 7 V : ( / ] ~ ~ X X X X ~ ~ ] / ( : V 7 c E i F.2.x , @ : w I M 0 -.8 4 T U S S S U V 3 a k ] [ 3 D F * _ U ~ / ; * * @ @ @ $ & .     . . . .   . . +       .       $   @   @ % % & # ; _ X U _ $ L J 4 < ^ k a 3 T S S S S U T 4 8 -.b M E t : & ' A 2. +i I c 7 V : { / ] ~ ~ X X X X X ~ ] / { < T 5 a G g ++).y / $ _ m Z M b -.8 3 T U S S S S U 4 0 k _ [ l H p * X V ' { = # $ @           . . @ @   .   # + + . $ # * & $ $ & = & &     $ & # - ( ~ S < # I Z 3 [ ] P a 3 T U S S S U U 4 | -.b K J v : @ X x 1.E.e F d 7 V : ( / ] ] ~ X X X X X ~ ] / ( : V } d E i  +j.d - & T e I F a -.8 l U S S S S S T 3 d h ] < 5 u M # : < ] ] ; = & ; @ @ & & $ * $   @   @   @ .   & @     . $   # = @ @   @ @ & # ; _ ) V ] % C E 3 [ ^ P b 3 U S S S S U T 4 8 -.a M Y s ( @ ) y !.E.f F d 7 T : ( / ] ~ X X X ",
"X X ~ ~ ] / ( : T 7 c F f F.4.z ! $ [ v D K 0 K 1 3 T U S S S U T 3 a k _ < 3 J Y $ { l X _ = * & @               .   . @ . . + . + + . . @ * .         $ @ @ $ # ; / ~ S ( & I Y 3 [ ^ k c 5 T U S S S U T 4 8 -.b M E s V # ' M 2.D.h F c 7 V : < / ] ~ X X X X X ~ ~ ] / ( : V 7 d I h F.2.A , @ < w E M 0 -.8 4 T U S S S U V 3 a k ] [ 3 Y F * _ U X ^ ; % * @   @ @ @         .       . . .       + .   @ @ @ @ $ $ $ $ & * ; { ~ S / % L J 4 < ^ k a 3 T S S S S U T 4 | B b K J v S @ ) ;.2. +h I c 7 V : ( / ] ~ X X X X X ~ ~ ] / { < T 5 a G g ++).B ^ . / r C M b M 1 3 T U S S S S U 4 0 k { [ l H q * ~ l ) { ; * & @ $ & $ @ & @ + . .   @ @   $ *   & # $ $ $ & $ & & * @ @ & & * - / ~ : < & E C 3 [ ] P a 5 T U S S S U U 4 8 -.0 H J v : @ ) A 1.F.h I c 7 T S ( / ] ~ ~ X X X ~ ~ ~ ] / ( : V } d E k U.j.d - # U h G G a z | l U U S S S S T 3 ;.i ] < 5 C K @ : < ^ ^ - % & @   @   @ $ & @ + @     . $ .   @     $ . @ @   # @ & @ $ * & * ; _ ! W ^ # u I 5 : ^ P b 4 U S S S S U T 4 8 M a M Y s S @ ! y 1.E.f F d 6 4 : ( / ] ~ X X X ",
"X X ~ ~ ] / ( : V 7 c F f F.4.z ) $ [ v D K 0 K 1 3 T U U S S U T 3 a P / [ 3 J Z & / V ! / = * $ @           .   . @ . @   . + . + + + . @ . .     . $ $ @ @ $ # = / ~ U ( $ I Z 3 [ ^ k c 3 T U S S S U U 4 8 M b K J t S $ ' z 4.D.h E c 7 V : [ / ] ~ X X X X X ~ ~ ] / ( : V 7 c F h F.2.A ' @ < w E M b -.8 4 T U S S U T T 3 c O ~ [ 3 Y I * / S ~ _ ' = * @   $ @ $     .   . .     .   . .     +     &   @ & #   $ $ # ; ; { X : ] & L J 3 [ ^ P a 3 T S S S S U T 4 8 -.b M E t : $ ' A 3. +h I c 7 T : ( / ] ~ X X X X X ~ ~ ] / { < T 5 a G g ++).-.~ . _ r Z M a M 1 3 T U S S S S T 3 b i _ [ l G p * ] l ' ( ; * & & $ @ @ @ @ @ &     + +   @ @ @ @ @ +   # $ * & % & & & & & * * = / ] S [ $ I Y 3 : ^ P a 3 T U S S S U T 4 8 M b H L v : & ' A 1.F.h I c 5 T < { / ] ~ ~ X X X X X ~ ] / ( : V } d E i U.j.d , $ S f G H b B | 4 T U S S S U T 3 d h ] < 5 C M & : < ] ^ - = # & @ @   @ $   # + @ .     $ .   $   . $ . @ $   &   $ $ $ $ & # ; _ ! l ] # Z F 4 [ ^ O b 4 T U S S S U T 4 8 -.c K Y r < $ ) y !.E.f F c } T : ( / ] ~ ~ X X ",
"X X ~ ~ ] / { : V 7 c I e D.4.z ' & ( v D M 0 H 8 3 T U U S S U T 3 a k / [ 3 L Z # _ V X _ = * $ $               . @ + @ . . + . + + .   . . . .       $ @ @ $ # - / ~ U { $ F Z 3 [ ^ i d 5 V U S S U U T 4 8 M b M J v : & , z 4.D.i I c } V : ( { ] ~ X X X X X ~ ~ ] / ( : V 7 c F h F.2.;.) $ : w E M b B 8 4 T U S S U T T 3 a P ~ [ 3 Y F & / W ~ [ , = % @     @ @     .   .   .       . .     + .   *   & # # @ @ @ & ; ; _ ! V _ & L J 3 [ / P a 3 T S S S S U T 4 8 -.b K J t : # ) A 3. +h I c 7 T : ( / ] ~ X X X X X X ~ ] / { < T 5 a G f ++).B ~   _ m C M a -.1 3 T U S S S U T 5 a k _ ( W G q % X W ' _ ; # $ $ $ $ & @   @ @ @ $ # + $ . .   $   & @ $ @ $ # * & * # ; & # * ; / ] : ( * G Y 3 [ ] P c 5 T U S S U U T 4 8 -.b G D w < & ' A 1.F.h I c 7 T < { / ] ~ X X X X X ~ ~ ] / ( : V } d E i U.j.d > & : g F H a B | l U S S U U U T 3 d i ] [ 5 Z H $ : [ ] ^ > # $ @ @   .   # & @ .       . $ .   @ .   $ .   &   $ % #   @ $ * * ; { ! V ~ * Z E 3 [ ^ O c 3 U U S S S U T 3 8 K a M Y r S @ ) y 1.Z.f F c 7 T : ( / ] ~ ~ X X ",
"X X ~ ~ ] / { : V 7 c I f E.4.y ! $ [ v D M 0 H 1 3 T U U S S U T 3 a k / < 3 J Z & _ V X { = * $ $ @             .   + @ . . + . + . . + .   .     @ @ $ @ @ $ # - / ] U { $ I Z 3 [ ^ i c 7 V U S S U U V 4 8 M b -.E t T # ' y 2.D.h F a 7 V : ( / ^ ~ X X X X X ~ ~ ] / ( : V 7 c F h F.2.;.' @ [ w E -.0 -.8 4 T U S S U U T 3 c P ~ [ 3 Y I @ / : X { - * ; @     $ @ .       . . $ & .   +           & & @ @ @ $     @ & % ; _ ! V ^ $ J E 4 [ ^ P a 3 U S S S S U T 4 8 -.b K J v < & ' ;.3.D.h I c 7 T : ( / ] ~ X X X X X X ~ ] ^ { < T 5 a F f ++'.B ~   { m C M b M 8 3 T U S S S U T 3 b k { < l G q & ! l ' { > % & @ @ $ @ @ @ @     @   . # @   . + . @ & %     . # & # #   @ * * ; / ~ S [ & F Y 4 < ] P a 5 T U S S S U T 4 8 M b H L v [ $ ' ;.1.E.e F c 7 T : ( / ] ~ ~ X X X X X ~ ] / ( : V } d E i U.j.;.; # : g G M b B | l U U S S U U V 5 d h ] [ 5 C K & S : ^ ^ > * & @ @ @     @ . @ . @ @ . .       $ + @ $ .   & $ $ @ % $ @ @ & * ; _ ! W ] * Z E 3 < ^ P a 5 T U S : S U T 3 1 K a K D s < $ ! x 1.E.f F c 7 T : ( / ] ~ ~ X X ",
"X X ~ ~ ] / ( : V 7 c I f E.4.y ' @ [ t D M 0 H 1 3 T U U S S U T 3 a P / < 3 J Y # _ V X _ = * $ $               .   . @ + .   # . . . + .   .     @ $ $ @ @ $ # ; { ] T { # I Y 5 [ ^ i a 7 V U S S U U T 4 8 M b -.E v < * - B 4.F.e G a } V : ( / ] ~ X X X X X ~ ~ ] / ( : V 7 c I h F.2.;.) @ < w E M 0 B 8 4 T U U S S U V 5 ;.O ~ [ 4 Y E $ / : ] / ; * * @     $ @ .   . .     @   . $ +   @ @ .   @ @ @           $ & * ; _ ! U _ & L E l [ ^ P a 5 U S S S S U U 4 8 -.b M J t < & - y 3.F.h I c 7 T < ( / ] ~ X X X X X ~ ~ ] ^ { < T 5 a G g Z.).B X   ( m C -.b K 8 3 T U S S S U T 4 b i { [ l G q # X V ' { ; * & $ $ @ @ @ @       @     . . . @ . .   & ; @   $ & @ # $   @ * # = ^ ] : [ & F Y 4 [ ^ P a 5 V U S S S U T 4 8 M b K L w [ $ X ;.1.E.e F c 7 T : ( / ] ~ ~ X X X X ~ ~ ] / ( : V } ;.J i U.k.d , $ T j G M b -.| 4 U U S S U T V 7 A i ^ < 7 p H & : < ^ ^ - * $ @ @   .   @   $ . $ $ + .     . $ . @   .   # @ &   > & $ $ * * ; { ! l ^ # Z J 4 [ ^ O b 3 T S S : S U T 4 8 K c K Y s < $ ' y 1.E.e I c 7 T : ( / ] ~ ~ X X ",
"X X ~ ~ ] / ( : T 7 c I e E.4.y ) @ [ v D M 0 K 1 3 T U U U S U T 3 a P / < 3 J Y & _ W X _ ; * $ @             @ .     $ # * * % . . . + . . .       @ @ @ @ $ # ; [ ] T { $ E Y 3 [ ^ i a 5 V U S S U U T 4 8 M b M E v : $ , M 2.D.e G a } V S ( / ] ~ ~ X X X X ~ ~ ] / ( : V 7 c I h F.2.;.) $ < w E M b M 8 4 T U S U S T V 2 ;.O ~ [ 3 D J & _ : ~ _ - % * @ @   $ @ .   .           $   +       . @ @ @   ; $       @ & * - _ ! S ^ * L E l [ ^ P a 3 U S S S S U T 4 8 -.b -.E w : * ) A 3.D.h I c 7 T < < ( / ^ ] X X X X ~ ~ ] ^ { < T 5 a G g Z.'.-.!   { m C -.b M 1 4 T U S S S U V 3 b k _ [ 4 H u * ~ W ' { ; # & @ @ $ # $ @ @   . @     @ & @   . + . &           # ; @     # * ; / ~ : [ & F Z 3 [ ^ k a 5 T U S S U U T 4 8 -.b K J v < @ ) A 1.E.e I c 7 V : ( / ] ~ ~ X X X X ~ ~ ] / ( : V } d E i  +j.A , $ T j G K b -.| 4 U U S S S U V 5 ;.h ^ : 5 p K & [ [ ] / ; # $ @ $   @   @   @ . $   . .   . . @ .   @   @ & @ *   * * @ @ # = ; _ ) l ] * Z E 3 [ ^ N a 3 T U S S S U U 4 8 M b -.D t ( $ ! y 1.E.f F c 7 V : ( / ] ~ ~ X X ",
"X X ~ ~ ] / ( : V 7 d I e E.4.y ' & [ v D M 0 H 1 3 T U U S S U V 3 a P / [ 3 L Y & _ V X { ; * $ @               . # - % % $ $ . + + . + .   .         @   @ $ * = ^ ] T ( $ I Y 4 [ ^ i a 5 V U S S U U T 4 8 M b -.E t < & - B 2.F.e G a 7 V S ( / ] ~ X X X X X ~ ~ ] / ( : V 7 c I h F.2.A , & < w E K b -.8 4 T U U U U T T 7 a k ] < 3 D E # _ : ~ _ - % * @     $     $     @ @     @ # . @     . @     $ .       $ $ & * ; ^ X W / & L E 4 ( ^ P a 3 U S S S S U T 4 8 -.b -.E t : # ' x 3.D.i I c 7 T < [ _ ^ ] ~ X X X X ~ ~ ] ^ { < T 5 a F g Z.).z ) # [ n Z -.b K 8 3 T U S S S U T 3 b k _ [ l G u % ! T , _ ; * & # @ @ @ $ @ @ $ $ . . # % @     @ $   .   *     $ =     $ $ # # = / ~ S [ & I Y 4 [ ^ P c 5 T U S S U U T 4 8 -.b K L t [ $ ' A 4.Z.e F c 7 T : ( / ^ ] ~ X X X X X ~ ] / ( : V } d E i  +k.;.) & U g G K b -.8 4 U U S S S U T 5 d i ^ < 5 C -.# ( S ] ^ = # $ @ $   & @ @   @ .           . .   . @   . $ & $ * @ $ &   @ # = ; / ) T ^ % Z I 4 [ ^ O a 3 T S S S S U T 4 8 M a -.L s [ $ ! y 4.E.f F c 7 V : ( / ] ~ ~ X X ",
"X X ~ ~ ] / ( S V 7 c I e F.4.y ) @ [ v D M 0 H 1 3 T U U S S U T 3 a P / [ 3 J Z # { W X { ; * $ $               .   > # ; * @ . . + . + . . . .       @   @ $ * - < ^ T { # I Y 3 [ ^ k a 5 T U S U U U U 4 8 M 0 -.E t < # > B 4.F.e G a } V : ( / ] ~ X X X X X ~ ~ ] / ( : V 7 c I h D.3.A ) @ [ w E H b -.8 4 T U U U U U W 5 a k ^ [ 3 D J & / : ~ _ ; % % @     $ @   $ $   @ . . @ . . .     % $     ; &     @ @ @ $ & * ; ~ ! l { # L L 4 [ ^ P c 3 U S S S S S T 4 8 -.b -.E t S $ ' x 3.D.h I c 7 T < ( / ] ] ~ X X X X ~ ~ ] ^ { : T 5 a F g ++).z / @ < p Z -.b M 8 3 T U S S S S T 3 a i _ [ l G C % ! W ! < ; ; & &   $ @ & & $ @ *   & * . &   @   .   $   @   $ - @ @       * % ; / ~ < [ $ F D 3 [ ^ P d 5 V U S S U U T 4 8 -.b M L w S   ) x 1.E.h F c 7 T : ( / ^ ~ ~ X X X X ~ ~ ] / ( : V } d E i  +k.A ! & S g F K b -.8 4 U U S S S U T 5 A k ^ : 5 C M & ( < ] _ ) % $ @ & .   @     @ . .   . $   . .   .   @     $ # @ @ # # $ $ $ = > _ ! V ^ % Z I 4 [ ^ O b 3 T S S S S U T 3 1 K c M D s < $ ' z 4.Z.f F c } V : ( / ] ~ ~ X X ",
"X X ~ ~ ] / ( S V 7 c I e F.4.y ) $ [ v D K 0 H 1 3 T U U U U U T 3 a P / [ 3 J Z # _ W X { ; * & $               . . .   $ # # . . + + + . . .       . @ @ @ $ % - { ] T ( & I Y 3 [ ^ k a 5 T U S U U U U 4 8 -.0 M J t < & ' B 4.F.e G a 7 V : ( / ] ~ ~ X ~ X X ~ ~ ] / ( : V 7 c I h D.3.;.) @ [ j E H b K 8 4 T U U U U T V 5 a i ^ [ 3 D E $ _ : ~ _ - % * @ @   $         @ @ . +   .   +     @ # @ = *     @ @     @ & * ; ] X W _ # D J 4 [ ^ O c 3 U S S S S U T 4 8 -.b M J v : $ , y 3.D.i I c 7 T < ( / ^ ~ ~ X X X X ~ ~ ] ^ { < T 5 a G g ++).-.! & < n Z -.b M 8 3 T U S S S S T 3 b i { < l H C * ! 4 ' [ ' % % $ @ @ @ @ # $ % & # $ . @ @ & & @ $ @   * $ $ $ & # @   @ # & * = { ] S [ $ F Y 3 [ ^ P c 5 V U S S S U T 4 8 -.b -.L v : $ ' x 1.E.h I d 7 T : ( / ] ~ ~ X X X X ~ ~ ] / ( : V } d E i  +k.A ~ & S j F K b -.8 4 T U S S S U T 5 ;.h ^ S 5 C M & : S ^ / - - ) & $ .   @ @   @ . &   .   & . . @ . @       & @ $ @ @ @ @ @ & % - _ ' W ^ * Z E 4 [ ] O b 3 T U S S S U T 3 8 H b B Y s < @ ! B 1.E.e I d 7 V : ( / ] ~ ~ X X ",
"X X ~ ~ ] / ( S V 7 c I e E.4.y ) $ [ v D K 0 H 1 3 T U U U U U T 3 a P / [ 3 L Y * _ W X ( ; # & $               . . .   +     $   + + . . . .       . @ @ @ # * > / ~ T { $ E Y 3 < ] P c 7 T U S U U U U 4 8 M 0 K E v [ # ) -.2.F.e G c 7 V : ( / ] ~ X X X X X ~ ~ ] / ( : V 7 c I h D.2.d ) @ < j J K 0 M 8 4 T U U U U U V 5 c k ^ < 3 D E & / : ~ / - % % @ @ @ $           @   . . .   + @ . * * $ ; = .   @ @   @ $ # * ) [ X U { & D L 3 [ ^ O c 3 U U S S S U T 4 8 -.b M J v : & , x 3.F.i I c 7 T : ( / ] ~ X X X X / ~ ~ ] / { S T 5 a G g Z.).B ! @ { n Z -.b M 8 3 T U S S S S T 3 b P _ : 4 G u % ! l ' [ > % % & $ @ # $ # $ #   @ . .   # $ @   $ & $ * & $ .   @ $ $ & & & # = _ ] : { # F Z 3 [ ^ P d 5 T U S S S U T 4 8 -.a M J t < @ ' x 1.E.h F c 7 V : ( / ] ~ ~ X X X X ~ ~ ] / ( : V } d E i D.k.x - # : j F H a M 8 4 U U U S S U V 5 d h ] [ 3 C K & : : ] ] = * # $ & @   @ @   $ . $   .   @ @ . @ . @   & . $   $   @ @ $ @ # = > _ ' l ] # Z E 4 [ ] N b 4 T U S S S U V 3 8 M b M L s [ @ ) y 4.E.e I d 7 V : ( / ] ~ ~ X X ",
"X X ~ ~ ] / ( : V 7 c I e E.4.y ! $ [ t D K 0 H 1 3 T U U U U U T 3 a P / < 3 J Z # _ W ! ( - # $ $             . . . .   . $ $ # $   + . . . . @ @   .     # ; - ) : / T ( $ E Y 3 < ^ P c 5 T U S U U U U 4 8 M 0 K E t ( * > z 4.F.e G c } V : ( / ] ~ ~ X X X X ~ ~ ] / ( : V } c I h D.2.d ) # [ j J K b M 8 4 T U U U U U V 5 d i ^ [ 5 Y E $ / : ~ / - % * &     &           @     . . . + @   . $   $ . .   $ @     $ & % , _ X T _ $ L D 3 [ ^ N c 3 U U S S S U T 4 8 -.b M J v [ $ ' A 3.F.h I c 7 T : ( / ] ~ X X X X X ~ ~ ] / ( : V 5 a G j Z.).-.] @ { m Z -.b M 8 3 T S S S S S T 3 b P _ ( 4 F u * ! 3 ' < , = % & @ @ $ # # $ ; + . +   - & = $ &   @ @ $ & @     &     $ # & * = / ~ S ( # G Y 4 [ ^ P c 5 V U S U U U T 4 8 -.b -.L t : @ , x 1.E.e I c 7 T : ( _ ] ~ ~ X X X X ~ ~ ] / ( : V } d E i D.k.A , & S j F H a -.8 4 T U U U S U V 5 d i ] [ 3 C K $ : < ] ] ; * $ @ $ . & @     @ .           #   @ +   . & .   $ $ & # # & @ # = - { ' 4 ~ # Y E 3 [ ] O b 3 T U S U U U T 4 1 H c H Z s [ & ) -.1.E.e F c 7 V : ( / ] ~ ~ X X ",
"X X ~ ~ ] / ( : V } d I e E.4.x ! $ : t D K 0 H 1 3 T U S U S U T 3 a P / [ 3 L Y & / W X { ; # $ $                   .   @ + . & $ $   + . . . .       & & & # % ; / ~ T { $ E Y 5 < ] P c 3 T U S U U U T 4 8 M 0 K E t < & ' A 4.D.f F c } V : ( / ] ~ ~ X X X ~ ~ ~ ] / ( : V } c I h  +3.d X @ < w J K b -.8 4 T U U U U U T 3 c i / [ 5 Y E & _ S ~ / - % * #   @ &     @       . @ +   + + @   . . @ @ @ .   @ @   @ $ # # , { X U { & D L 3 < ^ O a 3 T U S S S U T 4 8 M b M J v [ @ ' A 3.D.h I c 7 T : ( / ] ~ X X X X X ~ ~ ] _ ( : W 5 c F g Z.>.-./ @ [ m Z -.b -.8 3 T U S S S S T 3 b P / [ 4 G u % ) 4 , [ , ; % # & @ $ @ $ @ * . . $ * & %   . @ #       @ @   . $ @     @ & * = / ~ V [ & G Z 3 [ ] O c 5 V U U U U U T 4 8 M b M J v [ % ' A 1.E.e F c 7 V : ( / ] ~ ~ X X X X X ~ ] / ( : V } d E i D.k.x - $ S g F H a M 8 4 T U U S S U V 3 d k ] [ 3 u K @ S : ~ ~ ; # $ $ @     $     % @ @   @ & & $ &   . @ @ & @ &   @ $ & = & # % ; - _ , 4 ~ # Y J 3 [ ] k b 3 T U S S S U T 3 8 -.b M Z v ( & ] -.4.F.h I c 7 V : ( / ] ~ ~ X X ",
"X X ~ ~ ] / ( : V } c I e F.4.x ! @ < v D K 0 H 1 3 T U U S U U T 3 a P / [ 3 J Z # / W X { - * $ @               + @ .   . . .     $ & . . . . .     . & $ @ $ # ; ^ ~ T { & I Y 5 < ] P d 5 T U S U U U T 4 8 K 0 K E t : $ ' A 4. +f F c } V : ( / ] ~ ] ~ X X X ~ ~ ] / ( : V } c I h  +3.;.X $ < w J -.0 -.8 4 T U U U U U V 5 c k ^ [ 3 D I & / U ~ _ ; = * @   @ & .       @   . . .   + . @   + . @   @ .   @   . @ # * - ! _ ! T _ & L D 4 < / P a 4 U S S S S U T 4 8 M 0 M J w [ $ ' A 3.D.h I c 7 T < { / ] ~ ~ X X X ~ ~ ] ^ _ [ S V 7 a F e Z.>.-.^ $ [ m Z -.b M 8 3 T S S S S S T 3 b P / ( l G C # ) l ' V ) = * * & $ @ $ & @     @ @ % %     .     % +     .     @ &     @ # * = / ~ : { $ G Z 4 [ ] O c 5 V U S U U U T 4 1 K 0 M J v < @ , x 1.F.h F c 7 T : ( / ] ~ ~ X X X X ~ ~ ] / ( : V } d E h D.k.A > @ U g I H a M 1 4 T T U U S U T 3 d i ] [ 3 C M & : < X ~ = # $ &       @     @ @ @ @ # & @ * ; = @ @ &   # $ @ & #   & @ @ * = ! U ) 5 ~ & D E 4 [ ^ O b 3 T S S S U U T 4 8 -.a K Y t ( & ' B 4.E.h E d } V S ( / ] ~ ~ X X ",
"X X ~ ~ ] / { : V } d I e F.2.z ) $ < t D K b K 1 3 T U U S S U T 3 a k / [ 3 J Z # / W ! ( - # $ @               . $ .   . . . . . +   @ . . .         $ @ $ $ # = / ~ T ( $ J Y 3 [ ] O d 3 T U S U U U T 4 8 K 0 H E t ( # ' d 2.D.e F d } V : ( / ] ~ ~ X X X X ~ ~ ] / ( : V } c I h D.2.A ' @ < w J -.0 -.8 4 T U U U U T V 7 d k ^ [ 3 Y E $ / U ~ _ ; = * @   @ & .     @   .     + @   .     . . @ .       @ @   @ # # ; ' / X W _ % L J 3 [ ^ P a 4 U U S S S U T 4 8 -.b M J v < $ > x 3.D.i I c 7 T < { / ] ~ X X X X X ~ ] ^ _ ( : V 7 a F e Z.>.y / & [ m Z -.b -.8 4 T S S S S S T 3 b P / [ W G C # ' W , ( - * # $ & # @ @ & * @ @ $ $ $ @ # .     @ . .   @ .   . @ $ @ $ $ & * = / ] : [ & G Y 3 < ] P a 5 V U S S U U T 4 8 H b G L t S # , y 1.D.h F c 5 T : ( / ] ~ ~ X X X X ~ ~ ] / ( : V } d E i D.k.A > & [ j F F b M 8 4 T U U U S U T 5 ;.i ] [ 3 C H $ S S X ~ = # $ & @ .   @     @ . .     . # # * * # & # & $ & * & $ @ @   & & # > ( ' 3 ~ # Y J 3 < ^ N a 3 T U S S U T V 3 8 -.b M D s { $ , B 1.F.h I c 7 V S ( { ^ ] ~ X ~ ",
"X X ~ ~ ] / ( : T 7 d I e F.4.x ) $ : v D K b K 1 3 T U U S S U T 3 a P / [ 3 J Z & / l ! ( - * $ $ @           .   . @   . + .   . . . @ $   . .     . $   @ $ # = / ~ T { $ J D 5 [ ] P c 5 T U S U U U T 4 8 K 0 H E t { * ~ a 2.D.e F A 7 V : { / ] ~ ~ X X X X ~ ~ ] / ( : W } c I h F.3.A ) @ S j J -.0 B 8 4 T U U U U U T 5 c k ] [ 3 Y I # _ T ] _ - % * @   @ & .     @   .   . . @ $ $   .   # & .   .   $     @ # * , > { X T _ & L J 3 < / k a 5 T U S S S U T 4 8 M b M J v < $ ) ;.3.D.i I c 7 T < { / ] ~ X X X X ~ ~ ] ^ _ ( : V 5 a G g ++>.z ~   { m Z M a -.8 4 T S S S S S T 3 b P / ( l E C * ) W , / - * & & & $ & @ @ &   $   + .   $   .   .   .   $ $ & .   @   @ @ & # = / ~ S { $ F Y 4 [ ~ O a 5 V U S S U U T 4 1 K 0 K L w < @ ' A 4.F.h F c 7 T : ( / ] ~ ~ X X X X ~ ~ ] / ( : V } d E i D.k.A > & S f F G b -.8 4 T U U U S U T 5 ;.i ] [ 5 C H $ : S X ] = * & & @ .   @   @ $   & & =       * % $ @ & * * $ & # * & & @ & & * - _ ' 5 ~ & D I 5 < ^ N c 5 T T T S U T T 4 8 -.a M Y r { $ ' z 1.E.f F c 7 V S ( _ ^ ] ~ ~ ~ ",
"X X ~ ~ ^ _ ( : V 7 d I e F.4.x ' & < v D K b K 1 3 T U S S S U T 3 a O / [ 3 L Y & / W X ( - # $ @ @     @       @ @   # . . +   . + + +   . . .         * @ $ # = ^ X T { $ E D 3 [ ] P c 5 T U S U U U T 4 8 K 0 G E t { * ! ;.2.D.e I c 7 V : ( / ] ~ ] X X X X ~ ~ ] / ( : V } c I h F.2.y , $ : w L B b B 8 4 T U U U U U T 5 c k ^ [ 3 Y I # / T ] _ ' % # @   @ $       @     & . & . & &   . @   @   ; % @ @ $ @ $ # # = ; { ) S / * J J 4 [ ^ k a 3 T U S S S U T 4 8 -.b M J v ( $ ! d 3.D.i I c 5 T < { / ] ~ X X X X ~ ~ ~ ^ { ( : W 7 a G g ++).-.] & < n Z -.b -.8 3 T U S S S S U 4 b P _ [ l G C & ) l ' S , # # & & & $ # $   # % @       @ $ .   . . +   . % $   @ $     $ # * = _ ~ : / $ F Y 3 [ ] k a 5 V U S S U U T 3 8 K b K J t : @ ) x 4.F.h F c 5 T : { / ] ~ ~ X X X X ~ ~ ] / ( : V } d E i  +k.x ) & : g F H b -.8 4 T U U U S U T 7 d i ~ [ 3 u H @ : < ~ ~ = # & #       @   @ @   @ & & $ @ >   ; $ $ $ $ % @ $ * $ * * & & % * ; _ , l X $ Y E 3 [ ^ O c 5 T U U S U T T 4 8 -.a K L s { & ) x 4.E.f F c 5 V : { / ^ ~ ~ X X ",
"X X ~ ~ ^ / { : V 7 d I f Z.4.y ' % ( v D K b K 1 3 T U S S S U T 3 a P / < 3 L Y & / W X { - * & @             @ & . @ @ . . +   . + . + @ . . .     .   @ @ $ # = ^ X U { # J D 5 [ ] O c 5 T U S U U U T 4 8 K 0 G E t : % ! x 4.D.e F c } V : ( / ] ~ ~ X X X X ~ ~ ] / ( : V } c I h F.2.x ' & : v L B 0 B 8 4 T U U U U U T 3 c k ] [ 3 Y I & _ U ~ { - = #     @ $       &   @ @ . . * @   @     .   .     &       @ $ $ * , _ ! U _ # J J 4 [ ^ k b 3 U U S S S U T 4 8 -.b M E v < @ ' ;.3.D.h I c 7 T < { / ] ~ X X X X ^ ~ ] ^ _ ( : T 7 a F g ++).z ] @ { m Z M b M 8 3 T U S S S S U 4 b k / ( l I u * ) W ' < > % * #     @ # & $ * &   + . # & $ * $ .       @   & . @ @   @   # % ; / ~ : { & F Z 3 < ] P a 5 T U S S S U T 4 8 K 0 M D v : @ ) x 1.F.h I c 7 T : { / ] ~ ~ X X X X ~ ~ ] / ( : V } d J i  +#+A ' & : g F H b -.8 4 T U U S S U T 5 ;.i ~ [ 3 Z G $ : < ~ ~ - * & = $     @   @ @ . .   = % # & # & # = & #   $ $ # $ $ $ $ # % % > [ ' l ] # D J 4 [ ^ N d 5 T U S U S U T 4 8 B a M D r { $ ' ;.4.Z.f F a 5 T : ( / ] ~ ~ ~ X ",
"X X ~ ~ ] / ( : T 7 d I f Z.4.y ! # [ v D K 0 H 1 3 T U S S S U T 3 a P / < 3 L Y & / W ! { - % & @     @       & & .   $ + . +   + + + + . . . .     .   @ @ $ # = ^ ! U ( # L D 3 [ ] O c 5 T U S U U U T 4 8 K 0 G E s : ; X x 4.D.e F c } V : ( / ] ~ ~ X X X X ~ ~ ] / ( : V } c I h F.2.A ) @ : v L -.b B 8 4 T U U U U T T 3 a O ] [ 3 Y E * / U ] [ , = # @     $     @ # $       +   +   . @ .     .     & .     @ @ $ * > _ ! U _ # L J 4 [ ^ P a 3 T U S S S U T 4 8 -.b -.J v [ @ , A 2.D.h I c 7 T < { / ] ~ X X X X ~ ~ ] ] / { : T 5 a F g ++).y ] # / r Z M a M 8 3 T U S S S S U 4 b P ^ [ 4 I u # ) 5 ) U , % # * % -     @ @ . . . +   * @ # , & . + + @   .   $ @ @   & & % = = ^ X V { $ I D 3 [ ^ k c 5 V U S S U U U 4 8 M 0 M D v : @ ) y 4.E.h I c 7 T : ( / ] ~ ~ X X X X X ~ ] / ( : V } d E i D.#+A > % : j F K b -.8 4 U U U S S U T 5 ;.k ] [ 3 Z G $ S < ~ ~ ; % ; # #   $ & $ @ @ + . .   # % & %   * # & & # & $ # @ # # & & % % - { ) 3 ] & D J 3 ( ^ P c 5 T U S : S U T 4 8 -.a M D s { $ ' A 4.E.f F a 7 T : ( / ] ~ ~ X X ",
"X X ~ ~ ] / { : T 7 c E e Z.4.y ! & U t D K b K 1 3 T U S S S U T 3 a P / [ 3 L Z $ / W ! { - * $ @   @     @     . .       . +   . +   . . .             @ # & # = ] ! U ( & J L 3 [ ^ O c 5 T U S U U U T 4 8 -.b K I t V # ! A 2.F.e F d } V : ( / ] ~ ~ X X X X ~ ~ ] / ( : V 7 d I h F.2.x , # < v J B b B 8 4 T U U U U U T 5 c O ~ [ 3 Y J * / T ~ { ! - # @     $     $ @ .       +   .     . & .       $ &   $ $ % # $ # - _ ! U _ & L L 4 [ / k b 3 V U S S S U T 4 8 -.b -.E v < & ' A 2.F.h I c 7 T < ( / ] ~ ~ X ~ X ] ~ ~ ] / { : T 5 a G g ++>.B ] $ ( r C M b M 8 3 T U S S S S U 4 0 P ^ [ 4 E u # ) 3 ' T X ; % # & @ .   . . # . . + .   & * *   .   .   .   = $ &     & $ * % , _ ~ W < & F D 3 < ] k c 5 T U U S U U T 4 8 -.b -.D v <   X A 1.E.e I c 7 T : ( / ] ~ ~ X X X X ~ ~ ] / ( : V } d E i  +#+;., * S j I M b B 8 4 T U U S S U T 3 d i ] [ 3 Z G & : < ~ ~ = * = & @   $ # @   * . .   . . $ $ # @ % # & & @ @ # % $ @ @ # * # = ! < ! 4 X & Y E 3 [ ^ P c 5 T U S S S U U 3 8 -.b -.L r {   ~ z 1.E.f F a 7 V : ( / ] ~ ~ X X ",
"X X ~ ~ ] / ( : V 7 c E h E.4.y ) $ : t L H 0 K 1 3 T T S S S U T 3 a P / [ 3 L Y $ / W ! { - * & @ @ @           . . . & %   .   . + . . . . .           $ * & # = ^ X U ( & J L 3 [ ^ P c 5 T U S U U U T 3 8 -.b K I s T & ' A 4.E.e F d } V : ( / ] ~ ~ X X X X ~ ~ ] / ( : V 7 c I h F.3.x ' # [ v J B b B 8 4 T U U U U U T 3 d k ] [ 3 Y E $ { T ] / , = # @     @       @ .     $ +   .     .     @     & @ @ @ - % $ $ * - / ! U _ # J L 4 [ / P ;.5 V U S S S U T 4 8 M a K L w [ $ , ;.3.F.h I c 5 T : ( / ] ~ ~ ~ ~ ~ ~ ] ~ ] / { < T 5 a G g ++>.B ^ $ < r Z K b M 8 3 T U S U S U U 4 a N / < 4 E u * ! | ) / = * # # # . @   @ . . @ . . . . $ % %   + + +     .   # * @   . = ' - , / ] : { % F D 4 [ ] P c 5 T U S S S U T 3 8 -.b -.L v < @ , x 1.Z.e I c 7 T : ( / ] ~ ~ X X X X ~ ~ ] / ( : V } d E i D.k.y , $ S j F M b B 8 4 U U U S S U T 3 d h ] [ 5 Z H & < < ~ ~ ; ; # % # &   $ @ $ @ $   . @ . @ % & > @ & $ @ & & * $ @ $ @ @ # % = ' : X 5 ~ # Y I 4 ( ^ P c 5 T S : S U U T 3 8 -.b K J r ( & ^ x 4.E.f F c 7 V : ( _ ] ] ~ X X ",
"X X ~ ~ ] / ( : T 7 c E i F.4.y ! & < v L K 0 K 1 3 T U S S S U T 3 a O / [ 3 L Z @ / W ! { - * & @ $     @ @ @   @   & .   . .   + + . . . . . & &   @ . $ $ % = = ] ! U { # E L 3 [ / P c 5 T U S U U U T 3 8 B 0 M E r : # , x 2.E.e F d } V : ( / ] ~ ~ X X X X ~ ~ ] / ( : T 7 c I h F.3.A ! # U s E M b B 8 4 T U U U U U T 5 c P ] [ 3 Y J % _ V ] / - = & @     &   @ @ $ . .   . + .     . @ . @ % $   & @ $   $ @ @ $ * - { X T { # J L 4 < ^ k a 3 T U S S S U T 4 8 M a M J v < @ ) x 3.F.h I c 7 T < { _ ^ ] ~ X X ] ~ ~ ~ ] / { < T 5 a G g ++>.B / . ( r C M b K 8 3 T U S S U T T 3 a P / : 4 I C * ! 6 ' / - = % @ @ @ $ &   # $   . . . . & = & . + + +   . . .   @ @     @ # % ' / ~ : { & F D 3 < ] P c 5 V U S S S U T 4 8 -.b -.L v [ $ ) x 1.Z.e I c 7 V : ( / ] ~ ~ X X X X ~ ~ ] / ( : V } d E i D.k.A X $ S g I M a B 8 4 U U S S S U T 3 d h ^ < 7 C H # < < ~ ~ > = * & & $ .   @ & = .   @   $ $ & $ # * & $ * $   = $ $   & # $ & % - _ ) V ^ ; Z E 3 < ^ P c 3 T U S S U U T 3 8 -.a -.D m : $ X z 4.E.e I c 7 V : ( / ] ~ ~ X X ",
"X X ~ ~ ] / ( : V 7 c I i F.4.x , # : v D K 0 M 8 4 T U S S S U T 3 a O / < 3 L Z @ / V ! { - % $ &     @   @   $   $ % .   . . @ + . . . . . .   $ *   @ @ @ $ = = ] ! U { # E D 3 [ ^ k c 3 T U S U U U T 4 8 B b M J s S $ , A 1.F.f F d } V : ( / ] ~ ~ X X X X ~ ~ ] / ( : T } c E h F.3.A ' $ S v E -.0 -.8 3 T U U U U U V 5 a P ] < 3 Y J # _ W ~ ( ; % & @     & @   @ @ . .   .   .     . . . @ . . @ * $ # @ @ $ @ $ * - / X T { & L J 4 < ^ k a 3 T U S S S U T 4 8 -.b -.E v < $ ' d 3.F.h I c 5 T < { _ ^ ^ X X X X X ~ ~ ] / { < T 5 a G g ++>.M X $ ( r Z M b K 1 3 T U U S U T V 5 a P / < 4 I C * ! T ) { ' * $ @ @ & @ $   @   . . . +   & @ * + + . .     .   . @ @   $ @ # * - ( ~ U { & F L 4 [ ^ P d 5 V U S S U U U 3 1 -.b -.D t [ # - A 1.E.e I c 7 V : ( / ] ~ ~ X X X X ~ ~ ] / ( : V 7 c E i D.#+A ) $ : g I K a K 8 l U U S S S U T 3 c h ] < 7 q G $ ( < ] ] ' % # & @ @ $ $ @   & .   & %   $ # # @ = $ @ $ & & @ - $ # * # @ % * ; / ! V / # Z E 5 < ^ O a 5 T T S S S U T 4 8 K a K D s [ $ ) z 4.F.h F c 7 V < ( / ] ~ ~ X X ",
"X X ~ ~ ] / ( : V 7 d I h D.2.B ' & < t D M 0 K 8 4 T U S S S U T 3 a O / < 3 L Y $ / V ! { - % # $     $ @ @   * @ % & . . . .   + + + + . .   .   # @ $ @ @ $ * - _ ) U { # E D 3 [ ^ k a 3 T U S U U U T 4 8 z b -.J t { @ - x 4.F.f F c 7 V : ( / ] ~ ~ X X X X ~ ~ ] / ( : V 7 c I h F.3.A ! # T j E M 0 M 8 3 T U U U U U V 5 a k ] < 3 Z I & { T ] _ ; = & @   @ &     @ @ + . .   @   $ @ . +   @       $ & * & $   @ $ * > ^ X l _ # L J 4 < ^ k b 3 T U S S S U T 4 8 -.0 -.E v ( @ ) A 3.F.h I c 7 T < ( / ] ~ X X X X X ~ ~ ] / ( : T 5 a G g ++>.B ~ $ _ r Z M b K 8 3 T U U S U V W 5 c P / [ 3 I C % ' T ) : ' * # $ & &   & @ $ @ . . . + . = # & . + . +     .   . $ @     @ # * - / X U ( & I D 4 [ ] P c 5 V U S S U U T 5 1 -.b K J v ( @ ' x 1.E.h I c 7 T : ( / ] ~ ~ X X X X ~ ~ ] / ( : V } d E i F.k.;.' & : g I H b -.8 l U U U U U U V 5 d h ] [ 7 u G & [ : ] / - - # $       $ @   @ $ @ . #   & @ $ & $   @ @ % & # & & $ * * # & % - { ! V / # C E W ( / O b 4 T U S S S U T 4 8 K b K L t ( # X z 4.F.e F c 7 V < ( ^ ] ~ ~ X X ",
"X X ~ ~ ] / ( : T 7 c I h D.1.x ] $ S v D G 0 K 8 3 T U U S S U T 3 a O ^ < 3 L Y @ / V ! { - % & @     @   @ &   . & # . . . .   + . @ $ % @ @ . = . $   $ @ $ # ; ^ ! U { # E D 3 [ ^ k a 3 T U S U U U T 4 8 B b -.J v < $ ) A 4.F.f F c 7 V : ( / ] ~ ~ X X X X ~ ~ ] / [ : W 7 c I h F.3.y ! = < j E -.0 M 8 4 T U U U U U V 5 b k ] [ 3 Z E & _ T ~ { - = # @     $     $ @ .   .   . @   . + .   @     $     @ $ @ @ @ $ # > / X T _ # J D 3 [ ^ k b 3 T U S S S U T 4 8 -.0 M E w { & ' A 3.F.e I c 5 T < { / ] ~ X X X X X ~ ~ ] / ( : T 5 a F f Z.).-.~ $ [ s C M b K 1 3 T U S S S U T 7 c O / < 3 E C % ' W ) { ; # & @ @   @ & @ @ . . . . +     . $ . . . +   . .   . $ @     @ # # ; ] X T { & F Y 4 [ ] P c 5 V U S S U U U 3 1 G a K D v : $ - x 1.E.h I c 7 T : ( / ] ~ ~ X X X X ~ ~ ] / ( : V 7 d E i F.#+A ) @ : g I G b M 8 4 U U U U U T V 5 d i ] [ 5 Z H = [ U ] ] - ; - & $ @ - # @ @ @ @ @ @   @ & @ $     # & & # $ $ & ; @ $ & & % % , { ) W ^ * Y I l ( _ P b 4 T U S S U U T 4 8 M a K D v ( & ] y 1.F.e F c 7 T < { / ] ~ ~ X X ",
"X X ~ ~ ] / ( : V 7 c I h F.4.z ) $ < w Y H 0 K 1 3 T U S S S U T 3 a O ^ < 3 D Y @ / V ! { - = $ $ @         @   * $   . . . .   . + & @ . .     @   @ * % @ & * ; ] ! T { & J D 3 [ ^ k a 5 T U U U U U U 4 8 B b -.J t < $ X ;.4.E.f G c 7 V : ( / ] ~ ~ X X X X ~ ~ ] / [ : V 7 c E h D.3.B ) & : j I M 0 -.8 4 T U U U U U V 5 a P ] < 5 Y I & { T ] { ; = & @   @ @     $ @ . @   $ . * @   +     &     @ @     @     $ $ * ; _ ~ T _ # J L 3 [ ] P b 3 T U S S S U T 4 8 -.0 M E v ( @ ' A 3.F.h I c 7 T < ( / ] ~ X X X X X ~ ~ ] / ( : V 5 a G g Z.).z ~ $ ( s Z M a H 1 3 T U U S S T T 3 a O / < 3 I Z = ) l ) _ = # $ # @ & #   *   . . . . +       $ . + . .     .   . $ @       # * ; / ~ S { & F D 4 [ ] P a 3 T T S S U U U 4 8 -.a H D w : & - A 1.F.e I c 7 T : ( / ] ~ ~ X X X X ~ ~ ] / ( : V } d E i F.#+A ) $ : g I G b M 8 4 U U U U U U V 5 d k ~ ( 3 Z G # < < ] ~ = = ; * @ @ = = @ @ $   # % & $ & @ & # & = # $ & = & # % * @ # # * * = _ ! V ] * Y J 4 [ / P b 3 T U S S S U V 4 1 M a K D w ( & ^ z 1.F.h I c 5 T < { / ] ~ X X X ",
"X X ~ ~ ] / { : V 7 c I e F.4.z ! $ < v Y G b K 1 3 T U U S S U T 3 b O ^ < 3 D Y & / V ! { - > # &   * &     = $ $ $ # .   . .   . +   . . . .       . . $ $ $ # = ] ) U _ & E Y 3 [ ^ k a 3 T U U U U U T 4 8 B b B J t [ * ) x 1.E.f G c 7 V : ( / ] ~ X X X X X ~ ~ ] / [ : V 7 c I h D.3.y X $ : j E -.0 M 8 4 T U U U S T V 3 a P ^ [ 5 D J & { T ~ _ ; = & @   @ @     $   .   @ # .       . .   $   @ @ . @ $   @   @ $ * ; _ ] U _ # D L 3 < ] P a 4 T U S S S U T 4 8 M 0 M J v ( $ ! ;.#+E.h I c 7 T < ( / ] ~ X X X X X ~ ~ ] / { : T 5 a G f ++!.M ] # ( s Z M b K 1 3 T U U U U T V 5 0 k / < 3 E C - X 5 ! _ - # $ @ # & $ & $   . .     . & & . . . . . .   . .   . @         # # - / ~ : { & I Y 3 [ ] P a 3 T U S S U U T 4 8 M 0 M L v : * , A 1.F.e F c 7 T : { / ] ~ ~ X X X X ~ ~ ] / ( : V } d E i D.#+;.) @ : f I G b K 8 4 U U U U U U T 5 ;.i ] [ 4 Z G # [ < ~ ^ = * * $ # & $ = * & & $   * @ $ $ # @   @ @ @   & @ $ # % $ # $ @ % = > _ ! V ] * D I 4 [ _ O a 3 T U S S S U T 3 8 K a H Y s { & ] x 4.E.e F c 7 T < { / ] ~ ] ~ ] ",
"X X ~ ~ ] ^ ( : V } c I h F.1.z '   [ v D H b K 1 3 T T U S S U T 3 a O ^ < 3 L Y # / W ! { - * & @ % @ @     . $   # * .   .     . .   @ @   .         . # $ $ # ; _ X T { & J Y 3 < ^ k a 3 T U U U U U T 4 8 B b M J t S = ^ x 4.E.f F c 7 V : ( / ] ~ X X X X X ~ ~ ] / ( : V 7 c E h D.3.z ' $ : w E M 0 K 8 4 T U U U U T V 3 a P ^ < 3 D L * { U ~ { ; = & @   @ @ .   $ @ . $ $ @ . @ @ .   . @ @   @ @   @ $ @   @ $ $ * - _ ~ U _ & L D 3 < ] P a 3 T U S S U U T 4 8 -.b H J v [ $ ) ;.3.F.e I c 7 T < { / ] ~ X X X X X X ~ ] _ ( : T 5 a F g ++!.-.X @ [ m Y M b H 1 3 T U U T T T V 5 a O / < 3 J o * ] } ! S X ; # $ & * & # @     + .     # & $ . . . . .     .     $   $   @ # # = ] X S ( # F L 3 [ ] P a 3 T U S S U U U 4 8 -.0 M L v [ & > y 1.F.e F c 7 V : ( / ] ~ ~ X X X X ~ ~ ] / ( : V } d I i D.#+A ) @ : f I G b -.8 4 T U U U S U V 3 c h ] [ 3 Z H $ [ V ~ ^ ; # ;     # @ $ * & # $ $ @ $   # $ & # @ @ .   @ $ # $ & # * @ % % = > _ ! l _ # Z E 4 [ / k c 3 T U S S S U V 4 8 M b H Z t ( $ ' -.1.F.e F c 7 T : { / ] ~ ~ X ~ ",
"X X ~ ~ ] / { : V 7 c I h F.4.y '   [ v D H 0 K 1 3 T U U S S U T 3 a O ^ < 3 L Y $ _ W ! { - ; # @ @           = & $ & .   . .   . + . . . $             & $ $ # = ^ ! T { $ L Y 4 [ ^ P a 3 T U U U U U U 4 8 B b -.J t U & X B 4.E.f F c 7 V : ( / ] ~ X X X X X ~ ~ ] / ( : V 7 c E h D.2.A ' $ S w E M b M 8 4 T U U U U U T 3 a P ^ < 7 D J # _ S X _ ; = & @   @ @   @ &   . & @   . @   .   . @ $ @   $   $ @     & # # * > { ~ T ( & J D 3 [ ] P b 4 T U S S S U T 4 | M b H J w [ @ ' d 3.F.h I c 7 T : { / ] ~ ~ X X X X ~ ~ ] _ [ S V 5 c F g ++>.B ~ @ : r Y M b K 8 3 T U S S S U T 3 a P _ : 3 E o * ^ 4 ! U ) - = # $ & @ $ $ .   . . . $ % # .   . . . .     .   . @ $ & @ & & * ; ^ ~ l _ & E Y 3 [ ] P a 3 T U S S U U T 4 8 -.a K L v S @ ' A !.F.h F c 7 T : ( / ] ~ ~ X X X X ~ ~ ] / ( : V } d I i D.k.x ' @ S f I H b -.8 4 T U U S S U T 3 d i ] < 3 q K & ( U ~ / = * % &     $ $ @ = % $ @ @ @ $ & @ @ # =         & & * &   * * & % % ' ( ~ T / * Z E 4 ( / k b 3 T U S S U U V 4 8 G b K C s ( & , x 1.F.e F c 7 T : { / ] ~ X X X ",
"X X ~ ~ ] / ( : V 7 c I h F.4.y '   < v D H 0 K 1 3 T U U S S U T 3 a O ^ [ 3 D Y $ _ W ! { ; % $ @ @   .     $ * $ $       . .   . +   + .   % @   $   . @ $ $ # = ] ! V { # E Y 3 [ ] P a 3 T U S S U U U 4 8 B b M J v : & ! M 2.E.f F c 7 V : ( / ] ~ ~ X X X X ~ ~ ] / ( : T 7 c I h D.3.;.) $ U t E M b -.8 4 T U U U U U T 3 a k ^ [ 3 D E & / 5 ~ / - ; & @   @ @ #   & . . $ # .       .   . & & $   .   @   @ @ $ & ; % ) : ] V { * J D 3 [ ^ P a 3 T U S S S U T 4 8 M b H E v < & ! x 3.F.h I c 5 T : ( / ] ~ ~ X X X X X ~ ^ / ( S V 5 c G g ++>.B X   ( r Y M b K 8 3 T U U S S S U 3 c P / : 3 E o # ^ 2 ) _ ; # & & * $ $ @ @     . @ @ & $ @ .           @   .   . @ &   @ @ # * ; ^ ~ U [ & E Z 3 < ] P a 3 T U S S S U U 4 8 M b H D t < $ > y 1.F.h I c } V : ( / ] ~ ~ X X X X ~ ~ ] / ( : V } d E i D.k.x ) $ S g I K b -.8 4 T U S S S U T 3 c i ] [ 3 Z M # < W X [ ' * # @ @ # @ &   & * &   & # @ & $ $ . & &   . @ . % * $ @ @ % # # % , / X V / % Y I l ( / k a 3 T U S S S U T 4 1 K b K Y v [ & ' A 4.E.h I c 7 T : { / ] ~ X X X ",
"X X X ~ ] / ( : V 7 c I h F.4.y '   : t D H 0 K 1 3 T T U S S U T 3 a N ^ < 5 D Y @ / V ! { ; % & @ @ .       . . * # $     . +   . .   + . . @ $   $     @ $ $ # = _ X V { # J C 5 [ ] P a 3 T S S S U U U 4 8 -.b M L v S & ! K 2.E.f F c 7 V : ( / ] ~ ~ X X X X ~ ~ ] / ( : V 7 c I h D.3.A X * S v E -.0 -.8 4 U U U U U U T 3 b k ^ [ 3 D E # _ 3 X / ; = & @     $ ; @ $ .   @ . .     @     . & $ $ & - # $ @ #   * $ * * , ( X W { # E L 3 [ ] P a 4 T U S S U U T 4 8 M b M J w [ @ ! A 3.F.i E d 7 T : ( _ / ] ~ ~ X X X ~ ] ^ / { : V 5 a G g Z.!.-.X   [ r Z M b M 1 3 T U S S S U T 3 a P / : 3 L u = ] 5 ! U - * $ @ @ $ &     . . .   . .   .   . . @ .       .     @ & & @ @ # * ; ] ~ S [ & E Y 5 : ] O d 5 V U S S U U U 4 1 K b H D t [ @ , x 1.F.h I c 7 V : ( / ] ~ ~ X X X X ~ ~ ] / ( : V } d E i D.#+x ) $ : g E K b M 8 4 T U U S S U T 3 c i ] [ 5 Y K # ( U ] { ) ' ; $ . @ & $ & $   * & $ $ $ @ % &   & $ &     . & # * @ . $ $ & * > / X V ^ % D I l ( / P b 3 T U S S U U T 3 1 K a H D t U $ X x 4.Z.h I c 7 T : { / ] ~ X X X ",
"X X ~ ~ ] / ( : V 7 c I h E.1.y '   < t D H b M 1 3 T U U S S U T 5 a N ^ < 3 D Y $ / V ! { ; = # $ @ .       .   @ @   .     +   . + . + . .         .   @ $ & # = ( X l _ * D C 3 [ ] O b 3 T S S S U U T 4 8 -.b K L v : # ' M 4.E.e F c 7 V : ( / ] ~ ~ X X X X ~ ~ ] / ( : V 7 c I h D.2.;.! & : v J -.0 -.8 4 T U U U U U T 4 b k ^ [ 3 Y F & ^ < X / - = & @     * $ # $ . . . . . @     .     $ .     & $ $ $ # & ; # # % > _ X W { * I D 5 < ] P a 4 T U U S S U T 4 8 M b H J w [ @ ) A 3.F.i I d 5 V S ( _ ^ ] ~ X X X X ~ ~ ^ _ ( < T 5 a G g Z.>.B ~ @ < m Y -.0 M 1 3 T U U S S U U 4 b P / < 3 J q % ] 4 X : ' = $ @     = &     . .   @ + . . & . .     .   #     $ @ @ @ # @ * * ; ] X : ( $ E L 3 < _ k a 5 V U U S U U T 4 8 K a H D v ( & , z 4.F.h I c 7 V : ( / ] ~ ~ X X X X ~ ~ ] / ( : V } d I i D.#+y ) & : g I K b M 8 4 T U U S S U T 3 c i ^ [ 5 Y H $ < U X ] = * = - @ .   $ & @   @ $ @ & & .   # $ = $ * @   $ & * * & @ @ ; & # - / ! T ^ = Y E 4 ( / P a 3 T U S S S U T 4 1 M b K L t U * ' z 4.E.e I c 7 T : ( / ] ~ X X X ",
"X X ~ ~ ] / { : V 7 c I h F.1.y ' $ < t D K b -.8 3 T U U U S U T 3 a O ^ < 3 D Y $ { W X { ; % # $ $   .       . @ # @     . @   . + . . @ .       @     @ # & * - / ~ W ( $ E Z 5 < ^ P b 3 T S S U U U T 4 8 -.b K L v T   ' -.4.F.f F c 7 V : ( / ] ~ ~ X X X X ~ ~ ] / ( : V 7 c I h D.2.x ^ & S v J M b -.8 3 T U U U U U T 3 a k ^ [ 3 D F * ^ : X _ - ; $ @     & @ $ # . .   . .         @   $ .   @ $ @ $ & # * * & * > , { ~ S { * E L 5 < ] P a 4 T U S S S U U 4 8 M b K E w [ & ) x 3.D.i E c 5 T : ( _ ^ ] ~ X X X ~ ~ ] ^ _ { < T 5 a G g Z.>.z ~ @ < r Z -.b K 1 3 T U U S S U T 4 b P _ < 3 F u % ^ W ! { , = = * # @   @ @         . . . @ % @ .   @ * $   @     $       @ # * ; ^ ~ U ( & E L 3 [ ^ P d 3 T U S S U U T 4 8 -.c K D w [ $ ' z 1.F.h I c 7 V : ( / ] ~ ~ X X X X ~ ~ ] / ( : V } d I i F.#+x ) & S g I H b M 8 4 U U U S S U T 3 d k ] [ 3 Y G & < < X ^ ; % % * * % $ @ # & $ @ @ $ @ # . . & @ = * & @   # $ * & & # @ % * * ; / ! V ^ * Y E l ( / P b 3 T U S S S U T 4 8 M b M L s [ # - x 1.E.e F c 7 T : { / ] ~ ~ X X ",
"X X ~ ~ ] / ( : V 7 c I h F.1.y ' & [ t D K b M 1 3 T U U U S U T 3 a O ^ < 3 L Y & { V X { ; % # @   .         . .   & * . . @   . + . . @ &   .     .   @ & & # ; ^ ! T / # J D 7 : ^ O c 3 T U S U S U T 4 8 M 0 K J t U @ X y 1.F.e I c 7 V : ( / ] ~ X X X X X ~ ~ ] / [ : V 7 c I h F.3.z X $ T v J K b M 8 4 V T U U U U T 3 a k ^ [ 4 L F # ~ : ~ _ - = &   @   $   @ $ . . . . .   .     $ . @ .   & .   @ $ @   & % ; > ' < ] V / # E J 3 < ] P b 3 V U S S S U T 4 8 M b H J w : $ , y 2.D.h I c 5 T : ( / ] ~ X X X X X ~ ~ ] ^ { : T 5 a G f Z.>.B ) @ ( r Z M b K 1 3 T U U U S U T 4 b P _ < 5 I q * ~ W ! _ - = # * * # $ @     . .     . . .   .   . . . # % @ $ # &       @ # * > ^ X S _ * I D 4 [ ^ k d 5 V T S S S U T 4 8 B c K L t [ & ) x 1.E.e I c 7 V : ( / ] ~ ~ X X X X ~ ~ ] / ( : V } d I i D.#+y ) # S g E H b M 8 4 T U U S S U T 5 ;.k ] < 3 Y G & : : ~ ~ - * * # * # ; # @ & @ @   $ # *   $ @ $ & @ $ @ & & $ # % # $ @ $ # = ; _ X 6 { % Z E 4 [ ^ P b 3 T U S S S U T 4 8 M 0 M D s < $ ) x 1.F.h I c 7 T : ( / ] ~ ~ X X ",
"X X ~ ~ ] / ( : V 7 c I h E.4.y , $ [ t L K b M 1 3 T U U S S U T 3 a O ^ < 3 J Y * { V X _ ; % & @             @ . +   & . . .   . + . . . . .           @ & # * - / ! U _ # E Y 3 < ^ P d 5 T U S U U U T 4 8 M 0 K J v S @ ! B 4.F.e I c 7 V : ( / ] ~ ~ X X X X ~ ~ ] / ( : T 7 c I i F.3.z X $ : w E K b -.8 4 V T U U U U T 3 a k ] [ 4 L E # / S ~ / ; = &     # % @ # & . . . .   . .   . $ @ $ @   &       &     @ $ # ; > ( X 3 ^ # E D 5 < ^ k a 7 W T S S U U T 4 8 M 0 H J w [ $ ' y 2.D.h I c 5 T < ( / ] ~ X X X X X X ~ ] ^ { : T 5 a G f Z.>.-., $ < r Z -.b M 8 3 T U U S U U T 3 a P _ < 5 L q # X W ! { > % * = # $ * ,     @   & @ &   .   . . . . .   . # $   $       # * * - _ X T ( & E L 4 < / k c 7 W U S S U U U 4 8 -.c H D v S $ ) y 1.E.e I c 7 W : ( / ] ~ ~ X X X X ~ ~ ] / ( : V } d I i D.#+z ) $ S g I H b -.8 4 T U S S S U T 5 d i ^ [ 5 Y H * < : ] { - ; & # * * & $ * % $ @ @ & $ * # $ $ . &   @ @ $ =   $ @ # # * $ * * - _ ! l _ & C E 3 [ / P a 3 V U S S S U T 4 8 -.b -.D t < & ] y 4.E.h I d 7 T : ( / ] ~ ~ X X ",
"X X ~ ~ ] / { : V 7 c I h E.4.y > $ [ t L K b -.1 3 T U U S S U T 3 b O ^ [ 3 L D ; / V X _ ; % & @             .   .     . . . @ . +   + . . .       @     & & # ; ^ ! U _ & L D 7 < ^ O d 7 V U U S U U T 4 8 -.b K D w S # ) -.4.E.f F c 7 V : ( / ] ~ X X X X ~ ^ ~ ] / ( : V 7 c I i F.3.y X $ U w E M b M 8 4 T T U U U U T 3 a k ^ [ 4 D J # _ T X / ; = # @   $ * @ @ $ .   . .   . .   . $   $ @   $   @   $     @ $ # % ; / ! 3 _ & E Y } U ^ P c 7 V V S S U U T 4 8 M b G J w < @ ' x 3.D.h I c 5 T : ( / ] ~ X X X X X X ~ ] / { : T 5 c G g Z.>.-.X $ ( s Y M a K 8 3 T U U S S U V 3 b k _ : 5 E C & ] 4 ) _ , % * @ @ = @ *     @   # $ + . . @ . . . . . . . . # & @   @   & # * = ] X W _ = I L 3 < ^ k a 5 W U S S S U T 4 8 M a K Y w < @ ' y 1.E.h I c 7 V : { / ] ~ ~ X X X X ~ ~ ] / ( : V } d E i D.#+z ' # S g E H b -.8 4 T U U S S U T 5 c h ^ < 5 Z G $ [ < ~ ^ - - # @   * & @ & & * # @ $ & = # & $   $ % @ .   $   @   * # = # # * - _ ! U _ # Z J 4 [ ^ O b 3 T U S S S U T 4 8 -.b -.L t < & ' x 4.E.h I d 7 V : ( / ] ~ X X X ",
"X X ~ ~ ] / ( : T 7 c I h E.1.y ~ @ [ t D K b M 1 3 T U U S S U T 3 a O ^ [ 4 L Z # / V ! _ ; % & @   .         .   . @ @ . . . @ . + . . + . .         . $ & & # ; ^ X U { & J D 3 < ^ P d 5 V U U U U U U 4 1 M a F D w : @ ) B 4.E.e F c 7 V : ( / ] ~ ~ X X X X ~ ~ ] / ( : V 7 c I h F.2.x ! @ T w J -.b M 8 4 T U U U S U T 5 c O ^ [ 4 D E % { T X ^ ; ; & @ @ & # $ @ $ . . . . @   .   . $ . @ .   * $ @ @ $ @ . @ @ # * ; ] ! W / $ E L 5 U / P d 7 V U S S U U T 4 8 K 0 H J j [ @ ! ;.3.D.h I c 7 T : ( / ] ~ X X X X X ~ ~ ] ^ { : T 5 a G g E.>.z X $ ( s Y -.a -.1 3 T U U S S U T 3 b P _ : 5 E C # ~ 7 ' ( > = & @   .   *     . @ &   + .     .   .   @ . .     @ & @ > & # & * = ] ! S _ * F L 4 [ ^ k c 5 V T U U S U U 4 8 K b K D v { @ > y 1.F.h I c 7 V < { ^ ] ~ ~ X X X X ~ ~ ] / ( : V } d I i  +#+A ! # S j I G b -.8 4 U U U S S U T 3 c i ^ : 5 Z K # { < ] ] ; % % $   @ # $ $ & # # @ & $ & @ = @ .       $ @ @ @ @ @   > # @ $ # ; _ ! V / # D J 4 [ ^ O b 3 T U S S S U T 4 8 -.b -.L t [ & ) y 4.E.e I c 7 V : ( / ] ~ X X X ",
"X X ~ ~ ] / ( : T 7 c I h E.1.B '   ( t D M b -.1 3 T U U U S U T 3 b O / [ 4 J Z # ^ T X _ ; * & @ @ .     @       . $   . .   @ . . . . + . .         . @ & & # ; / ! U _ # L D 3 [ ^ i c 5 T U S U U U T 4 1 -.a H J v U $ ' z 4.E.e F c 7 V : ( / ] ~ X X X X X ~ ~ ] / ( : V 7 c I h F.2.x ) @ S j J -.0 M 8 4 T U U U S U T 7 c P ] [ 4 D J * _ V X _ ; = #   @ % # # @ @ . . . . @ . .   + $   @   $ &   @ # $       @ # * ; { ] 4 { & I J 4 < ^ O ;.5 T U S U S S T 4 8 K 0 G J w < & ) ;.3.D.i I c 5 T : ( / ] ~ X X X X X X ~ ] / ( : T 5 a F f E.>.z ~ @ : s Z -.b -.1 3 T T U S S T T 3 b P _ : 7 J C & ~ 4 ) < > % & @   .     @     & . . .         + . . * @ . . @ . @ @ # & = * % ; / X W < & E L 4 [ ] O c 5 V U S U T U U 4 8 K 0 K D w ( @ , y 1.F.h I c } W : { ^ ] ~ ~ X X X X ~ ~ ] / ( : V } d I i  +#+y X # < g I G b -.8 4 U U U S S U V 3 c i ] [ 5 C K # ( S ~ ] ; * $ & @ $ @ & * & # % $ $ $ @ $ # = & % $ & $       @ $ . & # $ # # ; ^ ! W ^ # D E 4 [ / P b 3 T U S S S U T 4 8 -.b -.L t [ $ , x 1.E.e I c } T : ( / ] ~ ~ X X ",
"X X ~ ~ ] / ( : T 7 c I h E.1.B ) @ ( t D M b -.1 3 T U U U S U T 3 b P ^ [ 5 L Y * _ V X _ ; * & @ @       @       . @   . .     . + . . . . . @           & & * ; ( X U { # L L 3 < ^ k a 3 T U U U U U T 4 8 M a H J v S & ) y 2.E.f F c 7 V : ( / ] ~ ~ X X X X ~ ~ ] / ( : T 7 c I h F.3.x X $ : v J -.0 M 8 4 T U U U U T V 3 a k ] [ 3 Z E # _ V ~ [ , = #   $ * # % @ @   . .   @ .   @ . @ $       @ @ @ &   @   @ $ # * ; _ X T { * I L 3 [ ^ i c 5 V U S S S U T 4 8 K 0 H J w ( # , A 3.F.i I c 5 T : ( / ] ~ X X X X X ~ ~ ] / { < T 5 a G f E.>.z ! $ < t Z -.b -.1 3 V T T U S U T 3 a P / : 4 I C * ] T ) / = * & @   . .   @ . & $ $   . . . @   + . . $   . .   . $   .   * & % > { ] S ( = E D 3 < ] O a 3 T U S S S U U 4 8 K b K D w ( & ~ x !.F.h F c 7 V : { / ] ~ ~ X X X X X ~ ] / ( : V } d I i D.#+x > % S j I G b M 8 4 U U U S S U T 5 c i ] [ 3 Z G % < : ~ ] ; * $ @ @ & $   & & * $ # $ @ $ $ & & @ % & . @   @     $ . @ & & # % = < X l ^ % Z J 4 [ / k b 3 T U S S S U T 4 8 -.b M L t < $ ' x 1.E.e I d } W : ( _ ] ~ X X X ",
"X X ~ ~ ] / ( : V 7 c I h F.1.B , @ ( v D M b B 1 3 T U U U S U T 3 b P / < 3 Y Y * _ V X _ ; * # @   .         . . . @   . @ #   @ . . . . . . .           & & # > / ! S ( & D D 3 < ^ P b 3 T U S U U U U 4 8 -.a M L t S $ X z 4.E.e F c 7 V : ( / ] ~ X X X X X ~ ~ ] / ( < T 7 c I h F.2.y ~ # V v L -.0 M 8 4 T U U U S U T 3 a O ~ [ 3 Z J # { T ~ < ' = & $ $ # * @ @ *   . .     . .           +   @ @ @ @ @     @ & # % - / X U _ $ J Y 3 < ^ k a 3 T S S S S U T 4 8 K b K J j { $ > ;.3.F.h I c 5 T : ( / ] ~ X X ~ X X ~ ~ ^ / { < T 5 a G f E.>.z ! & [ t Y K a K 1 3 T U U S U T V 3 a P / : 3 I C & ^ l ! / ; # $ @   . .   @   * $     . @     . . . .     . .   . @   . @ & & # ; _ ~ U / # J D 4 [ ] O a 3 V U S S S U U 4 8 M a G D w { & , x 1.E.h E d 7 V : { ^ ] ~ ~ X X X X ~ ~ ] / ( : V } d I i D.#+A ) @ S j I H b -.8 4 T U U S S U T 3 c k ] [ 3 Z F $ ( U X ] - * $ @     @ & & & $ & @ & & $ @ $ & @ # & . = @ ,     $   @ $ * & % > _ ! W / # Z J 4 [ _ k b 3 T U S S S U T 4 8 -.b M L t < $ , x 1.F.e I c } V S [ _ ] ~ X X X ",
"X X ~ ~ ] / { : T 7 c I h F.1.z ,   ( t D M b B 1 3 T T U U S U T 3 a P / [ 4 J D * _ T ! _ ; * & $           @ . @ . @   . @ $     + . . .   . . .   @ .   # & * > / ! S _ & L D 3 [ ^ k b 5 V U S U U U U 4 8 B b M L v U @ ' x 4.E.e F c } V : ( / ] ~ ~ X X X X ~ ~ ] / ( : T 7 c I e F.2.y ~ $ : w L M b M 8 4 T U U U S U T 3 a O ] [ 3 Y E # ( T ~ _ > % &   # @ $   $ # . . . @   . . .   @   . .     @ $ @ $     @ $ % % ; / X T { & E L 3 < / k c 5 T U S S S U T 3 1 H a H J j { & ) A 3.D.h I c 7 T : ( / ] ~ ~ ~ X ~ X ~ ~ ] / ( : T 5 a G f E.>.z ) $ : r Y M a K 1 3 T U U S S U V 5 a P / < 3 I C - / T ) / = % $ &   . .   $ @ & . . . . . @   .     . .   . .   . @         # * ; _ X l ( & J L 5 < ^ N c 3 T U S U S U T 4 8 M a H L t < @ ' y 1.E.e I c 7 V < { / ] ~ ~ X X X X ~ ~ ] / ( : T } d I i D.#+c ) * < j I K a B 8 4 T U U S S U T 3 d P ] < 3 Y F & ( < ~ { - # $ @   @ @   & $ # # & & $ #   & $ $ & & # = # # $ $ @ $   @ @ ; & - / ) T ^ = L E 3 [ _ k b 3 T U S S S U T 4 8 B b M L t : $ ' y 1.F.e I c } V S [ _ ^ ] ~ X X ",
"X X X ~ ] / { : V 7 c I h F.1.y , @ ( t D K b -.1 3 T U U U S U T 3 a P / [ 4 J D * ] U ! / ; * & $       @ @   . $   @   .     . . + . . . . . @ $         # & # - / ! U ^ $ L Y 3 < / N a 5 T S S U U U U 4 8 -.b M E v S $ ) z 4.E.e I c 7 V : ( / ] ~ ~ X X X X X ~ ] / ( < V 7 c I e F.2.y ) $ < j J M 0 M 8 4 T U U U U U T 3 a O ~ [ 3 Y J & ( V ~ _ - % * @     $   @ @ . . .     . .     .   . . @         # @ @ @ $ # - , ( X V _ $ E L 5 : ^ P c 3 T U S S U U T 4 8 K a F J w [ & > x 3.D.h I c 7 T : ( / ] ~ ~ X X ~ X X ~ ] / ( : T 5 a F f E.>.z ~ # [ r Y -.a M 8 4 T U U S S U T 3 b O / : 7 J C = ^ T X ( ; # $ # % $   @   & $ . . . . . .   . . . . .   . .   . @   @ @ @ # # = ( X V ^ * I L 4 < ^ k c 5 T U S S U U T 4 8 M a M D t [   > A !.E.e I c 7 V < { ^ ] ~ ~ X X X X ~ ~ ] / ( : V } d I i D.#+A , # U w F K a B 8 4 U U U S S U T 3 c k ] [ 3 Z F % [ U X ^ - # $   $ $ $   $ $ # * #   & $ $ * @ @ * # . . * % ; @ # & # % $ % ; = / ! T ] # D E 4 [ / k a 3 T U S S U U T 4 8 -.b K L s : $ ' y 1.F.e I c 7 T S [ _ ] ~ ~ X X ",
"X X ~ ~ ] / { : T 7 c I e E.4.y , @ ( t D K b -.1 3 T U U U S U T 3 a P / [ 4 J D % _ V ~ _ ; * # $           $ . . @ @   . . .     . . . . . .             # & * - _ ! S ^ $ J D 3 < ^ P b 3 T U S U U U U 4 8 B b M J t U & ) x 4.Z.e I c 7 V : ( / ] ~ X X X X X ~ ~ ] / ( : T 7 c I e F.2.y ) @ [ w L M 0 K 8 4 T U U U U U T 3 a O ] [ 3 Y L & ( T ~ { ; % &       @     $   .       . .   =   $ . . &           @ @ @ & $ - - { X W _ & E L 3 < ^ k a 5 T U S S S U T 4 8 M b K J v < # ) ;.3.D.h I c 7 V : ( / ] ~ X X X X X ~ ~ ] / { : T 5 a F f F.'.B X $ S m Y -.b -.1 3 T U S S S U T 3 b k ^ < 5 J Y # ] 5 ! S - * = # # = % &   $ . . . . . .     . . . . .   . .   @ &     @ @ # # = ] X U _ = E D 3 [ ^ P c 5 T U S S U U T 4 8 B a K Y v : @ ' x !.E.e F c 7 T : ( ^ ] ~ ~ X X X X ~ ~ ] / ( : T } d I i D.k.y , # U w I M a -.8 4 U U U U S U V 5 c i ] [ 3 Y I $ < U ~ ^ - # $ @ # * & @ $ # @ * & & @ & $ @ $ # & #   $ % . $ & * ; @ $ # & - = ] ! W ^ # L E 4 [ _ i b 3 T S S S S U T 4 8 M a K L v S $ ) x 1.D.e F c 7 T S ( _ / ~ X X X ",
"X X ~ ~ ] / { : T 7 c I f D.4.y ' @ ( t D H b B 1 3 T U U U S U T 3 a P / [ 4 J Y & ( l X < - * & $               . &   .     . @ . + . .   . . . @   .     # # # ; / X S / & J L 5 [ ] P b 3 T U S U U U U 4 8 B b M L w ( $ ' y 4.Z.e E d } V : ( / ] ~ ~ X X X ~ ] ~ ] / ( : T 7 c I e F.2.y ' @ [ w L M 0 K 8 4 T U U U U U T 3 a O ] [ 3 D L & _ T ~ _ ; % &     @ &   @ & . .       + . . $ . = . . & .   @   @       $ & % - ^ X T { $ J L 4 < ^ i a 3 T U S S S U T 4 8 M 0 K J v [ & , x 2.D.h I c 7 V : ( / ] ~ X X X X X ~ ~ ] / { : T 5 a F f F.>.M / $ [ s Y M a M 1 3 U U U S S U T 3 a N / < 5 J D & ] } ) S ' * = # &   $     $ @ $ . +   .       . . .     .     @     & = * & * = ^ X S { & J D 3 [ ^ O c 3 T U S U U U T 4 8 -.a K D t [ @ ' x !.E.e F c 7 T : { ^ ] ~ ~ X X X X ~ ~ ] / ( : V 7 d I i D.#+y , & T w I K b -.8 4 U U U S S U V 5 d k ^ [ 3 Z F & [ U ~ / ; # & @   @ @ # $ $ . $ $ % @ @   @ $ # * & $ # & * &   @ @   $ & & = - _ ! T / = L J 4 [ / k b 3 T U S S U U T 4 1 K b H L t : & ' y 4.F.h I c 7 T : ( _ / ] X X X ",
"~ ~ ~ ] ] / ( : T 7 c I f D.1.y , @ _ t D H a -.8 3 T U U U S U T 3 a k / [ 4 J Y # / V X S ; * # $   .             . # . . +   $   @ + . .   .             # & # ; / X S ^ @ L L 5 [ ^ P b 3 T U S S U U T 4 8 B b M L v < & ) y 4.Z.e I d } V : ( / ] ~ ~ X X X X ~ ~ ] / ( : V 7 c I e F.2.y , @ < w J K 0 K 8 4 T U U U U U T 3 a P ] [ 3 D L # { U ~ _ ; % # @ @ $ @   @ @   .   .   . . . & $ $ +   .   @ &   @     @ $ # % > ^ ! S / & E L 3 : / i a 3 T U U S U U T 4 8 M 0 K J w : & > ;.2. +h I d 7 V : ( / ] ~ X X X X X ~ ~ ] / { < T 5 a G g E.>.B / & : s Y M b M 1 3 T U S S S U T 5 b O ^ : 5 L D & X V ) ^ , # $ @ = * @       % @ $ . .   .   . .   .   @     @   $   # # & % * ; / X S { # J D 3 < ^ P c 3 T U S S U U T 4 8 B a H L t U $ > y !.E.e F c 5 T : ( / ] ~ ~ X X X X ~ ~ ] / ( : V 7 d I i D.k.z ' @ U j I G b -.8 4 T U U S S U V 5 c i ] [ 3 Z F # [ U ~ / ; # $ $       & * &   @ & @ & & @ @ # $ # @ % # $ = . @ @   & @ $ = > , { ! T / * Y J l < / P b 3 T U S S U U T 4 1 K b H D v : $ ' y 4.F.e I c 7 T : ( _ ^ ] ~ X X ",
"^ ^ ~ ~ ] / ( : V 7 c I e D.1.y , $ { v D H b -.8 4 T U U U S U T 3 a k / < 3 L D & { T ! { - = # $ @ & . # @   @ $ . @ .   . . . . . +   . .               # # # ; ^ ! U / & J D 5 [ ^ P b 3 T U S U U U T 4 8 B b M L v S @ ! y 4.E.e I c 7 V : ( / ] ~ ~ X X X X ~ ~ ] _ [ : V 7 d I e F.2.x ! @ S v J -.0 M 8 4 T U U U S U T 3 a P ^ [ 3 L L & { U X _ ; % # $   @     @ @ . .       . . + # $ @ +       $ @     @   $ @ # % ; ^ X : / & I L 3 < ^ k c 3 T U S S U U T 4 8 M b K J w : * ' A 2. +e I c 7 V : ( / ] ~ X X X X X ~ ~ ] ^ { < T 5 a G g Z.>.B ~ # : t Z K a G 9 3 W V U T T T V 7 d Q ^ : 5 J Y ; ] V X ^ - ; & @ # $ % .     % &   . .     @ @ % . .   @     &   @ = = & = = % = / X T _ & J L 4 [ / P c 3 T U S S U U T 4 8 M 0 M D t < @ ) z 1.E.e F c 7 V : { ^ ] ~ ~ X X X X ~ ~ ] / ( : V } d I i D.k.B > $ : g I G a -.8 4 U U U U S U T 3 c i ] [ 4 Y I $ [ : ] { ; % % $ @   @ & $ @ .   & *   # $ & $ $ $ # & * $ !   @ & =   & * & > ' ^ ! T _ $ L J l [ / k b 3 T U S S U U T 4 1 K b K D v S $ ' y 4.F.e I c 7 V < ( _ ^ ^ ] ] ] ",
"X X ~ ~ ] / { : T 7 c I e  +1.z , $ ( t D G b -.8 4 T U U U S U T 3 a k / [ 3 L Y % / T ! / > > % & % $ . @ .     * @ @ . . +       . . + $ .           @   # # # = ] ! : / # J D 3 [ ^ P b 3 T U S S U U T 3 8 -.b M D w < $ ) y 4.E.f I d 7 V : ( / ] ~ ~ X X X X ~ ~ ] _ ( : V 7 c I e F.2.x ) $ : v J M b M 8 4 T U U U U U T 3 a k ^ [ 4 L J ; { U X _ ; % * @ $ @ @   @ @   .       . . . .   @ + @     & $   @ @   #   # % , ^ X S ^ & E D 4 [ ^ k c 3 T U S S U U T 4 8 M 0 K J w U $ ' x 2.D.h I c 7 V : ( / ] ~ ~ X X X X ~ ~ ] / { : T 5 a F g Z.>.-.' $ < r Y M a -.8 3 V T T T T T V 5 a N / S 7 D u # ^ l ~ _ ; % ; # & @ ) &       . .   +     % * # . . . @     @ @ @ % * & % % * = _ X V _ # J L 3 [ ^ P a 3 T U S S S U T 3 1 M b M D s : $ ' y 1.E.f F c 5 T : { / ] ~ ~ X X X X ~ ~ ] / ( : V 7 d I i D.k.B > ; [ f E G b -.8 4 T U U S U U T 3 c k ~ [ 5 Z H # { < ~ ^ = # & @ & $ @ . . @ @ .   $ .   & % & @ @ =   = * $     @ = # & @ & = , / ! T / # L E l [ ^ O a 3 T S U S U U T 4 8 M b K L v : $ ) y 4.F.e I c 7 T < ( / ] ~ ~ X X ",
"X X ~ ~ ] / { : V 7 c I e  +1.z , $ { t Y H b M 8 4 T U U U S U V 3 b k / : 3 J Y # { T ! / ; % # * * % .         & $ @ .   .   .     . . % .   .       @ @ # # # = ^ ! S _ * J J 5 [ ^ P b 3 T U S S U U T 4 8 -.b M L j [ $ ' y 4.Z.e I d 7 V : ( / ] ~ ~ X X X ~ ~ ~ ] _ ( : V 7 c I e F.2.x , $ < w J z b M 8 4 T U U U U U T 3 a k / < 4 D E # { V X / ; % %   @ @ @   @ @ * .     . + + $ . @   + @ . @ &     $   @ @ @ $ = > / X S / $ E L 3 [ / k c 3 T U S S U U T 4 | M b H L w U $ ' y 2. +h I c 7 V : ( / ] ~ X X X X X ~ ~ ] / ( : V 7 a F e E.>.y ! * < m D M b -.8 4 T U U U U T V 5 a P ^ : 7 J Y * ^ V ! _ ; % % * # # * $     & . . . . @ & $ . .   .     . . $ $ @   $ $ # & * ; _ X V ( * J L 3 [ ^ O a 3 T U S S S U T 3 1 M a K L t [ $ ) -.1.E.f F c 7 V : { / ] ~ ~ X X X X ~ ~ ] / ( : V 7 d I i  +k.z > $ : g E F a B 8 4 T U U S S U T 5 c i ] : 5 Z G $ { < ~ ^ = # $ @ @ @ @ @ @ $ & . . @ @ +   $ # #   #   # $ $ @ @ @ @ $ $ @ $ = , _ X U ^ = L L 4 [ ^ N c 5 T U S S U U T 4 8 M b K L v < # ' z 4.F.e I c 7 V < { / ] ~ ~ X X ",
"X X ~ ~ ] / { : T 7 c I e F.1.z , $ [ v D G a -.8 4 T U U U S U T 3 b i _ < 3 J Y % / T ! / ; # & # $ = + @     $ @ $ & .   + . . . . @ @ @ .           @   # # # = ^ X U _ * E D 5 [ ^ P b 3 T U S S U U T 4 8 M b K L j ( # ! z 2.E.e I c 7 V : ( _ ] ~ ~ X X X X ~ ~ ^ / ( : V 7 c F e F.2.A ) $ < v J z 0 -.8 4 T U U U U U V 3 a i / [ 5 D J & _ T X / ; % * $   @ @     $ . .     . + . & + @   + @ . $ %   $ #   $   @ $ - ; / X T _ # E L 4 [ / k c 3 V U S U U U T 4 8 K b H L j S @ ' x 2.U.h I c 7 V : ( / ] ~ ~ X X X X ~ ~ ^ _ [ S V 7 c F f E.>.B X & T m D M b -.8 4 T U U U U U V 5 c Q ^ S 4 I Y * ~ V ) { ! = * * @ # # $ &     . @   $ $ % &   . . +     .     @ $ @ & @ = = * = _ X T ( $ L D 3 [ ^ N c 3 T U S U U U T 3 1 K b M D v < $ X -.1.E.e F c 7 V : ( / ] ~ ~ X X X X ~ ~ ] / ( : V } d I i  +k.z , & S j E H a -.8 4 T U U U U U T 5 c i ^ : 5 Z I # ( : ~ ] = # $ @ @ $   . @   $   @ $ @ $ $ % *   # @   & $ &   $ $ @   $ @ & * - { X l _ = L J 4 < ^ k a 3 T S S S U U T 4 8 -.b K D v < & ) y 1.E.e F c 7 T < ( / ] ~ ~ X X ",
"X X X ~ ] / { : T 7 c I f E.1.x ' & [ s D G c -.1 3 T U U U S U T 3 a O / [ 4 J Y $ _ S ! / , # & $ @ @ .       @ .   $ $ @ + .   . . . . . .     .     @   # # # = ^ ) T / # E D 5 [ ] O b 3 T U S S U U T 4 8 -.a H L j : @ X A 4.E.e I c 7 V : [ { ] ~ ~ X X X X ~ ~ ] _ ( : V 7 c I e F.2.x ) $ : v L B b B 8 4 U U U U U U T 5 c i / < 3 D J $ / U X ^ ; * % &   @     @ # . .   @ . + . $ + @ . . @ .   @ @   &   $   @ $ % , ^ ~ U ( & J J 4 [ / i c 3 T U S S U U T 4 8 K b K L g < @ ' x 3. +h I c 7 V : ( / ] ~ ~ X X X X ~ ~ ^ / ( S V 7 c F f Z.!.z ~ # U r L M b K 8 3 V U U U S U T 3 a N ^ : 4 E Z * / l ^ l X = * * *   # # $ & . . . @ % * @ =   .   +     .   @ % # . &   > , * ; _ X T { & J D 3 [ ^ N a 3 T U S S S U T 3 1 K b K D s : $ ~ z 1.E.f F c 7 T : ( / ] ~ ~ X X X X ~ ~ ] / ( : V } d E k  +k.y ) & U j E M a B 8 4 T U U U U U V 5 d k ^ < 3 Y I $ < U ~ ^ ; # $ $   $         # . + .   @ * $ # # & & $ # $ % $   $     @ $ # % > { ! T / & Y D 4 [ ^ k b 3 T S S S U U T 4 8 B b M L v [ & ' -.4.E.e I c 7 V < ( / ] ~ X X X ",
"X X X ~ ] / { < T 7 c I f E.4.z ^ $ < t L H a H 8 3 T U U U U U T 3 a P ^ : 5 J L $ _ W ! ^ - % # # &   . @     . .   @ $ * . +   . .   + . .               # # * = ^ ) U ^ $ J D 5 < ] O b 3 T U S S U U T 4 8 H b G L j [ & X y 2.F.e I d } V : ( _ ] ~ ~ X X X X ~ ~ ] / ( < V 7 c I e F.2.x ! $ < v L B b B 8 4 T U U U S U T 3 a i / [ 3 L E & ^ S X ^ ; * * &   @ @   $   . . # *   . . . + @ . + @ .     @ # # ; @ .   $ * > T ^ T { # E L 3 [ / i c 3 T U S S S U T 4 8 K b K L j < @ ! x 3.D.h E d 7 V : ( / ] ~ X X ~ ] X ~ ~ ] _ ( S T 5 a F f Z.!.-.! $ : r D M 0 -.8 3 V U U U U U T 3 a P ^ [ 4 E Z * ] V X { > = * & & @ $ $ & $ . .   $ $ $   & .   * +     . .   *     . @ * & # ; _ X V { & L L 3 [ ] N a 3 T U S S U U T 3 1 H 0 K D s : @ ' z !.E.e F a 7 T : { / ] ~ ~ X X X X ~ ~ ] / ( : V } d E i  +#+y ! $ U g I H a -.8 4 T U U S S U T 3 c i ^ < 3 Z I & < U ~ ^ ; * # & $ & %     @ .   @ .   . $ & & % . # %   %   *   & & @ @ $ & * - { X V _ * D D 3 < / P b 3 V U S S U U T 4 1 B b M D v [ & ' -.2.E.e I c 7 T : ( / ] ~ X X X ",
"X X X ~ ] / ( : T 5 c F e E.1.-.' $ : r D G c K 1 5 T U U U S U T 3 b P / [ 3 J D * { 4 ~ ( ; # & & #   . @     . . .   .   @ +     . &   $ @ @             & # # = ^ ! U ^ & J Y 3 < ] O b 3 T U S U U U T 4 8 H b K D w < & ' y 4.D.e I c 7 V : ( / ] ~ ~ X X X X ~ ~ ] / ( : T 7 c I e E.2.x ! & < v E B b -.8 4 T U U U S T T 5 c k / [ 3 L J % / T X ^ ; * * $     @   $   . . ; & #   . . . @ . . @ @ $ @ @ & $ # $ @   $ * ; ^ X : { & J D 3 [ / i c 5 T U S U U U T 4 8 K b K L g < @ ! x 3.D.h E c 7 V : ( / ] ~ ~ X X X X ~ ~ ] { ( : T 5 c F f E.>.y ] * S s D -.0 -.8 4 T U U S S U U 4 0 k ^ [ 4 J Y * ^ W ! < - % * # #   & $ = . .   @ ; & . @ @   @   .     .   . @ @   .   $ & # = / ~ U { # L D 3 [ ] N a 3 T U S S S U T 3 1 K b M D t S . , y !.E.e F a 5 T : { ^ ] ~ ~ X X X X ~ ~ ] / ( : V } d I i D.#+y ! $ : g I H a -.8 4 T U U U U U T 3 c k ^ < 5 Y F @ [ U ~ ^ - * & $ @ $ @   @ @   @ $ .   . .   & $ & $ $ # # # &     $   $ # * * - / X T _ # D J 7 [ / k c 3 V U S S U U T 3 1 -.b M L v S & X z 2.E.e F c 7 V : ( / ] ~ ~ X X ",
"X X ~ ~ ] / { : V 7 c F e F.1.z ) * ( s Z G c H 8 4 T U U U U U T 3 b P ^ [ 4 J D # _ V X _ ; * # $ &   . @   .   .     .   . + . . . . . . @ .     @ @     # & * = ^ X T _ & L D 5 : ^ P b 3 T U S U U U T 4 8 K b K L v < & X x 4.F.e F c 7 V : ( / ] ~ X X X X X ~ ~ ] / ( : V 7 a I e E.2.y ! @ [ v J B 0 M 8 4 T U U U S U T 3 a O ^ [ 3 L D $ { V ! ^ ; % * @ @ @ @   $     .     & $ . . .     . @ .   . @   @ & @   @ $ * ; / X U ( $ I D 3 [ / i c 5 T U U S U U T 4 8 M a K L j : $ X A 3.D.h I c 7 V : ( / ] ~ X X X X X ~ ~ ] / ( : T 7 a F f E.!.z ! $ S t D -.b -.8 4 T U S S S U T 4 0 P ^ [ 4 J Z # / l X [ > ; % & # @ = # $ . .   . & @ @   @ $ $ . . .                   $ & # - _ ~ T _ # J L 3 [ ] O c 5 T U S S U U T 3 1 K b K Z t U $ ) y !.E.e F a 5 T < { ^ ] ~ ~ X X X X ~ ~ ] / ( : V 7 d I i D.#+y , $ S g E K b M 8 4 T U U S U U T 3 c k ^ < 5 Z I $ [ S X ^ = * & @ @ $ $ * @ @ .   & @ .   $     % @ &   % & > # $ $ @ $ @ - * # - { ! V / & D E 3 < / k c 5 V U S S U U T 3 1 -.b K J t : # ~ y 4.F.e F c 7 T : ( / ] ~ X X X ",
"X X X ~ ] ^ { : V 7 c F e E.1.B ' @ S t D K a M 8 4 T U U U U U T 3 b O / < 4 J L = { V X / - = * & $         .   . .   . @ .   .   . + . . @ # @   @   @ @ # * % ; _ X U _ # J L 3 [ ^ P b 3 T U S U U U T 4 8 -.b K D w < & , y 4.F.e F c 7 V : ( / ] ~ ~ X X X X X ~ ] / ( : T 7 a F e E.2.x X @ < w L B 0 M 8 4 T U U U S U T 4 a P ^ < 4 D J # { l X ^ ; % * @   @ @   $ @ . &     . @   . . @ . . $ . @ . @   $ &       $ * ; / X S ( & E D 4 [ / i c 3 T U S U U U T 4 8 M a G J j < @ ' A 3.D.i I c 7 V : ( / ] ~ ~ X X X X ~ ~ ] / { : T 7 c F f E.!.B ) $ : s L M b -.8 4 T U U U U U T 5 a O / < 4 J D ; / 4 ! ^ - ; * & # @ &       . .     @ @ . $ & . . .   $ .     @         $ & * ; / ] T { # D L 3 [ ^ O a 5 V U S S U U T 3 1 M b M D s T   ! y !.F.h I c 7 T : { / ] ~ ~ X X X X ~ ~ ] / ( : V 7 d I i D.#+x , $ : f L G a -.8 4 T U U U U U T 5 c k ^ < 5 Z I $ < S ~ / ; * $ @ @ @           @   .   . . . .   @ % # $ * ; ;   @ @ @ @ $ = # - _ ! T / # D J 4 < / P a 5 T U S S U U T 4 1 -.0 K E t : # ] x 4.F.e F c 7 V : ( / ] ~ X X X ",
"X X ~ ~ ] ^ { : T 7 c I e E.1.-.> ; : s L K a M 8 4 T U U U U U T 3 b O ^ < 7 J L % _ V X _ ; * & & $   @     . . . .   .   . . . . . + . . .             @ & & * = ^ ! U { # D L 3 < ^ P 0 3 T U S S U U T 4 1 B b -.L t : @ ' z 4.E.e F c 7 V : ( / ] ~ ~ X X X X ~ ~ ] / ( < T 7 c I e E.2.y ! @ < w L -.0 K 8 4 T U U U U U T 3 b O ^ < 3 D I ; _ l X ^ ; % * @   @ @   &       & @ .   . . .   .   @   @ . @   & &       $ * - ^ X V ( # J L 4 [ / k c 3 T U S U U U T 4 8 M b K J j [ $ ! A 3.D.i I c 7 V : ( / ] ~ X X X X X ~ ~ ] / { : T 7 c F f E.!.B ~ $ : s J M b -.8 3 T U U U S U U 5 a k / : 3 J D % ^ 3 ! ( , = % * $ # $ @     . # & .   & @   .   . .       .   @ @   . & # & % , < X l _ # J J 3 [ ^ O a 3 T U U U S U T 3 1 M b M Y v : $ ' x !.E.e I c 7 V : ( / ] ~ ~ X X X X ~ ~ ] / ( : V 7 d I i D.#+A , $ : g E F c -.8 4 T U U U U U T 3 c k ^ < 5 Z F # [ S X ^ ; % & $   @         &   . . . +   . .   . @ . @ & > &   @ $ $ @ # # # - _ ! T / # D J 4 [ ^ N a 3 T T U : U U T 4 1 -.b K J v T * X B 4.F.e F c 7 V : ( / ] ~ X X X ",
"X X X ~ ] / { : V 7 c I e E.!.A ' & { s J M b M 8 4 T U U U U U T 3 b P _ S 3 L D # { V ~ / - * & $ $         . . . .   & . . @ + . + + . . .   @           $ # * = ^ X U { # D Y 5 < ^ P b 3 T U S S U U T 4 8 B b -.J v < $ ) z 4.E.e I c 7 V : ( / ] ~ ~ X X X X X ~ ] / ( < T 7 c I e F.4.y ' @ < v J K 0 M 8 4 T U U U U U T 3 b O ] : 3 D I ; { V ] ( ; * # @   @ @   $     # & # .     .     .       @ . @   # @       $ * - ^ X T [ # E L 3 [ / k c 3 T U S U U U T 4 8 -.a K J j S & X A 3. +i I c 7 V : ( / ] ~ ~ X X X X ~ ~ ] / ( : V 7 c F f Z.1.B X # S t Z K a -.1 3 T U U U S U U 4 b k / : 4 E Y % / l ! _ ; = * $ # # $ @     . . $ $ . @     . . . .   @     . &     & = = * = , : ~ W / # L J 3 < ^ O a 3 T U S S U U T 3 1 M b -.D t < @ ~ x !.E.e F c 5 V : ( / ^ ~ ~ X X X X ~ ~ ] / ( : V } d I i  +#+x ' $ U g E G a -.8 4 T U U U S U T 3 c k ^ < 5 C F @ < U ~ ^ ; * & $ $ $         $ @ . . . . . . .   .   . @   $ # $ @ & @ & & # ; , _ X T / % D E 4 < / P c 5 T U U S U U T 3 1 -.b H J w < & ' -.4.F.e F c 7 V : ( / ] ~ X X X ",
"X X ~ ~ ] ^ ( : T 5 a F e E.1.z , % < r J M b M 8 4 T U U U U U T 3 a N ^ < 3 L Y & _ W ~ / ; # $ $ $   $     .   . .   . @ & @ @ . . + . . . . . % @   .   $ # * = ^ ! V _ & L D 5 [ / k b 3 T U S S U U U 4 8 -.b -.L v [ $ ' z 4.E.e I c 7 V : ( / ] ~ ~ ~ X X X ~ ~ ] / ( < T 7 c I e F.2.B > $ S w J K 0 K 8 4 T U U U S U T 3 b P ^ : 3 D E % _ T ~ _ , * #     @ @   $ & . & &       @ .   .     .     . @   #         $ * - / X U { # E D 3 [ / P c 3 T U S U U U T 4 8 M a H J j : $ , y 3.D.h I d } V : ( / ] ~ X X X X X ~ ~ ] / { : T 7 c F g Z.!.B ~ $ U s L K a -.8 4 T U U S S S T 3 b P / [ 3 L Z # ] V ! / = # $ $ @ .   .     . .         . @     . .     . . @ $ * @ & $ % * - ) U ] U ^ & L J 3 < ^ O a 3 T U S S S U T 3 1 -.a K D t [ @ ~ A >.E.e F c 5 V < { / ] ~ ~ X X X ~ ~ ~ ] / ( : V 7 d E i  +#+A ' & S g I K b B 8 4 T U U U S U T 3 c k ^ < 5 Z F $ [ U ~ / ; * & $   @     @ $ # . . . . . . . .   .   +       $ $ # @ @ # & # * ) [ X l ^ # D D 5 < ^ P a 7 T U S U U U T 3 1 -.b H J w < # ) z 4.F.e F c 7 V : ( / ] ~ X X X ",
"X X ~ ~ ] / ( < T 5 a F e E.!.z ) $ [ r L -.b M 8 4 T U U U U U T 3 c P ^ [ 3 L D # / W X _ ; # $ $ $   $       . .     .   % $   $ & + +   @ . . @ @   .   $ # % - / X T ^ $ L D 7 < _ i b 3 T U S S U U T 4 9 -.b -.L v : @ ) y 4.E.e I c 7 V : ( / ] ~ ~ X X X X X ~ ] / ( < T 7 c I h D.2.B > @ ( j L K 0 K 8 4 T U U U U U T 3 b P ^ [ 4 D J = / V ~ / > * #     @ @   $ . $ . #       $   @ .     . @         $         $ * - / X U { & E D 3 [ ^ P c 5 V U S U U U T 4 8 M b H J g < & , x 3.D.h I c } V : ( / ] ~ X X X X X ~ ~ ] / ( : V 7 c F f Z.!.B ~ $ S s L M a K 8 3 T U U U S U T 3 b P / < 4 E D & ^ V ! / = # $ $ @ @         . . .   + @ . @ @ . . . .   . $ $ $ & % * $ $ # ; ; [ X U / # D J 3 [ ^ O a 3 T U S U S U V 3 1 K b K Y t [ $ ] y !.E.e F c 5 T : { / ] ~ ~ X X X X ~ ] ^ _ ( : V } d E i  +#+;.! @ : g I H b -.8 4 T U U S S U T 3 a k ] < 3 C E $ [ S ~ ^ = * & @ @ $       @ $     . . . . + .   .     # @   @   & $ # & & & * ~ : X l _ $ L Y 3 : ^ i c 7 V U : S U T T 3 1 M 0 H J w < $ ! y 4.F.e F c 7 V : ( / ] ~ X X X ",
"X X ~ ~ ] / { : T 5 a F e E.1.y ] # : s L M b -.8 4 T U U U U U T 3 b k _ < 3 L D # / W ~ { ; # & $ # &         . . . . @   #     &   + . @ = . .   $       $ * * ; / X U ^ # J L 7 : / i 0 3 T U S S U U T 4 1 -.b -.L v : @ X x 4.E.e I c 7 V : ( / ] ] ~ X X X X ~ ~ ] / ( < T 7 c I h D.4.y ' & { j D M 0 M 8 4 T U U U U U T 3 b O ^ [ 4 L J % / V X _ - = # @     @   $ @     $ @ . . $ . @ . @   @ $       @ $       @ $ % ; / X U { & J Y 3 [ ^ P c 5 V U S S U U T 4 8 K b H D g < $ , x 3.D.h I d } V : ( / ] ~ ~ X X X X ~ ~ ] / { : V 7 c F f Z.!.z ~ & U s L K b K 8 4 T U U U S S T 3 b k _ [ 4 E Y * / W X { , # $ @   @ @       . . .   +   . @   .   + .     . . * % @ $ $ * % % > ( X U _ & D J 3 < / P a 3 T U U U U U T 3 1 H 0 K Y t [ $ ] z >.F.e F c 5 V : { / ] ~ ~ X X X X ~ ~ ] / ( : V } ;.E k  +#+;.! $ [ j I K b -.8 4 T U S S S U T 3 c k ] < 3 Z I @ < < ~ ^ ; # $ @ @ @ .     $ .   . . . . . . @ $   &   @ .   @   @ @ $   & & * ! ( ! 4 ] * L L 3 < ^ N d 7 T S S S U T T 3 8 -.b H J w < $ ! z 4.F.e I c 7 V : ( / ] ~ X X X ",
"X X ~ ~ ] ^ { : T 5 a F e F.1.-.> # [ s D -.b K 8 4 U U U U U U T 3 a O / < 5 L D # / V ~ _ ; # & $ &       @ . @     . $ & @ . . $ $ + . . . .       @     $ % * ; / X S _ # J D 7 : / O c 5 T U S S U U T 3 1 -.b M L v < @ ) y 4.F.e I c 7 V : ( / ] ] ~ X X X X X ~ ] / ( < T 7 c I h D.4.x , # { j D M b M 8 4 T U U U S U T 5 a P ^ [ 4 Z E > ] U ~ < ; = * @     & @ $   .       . . @ . @ . @   . $ .   @ @ $       @ $ = ; ^ ] T ( # E D 3 [ ^ k c 5 T U U U U U T 4 8 K b H L g < $ > x #+D.i I d } V : ( / ] ~ X X X X X ~ ~ ] / ( : V 7 c F f Z.!.z ~ $ T s D M b K 8 4 T U U U S S U 4 b k / [ 4 J L % ^ T ! ( ; # $ @   @ #       . . . . . @ @     . + . .   .     @       $ * * % , _ ~ T _ & D J 3 < / O a 3 T U S S S U T 3 1 H b H Y t (   ] z !.E.f F c 7 V : ( / ] ~ ~ X X X X ~ ~ ] / ( : V } d I i D.#+A ! @ < j E H b -.8 4 T U U S S U T 3 c k ^ < 3 Z F # [ : ~ ^ = * $ @ @ @     @ $ @ . . . . @ @   .   . @ $ $   @ $   $ @ &   $ & % > ( ~ S / & D J 4 < ^ k a 3 U S S S U U T 3 8 M b H J w ( # ) x 4.D.e I c 7 V : ( / ] ~ X X X ",
"X X ~ ~ ] ^ { : T 5 a F e E.1.K ' # U r L M b M 8 4 U U U U U U T 3 b k / < 3 L Y & _ V ~ _ ; # & @ &   .   @ @   . $     .   . #   $ . .   # @       @ #   $ # * ; / X T { & J D 5 : / P c 5 V U S S U U T 4 1 -.b M L w < $ ! x 4.F.e I d 7 V : ( / ] ] ] X X X X ~ ~ ] / ( < T 7 c I h F.4.B - @ [ w D M b -.8 4 T U U U S U V 5 a P / < 4 L J * / T ~ < ; % * @     & @ # @ . @   # . .   .   . @ @ . & .   @ @ @ @     @ $ = ; ^ X U { # E D 3 [ ^ P c 5 V U U U U U T 4 8 K a H D j < $ > x #+D.i E d } V : ( / ] ~ ~ X X X X ~ ~ ] / { : V 7 c F f Z.!.B X $ V r L M b M 8 4 T U U S S S U 4 b k _ [ 5 D D * / V X _ = # $ @   @ $       . . . . . .       . . . . @ . .   @ @       & * - ' _ X T _ & D L 3 < / P b 3 T U S S U U T 3 1 H 0 H Z v ( @ X y !.Z.f F c 5 T < { / ] ~ ~ X X X X ~ ~ ] / ( : V 7 d I i D.#+A > $ [ j I K a -.8 4 T U U S S U T 3 c k ^ < 3 Z I & [ : ~ / = * $ @ @ @ .   @ @ $ . .       + . .   .     @     $     * & & @ & # ' ( X 2 _ # D E 3 < ^ k b 3 T U : S U U T 3 8 M b H J w [ @ X y 4.F.e I c 7 V : ( / ] ~ X X X ",
"X X ~ ~ ] ^ { : V 5 a F e E.1.B X & [ s L K b M 8 4 T U U U U U T 3 b k / < 3 L D # _ V X { , - > $ = & @ $ $ $ @ $ $ @ @ @     @ & @ . & . & . .   .   & & $ * % ; / X U { & E Z } U / P d 5 V U U U U U U 4 8 -.0 K L v < & ) y 4.F.h I c 7 V : ( / ] ] ] X X X X X ~ ] / ( : T 7 c I h F.2.-., $ < j D K b -.8 4 T U U U U U V 3 a O ^ < 3 L D & ^ T ~ { > * # @     $ @ &   . @     +     .   . @ $ . & . @ @ @ @       @ $ % ; / ~ T { * I D 4 [ ^ P d 5 T U S U U U T 4 8 K a H L g : $ > x 3.D.i E d } V : ( / ] ~ ~ X X X X ~ ~ ] / { : V 7 c F e Z.!.z ) # S r L M 0 K 8 4 T U U U S S U 4 b k _ < 5 J D % / l X / = * $ $   # @ $ *   . . . . . & =     . . . .         @ @ @     & & # ; ( ~ V _ ; L L 3 < / O b 3 T U S S S U T 3 1 H 0 K D v / @ ! z !.Z.f F c 5 T : ( / ] ~ ~ X X X X ~ ~ ] / ( : V 7 d I i D.#+A > & [ j I H a -.8 3 T U U S S U V 5 d P ^ < 3 Y G * { < X _ = * & @ @ @ .   @ & # @     + . .   .           @   & @   $ * $ @ & % > { X l ^ * L D 5 : ] k b 3 T S : S U U U 3 8 M b H L j < @ X y 4.F.e I c 7 V : ( / ] ~ X X X ",
"X X ~ ~ ] ^ { < T 5 a F e E.!.z ) $ < s L M b K 8 4 T U U U U U T 3 b k / < 3 L Y & { V X { ; = * & &       @   @   @   .   @   @ # . . . @ * $ $ $ @ @ @ & $ & * = / X V { % E D 3 : _ k 0 3 T U S U T T T 4 8 M b H L w S $ ) y 4.F.h I c 7 V : ( / ^ ] ~ X X X X X ~ ] / ( : V 7 c I h F.2.-., @ < w D M b -.8 4 T U U S S U T 3 a O / < 3 L D $ ^ W X { ; = # &     & @ $ @ . @   @ +     .   .   $ . &   @ @ & $ @ $ @ @ & % - _ ~ S _ = F D 4 [ ^ k c 5 T U S S U U T 3 8 M b K L g < $ > y 3.D.i E d } V : ( / ] ~ X X X X X X ~ ] / { : V 7 c F f Z.!.B ' * [ s Y K b M 8 4 T U U S S S T 3 b P / [ 3 E D * _ W X _ ; * $ @   * . > &   . . . .   # $   .     . .   @   $ $ @   @   & & * = _ X T { $ D L 5 < / O a 3 V U S U U U T 3 1 K b K D t _ @ ! z !.Z.f F a 5 T < { / ] ~ ~ X X X X ~ ~ ] / ( : V } d I i  +#+A ' & : g I G b M 8 4 T U S S S U T 3 c P / < 5 Z K % < S ~ _ ; * & @ @ @ . @ & . $ . . . . . +   .   @ . @   @ & &       @   @ # * ; / ! T ~ & L L 5 S / i 0 3 T S S S U U U 3 8 M b K Y g : @ ! -.2.D.h I c 7 V : ( / ] ~ ~ X X ",
"X X X ~ ] ^ { : T 5 a F e F.!.B ) & : s L K b K 8 4 T U U U U U T 3 a k / [ 5 J Y # _ W X { > # * # $       @   & $ .   $ @ @ @       $ . . @         .     & # ; , : ] 5 { * J L 3 < ] O b 3 T U S S U U T 3 8 M 0 K J v S & ! y 2.E.e I d 7 V : [ / ^ ] ~ X X X X X ~ ] / ( : T 7 c I h F.4.-.' $ [ j L M b -.8 4 T U U U U U V 3 ;.P ^ < 3 L L $ ^ V ! ^ - * * @     @ @ $ & # @     + @ . . . @ . & . &   @ @ $ $       @ & * - _ ] : _ % F D 4 [ ^ k c 5 T U S U U U T 4 8 K b K L j : @ > y 3.D.h E d } V : ( / ] ~ X X X X X X ~ ] / { : V 7 c F f Z.1.B ) = : r D M b M | 3 T U U S S S U 3 b k / < 4 E D # _ V ! { ' * & $ & * .   @ . =   .   @ . .         . $ @ @     & @ @ $ @ # & * ; / ~ V / $ L L 3 [ ^ O a 3 T U S S S U T 3 1 K 0 M D s [ @ ! z !.Z.f F a 5 T < { / ] ~ ~ X X X X ~ ~ ] / ( : V } d I i  +#+;.) & < g I G b M 8 4 T U S S S U T 3 c k ^ < 3 Z G # [ S ] / - * & @ @ $   @ $     & . @ @ . + .   # @ @ ; . @ $ $ @ @ $ @   @ # # ; [ ! 5 ^ & L D 5 : ^ i a 3 U U S S U U U 3 8 -.c H D v T @ ) B 4.D.h I c 7 V : ( / ] ~ X X X ",
"X X X ~ ] ^ { : T 5 a F e F.!.z , & : t L K b M 8 4 T U U U U U T 3 b k ^ [ 3 L Y # { T ! { - # = # $ @   .       & @   @ $ . .     . # . .   .         > # ; - - > ( X l ( % J D 4 S ^ P a 5 T U : S U U T 3 1 H b K J w T & ) y 4.F.e I c 7 V : ( _ ^ ] X X X X X X ~ ] / ( < T 7 c I h F.4.z ! & [ w L M b M 8 4 T U U U U U T 4 c P / < 3 L J * ^ 3 ! ] = # * @ & * $ $ @ * & @ @   . @   .   . . @ . @   @ @ @ @       @ & * ; _ ~ U / = I D 4 < ^ k c 5 T U U U U U T 4 8 M b K J j S # > A 3.D.h E d } V : ( / ] ~ X X X X X ~ ~ ] / { : T 7 c F f Z.!.y ! * T r D K b M 8 3 T U U S S S T 3 b k _ < l E D & _ T ^ W , % & $   # * # % ; ;   .   + . .   . . . & @ @       @     @ # * & # - < ~ W _ * Y L 3 [ ] N a 3 T U S S U U T 3 1 M b -.D t [   ~ z !.E.f G a 5 T < { ^ ] ~ X X X X X ~ ~ ] / ( : V 7 d I i D.#+;.) $ < g I H b M 8 4 U U S S S U T 3 c k ] [ 3 Y F @ { < X / ; % & $ @ @ @   $     . .   $ $   . .   @   &   & $ @ $ @ & # $ $ # # , { X 3 ] & L L 5 : / k c 3 T U S S U U T 3 8 -.a K L v : @ ) z 4.F.h I c 7 V : ( / ] ~ X X X ",
"X X X ~ ] ^ { : T 5 a F e F.!.z ! $ : v D K b M 8 3 T U U U U U T 3 b k / < 3 L Y # { V X ( > * % & $ @               . & @   @ @ @ . @ @ + . . .   * % # @ $ & * - _ X l ( * J D 3 < ] O a 5 T U S S U U T 4 1 K a G L w T @ X x 4.Z.e I c 7 V : ( _ ^ ] ~ X X X X X ~ ] / ( : T 7 c I h F.4.B ' @ < j L K b M 8 4 T U U U U U T 3 b k ^ < 4 L L # / W ! / > # * $ #   $   $   @ @ @ . .       . . . @ . & . @ $ @ @     # @ & * ; { X U / ; I D 3 [ ^ k c 3 T U U U U U T 4 8 M b M J j : $ ' A 3.D.h I d } V : ( / ] ~ X X X X X ~ ~ ] / { : T 7 c F f Z.!.z ! # S r D K b K 8 3 T U U S S S T 3 b k / [ 4 J D & ( T X [ > % & & @ & $ $ * $ @ @ .   .   . @ . . & @   @     @ @   @ $   & * % > { ~ W / ; Y L 3 < ^ O a 3 T U S S S U T 3 1 -.b B D t : @ ~ z !.E.f F a 5 T < { / ] ~ ~ X X X X ~ ~ ] / ( : T 7 d I i  +#+;.' $ < g I K b M 8 4 U S S S S U T 3 c k ^ < 3 D F & { < ~ ^ ; % $ @ @ &     $     . . . .   & @ .     @ @   $ $   $ $     @ @ & * , _ X T ] & L D 3 : ^ k c 3 T S S U U U U 3 8 M a K J w : @ ) y 2.E.e I c } V : ( / ] ~ X X X ",
"X X ~ ~ ] ^ { < T 5 a F e E.1.z ! $ < t D K b K 1 3 T U U U U T V 3 c O / < 3 L Y & / U X / - # & @ $ @       .   @   . $ & .   $ @ + @ @ .   .             $ # * ; _ X V ( * D D 5 < ] P c 3 T U S S U U U 4 8 -.b K Y v : & ! z 4.Z.e I c 7 V : ( _ ^ ] X X X X X X ~ ] / ( < T 7 c I h F.4.B , $ : j L K b M 8 4 T U U U U U T 3 c O ^ [ 4 L L $ ^ U ! { - # % @ $ $ # $ % @ & @ @ . . @   @ . .   @ . & . @ $ @       $ @ & * ; { X T _ - I Y 3 < ^ k a 3 T U U U U U T 4 8 K b M J g : # > y 3.F.h I d } V : ( / ] ~ X X X X X X ~ ] / { : T 7 c F e Z.!.y ' & : s D H b K 8 3 T U U S S S T 3 b k / [ 4 J D # _ T X / - = & $ @ & @ @ = % %   .   + $ @   . $ @ +           $ @     @ & & # > < ] W { $ Y J 3 : / O c 3 T U S S S U T 3 1 -.a M L s [ $ ) z !.E.f G a 5 T < { / ] ~ ~ X X X X X ~ ] / ( : V } d I i  +#+;.) $ T j I M b B 8 4 U U S S S U T 3 c k ^ < 5 Y I & { < ~ ^ ; % $ @ & $ .   $   . . . . $ *     .   .       $ *   @ @     @ @ & * - S X S ] # L D 5 < ^ P c 5 T U S U U U U 4 8 H a K L w < @ ) x 2.E.h I d } V : ( / ] ~ X X X ",
"X X ~ ~ ] / { : T 5 a F e F.!.B ! $ < t L K b K 1 3 T U U U U T V 3 c O / [ 4 L Y $ ( } ! / - % $ & @ @         . .     @ &   . . # $     . .   @   @ .     $ # # ; / ~ 3 ( * D L 5 < ^ O a 5 T S S U U U U 4 8 -.b M J v U $ ) y 2.F.h E c 7 T : ( _ ] ~ X X X X X X ~ ] / { : T 7 c I h F.4.z ) $ < w L K b M 8 4 U U U U S U V 3 d N ^ [ 4 L E # ] V X ( ; % # &   & # $ & $   @ $ . .     @ . + @     &     $ @       @ @ & * ; { ~ T { = E Y 3 < ^ k c 3 T U U U U U T 3 8 M b K E j S $ ' x 3.D.h E d } V : ( / ] ~ ~ X X X X ~ ~ ] / { < T 7 c F f Z.1.z ~ % : s L H a M 8 4 T U U S S U T 3 b k _ < 3 J D * / V X _ - ; & $ & $ @   @   .       . & .   &   . .     . . @ @ @ @     & $ # ; / X 7 { $ D J 3 < / P a 3 T U S S S U T 3 8 M b -.D t < @ ! z !.E.f G a 5 T < { / ] ~ ~ X X X X X ~ ] / ( : V } d E i  +#+A , & : j E M b B 8 l U S S S S U T 3 c k ^ < 5 Z I # { : ~ / ; % $ $ & @     $ .   . . .   $   $ .   .   $ @ & @   #     @ @ @ & % ; < X 3 / ; L Y 5 : ^ P c 5 T U S S U U U 3 1 M a K L w ( $ ) y 2.E.e I d } V : ( / ] ~ X X X ",
"X X ~ ~ ] / { : T 5 a F e F.!.z ) $ : t J H b K 1 3 T U U U S U T 3 a O ^ [ 3 L Y # _ V X ^ - * * $ @ @           .   . @ @ .   + $   + # . .     @ # .     @ # * ; / X V _ * L D 3 < _ i c 3 T U S U U U U 4 8 -.b M L t < # ! y 2.E.e I c 7 V : ( / ] ~ ~ X X X X X ~ ] / ( < T 5 c I h D.4.z ) $ S j D G a M 1 4 T U U U S U V 5 d P ^ < 4 L E * / 4 X ^ ; % & * @ * & # # & . $ @ . . @     . .       @   @ @ @       @ @ # * = _ ~ V _ ; I Y 3 < ^ k a 3 T U U U U U T 4 8 -.b K E j : & > A 3.D.h I d } V : ( / ] ~ X X X X X ~ ~ ] / { : T 7 c F f Z.1.z ~ $ U s L M b M 8 4 T U U S S U T 3 b i / < 3 J D # { T X / - ; & $ *           .   .   . %   #   . . .     . . @ @ @ . &   & & * - / X U _ $ D J 4 < _ k b 3 T U S S S U T 4 8 -.a M Z t [ $ ! z !.E.f G a 5 T < { / ] ~ X X X X X X ~ ] / ( : V 7 d I i  +#+A , $ T w E M 0 -.8 l U U S S S U T 3 c k ^ < 5 Z J $ ( S ] / - * & & @ @     $     . . . . . # . . . . *     @   @   @     & & & % ; { ~ U { - J L 3 < ] O d 5 T S S U U U U 3 1 M b H L j { $ > y 2.E.e I d 7 V : ( / ] ~ X X X ",
"X X ~ ~ ] / { < T 5 a F e E.!.z X & < v L K b K 9 3 T U U U S U V 5 a P / [ 3 L Y $ { V X / , * & @ @ @       . . . . .     . @ .         . .     @ @     @ $ & * ; ^ X W { * L L 5 < / k a 3 T U S S U U T 4 8 M a K L v [ & > y 4.E.e I c 7 V : ( / ] ~ X X X ! X X ~ ] / ( < T 7 a I e F.4.y ) $ < w L K a H 1 4 T U U U S U V 7 d O ^ [ 4 L L # ] 4 ~ [ - = & # @ & # & $ & . @   .     . @   +   . @     @ @         @ @ # * ; _ ] T ( ; E D 3 < ^ k a 3 T U U U U U T 4 8 M b M J w T & - A 3.D.h E d } V : ( / ] ~ X X X X X X ~ ] _ { : T 5 c F f Z.1.y ~ $ V t L K b M 8 4 T U U S S U T 3 a k / < 3 J Y * _ T X / ; * & * @       @   . . .   .         . . +     . . @ $ @   @   & $ # ; [ ! T / # L E 3 < / k b 3 T U S S S U T 3 8 M b M Y s < @ X z !.E.f G a 5 T < { _ ] ~ ~ X X X X ~ ~ ] / ( : T 7 d I i D.3.A , # S g E K 0 M 8 4 U U S S S U T 3 c k ^ < 5 Z F @ [ S ] / - * * & $ @   $ $     . + . + + @ $ & @ . . @ . % $ $ -       @ # & % ; / ] W _ ; J Z 3 : ^ i d 3 U U S U U U T 3 1 H b G L j { # ' x 2.E.h I c 7 V : ( / ] ~ X X X ",
"X X ~ ~ ] / { < T 5 a F e F.!.z ! $ < t L K b H 9 5 T U U U U T V 5 a P _ : 3 Y Z $ _ T X { - # $ @             . .       .   . . .   . . .     @ @ @       $ & * ; / X U { * J J 5 < / i b 3 T U S S U U T 4 8 -.a M D w { $ - y 4.E.e I c 7 V : ( / ] ~ X X X ! X X ~ ] / ( < T 7 a I e F.4.y ! @ < w L K a M 8 4 T U U S S U V 7 c P / : 3 Y L # _ U ~ ( - % # # $ @ @ # *     $   . .   @ $ + . @ . @     @           @ $ & # ; / ] U [ = E D 3 < ^ P a 3 T U U U U U T 4 8 M b M E j < # , ;.3.D.h E d } V : ( _ ] ~ X X X X X X ~ ] / ( < T 5 c F e E.1.z ! & : t L K a M 8 4 T U U S S U T 5 a k / < 3 E D # { T X ^ ; * # #           . @ . . . @ @ .   . .   +     . .   $         & $ * - { ) l ^ * D J 4 [ _ P b 3 T U S S S U T 4 8 K 0 M D t < @ ! B !.Z.f G a 5 T < { / ] ~ X X X X X X ~ ] / ( : T } d I i D.#+;.' $ [ g E H 0 K 8 4 T U S S S U T 3 c k ^ < 5 Z I @ < T ~ / - * # @ @ @     @ @ . . . . + . + . + @ * @ @   @ & & $ %   # & & # * ; / X 7 _ * E Z 7 : ] k b 3 T T U U U U T 3 8 H b F L j ( $ ! x 2.F.h I c 7 V : ( / ] ~ X X X ",
"X X X ~ ] / { < T 5 a F e F.!.B X & [ v L K b H 9 3 T U U U U T T 3 b P ^ < 7 L Z # { V X { ; * & @       @   . . . . .   @   . + .   @ + .   @   $ @ .     $ & * ; ^ ! T ( * L J 4 < / k b 3 T U S S U U T 3 1 -.a K L v _ @ > x 2.E.e F c 7 V : ( / ] ~ X X X ! X X ~ ] / ( < T 7 a I h F.4.y X & < v L K a -.8 4 T U U S S U W 7 c i / T 3 D D @ _ W X < ; # # & @ # & * = . @ $ . @   @     . .   + @ +   $ @ @ @ @   @ $ & # - / ~ T [ % D Z 5 [ ^ k a 3 T U U U U U T 4 8 M b M E w S & > A 3.D.i I d } V : ( / ] ~ X X X X X X ~ ] / ( : V 7 c F e E.!.B ) # < t D K b M 8 4 T U U S S U T 3 b k / < 4 E D # { 4 ! ^ ; * * &           . . . . @ $ . .         .     . .   @       @ $ $ * = [ ! W / # D J 4 < / P a 3 T U S S S U T 4 8 K b M D s < @ ! B !.Z.f G a 5 T < { / ] ~ X X X X X ~ ~ ] / ( : T 7 d I i D.#+;.> # [ j G H 0 M 8 4 U U U S S U V 5 c k ^ < 3 Z E $ [ U ] / > % $ @ @ @ .   @     . . . + .   . + . &   . . $ . $ $ # & % $ * # * = / X l ] & L L 4 U ^ P a 3 T U S U U U T 4 8 M b H L j [ $ ' y 3. +h I c 7 V : ( / ~ ~ X X X ",
"X X ~ ~ ] / { < T 5 a F e Z.1.z ~ & : t D -.a M 9 3 T U U U U U T 3 b P ^ : 7 L Z # { W ] < ) = & & $ $ $ # & $       . .     . .     . + . .     &         $ # * ; _ ! S ( * L J 5 < / P b 3 T S S U U U T 3 1 K b K J v { # ! x 4.E.f I c 7 T : ( / ] ~ X X X X X X ~ ] / ( : V 7 c I e F.4.x ! $ < v L K b M 8 4 T U U S S T W 5 a k / U 3 D Y $ / T X { = * & % @ * $ # & .   @ .   . . .   @ $   . @ .   @           @ $ & # > / ~ V < & L Y 5 [ ^ k a 3 T U S U U U T 4 8 M 0 M J j S & , A 3.D.h E d } V : ( / ] ~ X X X X X X ~ ] / ( : V 7 c F f E.1.z X & < t D M b M 8 4 T U U S S S T 3 a k _ < 4 L L @ { W X ^ ; * = $   @       .     & &   . . @ . .   .   @   @ % &   .   & @ $ = X U ! W { & D J 4 < / O b 3 T U S S S U T 4 8 M b M Z s < @ ) B !.Z.f G a 5 T < { / ] ~ ~ X X X X ~ ~ ] / ( : T 7 d I i D.#+c ' $ < g G H 0 M 8 4 U U S S S U V 3 c k / < 5 Z F $ < U ] ( - * $ @ @ @ .   @   . . . . . . . . + . & .   . $ @ @ # @ @ $ # * # * = ^ X W ^ # E J 4 [ ^ k a 5 T U U S U U U 3 8 -.a H L w : & X x 2. +h I c 7 V : ( / ] ~ X X X ",
"X X X ~ ] / { < T 5 a F f E.1.y X & : v L M a -.1 4 T U U U S U T 3 b k ^ < 5 L D ; _ T ~ _ ) = & @   @ @     $   @ & $   $ .   +   . . . . .       @       $ & * ; / ! 4 ( # D L 3 [ / k b 3 T U S U U U V 3 1 K a K L v < $ X y 2.Z.e I c 7 T : ( / ] ~ X X X X X X ~ ] / ( : V 7 a I e F.4.x ! & < w D K a K 8 4 T U U S S U W 5 c O ^ S 7 D D @ { : ~ ^ ; * & =   % & @ & @       . +     . $ @ @ . @ .   $           @ $ $ # ; ^ ~ T ( * J Z 5 < ^ P d 3 T U U U U U T 3 8 -.b M E j S $ ' A #+D.h E d } V : ( / ] ~ X X X X X X ~ ] / ( : V 7 c F f Z.!.z ! & : s L K b M 8 4 T U U S S U T 3 b k / < 4 L D @ _ T ! _ - % # $       .   .   $ @ . $ + . @       . @ % & $ $ @     @ @ & $ # ; < ! 3 / % Y J 4 [ / O a 3 T U S S S U T 4 8 H b -.D r U & ^ z !.Z.f G a 5 T < { / ] ~ ~ X X X X ~ ~ ] / ( : T 7 d I i  +#+a ! $ S g I K 0 -.| 4 U U S S S U T 3 c k ^ < 5 C E & < S ] _ ; * $ @ @       @   . . . . . . . . +   @   @ + @ & $ @ $ & # @ & # % ; ^ X W ^ & J J 4 [ / i a 7 T U U S U U U 3 8 B a G L w S $ ~ x 2.D.h I c 7 V : ( / ] ~ X X X ",
"~ X X ~ ] / { < T 5 a F f E.!.z X $ : t J -.b -.1 4 T U U U U U T 3 b P ^ < 3 L D % { T ~ { ' * & $ @ @         . . . .   @   @ .   . # @     .   @         $ # * ; / X U ( & L L 5 [ ^ P a 3 T U S S U U T 3 1 -.b M L v < $ ~ x 2.Z.e I c 5 T < ( / ] ~ X X X ! X X ~ ] / ( : T 5 c I e F.2.z , $ < w Y F c M 8 4 T U U U S T W 7 c O ^ : 7 D D & { < ~ / ; * & *   $ % % $   @ $     . .     $ @ @ +   . @ @     @ @   @ $ # * ; / ~ 5 ( & I C 7 : ] k ;.5 T U U T U U T 4 8 -.b M J g < $ ) x #+F.h E d } V : ( / ] ~ X X X X X X ~ ] _ ( : V 7 c F g Z.!.z ! @ : s L M b K 8 4 T T S S S U T 3 b k / < 4 L D @ _ T X / ; * & $           @ &   . @ . + . @       .   @   . $ &       $ $ = % , U ~ V / & D J 4 [ / O b 3 T U S S S U T 4 8 K b M D s ( # ~ z !.Z.g G a 5 T < { ^ ] ~ X X X X X X ~ ] / ( : T 7 d I i  +k.A ' @ [ g I H 0 -.| l T U S S S U T 3 a k ^ < 3 Z F $ < U ~ _ > * & @ @       @ . . . . . . . . . + . @ . @ .   @ # $ = @ $   $ & * ; ~ ! W _ = L E 3 < / i c 5 T U S S U U T 4 8 -.b M J w S @ ) y 2.F.h I c 7 V : ( / ] ~ X X X ",
"X X X ~ ] / { < T 5 a F f E.1.B ^ $ : s J -.b -.1 3 T U U S S U T 3 c O ^ [ 4 L L # _ T X _ - * & @             . .   . . @ & @   @       . .     @         $ & # ; ^ X U / & J L 7 < ^ O a 3 T U S U U U T 4 1 K b K L w [ $ X A 4.Z.e I c 7 T : { / ] ~ X X ! ! X X ~ ] / ( : V 7 a I e F.2.B , $ [ j D K b M 8 4 T U U S S U V 7 c N ^ S 6 Y L = _ W ~ / ; = & * @   @ $ & @ # * @ . .   @   . . $ . @ .   $   $ &     @ & $ * - / ~ S _ @ E p } : ] N ;.5 V U S U U U T 4 8 -.a M J g : $ ' x #+F.i I d } V : ( / ] ~ X X X X X X ~ ] / ( : T 5 c F g Z.1.z ! & ( s J K 0 K 8 3 T U U S S S T 3 c k _ < 4 L D * { U X / ; * & $         & &   .     . + .       . . @ @ . @ @ $   . . @ & # = ' < X T _ % D J 4 < ^ O b 3 T U S S S U T 3 8 -.c H D s [ $ ! B !.Z.g G a 5 T < { / ] ~ X X X X X X ~ ] / ( : T 7 d I i  +#+d , $ [ g I H b -.| 4 U U S S S U T 3 a P ^ < 3 Z E $ [ S ~ ^ - * & $ @   .   @ . . . . . . . . . + . @ .   .     = @ $ &   @ $ % % - / X W ( # Z L 5 : / k d 3 T U S S U U T 4 8 B b M J v : & ! A 2.F.h F c 7 V : { / ] ~ ~ X X ",
"X X X ~ ] / { < T 5 a F f E.1.z X & < w D -.b -.1 3 T U U S S U T 3 c P / [ 3 L D $ { U X _ > * # $ @           . . .   @ # $ . .     . . . .               $ & * ; / X T _ = E J 3 [ ^ P a 3 T U S S S U T 4 1 K b K D v : @ ) x 2.E.e I c 7 T : { / ^ ~ ~ X X X X ~ ~ ] / ( : V 5 a I e F.2.x ! & ( w D H a M 8 4 T U S U S U W } a P ^ S 5 L L & { S X _ ; = * & $   $ @ &         . . . @       $   @   @ # @ % @   $ @ $ $ # - ^ X S { & E Z 5 [ ] i a 3 T U U U U U T 4 8 -.b K E j S & ' x 3.D.i I d } V : ( / ] ~ X X X X X X ~ ] / ( : T 5 a F f Z.1.B ] & < t J K b H 8 3 T U S S S S T 3 a P / [ 4 L L # _ U X _ - * & $   . @ & @ .   . .   . . .     . . .     . .   $   . . $ & # > > { X V / = D L 3 < ^ O a 3 T U S S S U T 4 8 -.a K Z t [ & ~ z >.Z.f G a 5 T < { / ] ~ X X X X X X ~ ] / ( : T 7 d I k  +3.d , $ < j F K 0 M | l T U S S S U T 3 c k ] < 3 Y I & [ S X / ; * & @ @       @ . . . . . + + . . + . @ .   . @ . * & $ & & # $ & # ; ^ ! W / % J Y } S / i c 3 T U S S U U U 3 8 B b K L t : $ ! x 2.F.e F c 7 V : ( / ] ~ X ! ! ",
"X X X ~ ] / { : T 5 a F f E.1.z ! $ : w L -.b M 1 3 U U U U S U T 5 a O / [ 3 L D & { l X _ - * * * =       @ @ . . . & * . . . + . . . . . . . . @       @ & * % - _ X U _ % J J 4 [ / k a 5 T U S S S U U 3 1 M b K D w < @ ! A 4.E.e I c 7 T < { / ] ~ X X ! ! X X ~ ] / { : V 7 c I e F.4.B ' # ( j Y M b M 8 4 T U U S U U T 5 c P / : 5 J L & { U ) [ > * % %   @ $ @ * & @ @   . .   @       & . &   & # @ *     $ # # # * - _ ~ W ( & I Z 3 [ ] k c 3 T U U U U U T 4 8 -.c G E j U & , x 3.D.i E d } V : ( / ] ~ X X X X X X ~ ] / ( : T 5 c F e E.!.B ! @ < v J K b K 8 4 T T U S S S T 3 a P / [ 4 L Y @ { T X _ - * & $   $ $         . .   . . . @ @ . . . @ @   . @ $   . . # # $ * = ( X W / $ Y J 3 < / O a 3 T U S S S U T 3 1 M a K D r V @ { z !.Z.f G a 5 T < { / ] ~ X X X X X X ~ ] / ( : V 7 d I k D.#+c , $ : j F K 0 -.| l U U S S S U T 5 c P ^ < 5 Y E & [ U ~ ^ ; * & $ @       @     . . . + . . . + + @ + @ . @   @ = & # $ $ = # * > _ ~ l / % L L 7 : ^ i a 3 T U S S S U T 3 1 -.b K L s [ @ X ;.4.F.h I c 7 V : { / ~ ~ X X X ",
"X X X ~ ] / { : T 5 a G f F.!.z ! $ { v L M b M 1 3 T U S U S U T 5 a O ^ [ 4 L D # _ V X _ - ; # ; ; .         . .   $   . . . .   . . . .     @ * ; @ $ @ & & * = / X U ( % J L 3 [ ^ P a 3 T S S S S U T 3 8 M b H L v S $ ' z 2.Z.e I c 5 T < { / ] ~ X X ! ! X X ~ ] / { : V 5 a I h F.2.B ] & : v D K a M 1 4 T U U U T U T 5 c k _ S 5 D D * ( l ! [ ; % = = @ * $ & #     @   .   . @ .       . @ . $ $   $     @ & @ & % - ^ X V ( % I Z 3 < ^ P a 3 T U U U U U T 4 8 -.a K J w T & > x 3.D.i E d } V : ( / ] ~ X X X X X X ~ ] / { : T 5 c F e E.!.-.~ $ < v J K b K 8 3 T U S S S S T 3 a P / < 3 L D & _ V X _ - * & $ & & @     @   . .   . + .     . . .   @ . .   $       & @ $ * ; { X W / & L L 3 < ^ O b 5 T U S S S U T 3 1 M b M D m : # ~ B >.Z.f G a 5 T < { / ] ~ X X X X X X ~ ] / { : T 7 d I i D.#+d , $ : j F K 0 -.8 4 U U U S S U T 5 c k ^ < 3 Y J $ < T ~ ^ ; * & @ @             . . . + . .   + . @ + @ .   . $ # $     @ & # = - [ ~ U / % L J 3 S ^ k a 5 T S S S S U T 4 8 K a G L t < & ; x 4.F.h I c 7 V : ( / ~ ~ X X X ",
"X X X ~ ] / { : T 5 a G e F.!.z ! @ < s L M 0 K 1 3 T U S S S U T 3 a P / < 3 J D = _ T X _ - - * * % $         @ @ @ @ .     .     @ @         @   #       & & # ; / X S { * L D 3 < ^ P b 3 T S S S S U T 3 8 K b H D v < $ X x 4.F.i I c 7 T < { / ] ~ X X ! ! ! X ~ ] / ( : V 7 c I e F.4.B X & U w L M b -.8 4 T U U U U U V 3 d Q ^ [ 3 D D & { W X _ ; * $ = $ $ & $ & @   $ . . . . $ .   @       .   &   @       & & & = - ^ X U ( $ I Z 5 : ] N c 3 T U S U S U U 4 8 M a M J g 4 $ ) A 3.D.i I d 7 V : ( / ] X X X X X X X ~ ] / { : T 5 c F e E.!.B ~ $ < s J H b M 8 4 T U S S S S T 3 a P ^ [ 3 L D & { V X _ - * & @   .           . .   . + . @   .   .   @ . .   $ @     $ & $ * ; { X W / $ Y L 3 [ / O ;.3 T U S S U U T 3 1 M b -.Y m ( & , -.>.Z.f G a 5 T < { / ] ~ X X X X X X ~ ] / { < T } c I i D.#+d > $ S w I K b -.| 4 U U S S S U T 3 c k ^ < 5 Z I @ < U ~ ^ ; * & @ @           . . . . + .     + + @ + @ . @   $ @ # @   , @ $ % ) _ X W ( % L D 3 < ^ P b 3 T U S S S U U 4 8 M b H L w S # - z 3.D.h I c 7 V : { / ~ ~ X ! ! ",
"X X X ~ ] / { : T 5 a G e F.!.z ! & : s D M 0 M 8 3 T U S S S U T 3 b P / < 3 L D & _ V X _ - % # * % *     @   .   $     .   . + . . . . .     @ @       @ & & # ; / X l { % L D 5 [ ] O a 3 T S S S S U T 3 1 H a H D w [ @ ) y 4.F.h I c 5 T : { / ] ~ X X ! ! X X ~ ] / { : V 7 c I h F.2.B ' & S v L -.a B 8 3 T U U U U U V 5 a i ^ [ 4 L L * / V X _ ; * & - $ @ & @ #   @ @   . . . $ . . @   # = . & &           @ @ $ * - / ~ S { & F Z 5 < / P d 3 T U S S S U U 4 8 B a K J g T & ' A 3.D.i I d } V : ( / ] ~ X X X X X X ~ ] / { : T 5 c F f E.!.z X @ T s J K b M 8 3 T T S S S S T 3 a P / [ 5 D D & { V ~ _ ; % & @   .   @       . . . . + + @   . . .   @ . .   $       & $ $ * ; ( X W _ @ Y L 3 : / P a 5 T U S S S U T 3 1 M b B Y m [ @ ] z ).E.f G a 5 T < { / ] ~ X X X X X X ~ ] / ( : V 7 c I i D.#+c > $ : j I K b -.8 4 U S S S S U T 3 c P ^ < 5 Z I @ ( U ~ / ; * & $ @ @         . . . . . . @   + + @ . @   @   $ @ @ * & # * * = ' _ X W _ * J L 3 < ^ k a 3 T U S S S U T 4 8 M a H L t S $ ) y 3.D.h I c 7 V : ( / ~ X X X ! ",
"X X ~ ~ ] / ( : T 5 b G f E.1.y ! # < t Y M 0 M 1 3 T U S S S U T 3 b P / < 3 L Y $ { V X / ; % & & = & $ @     . . . . . + .           . . . . $     .   @ & & # ; / X : { % L D 3 < ] O b 3 T S S S S S T 3 9 K b H Y w [ $ X y 4.F.h E c 7 T : ( / ] ~ ~ X X X X X ~ ] / ( : V 7 c I e F.2.B ) @ T v L B b -.8 3 T U U S S U V 3 a k ^ < 3 L L & _ T ! _ - = * ; & @ $   # .   @     &   $ $ @ @ @ # * @ & @ $ $ $ $ & $ @ & * ; / ~ S { & G Z 5 S ^ P c 3 T U S S S U U 4 8 B b K J j S $ ' A 3.D.i I d 7 V : ( _ ] ~ X X X X X ~ ~ ] / { : T 5 c F f E.1.B X $ : t L K b M 8 3 T U S S S U T 3 c P / < 4 L L # { T ~ _ - % & $   .     .     . $   . . + @   . . . @       $ $ @   . $ @ $ * ; ( X V ^ @ Z L 3 < _ P d 7 T U S S U U T 3 1 M b M Y r { $ ] y ).E.g F a 5 T < { / ] ~ ~ X X X X ~ ~ ] / ( : V 7 d I i D.#+c , & : j F H b -.8 4 T S S S S U T 3 c P ^ < 5 Z G # [ S ~ ^ ; * & @ @           . .   . . . @ . . + @ . @   @   & @ . @ & $ @ * % , _ ! 4 [ * L L 5 < ^ k a 3 T S S U S U U 4 8 M a H L j [ @ X x 2.D.h I c 7 V : ( / ] ~ X X X ",
"X X ~ ~ ] / ( : V 5 a G f E.1.y ) $ : v D K 0 K 1 3 T U S S U U T 3 b P / < 3 L D $ _ W ] _ - % & & & * $       . . . . . . . . +   . . . .   @ @     .     & & # ; / X T { # J J 4 [ ] O 0 3 T S : S S S T 4 1 M b K D v : @ X y 4.D.h I d 7 V : ( / ] ~ ~ X X X X ~ ~ ] / ( : V 7 c I h F.2.z ) @ V v J M b B 1 3 T U S S S U W 5 a k ^ [ 3 L L & / V ! ^ ; * & & # @ $   $         . .   @ # $ # $ # @   @ .         @   @ $ * ; / ~ : ( $ H Z 5 < ] P d 5 T U S U U U U 4 8 z a H E j : & ' A 3.D.i I d } V S ( _ ] ~ X X X X X X ~ ] / { : T 5 c F f E.1.z ~ & : s L K b M 8 3 T U S S : U T 3 a P / [ 4 J L & { T X { > % & $   .     . @   .     . . . @     . . # .   . $ $ & ; @ & @ $ # - ( X W ^ @ D L 3 < / P b 3 T U S S U U T 4 8 M b -.D r T & ~ x ).E.f G b 5 T < { / ] ~ ~ X X X X X ~ ] / ( : V 7 d I k D.#+c , $ : j F H b M 8 4 U S S S S U T 3 a P ] < 5 Z F # [ S ~ ^ ; % # @           @ . . .   . .   . . . @ . @ . @           @ @ * & % ' ( ! 4 [ & Y L 3 < / P a 3 T S S S U U T 4 8 -.a H L w [ @ , z 2.F.h I c 7 V : ( / ] ~ X X X ",
"~ X ~ ~ ] / ( : V 5 a G f E.1.y ' $ < t L H b K 1 3 U U U S S U T 3 b P _ < 3 L Y & _ W ! _ ; * $ $ = & $ @       . . . $ . . . .   . . + . . . . @ @     @ & & # - _ ~ S ( * J L 3 [ ^ O b 3 T S S S S U U 4 8 M a K L t [ @ ) y 2.F.h I d 7 V : ( / ] ~ X X X X X ~ ~ ] / ( : T 7 c I h E.2.y ) & V t E -.b -.1 3 T U U S S U T 5 ;.P / [ 4 L L # _ 6 ) / ' % & & @   $   & @   @   $ @ $ #   & ; &   .     .     @ @ @   @ $ * ; ^ ~ : _ @ F Z 5 < ] P c 5 T U S S S U U 4 8 z a K J g T # , A #+F.i I d } V : ( _ ] ~ X X X X X ~ ~ ] / { : T 5 c F f E.!.z X $ < t L H b -.8 3 T U S S S S T 3 a P ^ [ 4 L D $ { T X ( > % & @   .         @ .     . . . @     .   $   .   @ ; = - @ & $ $ # - ( X W ^ @ Y L 5 < / P b 3 T U S S S U T 3 8 M 0 -.D o S $ ~ z >.Z.g G b 3 T < { / ] ~ X X X X X X ~ ] / ( : T } d I i  +#+c ! $ < j F K b M 8 4 U S S S S U T 3 a P ] < 3 Y I & [ U X ^ ; * & $         $   . . . $ . . . . . + @   @ . @         @ & @ $ & ; ; ^ X T { $ L L 3 < / k c 3 T U U S U U T 4 8 -.a K Y w < # ' x 2.F.e I c 7 V : ( _ ] ~ X X X ",
"~ X ~ ~ ] / ( : V 7 a G e E.!.y ! @ [ r L K b K 1 3 U U S S S U T 3 a P _ < 3 L Y $ _ W X _ - * & $ $   *     . . .   + . + . . .     . . . . .   $ @     @ $ # % - / X : { * J L 3 [ ^ P b 3 T S S S S U U 4 8 H a K L t < @ ! y 1.E.h I d 7 V : ( / ] ~ X X X X X ~ ~ ] / ( : T 7 c I h F.2.z ~ $ V w L M b -.9 3 U U S S S U T 3 c k ^ [ 4 L L * / T ) / - % * #     @ @ * -   @   .   # @ * , @ # $ & & @     @ @   @   @ $ * ; ^ ~ S ( @ F Y 5 [ ] P a 3 V U S S S S U 4 8 B b M D g : $ ' y 3.D.h I d } V : ( _ ] ~ X X X X X ~ ~ ] / ( : T 7 c F f Z.!.z ) $ S t L K b -.8 3 T U S S : S T 3 a O ^ < 4 D D & { T ~ { - % & $       @     .   .     . . @   @ . .   @     $ % * *   # @ $ # , { X W ^ @ Y L 3 < / P b 3 T U S S S U T 4 8 K 0 -.Y v _ & ! y ).E.f G b 3 T < { / ] ~ X X X X X X ~ ] / ( : T 7 d I i  +#+c ' $ : j F K b -.8 4 T S S S S U T 3 a P ^ < 5 Y E $ < V ~ / ; % & $ @     @ @   .   .   . .     . .       @     @     @ @ $ $ & * ; ^ ~ V _ $ J L 3 [ ^ P c 3 T U U U U U T 4 8 M 0 H L w ( @ ) y 2.F.e I d 7 V : [ _ / ~ X X X ",
"~ X ~ ~ ] / ( : V 7 a G f Z.!.z ) @ [ t L M b K 8 3 U U S S S U T 3 b P / < 3 L D $ _ V ~ _ ; * $ @ &           . . . . $   @ . .     . . . .       # & . @ $ & * ; / X U { & L L 3 [ ^ P b 3 T S S S S S U l 8 M a K L t : @ ! z 1.E.h I d 7 V : ( / ] ~ X X X X X X ~ ] / ( : V 7 c I h F.2.z ' & U w J M b M 8 4 U U S S S U T 5 a k / < 4 L E % ^ U ) [ ; * * * @ & & $ &   * * & @ @   @   @ &   @ $ @ #   @   @ @ @ . @ $ * - / X U [ @ F Z 7 < / O c 3 T U S S S S U 3 8 B a M E g : $ X x 3.D.h I d } V S ( _ ^ ~ X X X X X ~ ~ ] / ( : V 7 c F e Z.!.z ! $ < t L K b M 8 3 T U S S : U T 3 a O ^ [ 3 D D $ { U X ( - * & $   .           . .   .     @   @   .   $ . . @ # $     # @ $ # > { X W ^ $ Z L 3 < / P b 3 T U S S S U T 4 8 K 0 M Y s < $ X B >.E.e F c 5 T < ( _ ] ~ X X X X X X ~ ] / ( : V } c I i  +#+a ) & U w F M 0 -.8 4 U S S S S U T 3 a k ^ < 5 Z J $ [ T ~ / ; * & $ @ @   $     . . + . . . . . . +   + @   &   @   . $   @ $ # * , < ! V { # D L 3 < ^ P a 3 T S S U U U T 4 8 M 0 H L v [ $ ' y 2.F.h E c 7 V : ( { { ] X X X ",
"] ~ ~ ] ] _ ( : V 7 a F f Z.!.y X $ < t D M b M 8 3 U U S S S U T 3 a P / < 3 L Y & _ V ! ^ - * $ @ @ $       . . . . . & + .   .   @ . +   .       @ @   $ & # * ; / X V ( # L Z 3 < ^ P b 5 T U S S S U U l 8 M a G D t < $ ! y 1.E.e F c } V S ( _ ^ ] ~ ~ ~ ~ ~ ~ ] ^ / ( : V 7 c I h F.2.z ) & : w J K 0 K 8 4 U U S S S U T 3 a P _ < 4 E J % / T ) _ ; % # # &   $   $ @   @ @ % $   @ @ . @   @     $ .   @     & @ $ $ * - _ ~ S ( & I Z 5 < ^ k c 3 T U S S S U T 4 8 z b K E j S & ) z 3.D.h I d } V S [ _ ^ ] ~ ~ ~ ~ ~ ~ ] ] / ( : V 7 c F f Z.!.z ] @ < s L K b -.1 3 T U : S : U T 3 a O ^ < 3 D L & { T X { ; * # $       @     . .     .   . @   @ .   @   .     & & $   & @ $ * - { ! W ^ $ Z L 3 < _ k a 3 T U S S S U T 3 8 K 0 H D r S   ! y >.Z.f G a 5 T : [ _ ^ ] ~ ~ ~ ~ ~ ~ ] ^ _ ( : V } d I i  +#+d - & T j F -.0 -.8 4 U S S S S S T 3 d k / < 5 Z I $ [ U ] / ; * & $ @   $ @ $   . . . . . . . . . + @ +     @   @   @ @     $ & = , { X T ( & L D 3 < ^ P a 3 T S S S S U T 4 8 -.b K L w [ @ ' y 2.F.h I c 7 V : ( / ^ ~ ~ ~ X ",
"] ~ ~ ] ^ _ ( : V 7 c G f Z.!.z ~   : t D -.a -.1 3 U U S S S U T 3 a P / < 3 L L $ _ T X / ; * $ @ & $ @     . . . . @ @ . . . .   . + .   . .       $ @ $ # # % - { ~ T [ # D D 5 < / P c 3 T U S S S U T 3 8 -.a K D v ( & ) A 4.E.e F c 7 V : ( _ ^ ~ ~ ~ ~ ~ ~ ~ ] ] / ( : V 7 c I e F.2.z , $ S w L K 0 M 8 4 U U S S S S T 5 c k _ < 3 J D # { T ) < ; * & #     $   & .   $ % # $     @   $ + @     & . @ $ @ $ $ $ * = * ; ] X S ( @ G Y 5 < ^ P c 5 T U S S S S U 4 8 z b M E j : # > B 3.D.h E d } V S [ { ^ ~ ~ ~ ~ ~ ~ ~ ] ] / ( : V 7 c F f ++!.z ) @ : v D M a -.8 3 T U S : S U T 3 a O / < 5 D J & { U ~ < ; * & $                 .   . @     .   . . $ @ .     ;   $ % # @ & * > { X W ^ & Y L 5 < { k b 3 T S S S S U T 4 8 K b M D r < # X -.>.Z.g G b 5 T : ( _ ] ] ~ ~ ~ ~ ~ ~ ] ^ / ( : V } d I i  +#+d > $ T w I M b B | l U S S S S S T 3 c k ^ < 5 Z F @ [ U ] / ; * & @ @   @ @     .   . . + + .   . + @ +         @   @     @ $ & ; , ^ ! T ( & L L 5 < / k c 3 T S S S S S U 4 8 M b K D w ( @ ' y 2.D.h E c 7 V S ( / ] ~ ~ X X ",
"] ~ ~ ] ] / ( : V 7 c G f E.!.-.X @ ( s Y M a -.1 4 U S S S S U T 3 a O / < 3 J Y # / U X ^ ; * & @ @ * $ @     . . . @ @ + . . .       . .   .           $ $ & * ; / X : { * L L 7 < / P a 5 V U S S S U T 4 8 -.b K D s < $ ! z 4.E.e F a 7 T : ( _ ] ] ~ ~ ~ ~ ~ ~ ] ] _ ( : V 7 c I h F.2.z > $ < w L K 0 K 8 4 U S S S S U V 5 a P / < 5 D D # { T ) / = * & #   @ $   & . @ $   .       .   @ + $     $       @ @ @ @ $ % = , [ ~ W ( $ F C 7 < ^ P c 5 T U U S S U U 4 8 y a K I j U & > y 3.D.h I d } V S [ _ ] ~ ~ ~ ~ ~ ~ ~ ] ] / ( : V 7 c I f ++!.z X $ < t D K b M 8 4 T U : S S U T 3 a P ^ < 3 L L # { U X : - * & $ @                   $ % * @ .   . + $ @   @   % @ $ * * $ # % - { X V / & Y J 5 S _ k b 3 T S S S S U T 4 8 K 0 B D n [ # ' B >.E.f G b 5 T < ( / ] ~ ~ ~ ~ ~ ~ ~ ~ ] / ( : V } d I i D.#+d - $ U v F K 0 B | l U S S S S S T 3 c k / < 5 C F $ [ V ] / > * & $ @ @     @   .   . . . + . @   + @ . @ @     @   @ .   @ @ $ % - ^ ! T { & J L 5 < ^ k c 3 T S S S S S U 4 | M b K L w : @ ' y 2.D.h I d 7 V : ( / ^ ~ ~ X X ",
"] ~ ~ ] ^ / ( : V 7 c F f E.!.-., $ : s Z -.b -.8 4 U S S S S U T 3 a O ^ < 3 J Y # / V ! ( - * & @ $ $ @ @     .   . #   .   . .     . . .   .           $ $ & * - _ ~ S ( % L J 3 < / k b 3 T S : S S S T 3 1 -.a K Z v [ $ ) A 4.E.f F c 5 T : ( _ ] ] ~ ~ ~ ~ ~ ~ ] ^ _ ( : W 7 c E h D.4.y ) # ( w D K 0 H | 4 U S S S S S V 5 a P ^ < 5 D D % { T ) / = % # # @ @ $ @ & . $ $ @ .   @ @ . .   + $ .   $   &   @     @ & # * ; / X W ( $ F u 6 S / k c 3 T U S S U S U 3 1 z a K F j S & , y 3.D.h I d } V S ( _ ] ~ ~ ~ ~ ~ ~ ~ ] ] _ ( : V 7 c I f Z.!.z ) $ : t L K b -.8 4 T U S S S S T 3 a P ^ < 3 L L # { T X { - * & @ @           .   . @ & & *   $ & . + $   . .   $   & $ * * & % ; { X T ^ = Y L 7 : { k b 3 T S S S S U T 4 8 K b B D r ( $ , B ).E.f G b 5 T < ( / ] ] ~ ~ ~ ~ ~ ~ ~ ^ / ( : V } d I i D.3.d , & T w F K 0 M | l U S S S S S T 3 c P ^ < 5 C I @ [ V ] / - - & % @     @ @   .   . . . + .   . . @ . @       @ @ @   @ $ $ $ * - ] X T { & L L 3 < / k c 3 T U S S S S T 4 | -.b H L w [ @ ' y 4.D.h I c 7 V : [ / ] ] ~ X X ",
"^ ~ ~ ] ] / ( : V 7 c F f E.!.z , # { t Y B b -.8 4 U S S S S S T 3 a O ^ < 4 J J * _ 7 X / ; * $ $ @ &         . . . . + *   . +   . . . .         &     $ & & * - _ X : { * Y L 3 < / k b 3 T S : S S S U 4 | B b -.D t [ @ ! y 1.F.e I a 7 T : [ _ ^ ] ~ ~ ~ ~ ~ ~ ] ] { ( : V 7 c E h D.2.x ' & S v L H 0 K | 4 U S S S S U T 3 b P ^ < 3 Y D * _ V ) ^ = # & * @   $ @ # . @ @   .   @   . .   . $ . @ $     @ @ @     $ & * ; ^ ~ < { & F Y 5 < ^ k d 3 T U S U U U T 3 8 B a H E j T # ' x 3.F.h I d } V S ( _ ] ~ ~ ~ ~ ~ ~ ~ ] ] _ ( : V 7 c I f E.!.B X $ S s L M 0 -.8 4 T U : : S S T 3 a P / < 3 L D % _ U ~ { - * & @ $ $ @ @ &   . . @ @ # & & @ . % # + $   .     &   @ $ # $ * # - { ! V / # Z E 3 < _ P b 3 T S S S S S T 4 8 M b -.L m < % - -.'.F.f G a 5 T : ( / ] ~ ~ ~ ~ ~ ~ ~ ] ^ _ ( : V } d I i D.#+;.> # S w G G 0 M | l U S S S S S T 3 c k ] < 5 C E $ < U ] ^ ; % & $ @     @ @     . . .   + .     . $         . @ @ @   $ @ $ $ * - ^ X T _ @ E L 3 [ ^ P c 3 T U S S S S U 4 | M b K L w [ @ ~ A 2.D.h F c 7 V : ( / ] ] ~ X X ",
"~ ~ ~ ] ] / ( : V 7 c F f E.!.y ! @ ( t Y B 0 -.8 4 U S S S S U T 3 a N / < 4 J L * / 4 ! / ; * $ @         $ @ .   . . .   @ @ .     . . .             @ $ $ & * ; _ X : { # D L 3 < / k b 3 T S : S S S U l | B b M L t ( $ ) x 4.E.e I c 5 T : ( _ ] ] ] ~ ~ ~ X ~ ~ ] / ( : W 7 c E h F.2.A ! $ : v L K 0 -.8 4 U S S S S S T 3 b P ^ < 3 Y L = _ V ! ^ = * # * &   $ @ # . @ $   .   @ . .     @ # . @ @     @   & @ @ $ & % ' _ ~ T ( @ F Y 5 < ^ k c 3 T S S S U S T 4 8 B a G I w U & ' y 3.F.h I d } V S ( / ] ~ ~ X ~ ~ ~ ~ ] ] _ ( : V 7 c F f E.!.B ! # < s L M 0 -.8 4 T U : S : S T 3 a O ^ < 3 L L $ _ U X { ; * & @ @   @ @       @ @ $ $ & $ @   . @ . $   . .   &   & * # & & = > _ ! T / # C E 3 < _ P a 3 T S : : S S T 4 8 -.b B D r : & ' B ).F.f G a 5 T : ( / ] ~ ~ ~ ~ ~ ~ ~ ~ ^ / ( : V } d I i D.3.;.> @ T j F G 0 -.| l U S S S S S T 3 c P ^ < 5 Z E $ [ S ~ ^ ; * & $ $     @     .   .   . . .       @ .       . $ @ $ @ @   $ $ * ; ^ X l _ # L L 3 [ ^ O a 3 T U U S S S U 4 8 M b H L w [ @ X A 4.F.h F c 7 V S ( / ^ ~ ~ ~ ~ ",
"] ~ ~ ] ^ / ( : V 7 c F f E.!.x X $ ( t Y -.0 -.8 4 U S S S S S T 3 a P / < 4 J D & { V X ( ; * $ @ @       @   .   .   .     $ $ . . . . . . .       . @ $ $ & * ; _ X : { # Y L 3 < / P b 3 T S : : S S U l | -.b M L t _   ! x 4.F.e I c 7 T : ( _ ^ ~ ~ ~ ~ X X ~ ] ] / ( : V 7 c E h F.2.A ] $ : w L M 0 -.8 3 T S S S S S T 3 b P ^ < 5 D L % { W ! / ; # & * @   $ @ # . @ $       @ . . .   . $ . $   @   @ @ @ * $ @ $ * ; / ] W { @ F Y 5 < { i c 3 T S S S U U T 3 8 -.a K F w T & ) z #+E.h I d } V S ( / ] ~ ~ ~ ~ ~ ~ ~ ~ ] / ( : V 7 c F f E.!.B ' # U r J M 0 -.8 4 T U : : : S U 3 a O ^ < 3 L D & { T ~ _ ; * $ @   $ @ @       & # @ & $   $   + . .     . . @ $   @ ; & & # * > _ X U ^ @ Z J 5 : / P b 3 T S : : S S U 4 8 B b B L m { * - B '.E.f G b 5 T : ( / ] ~ ~ ~ ~ ~ ~ ~ ~ ] / ( : V } d I i D.#+d , $ U j F G 0 B | l U S S : S U T 3 c P ^ < 3 Y E $ ( S ~ ^ - = & $ @   @ @ @     . . @ . . .   . . & . @       @ @ @ @     $ $ * ; ] X 4 { # E L 3 < ] O a 3 T U S S S S U 4 | M 0 H J w [ @ ) y 2.F.h I c 7 V : [ _ ^ ] ~ ~ ~ ",
"~ ~ ~ ] ^ / ( : V 7 c F f F.>.y ' @ ( t Y -.0 -.8 4 U S S S S U T 3 b k / < 3 L Y & _ 7 ! < ; * $ @ @     @   @   & &   .     @ .   .   @   . . @ @   .   @ $ & # ; _ ! S ( $ D L 3 < / O a 3 T T S S S S U l | -.0 M D t [ @ ! y 4.F.e I c 5 T : ( _ ^ ~ ~ ~ ~ X X ~ ] ] / ( : V 7 c I h F.2.y ' @ S v L -.0 B 8 4 T S S S S S U 3 a k / S } Z D * { V ~ { = # & #     $ @ &   $ $         @ .   *   $ . $       @ @ $ @   * & * ; / ~ S < @ J D 5 < ^ i c 3 T U S S S S S 4 8 -.b K F j U $ ' x #+F.h I d } V S [ / ] ~ ~ ~ ~ ~ ~ ~ ] ] / ( : T 7 c F f E.!.z X & T s J M 0 -.8 4 T U : : S U T 3 a O / < 3 D L & { T ~ _ - * $ @   @ @ @       % & & # $   @   . . @     . @   &     @ % # # % - { ! T ^   Z J 3 < / O b 3 T S : : S S T 4 8 B b -.D r { @ ) B '.F.f G b 5 T : ( / ] ~ ~ ~ ~ ~ ~ ~ ~ ] / ( : V } d I i D.#+;., & : j F K 0 B | l U S : : S S T 3 c P ^ < 3 Y F $ [ S X ^ ; * & @ @   @   @   . .     . .     .   $     $ @ @ @   @       $ & * ; ^ ! T ^ $ E J 3 [ ] O c 3 U U S S S S U 4 | M 0 K J w < @ ! A 4.D.h F c 7 V U ( _ ] ] ] X X ",
"~ ~ ~ ] ] / ( : V 7 c F f F.>.x ) $ : t Y K b M 8 4 U S S S S S T 3 c P _ [ 3 L D $ ^ l ! [ ; * $ $ @ $ @ $ &   @ & . . . + .   .   .   @ .   @ # $   . @ $ $ & * ; _ X S ( # D L 5 : / P a 3 T T S S S S U l 8 -.0 K D t [ $ ^ x 4.F.h F c 5 T : ( / ] ] ~ ~ X ~ X ~ ~ ] / ( : V 7 a I h F.4.y ) @ T w L -.9 -.| l U S S S S U U 4 0 k / : } D D % { W ~ { = # & *   @ & & $   @ $ .       @ .   *   &   $ .     @ $ @ @ $ = $ * ; / ~ S < & F Y 5 < / k c 5 T S S S S S U 4 | -.0 H F j : @ > A #+F.h I d } V S ( / ] ~ ~ ~ ~ ~ ~ ~ ~ ] / ( : V 7 c I f Z.!.z X @ T r L M 0 -.8 4 T U : : : S T 3 a O ^ < 3 D L # ( T ~ { - * & $             & % $ * &     @ . @ $ . @       . & @   . % & * % - _ X U / @ Z J 3 < / O b 3 T S : : S S U 4 1 -.b -.Y r { & > B ).F.f G b 5 T : ( / ] ~ ~ ~ ~ ~ ~ ~ ~ ] / ( : V } d I i D.#+d > $ < j F K 0 B | l U S : : S S T 3 c O ^ < 3 D F # ( T ~ ^ ; * & $   @ .   @ @   . @ . . . . @ .   @   $ @ @   $   #       $ $ * ; ^ ! W ^ & E L 3 [ ] O c 3 U S S S S S U l | M 0 K J v S $ ! x 2.D.e F c 7 V : ( / ] ~ ~ ~ ~ ",
"~ ~ ~ ~ ] / ( : V 7 c F f E.!.y ) & < t Y M b M 8 4 U S S S S U T 3 a k _ < 4 J D & _ 4 X { ; * $ @   % $ @ $ @ #   . . . . .   .   . .       $ # &       $ $ & * ; / ~ : ( & L D 5 : / P a 3 T U S : S S U l | -.0 H L v [ $ _ A 1.E.h F c 5 T : ( / ] ~ ~ ~ ~ ~ ~ ~ ~ ] / ( : V 7 c I h F.4.x X * S v D -.0 -.| l U S S : S U T 4 b k / S 7 L L * _ T X / = * # % $ @ & $ & @ & #     @ $ @     $   $   $ @ $ @ & $ @ $ $ & # % - _ ~ : [ * G u } : / i c 3 T S : : S S S 4 8 -.0 K F j : $ , x #+F.h I d } V S ( _ ] ~ ~ ~ ~ ~ ~ ~ ~ ] / ( : V 7 c I f E.!.z ! $ S t L K 0 -.8 4 U S : : : S U 3 b P ^ [ 3 D L & { T X { - * & @   @         * & # &     . $ $ # & . @   @ .   &       # # = % - _ X T / @ Z J 3 < ^ N 0 3 T S : : S S U 4 8 B b M Y m [ @ ' B ).E.e F b 3 T : ( / ] ~ ~ ~ ~ ~ ~ ~ ~ ] / ( : V } d I i  +k.d ) $ T w I M 0 B | l S S : : : S T 3 c k ^ [ 3 D F # ( S ~ ^ - * # $ $             $   . .   . @ .   @   @   @ @ @ @ @       $ & % - ^ ! T _ # J D 3 [ ^ P c 3 U S S S S S U l | M b G D v U # ~ ;.2.D.e I c 7 V : ( / ] ~ ~ ~ ~ ",
"~ ~ ~ ~ ] / ( : V 7 c F f E.!.y , $ [ v Y M 0 M 8 4 U : : : : S T 3 a P _ < 3 J Y & _ V ! ^ ; * # & * * & $ * * @ $   $ @ $ @ $ $ % % * @   & @ & * @     & & & * - _ X : ( $ D L 7 : / O d 7 U S : S S S U l | M 9 K L t [ $ ~ y 4.E.e I c 7 T : ( / ] ~ ~ ] ~ X ~ ~ ~ ] / ( : V 7 c I e E.2.y ~ * < v L M 0 B | l U S S : S S U 4 b P _ : 5 E J = / T X { = * # ; @ @ & & $ $ & & @   @ @ @   @ $   @ . $   @ @ @ @   $ # & # - > / ] 4 < * F Z 5 < ^ h c 3 T S : : S S S 4 | -.0 K F j S @ , y 3.F.h I d } V : ( _ ] ~ ~ ~ ~ ~ ~ ~ ] ] / ( : V 7 c I e E.1.z X @ T r L M 0 -.| 4 U S : : : S U 3 a O ^ < 3 L D & { U X { - % & $ $ * $ @ @ @   $         . $ & $   .   $       $ @ @   & & # % > { X T _ @ Z L 3 < ^ N 0 3 T S : : S S U 4 8 -.b G Y r [   , B ).E.e G b 5 T : ( / ] ~ ~ ~ X ~ ~ ~ ~ ] / ( : V 7 c I i  +#+a ) & < j I K 0 B 2 W S : : : : S T 3 a k ^ [ 3 D F = { S ~ ^ , % # & $     @ @   @ @     $ . . $     @   @ @ @   @ @ @   @ @ $ & % > / ! U _ # J L 5 < ^ P c 3 U S S : S S U l | -.0 H L v < # X y 4. +e F c 7 V : ( / ] ~ ~ ~ X ",
"] ~ ~ ~ ] / ( : V 7 c F f E.!.x ' @ < v Y M 0 M 8 4 S : : : : S U 3 b k _ < 3 J Y & / U X / ; % & $ $ & & & $ * $ @ $ @ @ $ & $ # & & # @ # = $ & $ @ @ @ & & # * - _ X S ( & L D 7 : ^ N d 7 T S : S : : S l | -.0 M D s [ # X y 4.E.h I d 7 V : ( / ] ~ ~ ~ ~ ~ ~ ~ ~ ] _ ( : V 7 a I e E.2.-.! * S v L -.0 B 2 l U S : : : S U 4 a i _ : 5 E J * ^ V ! { ; % # * $ $ & & & @ & % #   $ $ $   $ $ @ @ @ $ & # $ $ @ @ & $ & # = - { ] V < @ H Y 5 < / i c 3 T S : : : : S 4 | K 0 H G j S $ , A 3.F.h I d } V S [ { ^ ~ ~ ~ ~ ~ ~ ~ ~ ] / { : T 7 c I e E.1.z ~ @ S s L M 0 -.| 4 U S < : : S U 3 a O ^ < 3 D L & ( S ~ { > ; * $ % & & $ @ @ @ @ @ @   @   $ @ @ @   $ &       # $ @ @ & & # % > ( X T _ @ Z L 3 < _ N b 3 U S : : S S U 4 8 -.0 M Y r (   ' B >.E.e F b 5 T : ( / ] ~ ~ ~ ~ ~ ~ ~ ~ ] / ( : V } d F i  +#+a ' $ ( w I -.0 B 2 W S : : : : S U 3 a k ^ [ 3 Z I * _ : ] [ - = # # $ & @ @ @ @ $ @ @ @ @     $     $   $ $ @ $ @ $ $ @ $ $ & & = > / ! U _ & J L 5 < / k c 4 U S : : S S U 4 | -.0 M J v [ $ ! x 2. +i F c 7 V : ( / ] ~ ~ ~ X ",
"~ ~ ~ ~ ] / ( : V 7 c F f Z.!.z ! $ { t Y M 9 M 8 4 S : : : : S U 3 b P _ < 3 L Y & _ W ~ ( > % * & & # & * $ * $ @ $ $ @ @ @ @ * ) & & $ & & # & $ $ @ & & # * % - { X S ( & L D 5 : ^ Q c 5 U S : : : : S l | B 0 K D t { & X x 1.Z.e F c } V : ( _ ] ~ ~ ~ ~ ~ ~ ~ ~ ] _ ( : V 7 a I e E.2.z ' # : v L -.0 -.2 l S : : : : S U 3 a P / : 5 L L # ~ S X [ ; % * % $ & # & * $ * # & & $ $ ; $ * % = # & * $ $ $ # $ * $ % # * % ' < ] T [ $ G Z 7 < ^ i c 3 T S : : : : S l | -.0 G G g V $ X d #+E.i E d } V : ( / ] ] ~ ~ ~ ~ ~ ~ ~ ] / { : T 5 c F f Z.!.y X $ S s J M 0 -.| l U : < : : S U 3 a O ^ < 3 D D & { T X ( > % * # > & $ $ $ $ $ & @ $ @ $ @ & $ & @   # $ @ @ @ # $ $ $ # # % % , ( X W / $ C L 3 < / N b 3 U S : : S S U 4 | M 0 K Y r ( @ ) B >.Z.e G a 5 T : ( / ] ~ ~ ~ ~ ~ ~ ~ ~ ] / ( : V } c I i  +#+c ' @ _ j F M 0 B 2 W S : : : : S U 3 a k ^ [ 3 C I * _ : ~ / > ; % & & $ $ $ $ $ $ $ @ $ $ $ @ & @ @ $ $ $ $ # & $ $ $ $ $ & & # = > / ! T ( * J L 5 < / P a 4 U S : : : : U 4 8 -.0 -.L v [ $ X x 2.D.h F c 7 V : ( / ] ~ ~ ~ X ",
"~ ~ ~ ] ] / ( : V 7 c F e Z.!.z , $ { v Y M 9 M | l S : : : : S U 3 a P / < 3 L D & _ U ! { > = * # & % # # = & & & # $ $ & @ $ ; - % # & $ & & & $ & $ & # * * = - _ X S ( & L D 5 : ^ N c 3 U : : : : : S l | B 0 M Y s / @ ! x 4.Z.e F c } V : ( _ ] ] ~ ~ ~ ~ ~ ~ ] ] / ( : V 7 a I e E.4.z ' & [ w J -.9 B 2 W S : : : : S W 3 d k _ < 3 E J # X T X ( - = % % & & * # # & # % $ $ & & # & # & & $ & > * % # * & $ & * = ; ' ) ( ] S < @ F Y 7 < / k c 3 U : < : : : S W | -.0 I F j U & , A 3.E.i I d } V S ( / ] ~ ~ ~ ~ ~ ~ ~ ] ] / ( : V 7 c I f ++!.z ! & V s J M 0 -.| l U S < < : S U 3 a O ^ < 3 L J # { T ~ ( > = = * * % $ & # * $ & & $ $ $ $ * & $ $ @ # & $ $ $ # & & & # * % ; , < X l / $ C L 3 < _ O 0 3 U : : : S : U l | M 0 K Z r (   ' B ).E.e F a 5 T : ( / ] ~ ~ ~ ~ ~ ~ ~ ~ ] / ( : V } d I h  +#+0 ) @ [ w F K 9 -.2 W S : : : : S U 3 c k ^ [ 3 C F % { V ~ _ > ; % # & & # & & & $ $ & $ & $ $ & $ $ & & & # # & $ & # & & # * * = > _ ! U { * L D 5 < / k a 4 S S : : : : T 4 8 B 0 -.L t [ @ ~ y 2.F.h I c 7 V : ( / ] ~ ~ ~ ~ ",
"~ ~ ~ ] ^ / ( : V 7 c I e Z.!.-.' @ { s Y -.0 -.| l S : : : : : U 3 a P / [ 3 L L & _ U ! { , ; % * * % = # # * # # & # & # & % % * # # # # # # # & # & * % % ; - , ( ~ U ( * Y D 3 S ^ O a 3 U : : : : : S W 2 z 0 M Y t { @ X x 1.E.e I c 7 V : [ _ ^ ] ] ~ ~ ~ ~ ] ] ] _ [ : V 7 c E e F.4.x ) = [ w L B 0 z 2 W S : : : < S U 3 c k / S 5 L L # ~ U X < - = = ; * # * * * # # % # * ; * - ; ; ; ; % # % # # % % & # # - ; = > ) ( ^ W : & F Z 7 < ^ k c 3 U : < < : : S W | M 0 G F g S & ' x 3.E.i I d } V S ( _ ] ] ~ ~ ~ ~ ~ ~ ] ^ _ ( : V 7 c I f Z.!.y ! $ : r J M 0 -.| l S : < < < : U 4 a O ^ [ 3 L J # { T ~ [ , ; % * * * = % # & # & & % & & $ * & & & $ * # & & & * # # # * % ; - ' : ! W _ # C J 3 < _ P b 4 U : : < : : S l | K 0 K Z r (   , -.'.E.e F a 7 V : ( / ] ] ~ ~ ~ ~ ~ ~ ~ ^ / ( : V } d E i D.#+c X @ U w F K 0 B 2 W : : : < : : U 4 c k ^ [ 3 D E # ( W ~ ( ' ; = % # % * # # # # * # # # & & # & & # # * = # * * # * # # * % % ; ' ( X T ( & L D 5 < / i b 4 S : : : : : S 4 8 K 0 -.L v [ @ ' B 2.F.h E d 7 V : ( / ] ] ~ ~ ~ ",
"~ ~ ~ ] ^ / ( : V 7 c F e Z.!.z ! $ ( t Y -.9 B | l S : : < < : U 3 a O ^ [ 3 L L @ _ V ] : X ) , > > ' > - - - - > - - ; , ' , - - > - - - - - - - - ; > , , ' ) X : ] T [ # D D 3 : ] O b 3 S < < : : : S W 2 B 0 -.L t < @ ! x 4.Z.h I c 7 V : ( _ ^ ] ] ~ ~ ~ ~ ] ] ] { ( : V 7 c I h F.3.B ) * U s D M 0 y 2 W : : : : < : U 3 b i / : 4 E J & X U ~ T X ' , ) > > > > - > ) X - = - > ; ; - > , > - - - - , , = - - , , , ! ~ : ^ T < & F Z 7 < ^ k c 3 U : < < : : : W 2 B 0 F F j U # X d 3.F.i I d } V S [ _ ^ ] ~ ~ ~ ~ ~ ~ ] ] _ ( : V 7 c I e Z.!.y X $ U s J M 0 B | l S : < < < : S 4 a O ^ [ 3 D D * { T ^ T X ' > > > - > > - - ; ; ; ; ; ; = > ; ; ; = - - - ; = > > - - > > , ) ~ T ~ W _ # u J 3 [ _ k b 3 S : < : : : S l | M 0 K Z s [ $ ' -.).Z.f F a 5 V : ( / ] ] ~ ~ ~ ~ ~ ~ ] ^ / ( : V } d I i D.#+;.' # S w F K 0 z 2 W : < < < < : U 3 c P ^ [ 3 D I % < T ^ S ~ ) ' > > > ' > > - > - ; - - ; ; - ; - - - > > - , , > > - - > , > ' ~ : ~ W ( * L D 7 < ^ k a 4 S : : < : < S l | -.b -.L t [ @ , B 2.F.h E d } V : ( / ] ~ ~ ~ ~ ",
"~ ~ ~ ] ^ / ( S V 7 c F e Z.!.z ! @ ( s D -.9 B | l S < < < < < S 4 b O ^ ( 4 L Y $ { l ( 3 T S : < [ [ < [ ( ( < < [ [ < [ : : : ( < : < : : : : : [ < S : : U U T 3 < T ( & L D 4 [ ] O b 3 S < < < < < S W 2 B b M D t : @ ! x 1.Z.h I c 7 V : ( _ ^ ] ] ~ ~ ~ ~ ] ] ^ _ ( : V 7 c E i F.2.z X = < v D K 0 z 6 V : < : : < : S 3 0 i ^ [ 4 L E & ] T ( } S : [ : ( < < [ ( ( < : : S < S < [ S [ : [ < < < [ [ ( < : < < : S T V 5 : V : & F Z 7 [ ] k c 3 S < [ [ < < : W | B 0 G F j U & , A 3.D.i I d } V S [ _ ^ ] ~ ~ ~ ~ ~ ~ ] ^ / ( : V 7 c I e Z.!.y ! @ S t L M 0 z | l S < < < < < S 4 a O ^ [ 3 D J @ [ V [ 2 W < : : < [ : < [ [ ( < : : { _ [ [ { { < : < < < : : < [ [ ( < : S T W 6 ( 4 _ = Z L 5 [ _ i b 4 S < < < : : S l 8 K b H Y r (   ' B ).Z.f F a 5 V : ( / ] ] ~ ~ ~ ~ ~ ~ ] ^ / ( : V } d E i D.#+x ) & [ w F H 9 z 6 W : < < < < < U 4 a k ^ [ 5 Z E # : W S 3 U S U T S < < : [ ( ( [ < [ [ { { [ < < [ : < < < : < S S : : S S V S W 7 [ l [ $ L D 5 [ ] P a 4 S < < < < < : l 8 B b H L t [ @ , B 4.F.e F d } W : ( / ] ] ~ ~ ~ ",
"~ ~ ~ ] ] / ( : V 7 c I e Z.!.B ! & ( s D -.9 B | l : < < < < < S 4 b N ] ( 4 J L & / 1 | ) > - - ' , ' , , ' > ' > , > - > , > , ' ' , , , > > > , > , , ' , , , ) X c 2 ( # L D 4 [ ] O b 4 S < [ < < < : W 2 z 0 -.D r : $ ! A 4.Z.e I d 7 V : ( _ ^ ] ] ~ ~ ~ ~ ] ] ^ _ ( : V 7 d I h F.2.y X $ : w D K 0 z 6 V : < : < < [ S 3 0 P ] [ 4 J L @ ] | 2 ) ) ) ' ! , , > , ' ' ' ' > > , ' ' ) ) , > , > > > , ' ' > > , , , > , ) X 9 0 S $ F Z 5 [ ~ P c 4 S < [ [ < < : W 2 B 9 G G g < $ , A 3.D.i I d } V S [ _ ] ] ~ ~ ~ ~ ~ ~ ] ^ / ( : V 7 c I e Z.!.y X & T t J -.0 z 2 W S < [ [ [ < S 4 a P ] ( 3 L L $ ( 8 1 X ) ! , > > - , > , , , , , , , , > , , , , > > , , , , , , ' , > > , , ' ! a 9 _ # u E 5 [ / h 0 3 U < < < : : S l | M 0 K Z r ( @ ) B '.Z.f F a 5 V : ( / ] ] ~ ~ ~ ~ ~ ~ ] ^ / ( : V } d E i F.#+A ' $ < w I H 9 B 6 V : < < < < < S 4 a i ^ ( 3 Z E # : 9 1 ! ' , , , , > , , , ' ' , , > > ' , , > - , , > , , , ' , > > , > > > ' X X a 0 [ $ J Y 5 [ ] P a 4 S < < < < < : W 2 z a K J v [ @ , y 4.F.e F c } W : ( / ] ~ ~ ~ ~ ",
"~ ~ ~ ] ^ / ( : V 7 c F e Z.!.B ) @ ( s D M 9 B 2 W : < < < [ [ S l b O ~ { W E L # < Y | 6 5 5 7 2 } } } 7 3 3 5 } 7 5 5 6 } } } } } } 7 6 6 2 6 7 } 6 6 } } 6 6 } 2 9 L : # J J l ( ] P b 4 S [ [ [ < < : V 6 y 0 -.D s < # ! y 4.Z.e I c 7 V : ( _ ^ ] ] ~ ~ ~ ~ ] ] ^ / ( : V 7 c I h F.4.z ! $ : j Y H 9 B 6 V : < [ < < [ S 4 b P ~ { W I J $ { D 7 } 6 6 7 6 7 7 7 5 } 5 | 7 } 6 6 | | 8 } 6 6 7 } 5 7 5 7 | 3 3 } } } 2 2 | 2 6 C V @ F Z 4 ( X P c 4 S [ [ ( < < : W | M 9 G F g : $ > A 3.D.i I d } V S [ / ^ ] ~ ~ ~ ~ ~ ~ ] ^ / ( : T 7 c I e Z.!.y X $ U s L -.9 z 2 W S < [ [ [ [ S l b P ] { l L D $ S Y 8 8 2 2 2 5 3 3 7 7 } } 1 7 6 } 7 7 7 } 6 7 5 7 7 } 6 } } 7 5 5 5 7 } 6 2 | 8 1 p [ * Z E 4 [ / k a 4 S [ [ [ < < S l | -.0 K Y r (   ) M ).Z.f F a 5 V : ( / ] ] ~ ~ ~ ~ ~ ~ ] ^ / ( : V } c E h D.#+A , $ < w I H 9 B 6 V : < < [ [ [ S l b i ] { 4 L I # T L 7 5 6 3 7 7 } 6 6 6 2 } 2 6 6 } } 2 } } 6 7 7 7 } 6 2 2 | } } 6 2 2 2 } } 6 8 2 q T # L D 4 { X P b l S [ [ < [ < : V 2 z b K E t [ @ , x 4.F.h F c 7 V S ( / ] ] ~ ~ ~ ",
"~ ~ ] ] ^ / ( : V 7 c I e Z.!.B ) $ { t D -.1 B 2 W : < < [ ( [ : 4 b O ~ [ T G J > T # % * * * * % * * % % * = = ; % % % % % ; % = = ; = % = = = % % = = ; = = % = % ; # l > L F T { ~ P b l : ( ( [ [ < < V 6 y 0 B L t < $ ) A 4.E.e I c 5 T : ( / ^ ] ] ~ ~ ~ ~ ] ] ^ / ( : V 7 c I h F.4.x ! $ < j Y H 9 z 6 V < [ [ [ ( ( S l 0 P X _ U E J , T # * % % = = ; % % % = % % = % % % % % = - = % = = = = = % = = ; = % ; ; % = % = ; * 7 ! F L V ( ! O a l : ( ( ( [ < < W | M 9 H F j U & > x 3.D.h I d } V S [ / ] ] ~ ] ~ ~ ~ ~ ] ] / ( : V 7 c I e ++!.y ~ & V s L -.9 z 2 W : [ ( ( ( ( : l b P ~ _ T E J ' 4 = ; ; = ; - ; = * % ; ; - ; % = ; = ; = = ; = = = ; = ; ; = = = = = ; = = % % % % % | ' C G W [ ] i b l : ( ( [ < < : W 2 -.9 K Y r ( @ X M ).Z.f F a 5 V : ( / ] ] ~ ~ ~ ~ ~ ~ ] ^ / ( : V } d I i D.#+A ' $ < j I K 9 z 6 V : < [ ( ( ( : l a P ~ _ T D H ) W & % % = = % % % = % = % % % % % = ; % % % % = % % % % * % * % % = % % % = % = % = # } ' L E V _ ! k b l : [ [ [ [ [ : V | z b G D j : $ ) y 4.F.h F c 7 V : ( / ^ ] ~ ~ ~ ",
"~ ~ ~ ] ^ / ( : V 7 c F e Z.!.z ! $ ( w Y -.9 z 2 W : < < [ [ [ : l a O X / [ M K 4 ; = ; - - , > > ; - - > ; , , - , ) ' ' ) ) > , ) , ' ~ - ) ' , ) > ' ' ' > ' - , ) X > T M x ( / X P 0 W < ( ( ( [ [ < V 6 y 9 B D s : $ ! x 1.E.e I c 7 T : ( _ ^ ] ] ~ ~ ~ ~ ] ] ^ ( [ : V 7 c E h F.4.x ^ $ W v Y K 0 -.6 V < [ ( ( ( [ : l 0 P ! ] : -.M 4 ; , , > , > > , , ' ) ' X , ' ' , , ' - ' , > ' , , , ' X - X ' , , ] ] ) - ; ; ; ) > > } M M : / ) P a W < { { ( [ [ < V 2 -.9 H G j : & > A 2.D.i I d } V S [ _ ] ] ~ ~ ~ ~ ~ ~ ] ^ / [ : V 7 c I e Z.!.y X & T r J -.9 z 2 W : [ ( ( { ( < W b k X / < B M 7 = - = ' - ; , ' , - ' ) ! , - - ' ' ) ' ) ' ) ' ' , ' > ' , , > , , , , X > - = , ; - - } G ;.[ { ] i b W : ( ( ( [ < : W 2 -.9 K D r {   ~ -.).Z.f F a 5 V : ( / ] ] ~ ~ ~ ~ ~ ] ] ] / ( : V } c I h D.#+;.! $ : w F H 9 y 6 V < [ [ ( ( ( < W b P ) { < I -.5 ; , , > ) > , , , ' - , ) ; ; ; - > - ' ' ' ) ' , ' X ) ! , > - - , > - , , > > , ) ' > 5 M z [ / ! O b W < ( ( ( [ [ : V 6 B 0 M L g < @ ' x 2.F.h F c 7 V S ( / ] ] ~ ~ ~ ",
"~ ~ ~ ] ] / ( : V 7 c F e E.!.y ] & [ t Z B 0 -.| W : < [ ( ( { < V 0 P ! ^ ^ 4 J r g f e f g f f e e f f g g g f f g e g j e e g f f g g f f f f f f f f g f e f f f g f g r I 4 ~ ^ ! k 0 V [ { { ( [ [ < V 6 y 9 B D t : # ~ y 1.E.e I c 5 T : ( _ ^ ] ] ~ ~ ~ ] ] ] ^ { [ : V 7 c J h F.2.A _ & V j L -.9 -.6 V [ [ ( ( ( ( < V 9 k ) ~ / 5 J r g g g f f e e e e f f g j g f g g f e e f e h h i h e e f f g f f f g g e h h h e h h h t D 7 / _ ' k b V [ { { { ( [ < V 2 z 1 K F j : $ > ;.3.D.i I d } V S [ _ ] ] ~ ~ ~ ~ ~ ] ] ^ _ ( : V 7 c I e E.!.y ! $ S s L B 9 z 6 W : < ( ( { { < V b P ! ] / 3 J r f e e f g e f f g e g g g f f g f f f f f g g g g f e f f e f f f f f f f h h h h h h h s J W ] ] ] h 0 V < { { ( [ [ : W 2 B 0 M D m { @ ! B ).Z.f F a 5 V : ( / ] ~ ~ ~ ~ ~ ~ ~ ] ] / ( : V } c E h D.#+A ) # : w I K 9 y 6 V < [ ( ( { { [ V b P ) / ^ 4 J s g f g e e f f e e h e h h h i i h e h f e g f e f e e e e h h e f e e e e e e e f e e e t J 4 ] ] ) P b T [ { { ( ( [ < V 6 -.9 H L w l $ ' x 2.D.h F c 7 V : ( / ] ] ~ ~ ~ ",
"~ ~ ] ] ^ / ( : V 7 c F e E.!.x X $ [ s Y -.0 z 2 W : [ < ( { _ ( U 9 k ) ] / 1 U 6 0 a c d ;.;.c c d d d d d ;.d d ;.A d ;.x A ;.d d ;.;.d d ;.d d ;.;.d d ;.;.;.;.d d c a 2 : 7 ~ ~ ) k 9 U [ _ _ { ( [ < V 6 x 9 B D t : $ ^ x 1.E.e I c 7 V : ( / ^ ] ] ~ ~ ~ ~ ] ] ^ { [ : V 7 c I e F.2.x / $ W w L B 1 z } T < [ ( { { { [ U 1 k ' X / 2 S 8 b c d d d d d ;.A ;.;.;.;.;.;.;.;.;.;.d d ;.d d ;.;.d d ;.d d d d ;.;.;.A A A A A ;.d a | S } _ ] , k b U [ _ _ { ( [ < T 2 y 9 H G j S $ > ;.3.D.h I d } V : ( / ] ] ~ ~ ~ ~ ~ ~ ] ^ _ ( : V 7 c I e E.!.B ~ & S t D -.0 y 6 W : < ( ( { { [ U 0 P ' ] ^ | S | a d ;.;.;.;.;.;.A x A ;.d ;.;.;.;.;.;.;.;.;.;.;.;.;.A A ;.A ;.;.;.;.;.A ;.;.;.;.;.d c c | < 2 ~ ~ ! k 9 U ( _ { ( [ [ : W 6 B 0 M Z r ( @ ! B ).Z.f F a 5 V : ( / ] ~ ~ ~ ~ ~ ~ ~ ] ] / ( : V } c E i D.#+;.X & S w I K 9 z 6 V < [ ( { { _ ( U 0 P > ~ { 6 W 6 0 c d d ;.d d ;.;.d ;.;.;.;.;.;.;.;.;.;.d d c d d ;.A A A A A ;.;.;.;.;.;.;.;.;.d d c c | : 6 ^ ~ ' P b U ( _ { ( ( [ < V 6 -.1 K J s V @ , x 4.D.h F c 7 V : ( / ] ] ~ ~ ~ ",
"] ~ ] ] ] / ( : V 7 c F e E.1.z X $ : v C M b x 6 W : [ ( { _ _ { : 8 P , ] 2 ' ^ { [ : U V T U U U U U U U T U T T V V T T T V l U U U U U T U U T V T U U T U U U U U S < ( / ! U X ' k 8 : { / _ { ( [ < V 6 x 1 -.L s : & ~ x 1.E.e I c 7 V S ( / ] ] ] ~ ~ ~ ~ ] ] ] / [ S V 7 c I h E.2.x X & U v J y 8 z } T [ ( ( { _ { ( S | k ; ] 3 X / { [ S T U S U U V T T T T T T T T T T T T T U U T T U T T V T T U U T U T T T T T T U S < ( ^ X l / - P 9 : { / _ _ ( [ < T 2 y 9 H F j U & - y #+F.h I d } V S ( _ ] ] ~ ~ ~ ~ ~ ~ ] ] _ ( : V 7 c I e E.!.x ^ & : s L -.0 z 6 W : [ ( { _ / { : 1 P , ] 5 ! / < < S U U U U T U S V U U T T T T U U U T T T U T T T T T T T T U U T U T T V T T U U S < { ^ ' W X ! i 8 : { _ _ ( ( [ < V 6 B 0 -.Z r {   ! B ).++f G a 5 V : ( / ] ~ ~ ~ ~ ~ ] ~ ] ] / ( : V 7 c E i D.#+A ) $ : j I K 0 z 6 V < [ ( { _ _ { : 1 P ; / 4 ) / ( [ : S U U U U U U T T U T U U T T T T U U U U U U U T T V W W V V V T T T T V U U S U < ( / ! W ] , P 9 : { _ _ { ( [ < V 6 B 9 K J v [ # , z 4. +h F c 7 V : [ / ] ] ~ ~ ~ ",
"~ ~ ~ ] ^ / ( : V 7 c F e E.!.z ,   ( t L B 9 z 6 V < [ ( { / / _ [ 7 i ] 5 ' ^ / _ _ { : [ [ < [ [ < [ < < < [ [ < < < [ : : : S [ < [ < [ [ < < : : < < < < < < < [ ( { { _ / ^ ' T ~ h 7 [ _ / _ _ ( [ < V 6 y 9 -.L t S $ ~ y 1.E.e F d 7 V : ( / ^ ] ~ ~ ~ ~ ~ ~ ] ^ _ ( : V 7 c I h E.3.z '   T v E y 8 z 6 V < [ { _ / _ { < 7 h ! 3 ! ^ / / _ { [ ( ( [ < S : [ < < < < < < < < < < < < < < < < < < < : : < < : < < < < < < [ [ ( ( ( ^ ] _ V ] k 2 [ _ / / _ ( [ < V | y 9 K G w U $ - x #+F.i E d } V S ( _ ] ] ~ ~ ~ ~ ~ ~ ] ^ _ ( : V 7 c I e E.!.y ~ & < t J -.9 z 6 V : [ { { / / _ [ } h ~ 4 ) ^ / _ { ( ( [ [ < < [ [ < [ < < : < < [ [ < < < < < < < < < < : < < < < : < < < < < < [ ( ( _ _ / ] , W ] i 7 [ _ / _ { ( [ : V 6 B 9 -.Z r _ @ ! z ).Z.f G a 5 V : ( / ] ] ~ ~ ~ ~ ~ ] ] ] / ( : V 7 c J h D.#+x ) $ : w F K 9 y 6 V < [ ( { / / _ [ 6 i ] 4 ' / [ / _ [ ( [ : [ < < < < < < < < < < < < < < < < < < < < < < < < < < < : < < < < < < [ [ ( { _ / ^ ) l ~ i 6 [ _ / _ { ( ( < V 6 z 9 M J v : $ , z 2.D.h F c 7 V : ( / ] ] ~ ~ ~ ",
"~ ~ ~ ] ^ / ( : V 7 c F e E.!.-.' @ [ t L B 1 z 2 W < [ ( _ / ^ ^ _ T Y d : U U V T V W W V W l l 4 4 4 4 4 4 4 4 4 4 4 4 4 4 4 4 4 3 3 3 3 3 3 3 3 3 3 3 5 3 3 3 3 4 4 4 l W W V T : 8 Y U _ ^ ^ / _ ( [ < V 6 z 1 M L t < $ ! ;.1.E.e F c 7 V : ( / ^ ] ~ ~ ~ ] ~ ~ ] ] _ ( S W 7 c I h F.2.y > @ : t I y 8 y 6 V < ( { _ / / / { W Z c _ [ [ : U V V W l l l l l 4 4 4 4 4 3 4 3 3 3 5 5 3 3 3 3 4 4 4 l W l W W l l 3 3 3 3 3 3 3 4 W T V T S < [ a C T _ ^ ^ / _ [ [ < V 6 y 9 K G j V % , d #+D.h E d } V : ( / ] ] ~ ~ ~ ~ ~ ~ ] ] / ( : T 7 c F e Z.!.z ~ & < s L -.9 z 6 V : [ { _ / ^ ^ _ T Z b { < S T V V W W W W W W l l l 4 4 4 l l l 4 4 l l l l l l l 4 4 4 4 4 4 4 l l l l l l W W W W W V V V T V < 0 D U _ ^ ^ / _ ( [ : V 6 B 9 M Z r {   ! B ).Z.g G a 5 V : ( / ] ] ~ ~ ~ ] ~ ~ ~ ] / ( : V 7 c E i D.#+;.X $ : w F K 9 y 6 V < [ ( _ / ^ ^ _ V C c : U V W W l l l 4 l l 4 l l l l l l 4 4 3 3 3 3 3 3 3 4 4 3 4 3 3 3 3 3 3 4 3 3 3 4 4 l l 4 l l W V V T U : 1 Z T _ ^ ^ / _ ( [ < V 6 z 9 M E w U @ , x 4.D.h F c 7 V : ( / ^ ~ ~ ~ ~ ",
"~ ~ ~ ] ] / ( : T 7 a F f E.!.B ) $ ( t L B 9 z 2 V < [ ( _ / ^ ] ^ T A Z j e h h i k i h i k h h e h h h e h h h h i i h P P O h e e e e h e h h h i e e e e e e e e e e e h e e f j C A T ^ ] ^ / _ ( [ < V 6 z 9 K L s [ $ ) x 1.E.e F c 5 T : ( / ] ] ] ~ ~ ~ ] ] ] ] _ [ : W } c I e E.4.A , & [ v E y 8 B 6 V < [ { _ / ^ ^ / T x q f e P h i h k h h h h h h h e h e h h h i e e e e e h e h h h i i k k i P i h h h e e e e e i h h h h k f g p y l ^ ] ^ ^ _ ( [ < T 2 y 9 M F j : # ; y #+ +i E d } V S ( / ] ] ~ ~ ~ ~ ~ ~ ] ] / ( < V 7 c I e ++!.z ] & S s L -.9 z 2 W : [ { _ / ^ ] ^ T x Z j e h h h h h e h h h h i i i i i i h h h h h h h h h h h e h e h h h h h h h i i i k k i i k i i h e e e w Y A U / ] ^ / { ( [ : V 6 B 9 -.Z r {   X B ).Z.g G a 5 V : ( / ] ~ ~ ~ ~ ] ] ~ ] ] / ( : V 7 c E h D.#+A ! & S v G K 9 y 6 V < [ ( _ / ^ ] ^ W x C w f f h e e e e i k i i i i i k k k k i i i h h h h i i i e h h h h e e h h h h h i i h h h e e h h e h e j u A V ^ ] ^ / _ ( ( < V 6 z 9 M J t : # ) y 2.D.h F c 7 V : ( / ] ~ ~ ~ ~ ",
"] ] ] ] ^ _ [ S V 7 c G f E.!.B ' $ ( t D -.9 z 2 V < [ ( _ / ^ ] [ 1 / : 4 } 2 | 8 8 1 8 1 8 9 1 8 8 8 8 8 8 8 8 8 8 8 8 1 1 1 8 1 8 8 1 9 1 0 9 9 9 8 8 8 8 8 8 8 8 8 8 8 | | | 6 3 S _ | < ] ^ / _ ( [ < V 6 y 9 -.D s < @ X ;.1.E.f F c 7 V : ( _ ^ ] ] ] ] ~ ] ] ] ^ { [ S W } c I e E.4.A ! # [ v I y 8 B 6 V < [ { _ / / ^ [ 6 { U 3 2 8 | 8 8 8 | | | | 8 | | | | | | 8 8 8 8 8 8 8 8 8 8 8 8 8 8 8 8 8 8 9 8 8 8 8 8 8 8 8 1 9 9 1 8 0 1 6 4 S _ 1 S ] ] ^ _ [ [ < V 6 y 9 K F w U % - ;.3. +i E d } W S [ _ ^ ] ] ] ~ ] ] ] ] ^ _ ( : V 7 c I e ++!.B ~ & : t L -.9 B 2 W : [ { _ / ^ ] [ 1 / : 4 } 2 | 8 8 8 8 1 1 1 1 9 1 1 9 1 1 8 8 8 8 8 8 1 1 8 8 8 8 8 8 8 8 8 1 8 8 8 8 8 8 1 9 9 1 1 1 1 8 8 | 6 4 S _ b [ ] ^ / { ( [ < V 2 B 1 -.Z r _ @ ! B ).Z.g G a 7 V : ( _ ] ] ] ] ] ] ] ] ] ^ _ ( S W } c I h D.#+A , $ S w I M 9 y 6 V < [ ( _ / ] ] : 1 _ S 4 6 1 8 8 8 1 1 1 0 1 8 8 1 1 1 1 1 1 1 8 8 1 8 8 1 1 1 1 8 1 1 8 8 8 8 8 8 8 8 8 8 8 8 1 8 8 8 8 8 | | 6 3 S _ 1 < ] ] / _ ( ( : V 6 z 9 M E v [ @ ~ y 4.D.h F c 7 V S ( / ^ ] ] ~ ~ ",
"] ~ ] ] ^ _ ( : V 7 c F f E.!.z ) $ [ t Y -.1 B 2 W < [ ( { _ / [ 8 X ] ^ ( < S T V W l l l l l 4 l 4 l l l l l l l l l 4 l 4 l 4 l l l l 7 4 4 4 4 l l l l l l l l l l W W V T S < ( / ] ~ 8 < ^ / { ( [ < V 6 z 0 K D t < & X x 1.F.h F c 7 V S ( _ ^ ] ] ] ~ ] ] ] ] ^ { [ S W 6 d I e E.4.x ' $ < t J z 1 -.6 T < [ ( _ _ / [ 7 ~ ^ _ < : U T T W l W W W l l l W l l l l l l l l l l l 4 4 l l l l l l l l l l l l l l l l l l l 4 4 l V V U : ( / ] X | : ^ / _ ( < : V 6 y 9 M F j U & > ;.3.D.h I d 6 W S [ _ ^ ] ] ~ ~ ] ] ] ] ^ _ ( : V 7 c I e ++!.y ~ $ < t J -.9 B 2 W : < ( _ / ^ [ 2 X ] / ( < S T V W l l l 4 4 l l l l l l l 4 4 l l l l l l l l l l l l l l l l l l l l l l l l l l l W W V T U : ( / ] X b [ ^ / { [ < : V 2 B 9 -.Z m { @ X B ).Z.g G a 7 V : ( / ] ] ] ] ] ^ ] ] ] ^ _ ( S W } c I h D.k.A , $ < w I M 9 z 6 V : [ ( { / ^ : 8 X ] / ( S U T V W l l l 3 l l l l l l 4 4 4 4 l l 4 4 4 4 4 4 l 4 4 l l l l l l l l l l l l l l l l l W V T S < ( / ] X 2 [ ^ / { ( [ : V 6 z 9 M E v < @ , B 4.F.h F c } V S ( / ^ ] ] ] ~ ",
"] ] ] ] / { [ S V 7 c F f E.!.B ) & [ v D -.1 B 2 W : [ [ ( _ < 2 X X X ~ ^ _ { [ < < < : : : S S S S S U U S S U S S U U U S S S S S S U T U S U S S S S S : : S : : : : < < [ ( _ ^ ] ~ X X 1 : _ { [ < < V 2 y 9 M D t [ $ X x 1.E.e I c 7 V S [ { / ] ] ] ] ] ] ^ ^ / { [ U W } c I h E.2.d ' $ < v L y 8 B 6 V : < ( ( { < 6 X ] ] ^ / { [ [ [ < < < < : S S : S S S S S S S S S S S S U S S U U S S S S S S S S S : S : U S U S U : < [ [ ( _ ^ ~ X X ~ 2 S _ { [ < : V 2 y 9 M F j S # > A #+D.i E d 6 W S [ { / ] ] ] ] ] ] ] ] / { [ S V 7 c I e ++!.y ~ $ : t J -.9 z 2 W S : ( { _ < 2 ~ ~ ~ ] / { ( [ < : : : : S S S S S S U U U S S S S S S S S U U S S S S S S S S S S S S S S : S S : : : : : [ ( { / ] ~ ~ X d < _ ( [ < : W 2 B 9 -.Z r (   ! B ).Z.g F a 7 V S [ _ / ] ^ ^ ^ ^ ] ] ] / { [ S W } d E h D.#+;., @ : j F M 9 y 6 V : < [ ( _ S 8 X ~ ~ ] / [ ( [ < : : : : : S S S S T S U U U U S U U U U U S S U U S S S U S S S S S S S S S : : : : : : < [ ( _ ^ ] ~ ~ X | : _ ( ( [ : V 6 z 9 -.J v < $ , B 2.F.h I c } W S [ _ / ] ] ] ] ",
"^ ^ ^ ^ / { [ S W } c F f E.1.B ) $ ( t D -.1 B 2 W < < [ ( : | ~ ~ X X X ~ ] ^ / _ { { ( [ < < [ < < < < < < < < < < : < < < < < < : S : : < : : < : : < < [ [ [ < ( ( { { _ / / ^ ~ ~ X X ~ ~ 0 U ( [ < : V 6 z 9 K Y t [ @ X x 1.F.e I c 7 W S [ { / ^ ^ ^ ^ ^ ^ ^ ^ / ( [ U l 6 d E h E.2.x > $ < v E B 1 -.2 W : < [ [ S 6 ] ~ X ~ ~ ] / / _ / _ { { ( [ [ < [ [ < < < < < < < < < < < < < < < < < < < < < < < < < < < [ < < < [ ( { { _ / / ^ ] ] X X ~ ~ 8 T ( [ < : V 6 z 9 M F w S $ , x #+D.i E ;.6 W U < { / ^ ^ ^ ^ ^ ^ ^ ^ / { [ S V } c I e ++!.y ] # S t J B 9 y 2 W S : ( { S 8 ] ~ ~ ~ ~ ] ^ / _ { { ( ( [ [ [ < < < < < < < : : < < < < < < : S < < < < < < < : < < < : < < < < [ [ ( ( { { _ / ^ ] ~ ~ ~ ~ ~ d S [ < < S W 2 B 9 M Z m { @ ! B ).Z.g F c 7 W S [ { / ^ ^ ^ ^ ^ ^ ^ ^ / { [ U W 6 d E i D.#+A , @ < w G K 9 z 2 W : < [ ( V 1 ~ ~ ~ ~ ~ ] ^ _ _ { { ( ( ( [ < [ < < < : : : : < < < < < < < < < < < < < < < < < < < < < < < [ [ [ ( ( { { _ _ / ^ ~ ~ X X ~ ~ 1 U ( [ [ : V 2 z 1 -.J v ( & ' B 4.F.e I c } W U [ _ / ^ ^ ^ ^ ",
"^ ^ ^ ^ / { [ S W 7 c F e Z.1.y !   ( t L -.1 -.2 W : < < U | / ] ~ ~ X X ~ ~ ] ^ / / _ { { ( [ ( < < ( ( ( ( ( ( ( ( ( [ ( ( ( ( [ [ [ < [ [ [ [ [ [ [ ( ( ( ( ( ( { _ _ / / ^ ] ] ~ X X X ~ ] ^ b T < < : V 6 z 0 K L v [ $ ! ;.1.E.e F c 7 W S [ { / ^ ^ ^ ^ ] ^ ^ ^ _ { [ S l 6 d I h E.2.y > $ < v J z 1 y 2 W : < < U 6 / ^ ] ~ ] ~ ] ^ ^ ^ / / _ _ { { ( ( ( ( ( ( ( ( ( ( ( ( ( ( ( ( ( ( ( ( ( ( ( ( ( ( ( ( ( ( ( ( ( [ ( ( { _ _ ^ ^ ] ] ~ X X X ~ ] ^ 1 W < : : W 6 z 9 M F j : $ ) A k. +i E ;.6 W U < { / ^ ^ ] ^ ^ ^ ^ ^ / { [ S W 7 c I e ++!.y ] & U t D B 9 z 2 W S < [ U 2 / ^ ] ~ ~ ~ ~ ] ^ / / _ _ { { ( ( ( [ [ ( ( [ [ [ [ [ [ [ ( [ ( [ [ [ [ [ ( ( [ ( [ [ [ [ ( ( ( [ ( ( ( { { _ / ^ ^ ] ~ ~ X ~ ~ ^ / ;.T < : S W 2 -.9 -.Y m { @ X B ).Z.g F c 7 W S [ { / ^ ^ ^ ^ ^ ^ ^ ^ / { [ U W } d E h D.#+d ! $ S w F K 9 z 2 W S < < l a ^ ^ ~ ~ X X ~ ] ^ / / _ { { { { ( [ ( ( [ [ [ < [ [ [ [ [ [ ( ( ( ( ( ( ( [ ( ( ( ( ( ( ( ( ( ( ( ( ( { { _ _ / ^ ^ ] ~ ~ X ~ ~ ] / 1 T < < S W | z 9 B J v < $ ' y 4.F.h I c } W U [ { / ^ ^ ^ ] ",
"] ^ ^ ^ / { [ S W 7 c F e Z.!.y ! # [ t L M 0 M | l S S V b { _ ^ ] ~ ~ ~ ~ ~ ] ] ^ / / / { { { { { { { { { { { { { { { { { { { { { { ( { { { { { ( { { { { { { { { _ / / ^ ^ ] ] ~ X X X ~ ] ] / _ a W : : V 6 z 9 K J s S @ ! A 1.E.e I c 7 V S [ _ / ^ ^ ^ ] ] ^ ^ ^ _ { < U l } d I e E.4.z ) . U t J -.1 B 2 W : : V 2 ( { ^ ] ] ] ] ] ^ ] / / / / _ _ _ { { { { { { { { { { { { { { { { { { { { { { { { { { { { { ( ( ( ( { { { { { _ / ^ ] ~ ~ X X ~ ] / { ( | W : S W 2 B 9 M I j : $ , y #+U.k J ;.6 W U < { / ^ ^ ^ ^ ^ ^ ^ ^ / { < S V 7 c I e ++!.y ~ $ T s J B 9 z 2 l S S T | ( { ^ ] ~ ~ ~ ~ ] ] ^ ^ / / _ _ _ { { ( ( { { { { { { { { { { { { { { ( { { { { { { { { { { { { { { { _ _ _ / / ^ ^ ] ] ~ X ~ ~ ] ^ _ { ;.V : S W 2 -.9 -.Z r (   X B ).++g F a 7 W S [ { ^ ^ ^ ^ ] ] ^ ^ ^ / { [ U W } d E h D.#+A X & < j G H 9 B 2 W S : 4 d _ _ ^ ] ~ ~ X ~ ~ ] ^ / / { _ _ _ { ( { { { { { { { _ { { { { { _ { { { { { { { { { { { { { { { { { _ _ _ _ / / ^ ^ ] ] ~ ~ ~ ~ ] ^ / { 1 V < S W | B 9 B J v S @ , y 4.F.h I c } W S [ _ / ^ ^ ] ] ",
"] ^ ^ ^ / { < S V 7 c I h E.!.A ] $ < s Y H 0 K | l U W 0 [ ( _ ^ ^ ] ~ ~ ~ ~ ] ] ^ ^ / / _ _ _ / / / / / / / / / / / / / / _ / / _ { _ _ / _ / / _ _ _ _ _ / _ _ / / / ^ ^ ^ ] ] ~ ~ ~ ~ ~ ] ^ / { ( c l : W 6 B 9 M L r : $ ) z 1.E.f I c 7 V S [ _ / ^ ^ ] ] ] ^ ^ ^ / { [ S l } d E e Z.2.y X   U t L -.1 B 2 W S V 2 [ [ { / ^ ] ] ] ] ] ] ^ ^ ^ / / / / _ _ _ _ _ _ _ _ _ _ _ _ _ { { { _ _ _ _ _ _ _ _ _ _ _ _ { { { { _ _ _ _ / / ^ ^ ^ ] ] ~ ~ ~ ] ] / { [ < 8 4 S W 2 B 0 M I j S $ , ;.#+U.k J ;.2 l U < { / ^ ] ] ] ] ^ ^ ^ / ( < S V 7 d I h ++!.z ~ # : s L -.9 B | l S V 1 < ( { / ^ ] ~ ~ ~ ~ ] ] ^ ^ / / / _ _ _ _ _ _ _ _ _ _ _ _ _ _ _ _ _ _ / / _ _ / / / / / / / _ _ _ / _ _ _ / / / / ^ ^ ] ] ] ~ ] ] ^ / { ( [ a V S W | B 1 -.C r { $ ~ B ).++g F c 7 V S [ _ ^ ^ ^ ] ] ] ^ ^ ^ / { [ U W } d E h D.#+z ' @ : j G H 9 B 2 W S 3 A ( { _ ^ ] ] ~ ~ ~ ~ ] ^ ^ ^ / / _ _ _ / _ / _ / / / / _ _ _ _ _ _ _ _ _ _ _ _ _ _ _ _ _ _ _ _ _ _ _ _ _ _ _ / / ^ ^ ^ ] ] ~ ~ ] ] ^ / _ ( [ 1 W S W 2 z 9 -.J v [ @ ) y 4.F.e I c } W S [ _ / ^ ] ^ ] ",
"^ ^ ^ ^ / { [ S V 7 c I e E.!.A ! $ < t Y H 0 H 1 3 4 c : < [ ( { / / ^ ^ ^ ^ ^ / / / { _ { _ _ { { _ _ _ _ _ _ _ _ _ _ _ _ _ _ _ { _ _ _ _ _ _ _ _ _ _ _ _ _ _ _ _ / / / / / / ^ ^ ^ ^ ^ ^ / _ { ( < < ;.4 l 8 M 0 K D s ( $ ) y 4.E.f I c 7 V S [ { / ^ ^ ] ] ] ] ^ ^ / { [ S W } d E h Z.4.;./ # S v D B 9 B 8 4 l 8 : < < ( _ / / ^ / / / ^ ^ / / / / / _ _ _ _ _ _ _ { _ _ _ { _ { { { ( { { { { { { { { _ _ _ _ { { _ { _ _ _ _ / / / / / ^ ^ ^ ^ ^ / / _ ( [ < : b 3 l 8 -.0 K I w : @ , ;.#+ +k J ;.6 W U < ( _ ^ ^ ] ] ] ] ^ ^ / ( < S V 7 d I e E.!.y X # : s L -.0 -.8 4 4 b : < [ [ { _ / ^ ^ ^ ^ ^ / / / / / / _ _ _ _ _ _ _ _ _ _ _ _ _ _ _ _ _ _ _ { { _ _ _ { { { { { { { _ { _ _ _ _ _ _ / / / / / _ / / / _ { ( < : S a l 4 8 -.9 -.Z r / & ] z ).++g F c 7 W S [ { / ^ ] ] ] ] ] ] ^ / { [ U W } d E i D.3.y > $ : j F H 9 -.8 4 7 y < < ( { / / ^ ] ^ ^ ^ ^ ^ ^ / _ _ _ _ { { _ _ _ _ _ _ _ { { { { { { { { { { { { { _ { { { { _ _ _ _ _ _ _ _ _ _ _ / / / / ^ ^ ^ ^ / _ { ( [ : : 9 4 4 8 -.0 M J v [ $ ) y 2.F.h I c } W S [ { / ^ ] ] ] ",
"] ^ ^ ^ / { [ S V 7 c I e Z.!.x ! $ < t D M b G b 9 B V V T U S : < [ ( ( ( [ [ [ [ < < < : < < S : : : : : : : : S : : : : : < : < < : < : : : < < < < < < < < < < < < < [ [ [ [ [ [ [ [ [ < : S U T V T z 1 b G a K Y s { $ ) x 1.E.e I d 7 V S [ { / ^ ] ] ] ] ] ] ^ / { [ S W } d E h E.2.z / # < w J M 0 K b 8 b W V T U S : < [ ( < < < [ [ [ [ [ [ [ < < < < < < < < : : : : : : : S U S : : : : S : : : : : : : < < < < < < < < [ [ [ [ [ [ [ ( [ [ < : S U T V V d 9 b G a H I w S $ > A #+D.k J ;.6 W U < { / ^ ] ] ] ] ^ ^ ^ / { < S V 7 d I e E.>.y ! & < r D -.b H b 1 A V W V U S : < [ [ [ ( [ [ [ [ [ [ [ [ < < < < < < < < < : : : : : : : : : : S : : : : : : : : : < < < < < < < < < < < [ [ [ [ [ [ [ < < : U T V W W ;.8 b G b -.Z r / @ ' -.).Z.g F c 7 W S [ { / ^ ] ] ] ] ] ] ^ / { [ U W } ;.E i D.3.A > $ : j I H a F b 0 -.T T T U S < < < [ [ < [ [ [ [ < < < < : : : : : : : : : : : : : : : : : : : : : : : : : : : : : < < < < < < < < < < [ [ [ [ [ ( ( ( [ < : S U T V V ;.1 b G a K L v < $ ) y 4.F.h I d } W U [ { / ^ ] ] ] ",
"] ^ ^ ^ _ { < U W } d I e Z.!.y ~ $ [ s D K ;.D M D 6 } 7 5 3 4 l W W W V V W W W W l l l 4 l l l l l 4 4 4 4 4 4 4 4 4 4 4 3 4 4 4 4 4 4 l 4 l l l l 4 4 l l l l l l l l W W W W W W W W W l 4 3 5 7 } } 6 I -.L A F Z t ( $ ! y 1.E.e E d } W U < { _ ^ ^ ] ] ^ ^ ^ / _ { < S l } d J h E.2.B ) $ : w L G d D B B 2 } 7 5 5 l W W V T l l l W W l W W l l l l l l l l l l l l l l 4 l l l l 4 4 l l l 4 l l l 4 4 l l l l l l l l l l l W W W W W W W l l W l 4 3 5 } } 2 K M J A F J w : $ > x 3. +k J A 6 W U < ( _ / ^ ^ / / / ^ / _ { < U W } d E h E.>.z ! # : s D H A J B H 2 } 7 7 5 3 l W W W V V W W W W W W W W W W W W W l 4 l 4 4 4 4 4 4 4 4 4 4 4 4 l l l l l l l l l l l l l l l l l l W W W W W W V V V W W l 4 5 7 7 } 6 G -.L d K C s _ @ ] -.).Z.f F c 7 W S < { / ^ ^ ] ] ] ^ ^ ^ _ ( < U W 6 ;.J i D.3.x , $ : g E F A J M E 6 } } 7 5 3 4 l l l W W W W W l l l l l l 4 l 4 l l l l 4 l l 4 l 4 4 4 4 4 l 4 4 4 4 4 4 4 l l l l l l l l l l l W W W W W W W V V W W l l 3 5 5 7 } 6 K -.J ;.G D w [ @ , y 1.F.h E d } W U < { _ ^ ^ ^ ] ",
"^ ^ ^ / _ { < U W } d I e Z.!.y ! @ ( v C I B o p x a 9 9 1 8 | 2 2 2 6 6 6 6 2 2 2 | | | 8 | | | | | | | | | | 8 | | 8 8 8 8 8 8 8 8 8 8 8 8 | | | | 8 8 2 2 2 2 2 2 | 2 2 2 2 2 6 6 2 2 2 2 | 8 1 9 0 0 c x C q -.J C v [ @ ! y 1.E.h E d } W S [ { _ / ^ ^ ^ ^ ^ / / _ ( [ S W } d E h F.4.-.> $ : v D E z o D y c b 0 0 9 8 | | | 2 2 8 | | | 8 | 2 2 | | 2 | | | | | | | | | | 8 | | | | 8 8 8 8 8 8 8 8 8 8 8 8 | | | | 8 8 8 | | 8 | | | | 2 2 2 2 2 | 8 9 1 9 0 b c x Y p -.J L j S $ , ;.#+ +k J A 6 W U : ( _ / / ^ / / ^ / / _ { < S W } d E h E.>.z ! @ S s Y I -.q Z x a 0 9 1 1 8 2 2 6 6 6 6 6 2 2 2 2 | | 8 8 | | | | 8 8 | | 8 8 | | | | | | | | | | 2 2 2 | | 2 2 2 2 2 2 2 2 2 2 2 2 6 6 6 6 6 6 6 6 6 6 6 2 8 1 1 9 0 a x C p B F q s _   ~ -.'.Z.f F c 7 W S [ { / / ^ ^ ^ ^ ^ / / _ { < U W 6 ;.J i D.3.x > $ : g J L B p q x a 0 0 9 1 8 | | 2 2 2 6 2 2 2 | | 2 2 2 | | | | | | | | | 2 | 2 2 | | | | | | | | | | | | | | 2 2 | | 2 2 2 2 2 2 2 2 2 2 2 6 6 6 6 6 6 2 | 8 8 1 9 0 a x Z q B E Z w [ $ ' y 4.F.i E ;.} W U < { _ / ^ ^ ^ ",
"^ ^ ^ / _ { < S W } d I e Z.!.y X $ [ v p D J j C L I H H K B z B x A A A x A A x x x x z z z z B B B B -.M M M M -.B B -.-.M K K M K K G B K B -.-.B B -.B B B B z z z B z y z z z y z B B -.M M K K K H G E Z w L C o w S $ ] x 1.E.h I d } V S [ { _ / ^ ^ ^ ^ ^ / / _ ( [ S W } d E h D.4.A ' & : v q Z E t C J H K M M H B z z B y y -.z z y z y z B B B -.-.B z z B z y z z -.M M M -.-.B B z M M M B B B B z B B z B B B K M -.B B z y y x x x y y z B -.M K M K H G E Z v J C Z g < & ' ;.#+ +k J A 6 W U < ( _ _ / ^ ^ ^ ^ ^ / _ { [ S V } d E h E.>.x ! $ S s u D E t Y I H K M -.z z y A z z z z z z z z B -.-.-.-.M -.M -.-.-.-.-.-.B z z B z z z B B B B z y B y z B -.B B M -.-.-.B y y B B z y y y y x x y B -.-.M M M K K H E Z w E D n s ( @ X -.'.Z.g F c 7 V S [ { _ / ^ ^ ^ ^ ^ ^ / _ { [ U W 6 ;.J i D.3.x > & : f Z C J j u D I G H K M -.z z z z z y B -.-.-.M -.B B z B z z z B B z y x x z y y B z B B B z z B -.B -.-.M M M -.-.-.-.-.-.-.M K K K K K -.-.-.B z z -.-.-.M K K K H E C t J Y q j [ $ ' y 4.D.i E ;.6 W U < { _ / ^ ^ ^ ",
"^ ^ ^ / _ { [ S V } d I e Z.!.y ^   S j s n t J K y A z A ;.d d a d c a c b c c a c c a a c d a c 0 0 b 0 0 b b b a c c a ;.c b a a a a a a c d a c c c c d a a b b a x c c a c b b b 9 9 0 9 0 b a c d d A y K L v r s t W @ ] -.1.E.e I d } V S [ { / / ^ ^ ^ ^ ^ ^ / _ { [ S V } d E h D.4.y ! & U j s r t Y G B x A A d x c c a b b b ;.;.b c a d b 0 0 b 0 0 a a c a a a a a c a b a a a c d a c a b a a a a c a a d a c c c c a a a a c d c a b c b a a a b a c c c ;.y K L s t o f T & - A #+D.k J A 6 W S : ( _ / / ^ ^ ^ ^ ^ / _ { [ S V } d I h E.>.x X $ : v r n t J M y ;.;.d c c c c c 0 0 b b b b a a a b b b b b b b a b b a b a b c a b 0 0 b 0 b 0 0 0 a 0 b a b 9 9 0 0 0 0 0 0 a b 0 0 0 0 b a a b b b b b a a c c d ;.A y K J v n w v { @ X -.).++g F c 7 V S [ { / / ^ ^ ^ ^ ^ ^ / _ { [ S W 6 ;.J i D.3.x > $ : h n t v E M A d c a b 0 0 9 9 1 9 9 9 9 0 0 0 b a b b b b a c a b a a a d c a b c a a a a a a a a a a a a a b a a a a a a a a a b b b b b 0 0 0 0 a b 0 b b a a c c ;.y M L w r r g < $ , y 4.D.h I d } W U [ { _ ^ ^ ^ ^ ",
"^ ^ ^ ^ / { [ : V } d I e Z.!.x / @ U h i.v D F -.y x y A ;.A ;.;.d ;.d A ;.;.;.;.;.;.;.;.;.A ;.A ;.;.d ;.d d d d d d ;.;.A ;.d ;.;.;.;.;.;.A ;.;.;.;.A ;.A A ;.;.;.;.A A A ;.A ;.;.A ;.;.d d d d d d ;.;.;.A B G L j R f [ & ' B 1.E.e I d } V : [ { / ^ ^ ^ ^ ^ ^ ^ / / { [ : V } d I h F.4.B ' * : i N w L F B x ;.;.d d ;.d d d c c c ;.d c d c d c c c c c c c c c d c c d d d d d d d d d d d d d d d ;.;.;.;.d d d d d ;.;.;.;.d ;.d d d d d d d d ;.;.d d d d ;.;.A y -.I D v P k < & - A #+D.k J ;.6 W S < ( _ / ^ ^ ^ ^ ^ ^ / / { [ S V 7 d I e E.>.y ' $ : e Q v D F -.y x A A A ;.A d d d d ;.;.;.;.;.;.;.;.A ;.;.;.;.;.;.;.;.;.;.d ;.;.d d d d d d d d c d ;.;.;.;.;.d ;.;.;.;.A A A ;.;.;.;.;.;.;.;.A A A A A A A A x A A x x z M I Y j i.j ( @ ~ -.).++g F c 7 V : [ { / ^ ^ ^ ^ ^ ^ ^ / / { [ S V 6 ;.J i D.#+x - $ : O N t D F M y A ;.;.d d d d d d d ;.;.;.A A A A x A ;.;.;.;.;.;.;.;.;.;.;.;.;.A ;.;.;.;.;.;.;.;.;.;.;.;.A A ;.A ;.;.;.A A A A A ;.;.A ;.;.;.;.;.;.;.;.;.;.;.;.;.;.A A x -.F D w Q h [ @ ' z 4.D.h I d 6 V S [ { / ^ ^ ^ ^ ",
"] ^ ^ ^ / { [ : V } c F f Z.!.x ^ @ : R ++3.P f t r r s s s r m r s r s s s s s s s s s s s s s s s s s v s s s t s t t v t t t t s t s s t s t t s t t t t t t t t s s v j s t t t v t t t v v v t t t s r v w f P 3.Z.R [ * , M 1.E.f F c } V : ( { / ^ ^ ^ ^ ] ^ ^ ^ / _ [ : T } c F e E.4.A ) % : #+++#+k h w v t t t t w t w s r t s v v r s s t s t s v s v r t s s s t t v v t v v t v v w w w v v s s t t t t s s s s s t v v w w w v t t s t r s t t v v t v t v v w j h P 3.<.3.T & , A #+F.h E ;.6 V S [ { / / ^ ^ ^ ^ ^ ^ ^ / { [ : T 7 c F f Z.!.-.) & U R |.#+P g v t s s s s s r m n t m r s r r m r r r r s s s r s s r s s s s s s s s t s s s s r r s r t r r r s t s r s s t s s s s s r r r s r s s t t t s t s s s r s s w f k 2.F.Q < @ ) -.'.++j G a 7 T : ( _ / ^ ^ ^ ^ ^ ^ ^ ^ / { [ S V 6 ;.E h D.#+A > & S 1.++2.O h g w v t t s s s r r s s t t v v v v t t t s r r s s r s r r m m r r s r r m m r r r r s s s s t t t t v t v v w w w v t v v v t t t t t t t t s s s s s s s s v f k 3.|.k.: $ ! y 4.F.f F c } V : [ { / ^ ^ ^ ^ ",
"] ^ ^ ^ / _ ( : T 7 a H j ++!.y ~ @ W m C L E E E I G G F I I F G E F F F F G G G G F F G F G F G F G J L J L I I J F I F F I F F E E E F I F G F F F G H G G H H G F G F G I F G F I F I H F F E E J E I I I I I I J C r W & ) -.1.Z.j H a 7 T : ( _ / ^ ^ ^ ] ] ^ ^ ^ / _ ( < T 7 a H f E.4.x ~ # 3 s Z J E I I H G F I G G F F H I I I I F I I E I G F G G G F G F G G G H H G G F F I G F F I F I F G I G G I H F F I F E I F G G F F G G F I G G I J F F G G F F J G F F F F E E Z m } @ > A #+D.e F c } V S [ _ / / ^ / ^ ^ ^ ^ ^ / _ ( : T 7 a H g Z.!.B ! & l n Z D E E F F F I I I I J F I I I I E E I I E I E E I I E I E I E E I I J I I I F E E I F I I E E L J E E J I E I I I E J J J E J E E J J J E E E E E E E J E I E I E I F I E E C v W @ ) -.'.Z.j K b 7 T < ( _ / ^ ^ ^ ] ^ ^ ^ ^ / _ ( : V } c G e F.3.A , @ 7 t u D J E E I I I E E E E I F E I J E E F I F I F F F E H G F E F I I I H F I I I E I I F F E E I I E E E I E E I I I I E I I I E I E I I I E I E E E E I I I E I E E E I J L L u m 3 @ ) x 4.E.g H a 7 T : ( _ / ^ ^ ^ ^ ",
"/ / _ _ { ( < S W } a H g ++>.y ) = 5 ) ~ ~ ) ] ] / / { _ ^ _ { / ~ ^ / / _ ^ ] ] ] ^ X ~ ~ X ! ~ ~ ) ~ ^ ~ X ] ~ ~ ~ ~ ^ _ ^ ^ ^ ^ ~ ] ^ ] ^ { ] ~ X / ^ ] ] / ~ ~ ! X ~ ^ ! ~ X X X ! ^ ^ ' ! ) ~ ~ ] ^ ^ / X X ^ ] X ^ 6 > ~ B 1.++g H a } W S < ( { _ _ / / / / _ _ { ( < S W } a H f E.4.A X ! | ( ~ ^ ] ^ ~ / ] ] ~ ^ ^ ^ _ / ~ ] ~ ] ^ / X ) X ] ^ ^ / X ^ ~ ~ ~ ^ / / / ^ ] ^ ] ] ] ~ ! ~ ] ] ~ ) _ / X ^ ^ ] ] ^ ~ ] ~ ~ ~ ~ ~ ~ ^ ~ X ) ) ~ ] ! ~ / X ! X ~ ^ ! X ~ ! X / ] ~ X 6 ' > A 3.F.e G c 6 W U < ( { _ _ _ _ / _ _ _ { ( < S V 7 a H g Z.>.B ) - 2 ] / ^ _ ~ / ] ~ ^ ] ] ] ] / _ ^ ~ ] ] ] ] ^ ^ ] ] ] ^ ] ~ ] / ] X ] ~ ~ ~ ] ] ~ ~ ~ ~ ~ ~ ~ ] ] ] ] ] _ ] / ~ ~ ^ X ! , ' ! ~ ~ ! ~ ~ X X X X X ! ! ! ) ! ! ) X ! ' ! ~ ] ~ ~ ~ ^ ] b > X B '.++j K b 7 V S < ( { _ _ / / / _ _ _ { ( < U W 6 c G e E.3.A > ' 8 ^ ] ] ] ] ] ] ^ ] ] ^ / ~ ~ _ ~ ] ] ! ! X X X ~ ~ ~ ~ ] ( ~ ] ] ~ ] ~ ^ / ! ) X ~ ^ / _ _ X ~ ] ] / X ^ ~ ~ ^ ^ ^ ] ^ ^ ] ] ~ ] ~ ^ ] ] ~ ] ~ ] ] ] ] ] ^ ^ ~ ] ] ^ _ _ _ ] X ] / ^ 8 , ! y 1.E.f H a } W U < ( { _ _ _ / ",
"[ [ [ [ < : U V 4 2 d K g ++>.y X U + . $ $       .     @ $ & $ @ @ # #           @         @ .   . $   @ &   . . . @   @ $ @ @ @   @         . @ @ .     @     @ @ $   @ $             $ @ @     @ $ $ $ $           $ @   T ] x >.++g H d 2 4 V U : < [ [ [ [ [ [ [ [ < S T V 4 2 c G f E.4.x _ 5 $   # $ $ $ # & # $   @ & $ @ @ $ & & @ $ & $ $ @       $ $ @   @ $ & &     @   .   @ @ @   #     . @ @ @ . @ @     @   . . . . . . @   @   $ . @ @ $   @ @ @ # @ * . . .     . & *     : X ;.2.F.e G ;.| 3 W T : < < < [ [ [ [ [ < < : U V 4 2 c H g ++'.x X S     @ $ .   $       @   .   @ & & & .       $               @   $ @       @     .   @ @     $     @ @       .   @ @ @ @ $ $ $ $ . @ @ . . + . . . . . .     @                         . 7 ] -.,.++g K a 6 4 V U : < [ [ [ [ [ [ [ [ < : U W 3 | ;.G e E.2.A ^ T       @ @ @ $ $ $ @ @ . . .               . .       . . .   $ $   & @ $ $   $ $ # @ @     @ $ $   @   @   . .   @ @ &       .                   . .   .     @ $ @     @ @ $ @   @   @ . T X x !.E.f H c | 3 W U S < [ [ [ [ ",
"< < < < : S U W 4 6 a -.t }.>.b W / { / ^ { { { / < : < ( ( < ( ( U < < [ ( { _ { < U [ _ { [ { / _ / _ / ( _ _ _ _ { < < [ < { [ ( [ ( ( { ( { ( { ( { _ { _ { / / ( { { ( _ _ ( { _ / < { / { : [ S [ : S S { _ < < [ ( [ ^ 5 9 >.}.t -.a 6 4 W U S < < < < < < < < < : S T V 3 6 b M v ++4.a 1 _ [ [ : ( [ { [ [ [ U : ( < < S < [ : : < U < < U S < : < [ [ [ S { [ [ [ ( { { { ( [ ( ( ( ( ( S < { / [ [ [ < U _ ( { ( { { { { { { { ( < ( ( ( { [ < : { [ : ^ ( / { _ { _ _ [ ^ / < < / 4 1 2.Z.j M a 2 3 W T S < : < < < < < < < : S T W 4 } b -.v }.'.1 7 / < { { { [ [ ( ( ( { [ ( ( { { { / : _ { ( ( ( { { { { { _ { _ { [ { { [ { ( ( { { { ( ( [ [ [ ( { _ ( { _ _ _ / ^ _ / { { ( < [ { ^ / _ < : { { { _ _ _ _ _ / _ _ [ { _ [ _ _ { _ _ _ { ^ 2 b {.}.s B 0 } 4 V U : < < < < < < < < < < S T W 3 2 a M w Z.4.8 5 _ U [ [ [ < < ( ( { [ _ _ { { _ { [ ( { { { { _ { _ _ { _ _ _ _ ] < [ _ [ / { ( < { { < < { / / ( _ < : ( ( ( { { < ( ( : _ { { _ _ { _ { ( [ < ( ( [ [ ( [ [ { / ( ( [ ( ( ( _ ( [ ( ( [ ~ 3 1 !.++v -.b 6 3 W T S : < < < < ",
"< < < < : S U V l 7 1 x u /.P p K J D L L J E L D J L I I I E J L L L E L D D Y Z Y D D L J E J E J L J J J L L L J J E E E E J J L L J L D D D D J D J J J J E J E J E E J J J E J L J J I J J J E L E J J E L J J J L D u C F o P /.u A 1 7 l V U S : < [ < [ < < < < : S U V 4 7 1 z q :.i s G L C Y Y D D D J J D L D L L L J J L L J E L J D L J J J L L L E J J J L L J L L L L L L L D D L L D Y L J E J J E L J J J L L L L D L D Y L D J E J E J J J L J Y J L L L L D D L L Y D L L G C e [.p y 9 } l V U : < < < < < < < < < : S U V l 5 1 A u /.O p M L E L J L E J J J J J J J J J J L E J J J J J E J J J J J J J J L L L J E E J E J E E J J E I I E J J E J J J J J E I J I E I F E E E L L J J D Y Y D J J E J E J L L J J J L L J J J J J J M m R /.C A 9 7 4 V U : < < < < [ < < < < : : U V l 7 9 y q :.h u H J L D L L L J J J J E J J J J L D J L L L L D L L L J J J L L L D J E J E J I I J J L L J D D J J L J J J L J J J E J L D L L L L L D D L D D D D L L L D J L L L J D L D D D D L J L D L L H q k (.q x 1 7 l V U S : < < [ < ",
": S S S S U V W 4 7 8 c G O !. +D. +D. + +D. + +D.D.D.D. +U.U.U.U.U.G.G.U.U. + +U.U. +U. + + + + + + + + + + +U. + + + + + + + + + + + + + +U.U. +U.G.U.U.U.U.U.U. + +U. + +U.U.U.U.U.U.U.U.U.U.U. + +U.U. + +U.U. + + +U. + +D. +!.P G d 8 7 4 W V U S S S : : : S S S S U V W 3 7 | d G N '.P. +G.G.G.G.G.G.G.G.G.G.G.G.P.P.G.G.P.P.G.P.P.G.G.G.G.G.G.G.U.U.U.U.U.U.U.U.U.U.U.U.U.U.U.U.U.G.U.U.G.G.G.G.G.G.U.G.G.G.U.U.G.U.U. + + +U.G.G.P.P.P.G.U.U.U. +U.U.U.G.G.U.U.U.U.U.U.U.G.U.U.U.U. + +).Q F d 8 7 4 W V U S S S S : S S S S S T V W 4 5 | c G N !. +F.D.D.D.D. + + +D.D. +D.D.D. + + +D. + + + + +D. + + +D.D.D.D.D.D.D.D.D.D.D.D. + +D.D.D.D.D.D.D.D.D.D.D.D.D.D. + + + +U. +U. + +D.D.D.D.D.D.D.D.D.D. + +U.U.U. +D.D. + +D.D.D. +D.D.D.D. + + +D. +>.k H a | 7 4 W T U S S S S : : S : S S U T W 4 7 8 d F Q ).D.D.D.D.D. + + +U.U.U. + +D.D. +D. + + + +U.U.U.U.U.U.D.D.D. + + + + + + + + + + +D.D.D.D. + + + + + + + + + + + +U.U.U.U.U.U. +U. + + +U. +U.U.U. +U.U.U.U.U.U.U.U.U.U.U. + + + + + + + + + +D.D. +>.N G c 8 7 4 W V U S S S S : ",
"V V V V W 4 4 3 7 6 8 a y L i {.<.++E.E.E.Z.E.E.E.E.E.E.E.E.F.E.E.E.E.E.E.E.E.E.E.E.E.F.E.Z.Z.Z.E.E.E.F.E.F.E.E.E.E.E.E.E.E.E.E.E.E.F.E.E.E.F.E.E.E.E.E.E.F.E.E.E.E.E.F.E.F.F.E.E.F.E.F.E.F.E.E.Z.E.E.F.F.F.E.E.E.E.E.E.Z.++|.[.~.i L z a 8 6 7 3 4 W W V V V T V V V V V W 4 3 7 6 8 c z L k ~.:.}.++Z.Z.Z.Z.Z.Z.Z.E.Z.E.E.E.Z.Z.E.Z.Z.Z.Z.Z.Z.Z.E.Z.Z.Z.Z.Z.E.Z.Z.Z.Z.Z.Z.Z.Z.Z.Z.Z.Z.Z.Z.Z.Z.E.F.E.Z.E.E.Z.Z.Z.Z.E.E.E.Z.E.E.++Z.E.E.Z.Z.++Z.E.E.Z.Z.E.Z.Z.E.Z.Z.Z.Z.E.E.E.Z.E.Z.E.Z.Z.Z.|.[.~.P D B c 8 6 7 3 4 W V V V V V V V V V W l 4 3 7 } 8 a z L h ~.<.|.Z.F.F.E.E.D.E.E.E.E.Z.E.F.F.F.E.F.F.F.F.F.F.F.F.F.F.F.F.E.F.F.F.F.F.E.Z.E.F.F.F.F.F.E.F.F.F.F.E.E.F.F.F.F.F.F.F.F.F.F.E.F.F.F.F.F.F.D.F.D.F.D.F.D.F.F.D.D.D.D.D.D.D.F.F.F.F.F.F.F.F.F.E.++[.{.i L y b | 6 7 3 l W V V V V V V V V V V W 4 3 7 6 8 c B D N ].<.Z.E.F.F.F.E.E.F.F.F.F.F.F.F.D.F.F.F.F.F.F.D.F.D.D.F.F.D.D.F.F.F.F.F.F.F.F.F.F.E.E.F.E.F.F.D.F.F.F.F.F.F.F.F.F.F.F.F.F.F.D.E.E.E.E.F.F.F.E.E.E.E.E.F.F.E.F.E.E.F.F.F.F.E.F.F.E.F.F.F.E.E.E.++<.~.P D z a 8 6 7 3 4 W W V V V V ",
"T T V V W l 4 3 5 7 2 1 c B I q v f h k P N Q Q Q Q Q R R R R R R R R R R R R R R R R R R i.R R R R R R R i.i.R R R R R R R R R R R R R R R R R R R R R R R R R R R R R R R i.R R R R R R R R R R R R R R R Q Q Q Q N O k h f v q F z c 1 2 7 5 4 l V V V V T T T V V V V W l 4 5 7 6 9 c z E q v f h k O N Q Q Q Q Q R R R R R R Q Q Q Q Q Q R Q Q R R Q Q R R Q R Q R Q R Q R Q R R Q Q R R R i.R i.R R R R R R R R R R R R R R R R R R R R R R R R R R R R R R R Q Q R R Q Q Q Q N P i h f v p E B d 9 2 7 5 4 l W V V V T T T V V V V W l 4 5 7 6 1 c z I q w f i k O N Q Q Q Q R R Q Q R R R R R R R R R R i.R R R i.R R R R R R R Q Q R R R R R R R R R R R Q Q R R R R R R R i.R R R R R R R R R R R R R R R i.R R i.i.i.R i.i.R R R Q Q Q N N O P i f t q I z c 8 6 7 5 4 l W V V V T T T V V V V W l 4 5 7 2 9 d B E p w e i P O N N Q Q Q Q Q Q R i.R R R R R i.i.i.i.i.i.i.i.i.R R R i.i.i.R R R R R Q R R R R R R R R R R R i.R i.R R i.i.i.R i.i.i.i.i.i.i.i.R R R R R i.R R R R R R R R R Q R Q Q Q Q N O k i e v q I B d 1 6 7 5 4 l W V V V V T ",
"T T T V V l l 4 5 5 } 2 1 c y K I D C p o n m r m m r s s s s s s s s s s s s s s s s s t t t s t s t t t t t t t t t t s s s s t s s s s s s s s s s s s s s s s s s t s s t t s s s s s s s s s s s s s r r m m m n o q C D E M x a 1 2 } 5 4 l W V V V V T T T T V V V V W l 3 7 } 2 9 a y M I L C p o n m m m r r r s s s s s s s s s s s s s s s s r s s s s s s s r s s s s s s s s s s s s t t s s s s s s s s s s s s s s s s s s s s s s s s s s s s s s s s r s s r m m m n o q u D I K x c 9 2 } 5 3 l l W V V V T T T T V V V W W l 4 5 } 2 1 a x M I D C p o n m r r r r s r s s s s s s s s s s s s t s s t s s s s s s s s s s s s s s s s s s s s s s s s s t s s s s s s s s s s s s s s s t s t s t s t t t t t t t s s r r r m m n n p C L F M y a 1 2 } 5 4 l W V V V V T T T T V V V V W l 3 5 } 2 1 c y K I D u p n m m m m r r r s s s s s s s t t t t t t t t t t s s s t t s s s s s s s s s s s s s s s t t t t t t t s s t s t t t t t t t t t s s s s s t s s t t s t s s s r r r r m m n o p C D I M x c 1 2 } 5 3 4 l W V V V T T ",
"5 5 5 5 7 7 7 } 2 | 8 9 0 c ;.z M G I E J L D Y Y Y Z C C C u C C C u u u C C C u u u u u u u u u u u u u u u u u u u u u u C u u C C C C u C C C C C C C C C C C C C u C u C u C C C C C C C C C C C C C Z Z Y D L L J E I G M z ;.a b 9 8 | 6 } 7 7 5 5 5 5 3 3 5 5 5 7 } } } 2 | 8 0 b a A z M H F E J L D Y Y Z Z C C C C C C C C C C C C C C C C C C C C C C C C C C C C C C C C C C C C C C C C C C C C C C C C C C C C C C C C C C C C C C C C C C C C C C C C C C C Z Y Y D L J E I G M z A c b 9 1 | 2 } 7 7 5 5 7 5 5 3 5 5 5 7 7 7 } 6 2 8 9 b c ;.z M G I E J L D Y Z Z C C C C C u u C C C C C C C C u u u C C C C C C C C C C C C C C C C C C u C C C C C C u u C C C C C C C C u C C u u u C u C u C u C C u u u u u u u C Z Z Y Y D L L J I H M z A c b 9 8 | 6 } 7 7 7 5 5 5 3 5 5 5 5 5 7 } 6 2 | 1 9 b c A z M G I J L D D D Y Z Z C C u u u u u u u u u u u u u u u u C u u u u u u C u u C C C C C C C u C C u u u u C u u C u u u u u u u u u u u C C C C C C u u C u C C C u u C C C Z Y Y D L J E I G M z A c b 9 1 | 2 } } 7 7 5 5 5 3 ",
"2 2 | | | 8 8 1 1 0 b a c ;.x z B M K G G F E E J J L D D D D D D D D Y D D D D D D D D D D D D D D D D D D D D D D D Y Y D D D D D D D D D D D D D D D D D D D L D L D D D D D D D D D D D D D D D D D D D L J E I I F H K M -.z A ;.d c b 0 1 1 8 | | | | 2 2 2 | | | | 8 8 8 1 0 b c d ;.y z B M K H F I I J J L D D D D D L D L L L D D D D L L D D L L D D L D D L L L L L L L D L L D D D D D D D D D L L D D D D D D D D D D D D L D L D D D L L D D D D D D L L D D L J E I I F G K M -.z x ;.d a b 0 9 1 8 8 | | | 2 2 2 | | | | 8 8 1 9 9 0 a d A A z -.M K G F F E J L L D D L D D D D D D D D D D D D D D D D D D D D D D L L L L D D D D L L D D D D L L D D D D D L D D D D D D Y D D D D D D D D D L D D D D D D D Y Y D D L L J E I F F G K M B z x A d a 0 9 1 8 8 8 | | | 2 2 2 2 | | | | 8 1 9 0 b c d A y z -.M K G F I I E J L L L D D D D D D D D D D D D D Y D D D D D D D D D D D D D D L D D D D D D D D D D D D D D D D D D D D D D D D D D D D D L D D D D D D D D D D D D D L L L J E E I F H K M -.z x A d a b 0 9 1 8 8 | | | | | ",
"d d ;.A ;.A ;.A x y z B -.K H G I E J L D Y Z u u q q q p p p p p p q p p p p p p p p p p p p p p p p p p p p p p p p p p p p p p p p p p p p p p p p q p p p p q q q p q q q p q p q q q p p q q q q p q q q u C C Z D L J E I G H K -.B z y A ;.;.d d d d d c d d d d d ;.A A A x z B M M H G I E J L Y Z C u u q q p p p p q q q q q q p p q q q p p p q q p q p q p q q p q q p p q q p p p p p p p p p q q p p p p p p p p p p p p q q q q p q q q p p p p q q q q q q q u u C Z Y D J E I F H K -.B z y x A ;.;.d d d d c d d d d ;.;.;.A x x y B -.K H G I E J D Y Y C u q q q q q q q p p p q q q q p p p p p p p p p p p q q q q q q p q p p q q q p p q q q p p p p q q p p p p p p p p p p p p p p q p q p q p p p p p p p p q q q u C C Z Y D L E I G H K -.B y x A ;.;.;.;.;.d d c c d d d ;.;.;.A x y B B -.K H F I E J D Y Z C C u q q q q p p p p p p p p p p p p p p p p p p p p p p p p p p p q q q q p p p p p p p p p p p p p p p p p p p p p p p p q q q p q p p p q p p p p p p q q q q u u C Z Y L J E I G H K -.B z y x A A A A d d d d ",
"A A x x x x x y y z B -.M K H F I E J L D Y Z C C u u q q q q q q q q q q q q q q q q q q q q q q q q q q p q q q q q q q q q q q q q q q q q q q q q q q q q q q q q q q q q q q q q q u q q q u q u q q u u u C Z Z D L J E I F H K M -.B z y y x x x A A A A A A x x x x x y y z B -.M K H F I E J L D C Z C u u u q q q q q q q u u q q q q q q q q q q q q q p q q q q q q q q q q q q q q q q q q q q q q q q q q q q q q q q q q q q q q q q q p p q q q u u q q q q u C C C Z D L L E I F G K M -.B z y y y x A A A A A A A x x x x y y y y B -.M K H F E E J D D Y Z C u u u q u u q q q q q q q q q q q q q q q q q q q q q q u u q q q q q q q q q q q q q q q q q q q q q q q p q q q q q p q q q q q q q q q q q q q q q q u u u C C Z Z Y D L E I F G K M -.z y y y x x x x A A A A A A A x x y y y z B -.M H G F I E L D Y Z Z C C u u u q q q q q q q q q q q p p q p q p q q q q q q q q q q q q q q q q q p p q p q q p q q q q q p q q q q p q q q p q q q q q q q q q q q q q q q q u u u u C Z Y Y L L E I F G K M -.B z y y y x x x A A A ",
"F G F F F I I I I I E J L D Y Z u q p p o n m r r r s s s s s s s s s s s s s t t t t t t t t t t t t t t t t t t t t t t t t t t t t t t t t t t s t s t t t t t s s t s t s t s t t t s s t s t s s s s s r r m m n n p p q u C Y D L J J E E I I F F F F F G G F F I I I I I E J J L L D Z C u q p o n m r r r s s s s s s s s s s s s s s s s s t t t s t t t t t t t t s s s t t s s t s t s t t s t t s t t t t t t t t t t s t t t t s s t t t v v s t s s s s s s s s r m m n o p p q u C Z Y L L J E I I I I F F F G G G F F F F I I I E E E J L D Y C u u p o n n m r r s s s r s s s s s s s s t s t s t t t t t t t t t s s s s s s t t t s s s t t s s s t s s s t s t t t t t v t t t t t t s t t t s t s t t t s s t s s s r r r r m n n o p q u C Z Y L J E E I I I I F F F F G G F F F F I I I I E J L L Y Z C u q p o n m m m r r s s s s s s s s s s s t t t t t t t t t t t t t t t t t t t s t s t t t t t t t t t t t t t t t t t t t t t t t t t s s s t s s t t s s s s s s s s s s s r r m m n o p q u C Z Y D J E E I I I I F F F F G ",
"r s s s s t t t t t t v w j g f e h i i k P P O O O N N N N N N N N N N N Q Q Q Q Q Q Q Q Q Q Q Q Q Q Q Q Q Q Q Q Q Q Q Q Q Q Q Q Q Q Q Q Q Q Q Q Q Q N Q Q Q Q Q Q Q Q Q Q Q Q Q Q Q Q N N Q Q Q N N N N N O O O P P k i i h e f g j w w v v t t t s s s s r r s s s s t s v t v v v w j j f f e h i k k P O O O N N N N N N N N N N N N N N N Q Q Q Q R R Q R Q Q Q Q Q Q Q Q Q Q Q Q Q Q Q Q Q R Q Q Q Q Q Q Q Q Q Q Q Q Q Q Q Q Q Q Q Q N N Q Q Q Q Q N N N N N N O Q N N O O O P k i i h e f g j w w v v t t t s s s r r r r r s s s t t t t t t v w j g f e h h k k P P O O N N N N N N N N N N N N N Q Q Q Q Q Q Q Q Q Q Q Q Q N N N N Q Q Q Q Q N Q Q Q Q N Q Q Q Q Q N Q Q Q Q Q Q Q Q Q Q Q Q Q Q Q Q Q N Q N Q Q N N N Q N N N O O O O P P P k i h e f g j j v t t t t t t s s s s r r r s s s t t t t v v w w g g f e h i k P P O P O O N N N N N N N N Q N N Q Q Q Q Q Q Q Q Q Q Q Q Q Q Q Q Q Q Q Q Q Q Q Q Q Q Q Q Q Q Q Q Q Q Q Q Q Q Q Q Q Q Q Q Q Q Q Q Q Q Q Q Q Q Q Q N Q N N N N N N N N O O O P k k i h e f g j j w v t t t t t s s s s r ",
"R R R R R R i.i.i.i.i.j.j.k.#+3.3.4.4.1.1.!.>.>.>.>.).).).).).).).).).).).'.'.'.'.'.'.'.'.'.'.'.'.'.'.'.'.'.'.'.'.'.'.'.'.'.'.'.'.'.'.'.'.'.'.'.'.'.'.'.'.'.'.'.'.'.'.'.'.'.'.'.'.'.'.'.).).'.'.).).).).).>.>.>.>.!.!.!.4.4.2.2.3.#+k.k.j.j.j.i.i.i.R R R R R R R R R i.R i.j.j.j.j.j.k.k.k.3.3.2.2.4.1.!.!.>.>.>.).).).).).).).).).).).).).).).'.'.'.'.,.,.'.'.'.'.'.'.'.'.'.'.'.'.'.'.'.'.'.'.'.,.,.'.'.'.'.'.'.'.'.'.'.'.'.'.'.'.'.'.'.'.).'.'.'.'.'.'.).).).>.>.>.>.'.).>.>.>.!.!.1.4.4.4.2.3.#+k.k.j.j.j.i.i.i.i.R R R R Q R R R R i.R i.i.i.i.i.j.j.k.#+3.2.2.4.1.1.!.!.>.>.).).).>.).).).).).).).).).'.'.'.'.'.'.'.'.'.'.'.'.'.).).'.'.'.'.'.'.'.).'.'.'.'.'.'.'.'.'.'.'.'.'.'.'.'.'.,.'.'.'.'.'.'.'.'.'.'.).'.).).).).).).).).).).>.>.>.>.!.!.!.1.4.2.3.3.#+#+k.j.j.i.i.i.i.i.R R R R R R R R R R i.i.j.i.j.j.j.j.#+#+3.2.4.4.1.!.!.>.>.>.>.>.).>.).).).).).).).'.'.'.'.'.'.'.'.'.'.'.'.'.'.'.'.'.'.'.'.'.'.'.'.'.'.'.'.'.'.'.'.,.'.'.'.'.'.'.'.'.'.'.'.'.'.'.'.'.'.'.'.'.'.'.'.).).).).).).).).).).>.>.>.>.!.!.1.4.4.2.3.#+k.k.j.j.j.j.i.i.i.R R R R R ",
"(.(.(.(.(.:.:.:.:.:.[.[.[.<.<.}.}.|.++++++Z.Z.E.Z.E.E.E.E.E.E.E.E.F.F.F.F.F.F.F.F.F.F.F.D.D.D.F.F.F.F.D.D.D.F.F.D.F.F.F.F.F.F.F.F.D.F.F.F.F.F.F.F.F.F.F.F.F.F.F.F.D.D.D.F.F.F.F.F.F.F.F.F.F.F.F.E.E.E.E.E.E.E.Z.Z.Z.Z.Z.++|.|.}.}.<.<.[.[.[.[.:.:.:.:.(.(.(.(.(.(.(.(.(.(.:.[.:.[.[.[.[.[.<.|.}.}.|.|.++++Z.Z.Z.E.E.E.E.E.E.E.E.E.F.F.F.F.F.F.F.F.F.F.D.D.D.F.D.F.F.F.F.F.F.F.F.F.F.F.F.F.F.F.F.F.F.D.F.F.F.F.F.F.F.F.F.F.F.F.F.F.F.F.D.F.F.F.F.F.F.D.D.F.F.F.E.E.E.E.E.F.E.E.E.Z.Z.Z.++++++|.}.}.<.<.[.[.[.[.:.:.:.:.(.(.(.(.(.(.(.(.(.:.:.:.:.:.[.[.[.[.<.<.}.}.|.|.++Z.Z.Z.E.E.E.E.E.E.E.E.E.E.E.F.F.F.F.F.F.F.F.D.D.F.F.D.F.F.F.F.F.F.F.F.F.F.F.F.F.F.F.F.F.F.F.F.F.F.F.F.F.F.F.F.F.F.F.D.F.F.F.D.F.F.F.F.F.F.F.F.F.F.F.F.F.F.E.E.E.E.E.E.Z.Z.Z.Z.Z.++++|.}.}.}.<.<.[.[.:.:.:.:.:.(.(.(.(.(.(.(.(.(.(.:.:.:.[.[.[.[.[.<.}.}.}.|.++++++Z.Z.Z.Z.E.E.E.E.E.E.E.E.E.F.F.F.F.F.F.F.F.D.D.F.D.F.D.F.F.F.F.F.F.F.F.F.F.F.F.F.F.F.F.F.D.F.F.F.D.D.D.F.F.F.F.D.F.F.D.D.D.D.D.F.F.F.F.F.F.F.F.F.F.E.E.E.E.E.E.E.E.E.E.Z.Z.Z.Z.++++|.|.}.<.<.<.[.[.[.[.:.:.:.(.(.(.(.(."};
