/* XPM */
static char * Door_xpm[] = {
"32 32 17 1",
" 	c #2E2113",
".	c #654A2C",
"+	c #7D5B37",
"@	c #705231",
"#	c #5B4228",
"$	c #24180B",
"%	c #2E2010",
"&	c #4A3520",
"*	c #291C0D",
"=	c #0F0F0F",
"-	c #1C1C1C",
";	c #080808",
">	c #201509",
",	c #523B24",
"'	c #1C1208",
")	c #020202",
"!	c #3B2B1A",
" ..+ @+@ @@. +#$$#+ .@@ @+@ +.. ",
" #@@ .+# @.@ +.%%.+ @.@ #+. @@# ",
" .@# .@@ @.@ @&**&@ @.@ @@. #@. ",
" .@. @@@ #.+ @#**#@ +.# @@@ .@. ",
"=--= @.@ @#@ @#$$#@ @#@ @.@ =--=",
";.@; @@@ @@@ .#**#. @@@ @@@ ;@.;",
" .@+ .@+ @@@ @#>>#@ @@@ +@. +@. ",
" @.+ @@@ @.@ +&>>&+ @.@ @@@ +.@ ",
" @.+ @.@ @#@ +&**&+ @#@ @.@ +.@ ",
" @#+ @+@ ..@ +,$$,+ @.. @+@ +#@ ",
" @#+ .@. #.. @&''&@ ..# .@. +#@ ",
" @@+ @+@ ..@ +,$$,+ @.. @+@ +@@ ",
" .++ .+. ##+ @,$$,@ +## .+. ++. ",
" @++ ++@ .#@ @#$$#@ @#. @++ ++@ ",
" @@# +@@ @#. .#))#. .#@ @@+ #@@ ",
"=--= @.. #@. @.)).@ .@# ..@ =--=",
";++; @@@ #.# .@))@. #.# @@@ ;++;",
" @+. @@. #&. .@$$@. .&# .@@ .+@ ",
" @+. +@# ,.. .@$$@. .., #@+ .+@ ",
" ++# #@. #.@ .@$$@. @.# .@# #++ ",
" +.@ #@. #,. @@$$@@ .,# .@# @.+ ",
" @#+ ,+. &@. @@**@@ .@& .+, +#@ ",
" @.. @@@ ,@. ..**.. .@, @@@ ..@ ",
" @@@ ..+ !@@ .,**,. @@! +.. @@@ ",
" +@@ @@+ .@@ @.$$.@ @@. +@@ @@+ ",
" ++@ #++ @@. +.$$.+ .@@ ++# @++ ",
"=--= +.. .++ ,.$$., ++. ..+ =--=",
";@.; +@@ .@@ ..**.. @@. @@+ ;.@;",
" +@@ +.@ .## .+**+. ##. @.+ @@+ ",
" @@@ @@+ .@# @#**#@ #@. +@@ @@@ ",
" @++ @+@ @.. +@$$@+ ..@ @+@ ++@ ",
" +++ @++ +++ @+%%+@ +++ ++@ +++ "};
