/* XPM */
static char * pixmap[] = {
/* width height num_colors chars_per_pixel */
"256 256 234 3",
/* colors */
"    c #5F4632",
"!   c #5F4531",
"#   c #5E4531",
"$   c #5D442F",
"%   c #5A422E",
"&   c #59412E",
"'   c #59402D",
"(   c #58402D",
")   c #58402C",
"*   c #573F2C",
"+   c #563E2B",
",   c #553E2B",
"-   c #553D2A",
".   c #543D2B",
"/   c #543D2A",
"0   c #533C2A",
"1   c #523B29",
"2   c #523B28",
"3   c #523A29",
"4   c #513B29",
"5   c #513A28",
"6   c #503A28",
"7   c #503928",
"8   c #4F3928",
"9   c #4F3927",
":   c #4F3827",
";   c #4E3928",
"<   c #4E3927",
"=   c #4E3828",
">   c #4E3827",
"?   c #4E3726",
"@   c #4D3827",
"A   c #4D3826",
"B   c #4D3727",
"C   c #4D3726",
"D   c #4D3725",
"E   c #4D3626",
"F   c #4C3727",
"G   c #4C3726",
"H   c #4C3725",
"I   c #4C3626",
"J   c #4C3625",
"K   c #4C3525",
"L   c #4B3626",
"M   c #4B3625",
"N   c #4B3523",
"O   c #4A3525",
"P   c #4A3524",
"Q   c #4A3523",
"R   c #4A3424",
"S   c #493524",
"T   c #493424",
"U   c #493423",
"V   c #483423",
"W   c #483422",
"X   c #483323",
"Y   c #483322",
"Z   c #483321",
"[   c #483222",
"]   c #473323",
"^   c #473322",
"_   c #473223",
"`   c #473222",
"a   c #463222",
"b   c #463221",
"c   c #463121",
"d   c #463120",
"e   c #453121",
"f   c #453120",
"g   c #453021",
"h   c #453020",
"i   c #443020",
"j   c #44301F",
"k   c #442F20",
"l   c #442F1F",
"m   c #43301F",
"n   c #432F1F",
"o   c #432F1E",
"p   c #432E1F",
"q   c #432E1E",
"r   c #422E1F",
"s   c #422E1E",
"t   c #422E1D",
"u   c #422D1E",
"v   c #422D1D",
"w   c #412E1E",
"x   c #412D1E",
"y   c #412D1D",
"z   c #412D1C",
"{   c #412C1D",
"|   c #402D1D",
"}   c #402C1D",
"~   c #402C1C",
" !  c #402B1C",
"!!  c #3F2C1C",
"#!  c #3F2B1C",
"$!  c #3F2B1B",
"%!  c #3E2B1C",
"&!  c #3E2B1B",
"'!  c #3E2A1B",
"(!  c #3E2A1A",
")!  c #3D2A1B",
"*!  c #3D2A1A",
"+!  c #3D2A19",
",!  c #3D291A",
"-!  c #3D2919",
".!  c #3C2A1B",
"/!  c #3C291A",
"0!  c #3C2919",
"1!  c #3C2819",
"2!  c #3B291A",
"3!  c #3B281A",
"4!  c #3B2819",
"5!  c #3B2818",
"6!  c #3B2718",
"7!  c #3A2819",
"8!  c #3A2718",
"9!  c #3A2717",
":!  c #3A2618",
";!  c #3A2617",
"<!  c #392719",
"=!  c #392718",
">!  c #392618",
"?!  c #392617",
"@!  c #392516",
"A!  c #382617",
"B!  c #382517",
"C!  c #382516",
"D!  c #382416",
"E!  c #372516",
"F!  c #372416",
"G!  c #372415",
"H!  c #362516",
"I!  c #362416",
"J!  c #362415",
"K!  c #362316",
"L!  c #362315",
"M!  c #352415",
"N!  c #352315",
"O!  c #352314",
"P!  c #352215",
"Q!  c #342315",
"R!  c #342314",
"S!  c #342215",
"T!  c #342214",
"U!  c #332214",
"V!  c #332213",
"W!  c #332114",
"X!  c #332113",
"Y!  c #322214",
"Z!  c #322113",
"[!  c #322014",
"]!  c #322013",
"^!  c #312013",
"_!  c #312012",
"`!  c #311F13",
"a!  c #311F12",
"b!  c #302013",
"c!  c #302012",
"d!  c #301F13",
"e!  c #301F12",
"f!  c #301F11",
"g!  c #301E13",
"h!  c #301E12",
"i!  c #301E11",
"j!  c #2F1F12",
"k!  c #2F1F11",
"l!  c #2F1E12",
"m!  c #2F1E11",
"n!  c #2F1E10",
"o!  c #2F1D12",
"p!  c #2F1D11",
"q!  c #2F1D10",
"r!  c #2E1E11",
"s!  c #2E1E10",
"t!  c #2E1D11",
"u!  c #2E1D10",
"v!  c #2D1E11",
"w!  c #2D1D11",
"x!  c #2D1D10",
"y!  c #2D1C11",
"z!  c #2D1C10",
"{!  c #2C1C10",
"|!  c #2C1C0F",
"}!  c #2C1B10",
"~!  c #2C1B0F",
" #  c #2B1C10",
"!#  c #2B1C0F",
"##  c #2B1B10",
"$#  c #2B1B0F",
"%#  c #2B1B0E",
"&#  c #2B1A10",
"'#  c #2B1A0F",
"(#  c #2B1A0E",
")#  c #2A1B0F",
"*#  c #2A1B0E",
"+#  c #2A1A0F",
",#  c #2A1A0E",
"-#  c #2A190F",
".#  c #2A190E",
"/#  c #291B0E",
"0#  c #291A0F",
"1#  c #291A0E",
"2#  c #29190F",
"3#  c #29190E",
"4#  c #29190D",
"5#  c #281A0E",
"6#  c #28190E",
"7#  c #28190D",
"8#  c #28180E",
"9#  c #28180D",
":#  c #27190E",
";#  c #27190D",
"<#  c #27180E",
"=#  c #27180D",
">#  c #27180C",
"?#  c #27170D",
"@#  c #27170C",
"A#  c #26180D",
"B#  c #26180C",
"C#  c #26170D",
"D#  c #26170C",
"E#  c #25170C",
"F#  c #25160C",
"G#  c #25160B",
"H#  c #24160C",
"I#  c #24160B",
"J#  c #24150B",
"K#  c #23150B",
"L#  c #22150A",
"M#  c #22140A",
"N#  c #21140A",
"O#  c #211309",
"P#  c #201309",
/* pixels */
"N# D# D# E# E# E# E# A# A# C! C! s  s  s  s  s  s  s  s  s  s  s  s  s  s  s  s  s  s  s  s  s  s  s  s  s  s  s  s  s  s  s  s  s  s  s  s  s  s  s  s  s  s  s  s  s  s  s  s  s  s  s  s  s  s  s  s  s  s  s  s  s  s  s  s  s  s  s  s  s  s  s  s  s  s  s  s  s  s  s  s  s  s  s  s  s  s  s  s  s  s  s  s  s  s  s  s  s  s  s  s  s  s  s  s  s  s  ?! ?! `  `  s  s  s  s  N# N# D# D# E# E# E# E# A# A# C! C! s  s  s  s  s  s  s  s  s  s  s  s  s  s  s  s  s  s  s  s  s  s  s  s  s  s  s  s  s  s  s  s  s  s  s  s  s  s  s  s  s  s  s  s  s  s  s  s  s  s  s  s  s  s  s  s  s  s  s  s  s  s  s  s  s  s  s  s  s  s  s  s  s  s  s  s  s  s  s  s  s  s  s  s  s  s  s  s  s  s  s  s  s  s  s  s  s  s  s  s  s  s  s  s  s  s  s  s  ?! ?! ?! ?! x! x! A# A# B# B# L# ",
"N# D# D# F# F# E# E# 6# 6# C! C! s  s  s  s  s  s  s  s  s  s  s  s  s  s  s  s  s  s  s  s  s  s  s  s  s  s  s  s  s  s  s  s  s  s  s  s  s  s  s  s  s  s  s  s  s  s  s  s  s  s  s  s  s  s  s  s  s  s  s  s  s  s  s  s  s  s  s  s  s  s  s  s  s  s  s  s  s  s  s  s  s  s  s  s  s  s  s  s  s  s  s  s  s  s  s  s  s  s  s  s  s  s  s  s  s  s  ?! ?! `  `  s  s  s  s  N# N# D# D# E# E# E# E# A# A# C! C! s  s  s  s  s  s  s  s  s  s  s  s  s  s  s  s  s  s  s  s  s  s  s  s  s  s  s  s  s  s  s  s  s  s  s  s  s  s  s  s  s  s  s  s  s  s  s  s  s  s  s  s  s  s  s  s  s  s  s  s  s  s  s  s  s  s  s  s  s  s  s  s  s  s  s  s  s  s  s  s  s  s  s  s  s  s  s  s  s  s  s  s  s  s  s  s  s  s  s  s  s  s  s  s  s  s  s  s  ?! ?! ?! ?! A! A! 4# 4# E# E# L# ",
"N# D# D# F# F# E# E# 6# 6# C! C! X  `  `  b  b  s  s  s  s  s  s  s  s  s  s  s  s  s  s  s  s  s  s  s  s  s  s  s  s  s  s  s  s  s  s  s  s  s  s  s  s  s  s  s  s  s  s  s  s  s  s  n  n  e  e  n  n  s  s  s  s  s  s  s  s  s  s  s  s  s  s  s  s  s  s  s  s  s  s  s  s  s  s  s  s  s  s  s  s  s  s  s  s  s  s  s  s  s  s  s  s  s  s  s  s  s  ?! ?! h  h  s  s  s  s  N# N# D# D# F# F# E# E# 6# 6# C! C! s  s  s  i  i  s  s  s  s  s  s  s  s  s  s  s  s  s  s  s  s  s  s  s  s  s  s  s  s  s  s  s  s  s  s  s  s  s  s  n  n  X  X  B  B  M  M  q  q  s  s  s  s  s  s  s  s  s  s  `  `  U  U  T  T  c  c  |  |  ,! ,! 1! 1! s  s  s  s  s  s  s  s  s  s  s  s  s  s  s  s  s  s  s  s  s  s  s  s  n  n  h  h  s  s  s  s  s  s  f  ?! ?! ?! ?! A! A! 4# 4# E# E# L# ",
"L# D# D# E# E# E# E# |! |! ?! ?! X  `  `  b  b  s  s  s  s  s  s  s  s  s  s  s  s  s  s  s  s  s  s  s  s  s  s  s  s  s  s  s  s  s  s  s  s  s  s  s  s  s  s  s  s  s  s  s  s  s  s  n  n  e  e  n  n  s  s  s  s  s  s  s  s  s  s  s  s  s  s  s  s  s  s  s  s  s  s  s  s  s  s  s  s  s  s  s  s  s  s  s  s  s  s  s  s  s  s  s  s  s  s  s  s  s  ?! ?! h  h  s  s  s  s  N# N# D# D# F# F# E# E# 6# 6# C! C! s  s  s  i  i  s  s  s  s  s  s  s  s  s  s  s  s  s  s  s  s  s  s  s  s  s  s  s  s  s  s  s  s  s  s  s  s  s  s  n  n  X  X  B  B  M  M  q  q  s  s  s  s  s  s  s  s  s  s  `  `  U  U  T  T  c  c  |  |  ,! ,! 1! 1! s  s  s  s  s  s  s  s  s  s  s  s  s  s  s  s  s  s  s  s  s  s  s  s  n  n  h  h  s  s  s  s  s  s  f  ?! ?! ?! ?! B! B! 1# 1# D# D# M# ",
"L# D# D# E# E# E# E# |! |! ?! ?! ?! ?! ?! r  r  O  O  P  P  B  B  I  I  @  @  i  i  s  s  s  s  s  s  s  s  s  s  ^  ^  ?! ?! ?! ?! ?! ?! 6! 6! *! *! &! &! s  s  `  `  }  }  s  s  '! '! ?! ?! 0! 0! e  e  ;  ;  +  +  0  0  I  I  G  G  c  c  L  L  X  X  &! &! #! #! X  X  g  g  p  p  }  }  ?! ?! ?! ?! ?! ?! ?! ?! ?! ?! ?! ?! ?! ?! ?! ?! ?! ?! ?! ?! ?! ?! ?! ?! ?! s  s  s  s  L# L# D# D# E# E# E# E# |! |! ?! ?! B  ]  ]  )! )! e  e  &  &  @  @  <  <  A  A  T  T  p  p  ?! ?! ?! ?! ?! ?! ?! ?! ?! ?! ?! ?! ?! ?! ?! ?! ?! ?! ?! ?! ?! ?! ?! ?! ?! ?! ?! ?! 1! 1! U  U  1  1  b  b  y  y  x  x  ?! ?! ?! ?! ?! ?! ?! ?! ?! ?! ?! ?! ?! ?! ?! ?! #! #! o  o  g  g  g  g  n  n  s  s  s  s  s  s  n  n  Y  Y  y  y  ?  ?  2  2  9  9  *  *  N  N  ?! ?! ?! ?! ?! B! B! 1# 1# D# D# M# ",
"L# D# D# E# E# =# =# T! T! ?! ?! ?! ?! ?! r  r  O  O  P  P  B  B  I  I  @  @  i  i  s  s  s  s  s  s  s  s  s  s  ^  ^  ?! ?! ?! ?! ?! ?! 6! 6! *! *! &! &! s  s  `  `  }  }  s  s  '! '! ?! ?! 0! 0! e  e  ;  ;  +  +  0  0  I  I  G  G  c  c  L  L  X  X  &! &! #! #! X  X  g  g  p  p  }  }  ?! ?! ?! ?! ?! ?! ?! ?! ?! ?! ?! ?! ?! ?! ?! ?! ?! ?! ?! ?! ?! ?! ?! ?! ?! s  s  s  s  L# L# D# D# E# E# E# E# |! |! ?! ?! B  ]  ]  )! )! e  e  &  &  @  @  <  <  A  A  T  T  p  p  ?! ?! ?! ?! ?! ?! ?! ?! ?! ?! ?! ?! ?! ?! ?! ?! ?! ?! ?! ?! ?! ?! ?! ?! ?! ?! ?! ?! 1! 1! U  U  1  1  b  b  y  y  x  x  ?! ?! ?! ?! ?! ?! ?! ?! ?! ?! ?! ?! ?! ?! ?! ?! #! #! o  o  g  g  g  g  n  n  s  s  s  s  s  s  n  n  Y  Y  y  y  ?  ?  2  2  9  9  *  *  N  N  ?! ?! ?! ?! ?! C! C! 6# 6# D# D# M# ",
"L# D# D# E# E# =# =# T! T! ?! ?! ?! ?! ?! ?! ?! ?! ?! ?! ?! ?! ?! ?! ?! ?! ?! )! )! %  %        -  -  b  b  1! 1! ?! ?! ?! ?! ,! ,! ?! ?! ?! ?! ?! ?! ?! ?! ?! ?! ?! ?! ?! ?! ?! ?! ?! ?! ?! ?! ?! ?! ?! ?! 9! 9! Q  Q  U  U  /! /! ?! ?! ?! ?! ?! ?! ?! ?! ?! ?! ?! ?! ?! ?! ?! ?! ?! ?! ?! ?! ?! ?! ?! ?! ?! ?! ?! ?! ?! ?! ?! ?! ?! ?! ?! ?! ?! ?! ?! ?! ?! 4! 4! ?! ?! l  l  s  s  L# L# D# D# E# E# =# =# T! T! ?! ?! ?! ?! ?! ?! ?! ?! ?! ?! ?! ?! ?! ?! ?! ?! ?! ?! ?! ?! ?! ?! ?! ?! ?! ?! ?! ?! ?! ?! ?! ?! ?! ?! ?! ?! ?! ?! ?! ;! ;! ?! ?! 8! 8! ,! ,! 5! 5! ?! ?! ?! ?! ?! ?! ?! ?! ?! ?! ?! ?! ?! ?! ?! ?! ?! ?! ?! ?! 4! 4! $! $! 5! 5! 8! 8! ?! ?! 8! 8! ?! ?! ?! ?! ?! ?! ?! ?! s  s  8! 8! ?! ?! ?! ?! ?! ?! ?! ?! ?! ?! ?! ?! ?! ?! ?! ?! ?! ?! ?! ?! ?! C! C! 6# 6# D# D# M# ",
"L# D# D# A# A# 6# 6# L! L! ?! ?! ?! ?! ?! ?! ?! ?! ?! ?! ?! ?! ?! ?! ?! ?! ?! )! )! %  %        -  -  b  b  1! 1! ?! ?! ?! ?! ,! ,! ?! ?! ?! ?! ?! ?! ?! ?! ?! ?! ?! ?! ?! ?! ?! ?! ?! ?! ?! ?! ?! ?! ?! ?! 9! 9! Q  Q  U  U  /! /! ?! ?! ?! ?! ?! ?! ?! ?! ?! ?! ?! ?! ?! ?! ?! ?! ?! ?! ?! ?! ?! ?! ?! ?! ?! ?! ?! ?! ?! ?! ?! ?! ?! ?! ?! ?! ?! ?! ?! ?! ?! 4! 4! ?! ?! l  l  s  s  L# L# D# D# E# E# =# =# T! T! ?! ?! ?! ?! ?! ?! ?! ?! ?! ?! ?! ?! ?! ?! ?! ?! ?! ?! ?! ?! ?! ?! ?! ?! ?! ?! ?! ?! ?! ?! ?! ?! ?! ?! ?! ?! ?! ?! ?! ;! ;! ?! ?! 8! 8! ,! ,! 5! 5! ?! ?! ?! ?! ?! ?! ?! ?! ?! ?! ?! ?! ?! ?! ?! ?! ?! ?! ?! ?! 4! 4! $! $! 5! 5! 8! 8! ?! ?! 8! 8! ?! ?! ?! ?! ?! ?! ?! ?! s  s  8! 8! ?! ?! ?! ?! ?! ?! ?! ?! ?! ?! ?! ?! ?! ?! ?! ?! ?! ?! ?! ?! ?! N! N! 6# 6# E# E# M# ",
"L# D# D# A# A# 6# 6# L! L! ?! ?! ?! ?! ?! ?! ?! ?! ?! ?! ?! ?! ?! ?! ?! ?! ?! ?! ?! ?! ?! ?! ?! ?! ?! ?! ?! ?! ?! ?! ?! ?! ?! ?! ?! ?! ?! ?! ?! ?! ?! ?! ?! ?! ?! ?! ?! ?! ?! ?! ?! ?! ?! ?! ?! ?! ?! ?! ?! ?! ?! ?! ?! ?! ?! ?! ?! ?! ?! ?! ?! ?! ?! ?! ?! ?! ?! ?! ?! ?! ?! ?! ?! ?! ?! ?! ?! ?! ?! ?! ?! ?! ?! ?! ?! ?! ?! ?! ?! ?! ?! ?! ?! ?! ?! ?! ?! ?! 1! 1! ?! ?! l  l  s  s  L# L# D# D# A# A# 6# 6# L! L! ?! ?! ?! ?! ?! ?! ?! ?! ?! ?! ?! ?! ?! ?! ?! ?! ?! ?! ?! ?! ?! ?! ?! ?! ?! ?! ?! ?! ?! ?! ?! ?! ?! ?! ?! ?! ?! ?! ?! ?! ?! ?! ?! ?! ?! ?! ?! ?! ?! ?! ?! ?! ?! 8! 8! 8! 8! ?! ?! ?! ?! ?! ?! ?! ?! ?! ?! ?! ?! ?! ?! ?! ?! ?! ?! ?! ?! ?! ?! ?! ?! ?! ?! ?! ?! ?! ?! ?! ?! ?! ?! ?! ?! ?! ?! ?! ?! 8! 8! 6! 6! 5! 5! 4! 4! 6! 6! 0! 0! 6! ?! ?! ?! ?! N! N! 6# 6# E# E# M# ",
"L# E# E# =# =# 6# 6# E! E! ?! ?! ?! ?! ?! ?! ?! ?! ?! ?! ?! ?! ?! ?! ?! ?! ?! ?! ?! ?! ?! ?! ?! ?! ?! ?! ?! ?! ?! ?! ?! ?! ?! ?! ?! ?! ?! ?! ?! ?! ?! ?! ?! ?! ?! ?! ?! ?! ?! ?! ?! ?! ?! ?! ?! ?! ?! ?! ?! ?! ?! ?! ?! ?! ?! ?! ?! ?! ?! ?! ?! ?! ?! ?! ?! ?! ?! ?! ?! ?! ?! ?! ?! ?! ?! ?! ?! ?! ?! ?! ?! ?! ?! ?! ?! ?! ?! ?! ?! ?! ?! ?! ?! ?! ?! ?! ?! ?! 1! 1! ?! ?! l  l  s  s  L# L# D# D# A# A# 6# 6# L! L! ?! ?! ?! ?! ?! ?! ?! ?! ?! ?! ?! ?! ?! ?! ?! ?! ?! ?! ?! ?! ?! ?! ?! ?! ?! ?! ?! ?! ?! ?! ?! ?! ?! ?! ?! ?! ?! ?! ?! ?! ?! ?! ?! ?! ?! ?! ?! ?! ?! ?! ?! ?! ?! 8! 8! 8! 8! ?! ?! ?! ?! ?! ?! ?! ?! ?! ?! ?! ?! ?! ?! ?! ?! ?! ?! ?! ?! ?! ?! ?! ?! ?! ?! ?! ?! ?! ?! ?! ?! ?! ?! ?! ?! ?! ?! ?! ?! 8! 8! 6! 6! 5! 5! 4! 4! 6! 6! 0! 0! 6! ?! ?! ?! ?! m! m! =# =# F# F# M# ",
"L# E# E# =# =# 6# 6# E! E! ?! ?! ?! ?! ?! ?! ?! ?! ?! ?! ?! ?! ?! ?! ?! ?! ?! ?! ?! ?! ?! ?! ?! ?! ?! ?! ?! ?! ?! ?! ?! ?! ?! ?! ?! ;! ;! 5! 5! 4! 4! 4! 4! 5! 5! ,! ,! ,! ,! 6! 6! -! -! (! (! *! *! 6! 6! 6! 6! ?! ?! ?! ?! ?! ?! ?! ?! ?! ?! ?! ?! ?! ?! ?! ?! ?! ?! 8! 8! 8! 8! ?! ?! ?! ?! ?! ?! ?! ?! ?! ?! ?! ?! ?! ?! ?! ?! ?! ?! ?! ?! ?! ?! ?! ?! ?! 8! 8! ?! ?! l  l  s  s  L# L# E# E# =# =# 6# 6# E! E! ?! ?! ?! ?! ?! ?! ?! ?! ?! ?! ?! ?! ?! ?! ?! ?! ?! ?! ?! ?! ?! ?! ?! ?! ?! ?! ?! ?! ?! ?! ?! ?! ?! ?! ?! ?! ?! ?! ?! ?! ?! 6! 6! ?! ?! ?! ?! ?! ?! ?! ?! ?! ?! ?! ?! ?! ?! ?! ?! ?! ?! ?! ?! ?! ?! ?! ?! 8! 8! 6! 6! 6! 6! 5! 5! 4! 4! 6! 6! 5! 5! 6! 6! 8! 8! ?! ?! ?! ?! ?! ?! ?! ?! ?! ?! ?! ?! ?! ?! ?! ?! ?! ?! ?! ?! ?! ?! ?! ?! ?! ?! ?! ?! ?! m! m! =# =# F# F# M# ",
"L# E# E# =# =# 7# 7# C! C! ?! ?! ?! ?! ?! ?! ?! ?! ?! ?! ?! ?! ?! ?! ?! ?! ?! ?! ?! ?! ?! ?! ?! ?! ?! ?! ?! ?! ?! ?! ?! ?! ?! ?! ?! ;! ;! 5! 5! 4! 4! 4! 4! 5! 5! ,! ,! ,! ,! 6! 6! -! -! (! (! *! *! 6! 6! 6! 6! ?! ?! ?! ?! ?! ?! ?! ?! ?! ?! ?! ?! ?! ?! ?! ?! ?! ?! 8! 8! 8! 8! ?! ?! ?! ?! ?! ?! ?! ?! ?! ?! ?! ?! ?! ?! ?! ?! ?! ?! ?! ?! ?! ?! ?! ?! ?! 8! 8! ?! ?! l  l  s  s  L# L# E# E# =# =# 6# 6# E! E! ?! ?! ?! ?! ?! ?! ?! ?! ?! ?! ?! ?! ?! ?! ?! ?! ?! ?! ?! ?! ?! ?! ?! ?! ?! ?! ?! ?! ?! ?! ?! ?! ?! ?! ?! ?! ?! ?! ?! ?! ?! 6! 6! ?! ?! ?! ?! ?! ?! ?! ?! ?! ?! ?! ?! ?! ?! ?! ?! ?! ?! ?! ?! ?! ?! ?! ?! 8! 8! 6! 6! 6! 6! 5! 5! 4! 4! 6! 6! 5! 5! 6! 6! 8! 8! ?! ?! ?! ?! ?! ?! ?! ?! ?! ?! ?! ?! ?! ?! ?! ?! ?! ?! ?! ?! ?! ?! ?! ?! ?! ?! ?! B! B! 1# 1# A# A# D# D# N# ",
"L# E# E# =# =# 7# 7# C! C! ?! ?! ?! ?! ?! ?! ?! ?! ?! ?! ?! 6! 6! $! $! ,! ,! 6! 6! ?! ?! ?! ?! ?! ?! ?! ?! ?! ?! ?! ?! ?! ?! ?! ?! ?! ?! ?! ?! ?! ?! ?! ?! ?! ?! ?! ?! ?! ?! ?! ?! ?! ?! ?! ?! ?! ?! ?! ?! ?! ?! ?! ?! ?! ?! ?! ?! ?! ?! ?! ?! ?! ?! ?! ?! ?! ?! ?! ?! ?! ?! ?! ?! ?! ?! ?! ?! ?! ?! ?! ?! ?! ?! ?! ?! ?! ?! ?! ?! ?! ?! ?! ?! 1! 1! 6! 6! 6! ?! ?! ?! ?! s  s  s  s  L# L# E# E# =# =# 7# 7# C! C! ?! ?! ?! ?! ?! ?! ?! ?! ?! ?! ?! ?! ?! ?! ?! ?! ?! ?! ?! ?! ?! ?! ?! ?! ?! ?! ?! ?! ?! 5! 5! ,! ,! (! (! (! (! &! &! $! $! 0! 0! 5! 5! (! (! ,! ,! &! &! 0! 0! ,! ,! y  y  ~  ~   !  ! '! '! $! $! -! -! (! (! $! $! ~  ~  (! (! ~  ~  (! (! 8! 8! ?! ?! ?! ?! ?! ?! ?! ?! ?! ?! ?! ?! ?! ?! ?! ?! ?! ?! ?! ?! ?! ?! ?! ?! ?! ?! ?! ?! ?! ?! ?! B! B! 1# 1# A# A# D# D# N# ",
"N# F# F# =# =# 9# 9# A! A! ?! ?! ?! ?! ?! ?! ?! ?! ?! ?! ?! 6! 6! $! $! ,! ,! 6! 6! ?! ?! ?! ?! ?! ?! ?! ?! ?! ?! ?! ?! ?! ?! ?! ?! ?! ?! ?! ?! ?! ?! ?! ?! ?! ?! ?! ?! ?! ?! ?! ?! ?! ?! ?! ?! ?! ?! ?! ?! ?! ?! ?! ?! ?! ?! ?! ?! ?! ?! ?! ?! ?! ?! ?! ?! ?! ?! ?! ?! ?! ?! ?! ?! ?! ?! ?! ?! ?! ?! ?! ?! ?! ?! ?! ?! ?! ?! ?! ?! ?! ?! ?! ?! 1! 1! 6! 6! 6! ?! ?! ?! ?! s  s  s  s  L# L# E# E# =# =# 7# 7# C! C! ?! ?! ?! ?! ?! ?! ?! ?! ?! ?! ?! ?! ?! ?! ?! ?! ?! ?! ?! ?! ?! ?! ?! ?! ?! ?! ?! ?! ?! 5! 5! ,! ,! (! (! (! (! &! &! $! $! 0! 0! 5! 5! (! (! ,! ,! &! &! 0! 0! ,! ,! y  y  ~  ~   !  ! '! '! $! $! -! -! (! (! $! $! ~  ~  (! (! ~  ~  (! (! 8! 8! ?! ?! ?! ?! ?! ?! ?! ?! ?! ?! ?! ?! ?! ?! ?! ?! ?! ?! ?! ?! ?! ?! ?! ?! ?! ?! ?! ?! ?! ?! ?! E! E! 3# 3# C# C# D# D# N# ",
"N# F# F# =# =# 9# 9# A! A! ?! ?! ?! ?! ?! ?! ?! ?! ?! ?! ?! ?! ?! ?! ?! ?! ?! ?! ?! ?! ?! ?! ?! 8! 8! ?! ?! ?! ?! ?! ?! ?! ?! ?! ?! ?! ?! ?! ?! ?! ?! ?! ?! 8! 8! ?! ?! ?! ?! ?! ?! ?! ?! ?! ?! ?! ?! ;! ;! ?! ?! ?! ?! ?! ?! ?! ?! ?! ?! ?! ?! ?! ?! ?! ?! ?! ?! ?! ?! 5! 5! ~  ~   !  ! ~  ~  $! $! 0! 0! 5! 5! 0! 0! 6! 6! 8! 8! 8! 8! 8! 8! ?! ?! ?! ?! ?! ?! ?! ?! ?! n  n  s  s  N# N# F# F# =# =# 9# 9# A! A! ?! ?! ?! ?! ?! ?! ?! ?! ?! ?! ?! ?! ?! ?! ?! 8! 8! 8! 8! 8! 8! ?! ?! ?! ?! ?! ?! ?! ?! ?! ?! 8! 8! 8! 8! 6! 6! 8! 8! 8! 8! 8! 8! ?! ?! ?! ?! ?! ?! ?! ?! ?! ?! ?! ?! ?! ?! ?! ?! ?! ?! ?! ?! ?! ?! ?! ?! ?! ?! ?! ?! ?! ?! ?! ?! ?! ?! ?! ?! ?! ?! ?! ?! ?! ?! ?! ?! ?! ?! ?! ?! ?! ?! ?! ?! ?! ?! ?! ?! ?! ?! ?! ?! ?! ?! ?! ?! ?! ?! ?! ?! ?! E! E! 3# 3# C# C# D# D# N# ",
"L# E# E# =# =# 3# 3# ?! ?! ?! ?! ?! ?! ?! ?! ?! ?! ?! ?! ?! ?! ?! ?! ?! ?! ?! ?! ?! ?! ?! ?! ?! 8! 8! ?! ?! ?! ?! ?! ?! ?! ?! ?! ?! ?! ?! ?! ?! ?! ?! ?! ?! 8! 8! ?! ?! ?! ?! ?! ?! ?! ?! ?! ?! ?! ?! ;! ;! ?! ?! ?! ?! ?! ?! ?! ?! ?! ?! ?! ?! ?! ?! ?! ?! ?! ?! ?! ?! 5! 5! ~  ~   !  ! ~  ~  $! $! 0! 0! 5! 5! 0! 0! 6! 6! 8! 8! 8! 8! 8! 8! ?! ?! ?! ?! ?! ?! ?! ?! ?! n  n  s  s  N# N# F# F# =# =# 9# 9# A! A! ?! ?! ?! ?! ?! ?! ?! ?! ?! ?! ?! ?! ?! ?! ?! 8! 8! 8! 8! 8! 8! ?! ?! ?! ?! ?! ?! ?! ?! ?! ?! 8! 8! 8! 8! 6! 6! 8! 8! 8! 8! 8! 8! ?! ?! ?! ?! ?! ?! ?! ?! ?! ?! ?! ?! ?! ?! ?! ?! ?! ?! ?! ?! ?! ?! ?! ?! ?! ?! ?! ?! ?! ?! ?! ?! ?! ?! ?! ?! ?! ?! ?! ?! ?! ?! ?! ?! ?! ?! ?! ?! ?! ?! ?! ?! ?! ?! ?! ?! ?! ?! ?! ?! ?! ?! ?! ?! ?! ?! ?! ?! ?! F! F! =# =# E# E# D# D# N# ",
"L# E# E# =# =# 3# 3# ?! ?! ?! ?! ?! ?! ?! ?! ?! ?! ?! ?! ?! 8! 8! 1! 1!  !  ! 8! 8! ?! ?! ?! ?! ?! ?! ?! ?! ?! ?! ?! ?! 5! 5! 5! 5! 0! 0! 4! 4! 1! 1! ?! ?! ?! ?! ?! ?! ?! ?! 8! 8! 1! 1! 1! 1! ?! ?! ?! ?! ?! ?! ?! ?! ?! ?! ?! ?! ?! ?! ?! ?! ?! ?! ?! ?! ?! ?! ?! ?! ?! ?! ?! ?! ?! ?! ?! ?! ?! ?! ?! ?! ?! ?! ?! ?! ?! ?! ?! ?! ?! ?! ?! ?! ?! ?! ?! ?! ?! ?! ?! ?! ?! s  s  s  s  L# L# E# E# =# =# 3# 3# ?! ?! ?! ?! ?! ?! ?! ?! ?! ?! ?! ?! ?! ?! ?! ?! ?! ?! ?! ?! ?! ?! ?! ?! ?! ?! ?! ?! ?! ?! ?! ?! ?! ?! ?! ?! ?! ?! ?! ?! ?! ?! ?! ?! ?! ?! ?! ?! ?! ?! ?! ?! ?! ?! ?! ?! ?! ?! ?! ?! ?! ?! ?! ?! ?! ?! ?! ?! ?! ?! ?! ?! ?! ?! ?! ?! ?! ?! ?! ?! ?! ?! ?! ?! ?! ?! ?! ?! ?! ?! ?! ?! ?! ?! ?! ?! ?! ?! ?! ?! ?! ?! ?! ?! ?! ?! ?! ?! ?! ?! ?! ?! ?! ?! F! F! =# =# E# E# D# D# N# ",
"L# D# D# 9# 9# 7# 7# A! A! ?! ?! ?! ?! ?! ?! ?! ?! ?! ?! ?! 8! 8! 1! 1!  !  ! 8! 8! ?! ?! ?! ?! ?! ?! ?! ?! ?! ?! ?! ?! 5! 5! 5! 5! 0! 0! 4! 4! 1! 1! ?! ?! ?! ?! ?! ?! ?! ?! 8! 8! 1! 1! 1! 1! ?! ?! ?! ?! ?! ?! ?! ?! ?! ?! ?! ?! ?! ?! ?! ?! ?! ?! ?! ?! ?! ?! ?! ?! ?! ?! ?! ?! ?! ?! ?! ?! ?! ?! ?! ?! ?! ?! ?! ?! ?! ?! ?! ?! ?! ?! ?! ?! ?! ?! ?! ?! ?! ?! ?! ?! ?! s  s  s  s  L# L# E# E# =# =# 3# 3# ?! ?! ?! ?! ?! ?! ?! ?! ?! ?! ?! ?! ?! ?! ?! ?! ?! ?! ?! ?! ?! ?! ?! ?! ?! ?! ?! ?! ?! ?! ?! ?! ?! ?! ?! ?! ?! ?! ?! ?! ?! ?! ?! ?! ?! ?! ?! ?! ?! ?! ?! ?! ?! ?! ?! ?! ?! ?! ?! ?! ?! ?! ?! ?! ?! ?! ?! ?! ?! ?! ?! ?! ?! ?! ?! ?! ?! ?! ?! ?! ?! ?! ?! ?! ?! ?! ?! ?! ?! ?! ?! ?! ?! ?! ?! ?! ?! ?! ?! ?! ?! ?! ?! ?! ?! ?! ?! ?! ?! ?! ?! ?! ?! ?! J! J! =# =# D# D# D# D# N# ",
"L# D# D# 9# 9# 7# 7# A! A! ?! ?! E! F! F! I! I! N! N! N! N! T! T! T! T! T! T! S! S! S! S! T! T! T! T! N! N! J! J! F! F! C! C! C! C! A! A! ?! ?! ?! ?! ?! ?! ?! ?! ?! ?! ?! ?! ?! ?! ?! ?! ?! ?! ?! ?! B! B! C! C! E! E! F! F! E! E! ?! ?! ?! ?! ?! ?! ?! ?! ?! ?! ?! ?! A! A! C! C! B! B! B! B! A! A! ?! ?! ?! ?! ?! ?! ?! ?! ?! ?! ?! ?! ?! ?! ?! ?! ;! ;! 8! ?! ?! ?! ?! s  s  s  s  L# L# D# D# 9# 9# 7# 7# A! A! ?! ?! ?! ?! ?! ?! ?! ?! ?! ?! ?! ?! ?! ?! ?! ?! ?! ?! ?! ?! ?! ?! ?! ?! ?! ?! ?! ?! ?! ?! ?! ?! ?! ?! ?! ?! ?! ?! ?! ?! ?! ?! ?! ?! ?! ?! ?! ?! ?! ?! ?! 8! 8! 1! 1! 0! 0! 4! 4! 5! 5! 8! 8! 8! 8! ;! ;! ?! ?! ?! ?! ?! ?! ?! ?! ?! ?! ?! ?! ?! ?! ?! ?! ?! ?! ?! ?! ?! ?! ?! ?! ?! ?! ?! ?! ?! ?! B! B! B! B! B! B! C! C! C! C! C! C! C! ?! ?! J! J! =# =# D# D# D# D# N# ",
"L# D# D# =# =# 0# 0# ?! ?! 8! 8! E! F! F! I! I! N! N! N! N! T! T! T! T! T! T! S! S! S! S! T! T! T! T! N! N! J! J! F! F! C! C! C! C! A! A! ?! ?! ?! ?! ?! ?! ?! ?! ?! ?! ?! ?! ?! ?! ?! ?! ?! ?! ?! ?! B! B! C! C! E! E! F! F! E! E! ?! ?! ?! ?! ?! ?! ?! ?! ?! ?! ?! ?! A! A! C! C! B! B! B! B! A! A! ?! ?! ?! ?! ?! ?! ?! ?! ?! ?! ?! ?! ?! ?! ?! ?! ;! ;! 8! ?! ?! ?! ?! s  s  s  s  L# L# D# D# 9# 9# 7# 7# A! A! ?! ?! ?! ?! ?! ?! ?! ?! ?! ?! ?! ?! ?! ?! ?! ?! ?! ?! ?! ?! ?! ?! ?! ?! ?! ?! ?! ?! ?! ?! ?! ?! ?! ?! ?! ?! ?! ?! ?! ?! ?! ?! ?! ?! ?! ?! ?! ?! ?! ?! ?! 8! 8! 1! 1! 0! 0! 4! 4! 5! 5! 8! 8! 8! 8! ;! ;! ?! ?! ?! ?! ?! ?! ?! ?! ?! ?! ?! ?! ?! ?! ?! ?! ?! ?! ?! ?! ?! ?! ?! ?! ?! ?! ?! ?! ?! ?! B! B! B! B! B! B! C! C! C! C! C! C! C! ?! ?! J! J! =# =# D# D# D# D# N# ",
"L# D# D# =# =# 0# 0# ?! ?! 8! 8! Z! j! j! }! }! =# =# D# D# E# E# F# F# F# F# E# E# D# D# D# D# =# =# )# )# r! r! e! e! U! U! W! W! w! w! x! x! $# $#  #  # t! t! r! r! r! r! {! {! )# )# '# '# ;# ;# 9# 9# =# =# =# =# 7# 7# 1# 1# +# +# t! t! `! `! O! O! J! J! F! F! L! L! N! N! N! N! N! N! J! J! J! J! F! F! L! L! E! E! C! C! C! C! C! C! C! C! B! B! B! ?! ?! ?! ?! s  s  s  s  L# L# D# D# =# =# 0# 0# ?! ?! 8! 8! F! F! F! F! F! F! F! F! F! C! C! F! F! J! J! J! J! J! J! F! F! F! F! E! E! E! E! C! C! C! C! C! C! C! C! B! B! B! B! B! B! C! C! F! F! F! F! I! I! I! I! I! I! I! I! J! J! J! J! L! L! N! N! N! N! F! F! E! E! E! E! E! E! C! C! C! C! B! B! B! B! C! C! E! E! E! E! J! J! N! N! L! L! N! N! S! S! T! T! T! T! U! U! Z! Z! N! N! S! ?! ?! J! J! =# =# D# D# D# D# N# ",
"L# D# D# =# =# 1# 1# ?! ?! 5! 5! Z! j! j! }! }! =# =# D# D# E# E# F# F# F# F# E# E# D# D# D# D# =# =# )# )# r! r! e! e! U! U! W! W! w! w! x! x! $# $#  #  # t! t! r! r! r! r! {! {! )# )# '# '# ;# ;# 9# 9# =# =# =# =# 7# 7# 1# 1# +# +# t! t! `! `! O! O! J! J! F! F! L! L! N! N! N! N! N! N! J! J! J! J! F! F! L! L! E! E! C! C! C! C! C! C! C! C! B! B! B! ?! ?! ?! ?! s  s  s  s  L# L# D# D# =# =# 0# 0# ?! ?! 8! 8! F! F! F! F! F! F! F! F! F! C! C! F! F! J! J! J! J! J! J! F! F! F! F! E! E! E! E! C! C! C! C! C! C! C! C! B! B! B! B! B! B! C! C! F! F! F! F! I! I! I! I! I! I! I! I! J! J! J! J! L! L! N! N! N! N! F! F! E! E! E! E! E! E! C! C! C! C! B! B! B! B! C! C! E! E! E! E! J! J! N! N! L! L! N! N! S! S! T! T! T! T! U! U! Z! Z! N! N! S! ?! ?! L! L! =# =# D# D# E# E# M# ",
"L# D# D# =# =# 1# 1# ?! ?! 5! 5! D# F# F# E# E# F# F# H# H# I# I# H# H# H# H# H# H# I# I# H# H# H# H# F# F# H# H# H# H# F# F# E# E# =# =# A# A# A# A# =# =# =# =# =# =# C# C# A# A# E# E# C# C# =# =# =# =# =# =# =# =# 9# 9# =# =# =# =# 7# 7# 7# 7# 6# 6# 5# 5# =# =# 1# 1# 1# 1# 1# 1# 1# 1# 7# 7# 3# 3# 6# 6# 7# 7# 7# 7# =# =# A# A# =# =# =# =# =# =# =# ?! ?! ?! ?! s  s  s  s  L# L# D# D# =# =# 1# 1# ?! ?! 5! 5! ;# 6# 6# 9# 9# 1# 1# 3# 3# 7# 7# 6# 6# ?# ?# =# =# =# =# 7# 7# 7# 7# 4# 4# 1# 1# 1# 1# 1# 1# 3# 3# 1# 1# 3# 3# ,# ,# {! {! ## ## 1# 1# 6# 6# =# =# =# =# =# =# =# =# =# =# 7# 7# 9# 9# =# =# C# C# 7# 7# 9# 9# =# =# 7# 7# 9# 9# 7# 7# 6# 6# 3# 3# 3# 3# 6# 6# :# :# A# A# A# A# =# =# 7# 7# =# =# 9# 9# 6# 6# 3# 3# 1# 1# 1# 1# 1# ?! ?! L! L! =# =# D# D# E# E# M# ",
"L# A# A# =# =# 1# 1# A! A! 1! 1! D# F# F# E# E# F# F# H# H# I# I# H# H# H# H# H# H# I# I# H# H# H# H# F# F# H# H# H# H# F# F# E# E# =# =# A# A# A# A# =# =# =# =# =# =# C# C# A# A# E# E# C# C# =# =# =# =# =# =# =# =# 9# 9# =# =# =# =# 7# 7# 7# 7# 6# 6# 5# 5# =# =# 1# 1# 1# 1# 1# 1# 1# 1# 7# 7# 3# 3# 6# 6# 7# 7# 7# 7# =# =# A# A# =# =# =# =# =# =# =# ?! ?! ?! ?! s  s  s  s  L# L# D# D# =# =# 1# 1# ?! ?! 5! 5! ;# 6# 6# 9# 9# 1# 1# 3# 3# 7# 7# 6# 6# ?# ?# =# =# =# =# 7# 7# 7# 7# 4# 4# 1# 1# 1# 1# 1# 1# 3# 3# 1# 1# 3# 3# ,# ,# {! {! ## ## 1# 1# 6# 6# =# =# =# =# =# =# =# =# =# =# 7# 7# 9# 9# =# =# C# C# 7# 7# 9# 9# =# =# 7# 7# 9# 9# 7# 7# 6# 6# 3# 3# 3# 3# 6# 6# :# :# A# A# A# A# =# =# 7# 7# =# =# 9# 9# 6# 6# 3# 3# 1# 1# 1# 1# 1# ?! ?! L! L! =# =# A# A# E# E# N# ",
"L# A# A# =# =# 1# 1# A! A! 1! 1! I# I# I# J# J# I# I# I# I# I# I# I# I# I# I# I# I# I# I# H# H# F# F# H# H# I# I# H# H# H# H# H# H# H# H# F# F# E# E# E# E# D# D# A# A# D# D# D# D# A# A# C# C# C# C# E# E# D# D# D# D# A# A# C# C# ?# ?# =# =# =# =# =# =# =# =# =# =# A# A# D# D# A# A# D# D# D# D# D# D# E# E# E# E# D# D# F# F# F# F# D# D# C# C# D# D# D# ?! ?! ?! ?! y  y  s  s  L# L# A# A# =# =# 1# 1# A! A! 1! 1! =# 6# 6# 1# 1# 3# 3# 6# 6# 6# 6# A# A# B# B# D# D# D# D# A# A# C# C# C# C# C# C# =# =# =# =# =# =# =# =# =# =# =# =# =# =# 7# 7# 7# 7# 6# 6# 7# 7# =# =# 9# 9# =# =# =# =# =# =# =# =# 7# 7# =# =# 9# 9# =# =# =# =# =# =# =# =# =# =# =# =# 9# 9# =# =# D# D# E# E# I# I# G# G# F# F# E# E# E# E# D# D# C# C# B# B# D# D# D# D# =# ?! ?! L! L! =# =# A# A# E# E# N# ",
"L# =# =# =# =# 3# 3# B! B! 1! 1! I# I# I# J# J# I# I# I# I# I# I# I# I# I# I# I# I# I# I# H# H# F# F# H# H# I# I# H# H# H# H# H# H# H# H# F# F# E# E# E# E# D# D# A# A# D# D# D# D# A# A# C# C# C# C# E# E# D# D# D# D# A# A# C# C# ?# ?# =# =# =# =# =# =# =# =# =# =# A# A# D# D# A# A# D# D# D# D# D# D# E# E# E# E# D# D# F# F# F# F# D# D# C# C# D# D# D# ?! ?! ?! ?! y  y  s  s  L# L# A# A# =# =# 1# 1# A! A! 1! 1! =# 6# 6# 1# 1# 3# 3# 6# 6# 6# 6# A# A# B# B# D# D# D# D# A# A# C# C# C# C# C# C# =# =# =# =# =# =# =# =# =# =# =# =# =# =# 7# 7# 7# 7# 6# 6# 7# 7# =# =# 9# 9# =# =# =# =# =# =# =# =# 7# 7# =# =# 9# 9# =# =# =# =# =# =# =# =# =# =# =# =# 9# 9# =# =# D# D# E# E# I# I# G# G# F# F# E# E# E# E# D# D# C# C# B# B# D# D# D# D# =# ?! ?! J! J! 3# 3# =# =# ># ># N# ",
"L# =# =# =# =# 3# 3# B! B! 1! 1! M# M# M# M# M# M# M# M# M# M# M# M# M# M# M# M# M# M# M# M# M# M# M# M# M# M# M# M# M# M# M# M# M# M# M# N# N# N# N# N# N# N# N# N# N# N# N# N# N# O# O# O# O# O# O# O# O# O# O# O# O# O# O# P# P# P# P# P# P# O# O# O# O# O# O# O# O# N# N# N# N# N# N# N# N# N# N# N# N# N# N# N# N# N# N# M# M# M# M# M# M# M# M# M# M# M# ?! ?! ?! ?! '! '! s  s  L# L# =# =# =# =# 3# 3# B! B! 1! 1! N# N# N# N# N# N# N# N# N# N# N# N# N# N# N# N# N# N# N# N# N# N# N# N# N# N# N# N# N# N# N# N# N# N# N# N# N# N# N# N# N# N# N# N# N# N# N# N# N# N# N# N# N# N# N# N# N# N# N# N# N# O# O# O# O# N# N# N# N# N# N# N# N# N# N# O# O# O# O# N# N# N# N# N# N# N# N# N# N# N# N# N# N# N# N# N# N# N# N# N# N# O# O# O# O# O# O# P# ?! ?! J! J! 3# 3# =# =# ># ># N# ",
"L# =# =# =# =# 6# 6# B! B! ;! ;! M# M# M# M# M# M# M# M# M# M# M# M# M# M# M# M# M# M# M# M# M# M# M# M# M# M# M# M# M# M# M# M# M# M# M# N# N# N# N# N# N# N# N# N# N# N# N# N# N# O# O# O# O# O# O# O# O# O# O# O# O# O# O# P# P# P# P# P# P# O# O# O# O# O# O# O# O# N# N# N# N# N# N# N# N# N# N# N# N# N# N# N# N# N# N# M# M# M# M# M# M# M# M# M# M# M# ?! ?! ?! ?! '! '! s  s  L# L# =# =# =# =# 3# 3# B! B! 1! 1! N# N# N# N# N# N# N# N# N# N# N# N# N# N# N# N# N# N# N# N# N# N# N# N# N# N# N# N# N# N# N# N# N# N# N# N# N# N# N# N# N# N# N# N# N# N# N# N# N# N# N# N# N# N# N# N# N# N# N# N# N# O# O# O# O# N# N# N# N# N# N# N# N# N# N# O# O# O# O# N# N# N# N# N# N# N# N# N# N# N# N# N# N# N# N# N# N# N# N# N# N# O# O# O# O# O# O# P# ?! ?! L! L! 1# 1# 9# 9# D# D# N# ",
"L# =# =# =# =# 6# 6# B! B! ;! ;! w  y  y  !! !! }  }  y  y  s  s  s  s  s  s  w  w  y  y  |  |  |  |  }  }  }  }  y  y  w  w  }  }  }  }  #! #! &! &! !! !! #! #! !! !! !! !! !! !! }  }  !! !! )! )! 2! 2! 4! 4! 3! 3! 7! 7! 7! 7! <! <! =! =! 2! 2! 2! 2! 3! 3! 3! 3! 2! 2! 2! 2! 2! 2! 2! 2! )! )! #! #! #! #! #! #! #! #! %! %! #! #! #! #! )! )! )! )! 4! ?! ?! ?! ?! '! '! s  s  L# L# =# =# =# =# 6# 6# B! B! ;! ;! )! )! )! &! &! %! %! %! %! !! !! !! !! %! %! )! )! #! #! |  |  %! %! %! %! /! /! 3! 3! /! /! )! )! )! )! /! /! 7! 7! 7! 7! )! )! &! &! &! &! %! %! #! #! %! %! )! )! &! &! s  s  s  s  s  s  s  s  s  s  s  s  s  s  s  s  x  x  #! #! !! !! !! !! }  }  !! !! %! %! #! #! !! !! !! !! !! !! }  }  }  }  !! !! !! !! !! !! #! #! #! ?! ?! L! L! 1# 1# 9# 9# D# D# N# ",
"L# A# A# A# A# 9# 9# C! C! ?! ?! w  y  y  !! !! }  }  y  y  s  s  s  s  s  s  w  w  y  y  |  |  |  |  }  }  }  }  y  y  w  w  }  }  }  }  #! #! &! &! !! !! #! #! !! !! !! !! !! !! }  }  !! !! )! )! 2! 2! 4! 4! 3! 3! 7! 7! 7! 7! <! <! =! =! 2! 2! 2! 2! 3! 3! 3! 3! 2! 2! 2! 2! 2! 2! 2! 2! )! )! #! #! #! #! #! #! #! #! %! %! #! #! #! #! )! )! )! )! 4! ?! ?! ?! ?! '! '! s  s  L# L# =# =# =# =# 6# 6# B! B! ;! ;! )! )! )! &! &! %! %! %! %! !! !! !! !! %! %! )! )! #! #! |  |  %! %! %! %! /! /! 3! 3! /! /! )! )! )! )! /! /! 7! 7! 7! 7! )! )! &! &! &! &! %! %! #! #! %! %! )! )! &! &! s  s  s  s  s  s  s  s  s  s  s  s  s  s  s  s  x  x  #! #! !! !! !! !! }  }  !! !! %! %! #! #! !! !! !! !! !! !! }  }  }  }  !! !! !! !! !! !! #! #! #! ?! ?! J! J! +# +# 9# 9# D# D# N# ",
"L# A# A# A# A# 9# 9# C! C! ?! ?! s  s  s  s  s  s  s  s  s  s  s  s  s  s  s  s  s  s  s  s  s  s  s  s  s  s  s  s  s  s  s  e  e  c  c  s  s  s  s  s  s  s  s  s  s  s  s  s  s  s  s  s  s  w  w  s  s  s  s  w  w  w  w  s  s  s  s  s  s  s  s  s  s  s  s  s  s  s  s  s  s  s  s  s  s  s  s  s  s  s  s  s  s  s  s  s  s  s  s  s  s  s  s  s  s  s  ?! ?! ?! ?! s  s  s  s  L# L# A# A# A# A# 9# 9# C! C! ?! ?! s  s  s  s  s  s  s  s  s  s  s  s  s  s  s  s  s  s  s  s  s  s  s  s  s  X  X  c  c  i  i  i  i  }  }  }  }  |  |  }  }  s  s  s  s  s  s  s  s  s  s  s  s  s  s  s  s  s  s  s  s  s  s  s  s  s  s  s  s  s  s  s  s  s  s  s  s  s  s  s  s  s  s  s  s  s  s  s  s  s  s  s  s  s  s  s  s  s  s  s  s  s  s  e  e  >  >  .  ?! ?! J! J! +# +# 9# 9# D# D# N# ",
"L# =# =# A# A# A# A# C! C! ?! ?! s  s  s  s  s  s  s  s  s  s  s  s  s  s  s  s  s  s  s  s  s  s  s  s  s  s  s  s  s  s  s  e  e  c  c  s  s  s  s  s  s  s  s  s  s  s  s  s  s  s  s  s  s  w  w  s  s  s  s  w  w  w  w  s  s  s  s  s  s  s  s  s  s  s  s  s  s  s  s  s  s  s  s  s  s  s  s  s  s  s  s  s  s  s  s  s  s  s  s  s  s  s  s  s  s  s  ?! ?! ?! ?! s  s  s  s  L# L# A# A# A# A# 9# 9# C! C! ?! ?! s  s  s  s  s  s  s  s  s  s  s  s  s  s  s  s  s  s  s  s  s  s  s  s  s  X  X  c  c  i  i  i  i  }  }  }  }  |  |  }  }  s  s  s  s  s  s  s  s  s  s  s  s  s  s  s  s  s  s  s  s  s  s  s  s  s  s  s  s  s  s  s  s  s  s  s  s  s  s  s  s  s  s  s  s  s  s  s  s  s  s  s  s  s  s  s  s  s  s  s  s  s  s  e  e  >  >  .  ?! ?! E! E! 1# 1# =# =# D# D# N# ",
"L# =# =# A# A# A# A# C! C! ?! ?! j  a  a  4! 4! y  y  ?! ?! ?! ?! ?! ?! 9! 9! 8! 8! ?! ?! 4! 4! 1! 1! ?! ?! ?! ?! ?! ?! ?! ?! ?! ?! z  z  N  N  /  /  V  V  s  s  s  s  s  s  s  s  s  s  s  s  s  s  s  s  #! #! 1! 1! 8! 8! ?! ?! ?! ?! ?! ?! ?! ?! ?! ?! 8! 8! *! *! i  i  n  n  '! '! T  T  s  s  s  s  s  s  a  a  X  X  i  i  K  K  G  G  =  =  @  @  8  ?! ?! ?! ?! s  s  s  s  L# L# =# =# A# A# A# A# C! C! ?! ?! s  s  s  s  s  s  s  X  X  4! 4! ?! ?! ?! ?! ?! ?! '! '! `  `  s  s  !! !! ?! ?! ?! ?! ?! ?! ?! ?! ?! ?! ?! ?! ?! ?! ?! ?! ?! ?! ?! ?! ?! ?! ?! ?! ?! ?! 8! 8! 4! 4! }  }  }  }  |  |  p  p  s  s  #! #! '! '! }  }  t  t  X  X  n  n  !! !! `  `  T  T  O  O  X  X  i  i  ?! ?! ?! ?! ?! ?! ?! ?! 4! 4! ~  ~  |  |  8! 8! ?! ?! ?! ?! ?! E! E! 1# 1# =# =# D# D# N# ",
"L# D# D# C# C# D# D# E! E! ?! ?! j  a  a  4! 4! y  y  ?! ?! ?! ?! ?! ?! 9! 9! 8! 8! ?! ?! 4! 4! 1! 1! ?! ?! ?! ?! ?! ?! ?! ?! ?! ?! z  z  N  N  /  /  V  V  s  s  s  s  s  s  s  s  s  s  s  s  s  s  s  s  #! #! 1! 1! 8! 8! ?! ?! ?! ?! ?! ?! ?! ?! ?! ?! 8! 8! *! *! i  i  n  n  '! '! T  T  s  s  s  s  s  s  a  a  X  X  i  i  K  K  G  G  =  =  @  @  8  ?! ?! ?! ?! s  s  s  s  L# L# =# =# A# A# A# A# C! C! ?! ?! s  s  s  s  s  s  s  X  X  4! 4! ?! ?! ?! ?! ?! ?! '! '! `  `  s  s  !! !! ?! ?! ?! ?! ?! ?! ?! ?! ?! ?! ?! ?! ?! ?! ?! ?! ?! ?! ?! ?! ?! ?! ?! ?! ?! ?! 8! 8! 4! 4! }  }  }  }  |  |  p  p  s  s  #! #! '! '! }  }  t  t  X  X  n  n  !! !! `  `  T  T  O  O  X  X  i  i  ?! ?! ?! ?! ?! ?! ?! ?! 4! 4! ~  ~  |  |  8! 8! ?! ?! ?! ?! ?! B! B! 0# 0# =# =# D# D# N# ",
"L# D# D# C# C# D# D# E! E! ?! ?! ?! ?! ?! ?! ?! ?! ?! ?! ?! ?! ?! ?! ?! ?! ?! ?! ?! ?! ?! 6! 6! 6! 6! ?! ?! ?! ?! ?! ?! ?! ?! ?! ?! ?! ?! ?! ?! ?! ?! ?! ?! ?! ?! ?! ?! #! #! x  x  9! 9! ?! ?! ?! ?! ?! ?! ?! ?! ?! ?! ?! ?! ?! ?! ?! ?! ?! ?! ?! ?! ?! ?! ?! ?! ?! ?! ?! ?! ?! ?! ?! ?! ?! ?! ?! ?! x  x  ~  ~  ?! ?! ?! ?! ?! ?! ?! ?! {  {  -  -  6! 6! ?! ?! ?! ?! ?! s  s  s  s  L# L# D# D# C# C# D# D# E! E! ?! ?! ?! 4! 4! ?! ?! ?! ?! ?! ?! ?! ?! ?! ?! ?! ?! ?! ?! ?! ?! ?! ?! ?! ?! 8! 8! ?! ?! ?! ?! ?! ?! ?! ?! ?! ?! ?! ?! ?! ?! ?! ?! ?! ?! ?! ?! ?! ?! ?! ?! ?! ?! ?! ?! ?! ?! ?! ?! ?! ?! ?! ?! ?! ?! ?! ?! ?! ?! ,! ,! ;! ;! ?! ?! ?! ?! ?! ?! ?! ?! ?! ?! ?! ?! ?! ?! ?! ?! ?! ?! ?! ?! ?! ?! ?! ?! ?! ?! ?! ?! ?! ?! ?! ?! ?! ?! ?! ?! ?! ?! ?! B! B! 0# 0# =# =# D# D# N# ",
"L# E# E# D# D# D# D# F! F! ?! ?! ?! ?! ?! ?! ?! ?! ?! ?! ?! ?! ?! ?! ?! ?! ?! ?! ?! ?! ?! 6! 6! 6! 6! ?! ?! ?! ?! ?! ?! ?! ?! ?! ?! ?! ?! ?! ?! ?! ?! ?! ?! ?! ?! ?! ?! #! #! x  x  9! 9! ?! ?! ?! ?! ?! ?! ?! ?! ?! ?! ?! ?! ?! ?! ?! ?! ?! ?! ?! ?! ?! ?! ?! ?! ?! ?! ?! ?! ?! ?! ?! ?! ?! ?! ?! ?! x  x  ~  ~  ?! ?! ?! ?! ?! ?! ?! ?! {  {  -  -  6! 6! ?! ?! ?! ?! ?! s  s  s  s  L# L# D# D# C# C# D# D# E! E! ?! ?! ?! 4! 4! ?! ?! ?! ?! ?! ?! ?! ?! ?! ?! ?! ?! ?! ?! ?! ?! ?! ?! ?! ?! 8! 8! ?! ?! ?! ?! ?! ?! ?! ?! ?! ?! ?! ?! ?! ?! ?! ?! ?! ?! ?! ?! ?! ?! ?! ?! ?! ?! ?! ?! ?! ?! ?! ?! ?! ?! ?! ?! ?! ?! ?! ?! ?! ?! ,! ,! ;! ;! ?! ?! ?! ?! ?! ?! ?! ?! ?! ?! ?! ?! ?! ?! ?! ?! ?! ?! ?! ?! ?! ?! ?! ?! ?! ?! ?! ?! ?! ?! ?! ?! ?! ?! ?! ?! ?! ?! ?! A! A! 3# 3# ;# ;# D# D# L# ",
"L# E# E# D# D# D# D# F! F! ?! ?! *! *! *! 8! 8! ?! ?! ?! ?! ?! ?! ?! ?! ?! ?! ?! ?! ?! ?! ?! ?! ?! ?! ?! ?! ?! ?! ?! ?! ?! ?! ?! ?! ?! ?! ?! ?! ?! ?! ?! ?! ?! ?! ?! ?! ?! ?! ?! ?! ?! ?! ?! ?! ?! ?! ?! ?! ?! ?! ?! ?! ?! ?! ?! ?! ?! ?! ?! ?! ?! ?! ?! ?! ?! ?! ?! ?! ?! ?! ?! ?! ?! ?! ?! ?! ?! ?! ?! ?! ?! ?! ?! ?! ?! ?! ?! ?! ?! ?! ?! ?! ?! ?! ?! ?! ?! ?! ?! ?! ?! s  s  s  s  L# L# E# E# D# D# D# D# F! F! ?! ?! ?! ?! ?! ?! ?! ?! ?! ?! ?! ?! ?! ?! ?! ?! ?! ?! ?! ?! ?! ?! ?! ?! ?! ?! ?! ?! ?! ?! ?! ?! ?! ?! ?! ?! ?! ?! ?! ?! ?! ?! ?! ?! ?! ,! ,! 8! 8! ?! ?! ?! ?! ?! ?! ?! ?! ?! ?! ?! ?! ?! ?! ?! ?! ?! ?! ?! ?! ?! ?! ?! ?! ?! ?! ?! ?! ?! ?! 8! 8! 0! 0! 1! 1! ?! ?! ?! ?! ?! ?! ?! ?! ?! ?! ?! ?! ?! ?! ?! ?! ?! ?! ?! ?! ?! ?! ?! ?! ?! ?! ?! A! A! 3# 3# ;# ;# D# D# L# ",
"L# D# D# D# D# C# C# F! F! ?! ?! *! *! *! 8! 8! ?! ?! ?! ?! ?! ?! ?! ?! ?! ?! ?! ?! ?! ?! ?! ?! ?! ?! ?! ?! ?! ?! ?! ?! ?! ?! ?! ?! ?! ?! ?! ?! ?! ?! ?! ?! ?! ?! ?! ?! ?! ?! ?! ?! ?! ?! ?! ?! ?! ?! ?! ?! ?! ?! ?! ?! ?! ?! ?! ?! ?! ?! ?! ?! ?! ?! ?! ?! ?! ?! ?! ?! ?! ?! ?! ?! ?! ?! ?! ?! ?! ?! ?! ?! ?! ?! ?! ?! ?! ?! ?! ?! ?! ?! ?! ?! ?! ?! ?! ?! ?! ?! ?! ?! ?! s  s  s  s  L# L# E# E# D# D# D# D# F! F! ?! ?! ?! ?! ?! ?! ?! ?! ?! ?! ?! ?! ?! ?! ?! ?! ?! ?! ?! ?! ?! ?! ?! ?! ?! ?! ?! ?! ?! ?! ?! ?! ?! ?! ?! ?! ?! ?! ?! ?! ?! ?! ?! ?! ?! ,! ,! 8! 8! ?! ?! ?! ?! ?! ?! ?! ?! ?! ?! ?! ?! ?! ?! ?! ?! ?! ?! ?! ?! ?! ?! ?! ?! ?! ?! ?! ?! ?! ?! 8! 8! 0! 0! 1! 1! ?! ?! ?! ?! ?! ?! ?! ?! ?! ?! ?! ?! ?! ?! ?! ?! ?! ?! ?! ?! ?! ?! ?! ?! ?! ?! ?! ?! ?! 1# 1# =# =# D# D# L# ",
"L# D# D# D# D# C# C# F! F! ?! ?! ?! ?! ?! ?! ?! ?! ?! ?! ?! ?! ?! ?! ?! ?! ?! ?! ?! ?! ?! ?! ?! ?! ?! ?! ?! ?! ?! ?! ?! ?! ?! ?! ?! ?! ?! ?! ?! ?! ?! ?! ?! 8! 8! 5! 5! ?! ?! ?! ?! ?! ?! ?! ?! ?! ?! ?! ?! ?! ?! ?! ?! ?! ?! ?! ?! ?! ?! ?! ?! ?! ?! ?! ?! ?! ?! 8! 8! 8! 8! ?! ?! 8! 8! 8! 8! ?! ?! ?! ?! ?! ?! ?! ?! ?! ?! 8! 8! 8! 8! ;! ;! 8! 8! ;! ;! 8! ?! ?! ?! ?! n  n  s  s  L# L# D# D# D# D# C# C# F! F! ?! ?! ?! ?! ?! ?! ?! ?! ?! ?! ?! ?! ?! ?! ?! ?! ?! ?! ?! ?! ?! ?! ?! ?! ?! ?! ?! ?! ?! ?! ?! ?! ?! ?! ?! ?! ?! ?! ?! ?! ?! ?! ?! ?! ?! ?! ?! ?! ?! ?! ?! ?! ?! 6! 6! 4! 4! ;! ;! ?! ?! ?! ?! 0! 0! *! *! 8! 8! ?! ?! ?! ?! ?! ?! ?! ?! ?! ?! ?! ?! ?! ?! ?! ?! ?! ?! ?! ?! ?! ?! ?! ?! ?! ?! ?! ?! ?! ?! 8! 8! ?! ?! ?! ?! ?! ?! ?! ?! 8! ?! ?! ?! ?! 1# 1# =# =# D# D# L# ",
"L# C# C# C# C# =# =# F! F! ?! ?! ?! ?! ?! ?! ?! ?! ?! ?! ?! ?! ?! ?! ?! ?! ?! ?! ?! ?! ?! ?! ?! ?! ?! ?! ?! ?! ?! ?! ?! ?! ?! ?! ?! ?! ?! ?! ?! ?! ?! ?! ?! 8! 8! 5! 5! ?! ?! ?! ?! ?! ?! ?! ?! ?! ?! ?! ?! ?! ?! ?! ?! ?! ?! ?! ?! ?! ?! ?! ?! ?! ?! ?! ?! ?! ?! 8! 8! 8! 8! ?! ?! 8! 8! 8! 8! ?! ?! ?! ?! ?! ?! ?! ?! ?! ?! 8! 8! 8! 8! ;! ;! 8! 8! ;! ;! 8! ?! ?! ?! ?! n  n  s  s  L# L# D# D# D# D# C# C# F! F! ?! ?! ?! ?! ?! ?! ?! ?! ?! ?! ?! ?! ?! ?! ?! ?! ?! ?! ?! ?! ?! ?! ?! ?! ?! ?! ?! ?! ?! ?! ?! ?! ?! ?! ?! ?! ?! ?! ?! ?! ?! ?! ?! ?! ?! ?! ?! ?! ?! ?! ?! ?! ?! 6! 6! 4! 4! ;! ;! ?! ?! ?! ?! 0! 0! *! *! 8! 8! ?! ?! ?! ?! ?! ?! ?! ?! ?! ?! ?! ?! ?! ?! ?! ?! ?! ?! ?! ?! ?! ?! ?! ?! ?! ?! ?! ?! ?! ?! 8! 8! ?! ?! ?! ?! ?! ?! ?! ?! 8! ?! ?! ?! ?! '# '# =# =# A# A# L# ",
"L# C# C# C# C# =# =# F! F! ?! ?! ?! ?! ?! ?! ?! ?! ?! ?! ?! ?! ?! ?! ?! ?! ?! ?! ?! ?! ?! ?! ?! ?! ?! ?! ?! ?! ?! ?! ?! ?! ?! ?! ?! ?! ?! ?! ?! ?! ?! ?! ?! ?! ?! ?! ?! ?! ?! ?! ?! ?! ?! ?! ?! ?! ?! 8! 8! 8! 8! ?! ?! 8! 8! 8! 8! 6! 6! 8! 8! 5! 5! 6! 6! 5! 5! 8! 8! 8! 8! ?! ?! ?! ?! ?! ?! ?! ?! ?! ?! ?! ?! ?! ?! ?! ?! ?! ?! ?! ?! ?! ?! ?! ?! ?! ?! ?! ?! ?! ?! ?! ?! ?! s  s  L# L# C# C# C# C# =# =# F! F! ?! ?! ?! ?! ?! ?! ?! ?! ?! ?! ?! ?! ?! ?! ?! ?! ?! ?! ?! ?! ?! ?! ?! ?! ?! ?! ?! ?! ?! ?! ?! ?! ?! ?! ?! ?! ?! ?! ?! 1! 1! 8! 8! ?! ?! ?! ?! ?! ?! ?! ?! ?! ?! ?! ?! ?! ?! ?! ?! ;! ;! 0! 0! ?! ?! ?! ?! ?! ?! ?! ?! ?! ?! ?! ?! ?! ?! ?! ?! ?! ?! ?! ?! ?! ?! 1! 1! 1! 1! 6! 6! ?! ?! ?! ?! 6! 6! ?! ?! ?! ?! ?! ?! ?! ?! (! (! 8! 8! ?! ?! ?! ?! ?! '# '# =# =# A# A# L# ",
"L# =# =# C# C# +# +# C! C! ?! ?! ?! ?! ?! ?! ?! ?! ?! ?! ?! ?! ?! ?! ?! ?! ?! ?! ?! ?! ?! ?! ?! ?! ?! ?! ?! ?! ?! ?! ?! ?! ?! ?! ?! ?! ?! ?! ?! ?! ?! ?! ?! ?! ?! ?! ?! ?! ?! ?! ?! ?! ?! ?! ?! ?! ?! 8! 8! 8! 8! ?! ?! 8! 8! 8! 8! 6! 6! 8! 8! 5! 5! 6! 6! 5! 5! 8! 8! 8! 8! ?! ?! ?! ?! ?! ?! ?! ?! ?! ?! ?! ?! ?! ?! ?! ?! ?! ?! ?! ?! ?! ?! ?! ?! ?! ?! ?! ?! ?! ?! ?! ?! ?! s  s  L# L# C# C# C# C# =# =# F! F! ?! ?! ?! ?! ?! ?! ?! ?! ?! ?! ?! ?! ?! ?! ?! ?! ?! ?! ?! ?! ?! ?! ?! ?! ?! ?! ?! ?! ?! ?! ?! ?! ?! ?! ?! ?! ?! ?! ?! 1! 1! 8! 8! ?! ?! ?! ?! ?! ?! ?! ?! ?! ?! ?! ?! ?! ?! ?! ?! ;! ;! 0! 0! ?! ?! ?! ?! ?! ?! ?! ?! ?! ?! ?! ?! ?! ?! ?! ?! ?! ?! ?! ?! ?! ?! 1! 1! 1! 1! 6! 6! ?! ?! ?! ?! 6! 6! ?! ?! ?! ?! ?! ?! ?! ?! (! (! 8! 8! ?! ?! ?! ?! ?! $# $# =# =# D# D# L# ",
"L# =# =# C# C# +# +# C! C! ?! ?! ?! ?! ?! ?! ?! ?! ?! ?! ?! ?! ?! ?! ?! ?! ?! ?! ?! ?! ?! ?! ?! 8! 8! 5! 5! 0! 0! ,! ,! (! (! 0! 0! 1! 1! 4! 4! ?! ?! ?! ?! ?! ?! ?! ?! ?! ?! ?! ?! ?! ?! ?! ?! ?! ?! ?! ?! ?! ?! ?! ?! ?! ?! ?! ?! ?! ?! ?! ?! ?! ?! ?! ?! ?! ?! ?! ?! ?! ?! ?! ?! ?! ?! ?! ?! ?! ?! ?! ?! ?! ?! ?! ?! ?! ?! ?! ?! ?! ?! ?! ?! ?! ?! ?! ?! ?! ?! ?! ?! ?! ?! ?! s  s  L# L# =# =# C# C# +# +# C! C! ?! ?! ?! ?! ?! ?! ?! ?! ?! ?! ?! ?! ?! ?! ?! ?! ?! ?! ?! ?! ?! ?! ?! ?! ?! ?! ?! ?! ?! ?! ?! 5! 5! ?! ?! ?! ?! ?! ?! ?! ?! ?! ?! ?! ?! ?! ?! ?! ?! ?! ?! ?! ?! ?! ?! ?! ?! ?! ?! ?! ?! ?! ?! ?! ?! ?! ?! ?! ?! ,! ,! 8! 8! ?! ?! ?! ?! ?! ?! ?! ?! ?! ?! ?! ?! 0! 0!  !  ! ~  ~  ,! ,! 6! 6! ?! ?! ?! ?! ?! ?! ?! ?! ?! ?! 8! 8! 8! 8! ?! ?! ?! ?! ?! $# $# =# =# D# D# L# ",
"L# =# =# C# C# t! t! @! @! ?! ?! ?! ?! ?! ?! ?! ?! ?! ?! ?! ?! ?! ?! ?! ?! ?! ?! ?! ?! ?! ?! ?! 8! 8! 5! 5! 0! 0! ,! ,! (! (! 0! 0! 1! 1! 4! 4! ?! ?! ?! ?! ?! ?! ?! ?! ?! ?! ?! ?! ?! ?! ?! ?! ?! ?! ?! ?! ?! ?! ?! ?! ?! ?! ?! ?! ?! ?! ?! ?! ?! ?! ?! ?! ?! ?! ?! ?! ?! ?! ?! ?! ?! ?! ?! ?! ?! ?! ?! ?! ?! ?! ?! ?! ?! ?! ?! ?! ?! ?! ?! ?! ?! ?! ?! ?! ?! ?! ?! ?! ?! ?! ?! s  s  L# L# =# =# C# C# +# +# C! C! ?! ?! ?! ?! ?! ?! ?! ?! ?! ?! ?! ?! ?! ?! ?! ?! ?! ?! ?! ?! ?! ?! ?! ?! ?! ?! ?! ?! ?! ?! ?! 5! 5! ?! ?! ?! ?! ?! ?! ?! ?! ?! ?! ?! ?! ?! ?! ?! ?! ?! ?! ?! ?! ?! ?! ?! ?! ?! ?! ?! ?! ?! ?! ?! ?! ?! ?! ?! ?! ,! ,! 8! 8! ?! ?! ?! ?! ?! ?! ?! ?! ?! ?! ?! ?! 0! 0!  !  ! ~  ~  ,! ,! 6! 6! ?! ?! ?! ?! ?! ?! ?! ?! ?! ?! 8! 8! 8! 8! ?! ?! ?! ?! ?! }! }! 9# 9# D# D# L# ",
"L# =# =# C# C# t! t! @! @! ?! ?! ?! ?! ?! ?! ?! ?! ?! ?! ?! ?! ?! ?! ?! ?! ?! ?! ?! ?! ?! ?! ?! ?! ?! ?! ?! ?! ?! ?! ?! ?! ?! ?! ?! ?! ?! ?! ?! ?! ?! ?! ?! ?! ?! ?! ?! ?! ?! ?! ?! ?! ?! ?! ?! (! (! ,! ,! ?! ?! ?! ?! ?! ?! ?! ?! ?! ?! ?! ?! ?! ?! ?! ?! ?! ?! ?! ?! ?! ?! 0! 0! 4! 4! 8! 8! ?! ?! ?! ?! ?! ?! ?! ?! ?! ?! ?! ?! ?! ?! ?! ?! ?! ?! ?! ?! ?! ?! ?! ?! ?! ?! ?! s  s  L# L# =# =# C# C# t! t! @! @! ?! ?! ?! ?! ?! ?! ?! ?! ?! ?! ?! ?! ?! ?! ?! ?! ?! ?! ?! ?! ?! ?! ?! ?! ?! ?! ?! 8! 8! ;! ;! 8! 8! 6! 6! (! (! ?! ?! ?! ?! ?! ?! ?! ?! ?! ?! ?! ?! 8! 8! 1! 1! ?! ?! ?! ?! ?! ?! ?! ?! 8! 8! -! -! $! $!  !  ! 5! 5! ?! ?! ?! ?! ?! ?! ?! ?! ?! ?! 6! 6! (! (! 1! 1! 8! 8! ?! ?! ?! ?! ?! ?! ?! ?! ?! ?! ?! ?! ?! ?! ?! ?! ?! ?! ?! ?! ?! ?! ?! ?! ?! }! }! 9# 9# D# D# L# ",
"L# 9# 9# =# =# ^! ^! :! :! ?! ?! ?! ?! ?! ?! ?! ?! ?! ?! ?! ?! ?! ?! ?! ?! ?! ?! ?! ?! ?! ?! ?! ?! ?! ?! ?! ?! ?! ?! ?! ?! ?! ?! ?! ?! ?! ?! ?! ?! ?! ?! ?! ?! ?! ?! ?! ?! ?! ?! ?! ?! ?! ?! ?! (! (! ,! ,! ?! ?! ?! ?! ?! ?! ?! ?! ?! ?! ?! ?! ?! ?! ?! ?! ?! ?! ?! ?! ?! ?! 0! 0! 4! 4! 8! 8! ?! ?! ?! ?! ?! ?! ?! ?! ?! ?! ?! ?! ?! ?! ?! ?! ?! ?! ?! ?! ?! ?! ?! ?! ?! ?! ?! s  s  L# L# =# =# C# C# t! t! @! @! ?! ?! ?! ?! ?! ?! ?! ?! ?! ?! ?! ?! ?! ?! ?! ?! ?! ?! ?! ?! ?! ?! ?! ?! ?! ?! ?! 8! 8! ;! ;! 8! 8! 6! 6! (! (! ?! ?! ?! ?! ?! ?! ?! ?! ?! ?! ?! ?! 8! 8! 1! 1! ?! ?! ?! ?! ?! ?! ?! ?! 8! 8! -! -! $! $!  !  ! 5! 5! ?! ?! ?! ?! ?! ?! ?! ?! ?! ?! 6! 6! (! (! 1! 1! 8! 8! ?! ?! ?! ?! ?! ?! ?! ?! ?! ?! ?! ?! ?! ?! ?! ?! ?! ?! ?! ?! ?! ?! ?! ?! ?! x! x! 6# 6# D# D# L# ",
"L# 9# 9# =# =# ^! ^! :! :! ?! ?! ?! ?! ?! ?! ?! ?! ?! ?! ?! 8! 8! 5! 5! 1! 1! 1! 1! ;! ;! ?! ?! ?! ?! ?! ?! ?! ?! ?! ?! ?! ?! ?! ?! ?! ?! ?! ?! ?! ?! ?! ?! ?! ?! ?! ?! ?! ?! ?! ?! ?! ?! B! B! C! C! C! C! C! C! C! C! ?! ?! ?! ?! ?! ?! ?! ?! ?! ?! 6! 6! 4! 4! 0! 0! '! '! 1! 1! 5! 5! 6! 6! ?! ?! ;! ;! ?! ?! ?! ?! ?! ?! ?! ?! ?! ?! ?! ?! ?! ?! ?! ?! ?! ?! ?! ?! ?! ?! ?! s  s  L# L# 9# 9# =# =# ^! ^! :! :! ?! ?! ?! ?! ?! ?! ?! ?! ?! ?! ?! ?! ?! ?! ?! ?! ?! ?! ?! ?! ?! ?! ?! ?! ?! ?! ?! ?! ?! ?! ?! ?! ?! ?! ?! ?! ?! ?! ?! ?! ?! ?! ?! ?! ?! ?! ?! ?! ?! ?! ?! ?! ?! ?! ?! ?! ?! ?! ?! ?! ?! ?! ?! ?! ?! ;! ;! ;! ;! ?! ?! ?! ?! ?! ?! ?! ?! ?! ?! ?! ?! ?! ?! ?! ?! ?! ?! ?! ?! ?! ?! ?! ?! ?! ?! ?! ?! ?! ?! ?! ?! ?! ?! ?! ?! ?! ?! ?! ?! ?! ?! ?! ?! ?! x! x! 6# 6# D# D# L# ",
"L# =# =# C# C# W! W! :! :! ?! ?! ?! ?! ?! ?! ?! ?! ?! ?! ?! 8! 8! 5! 5! 1! 1! 1! 1! ;! ;! ?! ?! ?! ?! ?! ?! ?! ?! ?! ?! ?! ?! ?! ?! ?! ?! ?! ?! ?! ?! ?! ?! ?! ?! ?! ?! ?! ?! ?! ?! ?! ?! B! B! C! C! C! C! C! C! C! C! ?! ?! ?! ?! ?! ?! ?! ?! ?! ?! 6! 6! 4! 4! 0! 0! '! '! 1! 1! 5! 5! 6! 6! ?! ?! ;! ;! ?! ?! ?! ?! ?! ?! ?! ?! ?! ?! ?! ?! ?! ?! ?! ?! ?! ?! ?! ?! ?! ?! ?! s  s  L# L# 9# 9# =# =# ^! ^! :! :! ?! ?! ?! ?! ?! ?! ?! ?! ?! ?! ?! ?! ?! ?! ?! ?! ?! ?! ?! ?! ?! ?! ?! ?! ?! ?! ?! ?! ?! ?! ?! ?! ?! ?! ?! ?! ?! ?! ?! ?! ?! ?! ?! ?! ?! ?! ?! ?! ?! ?! ?! ?! ?! ?! ?! ?! ?! ?! ?! ?! ?! ?! ?! ?! ?! ;! ;! ;! ;! ?! ?! ?! ?! ?! ?! ?! ?! ?! ?! ?! ?! ?! ?! ?! ?! ?! ?! ?! ?! ?! ?! ?! ?! ?! ?! ?! ?! ?! ?! ?! ?! ?! ?! ?! ?! ?! ?! ?! ?! ?! ?! ?! ?! ?! t! t! 6# 6# D# D# L# ",
"L# =# =# C# C# W! W! :! :! ?! ?! E! C! C! A! A! ?! ?! A! A! ?! ?! ?! ?! A! A! B! B! B! B! C! C! C! C! E! E! F! F! F! F! F! F! C! C! @! @! :! :! :! :! B! B! B! B! B! B! B! B! C! C! F! F! Y! Y! ,# ,# %# %# _! _! ]! ]! T! T! L! L! F! F! C! C! ?! ?! ?! ?! ?! ?! ?! ?! ?! ?! ?! ?! ?! ?! ?! ?! ?! ?! ?! ?! ?! ?! ?! ?! ?! ?! ?! ?! ?! ?! ?! ?! ?! ?! ?! ?! ?! ?! ?! ?! ?! ?! ?! s  s  L# L# =# =# C# C# W! W! :! :! ?! ?! ?! ?! ?! ?! ?! ?! ?! ?! ?! ?! ?! ?! ?! ?! ?! ?! ?! ;! ;! ?! ?! 0! 0! 6! 6! 1! 1! 5! 5! 6! 6! 8! 8! 8! 8! 8! 8! ;! ;! 8! 8! 8! 8! 8! 8! 5! 5! 8! 8! ?! ?! ?! ?! 8! 8! '! '! ?! ?! ?! ?! ?! ?! ?! ?! ?! ?! ?! ?! ?! ?! ?! ?! ?! ?! ?! ?! ?! ?! ?! ?! A! A! B! B! E! E! J! J! L! L! J! J! L! L! L! L! J! J! J! J! F! F! E! E! B! B! ?! ?! ?! ?! ?! t! t! 6# 6# D# D# L# ",
"L# =# =# C# C# W! W! B! B! ?! ?! E! C! C! A! A! ?! ?! A! A! ?! ?! ?! ?! A! A! B! B! B! B! C! C! C! C! E! E! F! F! F! F! F! F! C! C! @! @! :! :! :! :! B! B! B! B! B! B! B! B! C! C! F! F! Y! Y! ,# ,# %# %# _! _! ]! ]! T! T! L! L! F! F! C! C! ?! ?! ?! ?! ?! ?! ?! ?! ?! ?! ?! ?! ?! ?! ?! ?! ?! ?! ?! ?! ?! ?! ?! ?! ?! ?! ?! ?! ?! ?! ?! ?! ?! ?! ?! ?! ?! ?! ?! ?! ?! ?! ?! s  s  L# L# =# =# C# C# W! W! :! :! ?! ?! ?! ?! ?! ?! ?! ?! ?! ?! ?! ?! ?! ?! ?! ?! ?! ?! ?! ;! ;! ?! ?! 0! 0! 6! 6! 1! 1! 5! 5! 6! 6! 8! 8! 8! 8! 8! 8! ;! ;! 8! 8! 8! 8! 8! 8! 5! 5! 8! 8! ?! ?! ?! ?! 8! 8! '! '! ?! ?! ?! ?! ?! ?! ?! ?! ?! ?! ?! ?! ?! ?! ?! ?! ?! ?! ?! ?! ?! ?! ?! ?! A! A! B! B! E! E! J! J! L! L! J! J! L! L! L! L! J! J! J! J! F! F! E! E! B! B! ?! ?! ?! ?! ?! Z! Z! 1# 1# B# B# L# ",
"L# =# =# C# C# W! W! B! B! ?! ?! 6# 7# 7# 9# 9# 3# 3# 7# 7# 0# 0# 1# 1# 1# 1# 3# 3# 6# 6# 9# 9# A# A# D# D# D# D# C# C# =# =# +# +# t! t! ^! ^! W! W! W! W! c! c! {! {! 4# 4# 3# 3# =# =# B# B# I# I# I# I# F# F# F# F# E# E# D# D# D# D# =# =# 9# 9# {! {! S! S! J! J! A! A! ?! ?! ?! ?! ?! ?! ?! ?! ?! ?! ?! ?! ?! ?! ?! ?! ?! ?! ?! ?! ?! ?! ?! ?! ?! ?! ?! ?! ?! ?! ?! '! '! s  s  L# L# =# =# C# C# W! W! B! B! ?! ?! C! C! C! C! C! F! F! G! G! L! L! ^! ^! {! {! :# :# C# C# D# D# D# D# =# =# 6# 6# 2# 2# j! j! Z! Z! W! W! S! S! L! L! F! F! B! B! ?! ?! ?! ?! ?! ?! ?! ?! ?! ?! ?! ?! ?! ?! ?! ?! ?! ?! ?! ?! ?! ?! B! B! Z! Z! t! t! x! x! }! }! $# $# '# '# 1# 1# 3# 3# 0# 0# 1# 1# +# +# 1# 1# 3# 3# =# =# =# =# =# =# =# =# =# =# 3# 3# 1# 1# m! ?! ?! ?! ?! Z! Z! 1# 1# B# B# L# ",
"L# =# =# C# C# c! c! B! B! ?! ?! 6# 7# 7# 9# 9# 3# 3# 7# 7# 0# 0# 1# 1# 1# 1# 3# 3# 6# 6# 9# 9# A# A# D# D# D# D# C# C# =# =# +# +# t! t! ^! ^! W! W! W! W! c! c! {! {! 4# 4# 3# 3# =# =# B# B# I# I# I# I# F# F# F# F# E# E# D# D# D# D# =# =# 9# 9# {! {! S! S! J! J! A! A! ?! ?! ?! ?! ?! ?! ?! ?! ?! ?! ?! ?! ?! ?! ?! ?! ?! ?! ?! ?! ?! ?! ?! ?! ?! ?! ?! ?! ?! ?! ?! '! '! s  s  L# L# =# =# C# C# W! W! B! B! ?! ?! C! C! C! C! C! F! F! G! G! L! L! ^! ^! {! {! :# :# C# C# D# D# D# D# =# =# 6# 6# 2# 2# j! j! Z! Z! W! W! S! S! L! L! F! F! B! B! ?! ?! ?! ?! ?! ?! ?! ?! ?! ?! ?! ?! ?! ?! ?! ?! ?! ?! ?! ?! ?! ?! B! B! Z! Z! t! t! x! x! }! }! $# $# '# '# 1# 1# 3# 3# 0# 0# 1# 1# +# +# 1# 1# 3# 3# =# =# =# =# =# =# =# =# =# =# 3# 3# 1# 1# m! ;! ;! ?! ?! B! B! 3# 3# =# =# L# ",
"L# =# =# C# C# c! c! B! B! ?! ?! =# =# =# =# =# =# =# 9# 9# =# =# =# =# =# =# =# =# =# =# A# A# A# A# C# C# D# D# D# D# C# C# C# C# C# C# =# =# C# C# C# C# C# C# =# =# B# B# C# C# D# D# H# H# K# K# H# H# F# F# E# E# =# =# =# =# =# =# =# =# =# =# =# =# =# =# ?# ?# C# C# 7# 7# =# =# D# D# C# C# C# C# 9# 9# =# =# 7# 7# 7# 7# 7# 7# 3# 3# 8# 8# 8# 8# C# ?! ?! ?! ?! Y  Y  s  s  L# L# =# =# C# C# c! c! B! B! ?! ?! =# 9# 9# =# =# =# =# C# C# E# E# E# E# F# F# H# H# I# I# I# I# F# F# E# E# E# E# E# E# D# D# C# C# A# A# 8# 8# =# =# 7# 7# 2# 2# 5# 5# 6# 6# $# $# $# $# ## ## $# $# $# $# ,# ,# 7# 7# C# C# =# =# 3# 3# 1# 1# 6# 6# 6# 6# 9# 9# =# =# =# =# =# =# ;# ;# =# =# =# =# 9# 9# 9# 9# =# =# A# A# D# D# D# D# D# D# E# E# C# C# A# A# =# ;! ;! ?! ?! B! B! 3# 3# =# =# L# ",
"L# =# =# =# =# {! {! B! B! ?! ?! =# =# =# =# =# =# =# 9# 9# =# =# =# =# =# =# =# =# =# =# A# A# A# A# C# C# D# D# D# D# C# C# C# C# C# C# =# =# C# C# C# C# C# C# =# =# B# B# C# C# D# D# H# H# K# K# H# H# F# F# E# E# =# =# =# =# =# =# =# =# =# =# =# =# =# =# ?# ?# C# C# 7# 7# =# =# D# D# C# C# C# C# 9# 9# =# =# 7# 7# 7# 7# 7# 7# 3# 3# 8# 8# 8# 8# C# ?! ?! ?! ?! Y  Y  s  s  L# L# =# =# C# C# c! c! B! B! ?! ?! =# 9# 9# =# =# =# =# C# C# E# E# E# E# F# F# H# H# I# I# I# I# F# F# E# E# E# E# E# E# D# D# C# C# A# A# 8# 8# =# =# 7# 7# 2# 2# 5# 5# 6# 6# $# $# $# $# ## ## $# $# $# $# ,# ,# 7# 7# C# C# =# =# 3# 3# 1# 1# 6# 6# 6# 6# 9# 9# =# =# =# =# =# =# ;# ;# =# =# =# =# 9# 9# 9# 9# =# =# A# A# D# D# D# D# D# D# E# E# C# C# A# A# =# ;! ;! ?! ?! ?! ?! =# =# 9# 9# L# ",
"L# =# =# =# =# {! {! B! B! ?! ?! E# E# E# F# F# E# E# D# D# D# D# D# D# A# A# =# =# =# =# A# A# =# =# D# D# E# E# D# D# C# C# =# =# =# =# 9# 9# =# =# =# =# =# =# =# =# A# A# =# =# =# =# D# D# H# H# F# F# E# E# E# E# E# E# D# D# ># ># =# =# =# =# 7# 7# =# =# D# D# A# A# =# =# A# A# A# A# A# A# A# A# =# =# =# =# =# =# A# A# A# A# A# A# A# A# =# =# C# ?! ?! ?! ?! x  x  s  s  L# L# =# =# =# =# {! {! B! B! ?! ?! =# =# =# =# =# D# D# E# E# E# E# I# I# I# I# H# H# F# F# F# F# D# D# D# D# D# D# D# D# D# D# D# D# B# B# ># ># B# B# =# =# =# =# =# =# =# =# =# =# 9# 9# 7# 7# 7# 7# 9# 9# =# =# =# =# =# =# 9# 9# =# =# B# B# D# D# D# D# D# D# D# D# A# A# D# D# D# D# D# D# D# D# D# D# D# D# ># ># E# E# E# E# D# D# D# D# D# D# D# D# D# D# F# ;! ;! ?! ?! ?! ?! =# =# 9# 9# L# ",
"L# A# A# B# B# 4# 4# B! B! ?! ?! E# E# E# F# F# E# E# D# D# D# D# D# D# A# A# =# =# =# =# A# A# =# =# D# D# E# E# D# D# C# C# =# =# =# =# 9# 9# =# =# =# =# =# =# =# =# A# A# =# =# =# =# D# D# H# H# F# F# E# E# E# E# E# E# D# D# ># ># =# =# =# =# 7# 7# =# =# D# D# A# A# =# =# A# A# A# A# A# A# A# A# =# =# =# =# =# =# A# A# A# A# A# A# A# A# =# =# C# ?! ?! ?! ?! x  x  s  s  L# L# =# =# =# =# {! {! B! B! ?! ?! =# =# =# =# =# D# D# E# E# E# E# I# I# I# I# H# H# F# F# F# F# D# D# D# D# D# D# D# D# D# D# D# D# B# B# ># ># B# B# =# =# =# =# =# =# =# =# =# =# 9# 9# 7# 7# 7# 7# 9# 9# =# =# =# =# =# =# 9# 9# =# =# B# B# D# D# D# D# D# D# D# D# A# A# D# D# D# D# D# D# D# D# D# D# D# D# ># ># E# E# E# E# D# D# D# D# D# D# D# D# D# D# F# ?! ?! ?! ?! ?! ?! C# C# =# =# L# ",
"L# A# A# B# B# 4# 4# B! B! ?! ?! L# L# L# N# N# L# L# L# L# L# L# L# L# L# L# L# L# L# L# L# L# L# L# L# L# L# L# L# L# L# L# L# L# L# L# L# L# L# L# L# L# L# L# L# L# L# L# L# L# L# L# L# L# L# L# N# N# N# N# N# N# N# N# L# L# L# L# L# L# L# L# L# L# L# L# L# L# L# L# L# L# L# L# L# L# L# L# L# L# L# L# L# L# L# L# L# L# L# L# L# L# L# L# L# L# L# ?! ?! ?! ?! e  e  s  s  L# L# A# A# B# B# 4# 4# B! B! ?! ?! L# L# L# L# L# L# L# L# L# N# N# N# N# N# N# L# L# L# L# L# L# L# L# L# L# L# L# L# L# L# L# N# N# N# N# L# L# N# N# N# N# N# N# N# N# N# N# N# N# M# M# N# N# L# L# L# L# L# L# L# L# L# L# L# L# L# L# L# L# L# L# L# L# L# L# L# L# L# L# L# L# L# L# N# N# N# N# N# N# N# N# N# N# N# N# M# M# N# N# N# N# N# N# N# N# N# N# M# ?! ?! ?! ?! ?! ?! C# C# =# =# L# ",
"L# =# =# C# C# 3# 3# C! C! ?! ?! L# L# L# N# N# L# L# L# L# L# L# L# L# L# L# L# L# L# L# L# L# L# L# L# L# L# L# L# L# L# L# L# L# L# L# L# L# L# L# L# L# L# L# L# L# L# L# L# L# L# L# L# L# L# L# N# N# N# N# N# N# N# N# L# L# L# L# L# L# L# L# L# L# L# L# L# L# L# L# L# L# L# L# L# L# L# L# L# L# L# L# L# L# L# L# L# L# L# L# L# L# L# L# L# L# L# ?! ?! ?! ?! e  e  s  s  L# L# A# A# B# B# 4# 4# B! B! ?! ?! L# L# L# L# L# L# L# L# L# N# N# N# N# N# N# L# L# L# L# L# L# L# L# L# L# L# L# L# L# L# L# N# N# N# N# L# L# N# N# N# N# N# N# N# N# N# N# N# N# M# M# N# N# L# L# L# L# L# L# L# L# L# L# L# L# L# L# L# L# L# L# L# L# L# L# L# L# L# L# L# L# L# L# N# N# N# N# N# N# N# N# N# N# N# N# M# M# N# N# N# N# N# N# N# N# N# N# M# ?! ?! ?! ?! ?! ?! 7# 7# =# =# L# ",
"L# =# =# C# C# 3# 3# C! C! ?! ?! s  s  s  s  s  s  s  s  s  s  s  s  s  s  s  s  s  s  s  s  s  s  s  s  s  s  s  s  s  s  s  s  s  s  s  s  s  s  s  s  s  s  s  s  s  s  s  s  s  s  s  s  s  s  s  s  s  s  s  s  s  s  s  s  s  s  s  s  s  s  s  s  s  s  s  s  s  s  s  s  s  s  s  s  s  s  s  s  s  s  s  s  s  s  s  s  s  s  s  s  s  s  s  s  s  s  ?! ?! ?! ?! e  e  s  s  L# L# =# =# C# C# 3# 3# C! C! ?! ?! y  y  y  y  y  y  y  x  x  s  s  s  s  s  s  s  s  s  s  s  s  s  s  s  s  s  s  s  s  s  s  s  s  s  s  s  s  y  y  y  y  x  x  s  s  s  s  s  s  s  s  s  s  s  s  s  s  s  s  s  s  s  s  s  s  s  s  s  s  s  s  s  s  s  s  s  s  s  s  s  s  s  s  s  s  s  s  s  s  s  s  s  s  s  s  s  s  s  s  }  }  }  }  y  y  y  y  y  ?! ?! ?! ?! ?! ?! 7# 7# =# =# L# ",
"L# =# =# D# D# =# =# F! F! ?! ?! s  s  s  s  s  s  s  s  s  s  s  s  s  s  s  s  s  s  s  s  s  s  s  s  s  s  s  s  s  s  s  s  s  s  s  s  s  s  s  s  s  s  s  s  s  s  s  s  s  s  s  s  s  s  s  s  s  s  s  s  s  s  s  s  s  s  s  s  s  s  s  s  s  s  s  s  s  s  s  s  s  s  s  s  s  s  s  s  s  s  s  s  s  s  s  s  s  s  s  s  s  s  s  s  s  s  ?! ?! ?! ?! e  e  s  s  L# L# =# =# C# C# 3# 3# C! C! ?! ?! y  y  y  y  y  y  y  x  x  s  s  s  s  s  s  s  s  s  s  s  s  s  s  s  s  s  s  s  s  s  s  s  s  s  s  s  s  y  y  y  y  x  x  s  s  s  s  s  s  s  s  s  s  s  s  s  s  s  s  s  s  s  s  s  s  s  s  s  s  s  s  s  s  s  s  s  s  s  s  s  s  s  s  s  s  s  s  s  s  s  s  s  s  s  s  s  s  s  s  }  }  }  }  y  y  y  y  y  ?! ?! ?! ?! ?! ?! ,# ,# =# =# L# ",
"L# =# =# D# D# =# =# F! F! ?! ?! l  s  s  n  n  s  s  s  s  s  s  s  s  y  y  '! '! '! '! s  s  s  s  s  s  s  s  n  n  ?! ?! ?! ?! ?! ?! ?! ?! ?! ?! '! '! Y  Y  x  x  e  e  e  e  ]  ]  e  e  s  s  s  s  s  s  s  s  n  n  m  m  !! !! y  y  s  s  s  s  s  s  s  s  s  s  s  s  X  X  S  S  X  X  X  X  #! #! 1! 1! 8! 8! ?! ?! ?! ?! ?! ?! ?! ?! #! #! q  ?! ?! ?! ?! ]  ]  s  s  L# L# =# =# D# D# =# =# F! F! ?! ?! M  s  s  5! 5! 4! 4! 1! 1! 0! 0! 0! 0! 0! 0! 0! 0! &! &! &! &! $! $! s  s  s  s  s  s  s  s  s  s  s  s  s  s  s  s  s  s  s  s  s  s  s  s  s  s  s  s  s  s  s  s  s  s  s  s  l  l  V  V  ?! ?! ?! ?! ?! ?! ?! ?! ?! ?! 9! 9! '! '! ~  ~  }  }  y  y  }  }  s  s  s  s  s  s  s  s  s  s  s  s  i  i  a  a  s  s  s  s  s  s  s  ?! ?! ?! ?! ?! ?! ,# ,# =# =# L# ",
"L# D# D# H# H# B# B# Y! Y! B! B! l  s  s  n  n  s  s  s  s  s  s  s  s  y  y  '! '! '! '! s  s  s  s  s  s  s  s  n  n  ?! ?! ?! ?! ?! ?! ?! ?! ?! ?! '! '! Y  Y  x  x  e  e  e  e  ]  ]  e  e  s  s  s  s  s  s  s  s  n  n  m  m  !! !! y  y  s  s  s  s  s  s  s  s  s  s  s  s  X  X  S  S  X  X  X  X  #! #! 1! 1! 8! 8! ?! ?! ?! ?! ?! ?! ?! ?! #! #! q  ?! ?! ?! ?! ]  ]  s  s  L# L# =# =# D# D# =# =# F! F! ?! ?! M  s  s  5! 5! 4! 4! 1! 1! 0! 0! 0! 0! 0! 0! 0! 0! &! &! &! &! $! $! s  s  s  s  s  s  s  s  s  s  s  s  s  s  s  s  s  s  s  s  s  s  s  s  s  s  s  s  s  s  s  s  s  s  s  s  l  l  V  V  ?! ?! ?! ?! ?! ?! ?! ?! ?! ?! 9! 9! '! '! ~  ~  }  }  y  y  }  }  s  s  s  s  s  s  s  s  s  s  s  s  i  i  a  a  s  s  s  s  s  s  s  ?! ?! '! '! ?! ?! $# $# 9# 9# L# ",
"L# D# D# H# H# B# B# Y! Y! B! B! ?! ?! ?! ?! ?! ?! ?! ?! ?! ?! ?! ?! ?! ?! ?! ?! ?! ?! ?! ?! ?! ?! ?! ?! ?! ?! ?! ?! ?! ?! ?! ?! ?! ?! ?! ?! ?! ?! ?! ?! ?! ?! ?! ?! ?! ?! ?! ?! ?! ?! ?! ?! ?! $  $  #  #  !  !  Z  Z  6! 6! ?! ?! ?! ?! ?! ?! ?! ?! ?! ?! ?! ?! ?! ?! ?! ?! ?! ?! ?! ?! ?! ?! ?! ?! ?! ?! ?! ?! ?! ?! ?! ?! ?! ?! ?! ?! ?! ?! ?! ?! ?! ?! ?! ?! ?! ?! ?! e  e  s  s  L# L# D# D# H# H# B# B# Y! Y! B! B! ?! ?! ?! ?! ?! ?! ?! ?! ?! ?! ?! ?! ?! ?! ?! ?! ?! ?! ?! ?! ?! ?! ?! ?! ?! ?! ?! ?! ?! ?! ?! ?! ?! ?! ?! 8! 8! 8! 8! ?! ?! ?! ?! 0! 0! c  c  T  T  O  O  7  7  4  4  p  p  ?! ?! ?! ?! ?! ?! ?! ?! ?! ?! ?! ?! ?! ?! ?! ?! ?! ?! ?! ?! ?! ?! ?! ?! ?! ?! ?! ?! ?! ?! ?! ?! ?! ?! ?! ?! ?! ?! ?! ?! ?! ?! ?! ?! ?! ?! 0! 0! T  T  ~  ?! ?! '! '! ?! ?! $# $# 9# 9# L# ",
"L# H# H# K# K# I# I# ,# ,# C! C! ?! ?! ?! ?! ?! ?! ?! ?! ?! ?! ?! ?! ?! ?! ?! ?! ?! ?! ?! ?! ?! ?! ?! ?! ?! ?! ?! ?! ?! ?! ?! ?! ?! ?! ?! ?! ?! ?! ?! ?! ?! ?! ?! ?! ?! ?! ?! ?! ?! ?! ?! ?! ?! $  $  #  #  !  !  Z  Z  6! 6! ?! ?! ?! ?! ?! ?! ?! ?! ?! ?! ?! ?! ?! ?! ?! ?! ?! ?! ?! ?! ?! ?! ?! ?! ?! ?! ?! ?! ?! ?! ?! ?! ?! ?! ?! ?! ?! ?! ?! ?! ?! ?! ?! ?! ?! ?! ?! e  e  s  s  L# L# D# D# H# H# B# B# Y! Y! B! B! ?! ?! ?! ?! ?! ?! ?! ?! ?! ?! ?! ?! ?! ?! ?! ?! ?! ?! ?! ?! ?! ?! ?! ?! ?! ?! ?! ?! ?! ?! ?! ?! ?! ?! ?! 8! 8! 8! 8! ?! ?! ?! ?! 0! 0! c  c  T  T  O  O  7  7  4  4  p  p  ?! ?! ?! ?! ?! ?! ?! ?! ?! ?! ?! ?! ?! ?! ?! ?! ?! ?! ?! ?! ?! ?! ?! ?! ?! ?! ?! ?! ?! ?! ?! ?! ?! ?! ?! ?! ?! ?! ?! ?! ?! ?! ?! ?! ?! ?! 0! 0! T  T  ~  ?! ?! 8! 8! ?! ?! $# $# 7# 7# L# ",
"L# H# H# K# K# I# I# ,# ,# C! C! 8! ?! ?! ?! ?! ?! ?! ?! ?! ?! ?! ?! ?! ?! ?! ?! ?! ?! ?! ?! ?! ?! ?! ?! ?! ?! ?! ?! ?! ?! ?! ?! ?! ?! ?! ?! ?! ?! ?! ?! ?! ?! ?! ?! ?! ?! ?! ?! ?! ?! ?! ?! ?! -! -! ?! ?! ?! ?! ?! ?! ?! ?! ?! ?! ?! ?! ?! ?! ?! ?! ;! ;! 4! 4! &! &! 5! 5! 8! 8! ?! ?! ?! ?! ?! ?! ?! ?! ?! ?! ?! ?! ?! ?! ?! ?! ?! ?! ?! ?! ?! ?! ?! ?! ?! -! -! $  $  s  s  s  s  L# L# H# H# K# K# I# I# ,# ,# C! C! ?! ?! ?! ?! ?! ?! ?! ?! ?! 6! 6! 4! 4! 6! 6! 8! 8! 8! 8! ?! ?! ?! ?! ?! ?! ?! ?! ?! ?! ?! ?! ?! ?! ?! ?! ?! ?! ?! ?! ?! ?! ?! ?! ?! ?! ?! ?! ?! ?! ?! ?! ?! ?! ?! ?! ?! ?! ?! ?! ?! ?! ?! ?! ?! ?! ?! ?! ?! ?! ?! ?! ?! ?! ?! ?! ?! ?! ?! ?! ?! ?! ?! ?! ?! ?! ?! ?! ?! ?! ?! ?! ?! ?! ?! ?! ?! ?! ?! ?! ?! ?! ?! ?! ?! ?! ?! ?! ?! ?! ?! 8! 8! ?! ?! $# $# 7# 7# L# ",
"N# F# F# H# H# I# I# %# %# C! C! 8! ?! ?! ?! ?! ?! ?! ?! ?! ?! ?! ?! ?! ?! ?! ?! ?! ?! ?! ?! ?! ?! ?! ?! ?! ?! ?! ?! ?! ?! ?! ?! ?! ?! ?! ?! ?! ?! ?! ?! ?! ?! ?! ?! ?! ?! ?! ?! ?! ?! ?! ?! ?! -! -! ?! ?! ?! ?! ?! ?! ?! ?! ?! ?! ?! ?! ?! ?! ?! ?! ;! ;! 4! 4! &! &! 5! 5! 8! 8! ?! ?! ?! ?! ?! ?! ?! ?! ?! ?! ?! ?! ?! ?! ?! ?! ?! ?! ?! ?! ?! ?! ?! ?! ?! -! -! $  $  s  s  s  s  L# L# H# H# K# K# I# I# ,# ,# C! C! ?! ?! ?! ?! ?! ?! ?! ?! ?! 6! 6! 4! 4! 6! 6! 8! 8! 8! 8! ?! ?! ?! ?! ?! ?! ?! ?! ?! ?! ?! ?! ?! ?! ?! ?! ?! ?! ?! ?! ?! ?! ?! ?! ?! ?! ?! ?! ?! ?! ?! ?! ?! ?! ?! ?! ?! ?! ?! ?! ?! ?! ?! ?! ?! ?! ?! ?! ?! ?! ?! ?! ?! ?! ?! ?! ?! ?! ?! ?! ?! ?! ?! ?! ?! ?! ?! ?! ?! ?! ?! ?! ?! ?! ?! ?! ?! ?! ?! ?! ?! ?! ?! ?! ?! ?! ?! ?! ?! ?! ?! ?! ?! ?! ?! ## ## 7# 7# N# ",
"N# F# F# H# H# I# I# %# %# C! C! ?! ?! ?! ?! ?! ?! ?! ?! ?! ?! ?! ?! ?! ?! ?! ?! ?! ?! ?! ?! ?! ?! ?! ?! ?! ?! ?! ?! ?! ?! ?! ?! ?! ?! ?! ?! ?! ?! ?! ?! ?! ?! ?! ?! ?! ?! ?! ?! ?! ?! ?! ?! ?! ?! ?! ?! ?! ?! ?! ?! ?! ?! ?! ?! ?! ?! ?! ?! ?! ?! ?! ?! ?! ?! ?! ?! ?! ?! ?! ?! ?! ?! ?! ?! ?! ?! ?! ?! ?! ?! ?! ?! ?! ?! ?! ?! ?! ?! ?! ?! ?! ?! ?! ?! ?! ?! ?! ?! #  #  s  s  s  s  N# N# F# F# H# H# I# I# %# %# C! C! ?! ?! ?! ?! ?! ?! ?! ?! ?! ?! ?! ?! ?! ?! ?! ?! ?! ?! ?! ?! ?! ?! ?! ?! ?! ?! ?! ?! ?! ?! ?! ?! ?! ?! ?! ?! ?! ?! ?! ?! ?! ?! ?! ?! ?! ?! ?! ?! ?! ?! ?! ?! ?! ?! ?! ?! ?! ?! ?! ?! ?! ?! ?! ?! ?! ?! ?! ?! ?! ?! ?! ?! ?! ?! ?! ?! ?! ?! ?! ?! ?! ?! ?! ?! ?! ?! ?! 5! 5! ?! ?! ?! ?! ?! ?! ?! ?! ?! ?! ?! ?! ?! ?! ?! ?! ?! ?! ?! ?! ?! ?! ?! ?! ?! ## ## 7# 7# N# ",
"N# E# E# F# F# F# F# _! _! C! C! ?! ?! ?! ?! ?! ?! ?! ?! ?! ?! ?! ?! ?! ?! ?! ?! ?! ?! ?! ?! ?! ?! ?! ?! ?! ?! ?! ?! ?! ?! ?! ?! ?! ?! ?! ?! ?! ?! ?! ?! ?! ?! ?! ?! ?! ?! ?! ?! ?! ?! ?! ?! ?! ?! ?! ?! ?! ?! ?! ?! ?! ?! ?! ?! ?! ?! ?! ?! ?! ?! ?! ?! ?! ?! ?! ?! ?! ?! ?! ?! ?! ?! ?! ?! ?! ?! ?! ?! ?! ?! ?! ?! ?! ?! ?! ?! ?! ?! ?! ?! ?! ?! ?! ?! ?! ?! ?! ?! #  #  s  s  s  s  N# N# F# F# H# H# I# I# %# %# C! C! ?! ?! ?! ?! ?! ?! ?! ?! ?! ?! ?! ?! ?! ?! ?! ?! ?! ?! ?! ?! ?! ?! ?! ?! ?! ?! ?! ?! ?! ?! ?! ?! ?! ?! ?! ?! ?! ?! ?! ?! ?! ?! ?! ?! ?! ?! ?! ?! ?! ?! ?! ?! ?! ?! ?! ?! ?! ?! ?! ?! ?! ?! ?! ?! ?! ?! ?! ?! ?! ?! ?! ?! ?! ?! ?! ?! ?! ?! ?! ?! ?! ?! ?! ?! ?! ?! ?! 5! 5! ?! ?! ?! ?! ?! ?! ?! ?! ?! ?! ?! ?! ?! ?! ?! ?! ?! ?! ?! ?! ?! ?! ?! ?! ?! $# $# 9# 9# M# ",
"N# E# E# F# F# F# F# _! _! C! C! ?! ?! ?! ?! ?! ?! ?! ?! ?! ?! ?! ?! ?! ?! ?! ?! ?! ?! ?! ?! ?! ?! ?! ?! ?! ?! ?! ?! ?! ?! ?! ?! ?! ?! ?! ?! ?! ?! ?! 8! 8! ?! ?! ?! ?! ?! ?! ?! ?! ?! ?! ?! ?! ?! ?! ?! ?! ?! ?! ?! ?! ?! ?! ?! ?! ?! ?! ?! ?! ?! ?! ?! ?! ?! ?! ?! ?! ?! ?! 8! 8! 8! 8! 0! 0! (! (! 6! 6! ;! ;! ?! ?! ?! ?! ?! ?! ?! ?! ?! ?! ?! ?! ?! ?! ?! ?! ?! !  !  s  s  s  s  N# N# E# E# F# F# F# F# _! _! C! C! ?! ?! ?! ?! ?! ?! ?! ?! ?! ?! ?! ?! ?! ?! ?! ?! ?! ?! ?! ?! ?! ?! ?! ?! ?! ?! ?! ?! ?! ?! ?! 0! 0! ;! ;! 1! 1! 8! 8! 8! 8! 6! 6! 4! 4! 1! 1! 1! 1! 4! 4! 4! 4! 4! 4! -! -! 6! 6! 0! 0! -! -! 0! 0! 4! 4! 1! 1! 0! 0! 1! 1! 4! 4! 6! 6! 1! 1! 4! 4! 0! 0! 0! 0! 0! 0!  !  !  !  ! ,! ,! ,! ,! 5! 5! 8! 8! ;! ;! ?! ?! ?! ?! ?! ?! ?! ?! ?! ?! ?! ?! ?! $# $# 9# 9# M# ",
"N# E# E# E# E# F# F# ]! ]! C! C! ?! ?! ?! ?! ?! ?! ?! ?! ?! ?! ?! ?! ?! ?! ?! ?! ?! ?! ?! ?! ?! ?! ?! ?! ?! ?! ?! ?! ?! ?! ?! ?! ?! ?! ?! ?! ?! ?! ?! 8! 8! ?! ?! ?! ?! ?! ?! ?! ?! ?! ?! ?! ?! ?! ?! ?! ?! ?! ?! ?! ?! ?! ?! ?! ?! ?! ?! ?! ?! ?! ?! ?! ?! ?! ?! ?! ?! ?! ?! 8! 8! 8! 8! 0! 0! (! (! 6! 6! ;! ;! ?! ?! ?! ?! ?! ?! ?! ?! ?! ?! ?! ?! ?! ?! ?! ?! ?! !  !  s  s  s  s  N# N# E# E# F# F# F# F# _! _! C! C! ?! ?! ?! ?! ?! ?! ?! ?! ?! ?! ?! ?! ?! ?! ?! ?! ?! ?! ?! ?! ?! ?! ?! ?! ?! ?! ?! ?! ?! ?! ?! 0! 0! ;! ;! 1! 1! 8! 8! 8! 8! 6! 6! 4! 4! 1! 1! 1! 1! 4! 4! 4! 4! 4! 4! -! -! 6! 6! 0! 0! -! -! 0! 0! 4! 4! 1! 1! 0! 0! 1! 1! 4! 4! 6! 6! 1! 1! 4! 4! 0! 0! 0! 0! 0! 0!  !  !  !  ! ,! ,! ,! ,! 5! 5! 8! 8! ;! ;! ?! ?! ?! ?! ?! ?! ?! ?! ?! 8! 8! ?! ?! $# $# =# =# N# ",
"N# E# E# E# E# F# F# ]! ]! C! C! ?! ?! ?! ?! ?! ?! ?! ?! ?! ?! ?! ?! ?! ?! ?! ?! ?! ?! ?! ?! ?! ?! ?! ?! ?! ?! ?! ?! ?! 4! 4! 1! 1! 6! 6! ?! ?! ?! ?! ?! ?! ?! ?! ?! ?! ?! ?! ?! ?! ?! ?! ?! ?! ?! ?! ?! ?! ?! ?! ?! ?! ?! ?! ?! ?! ?! ?! ?! ?! ?! ?! ?! ?! ?! ?! ?! ?! ?! ?! ?! ?! ?! ?! ?! ?! ?! ?! ?! ?! ?! ?! ?! ?! ?! ?! ?! ?! ?! ?! ?! ?! ?! ?! ?! ?! 0! ?! ?! Z  Z  s  s  s  s  N# N# E# E# E# E# F# F# ]! ]! C! C! ?! ?! ?! ?! ?! ?! ?! ?! ?! ?! ?! ?! ?! 6! 6! 8! 8! ?! ?! ?! ?! ?! ?! ?! ?! ?! ?! ?! ?! ?! ?! ?! ?! ?! ?! ?! ?! ?! ?! ?! ?! ?! ?! ?! ?! ?! ?! ?! ?! ?! ?! ?! ?! ?! ?! ?! ?! ?! ?! ?! ?! ?! ?! ?! ?! ?! ?! ?! ?! ?! ?! ?! ?! ?! ?! ?! ?! ?! ?! ?! ?! ;! ;! ;! ;! ?! ?! ?! ?! ?! ?! ?! ?! ?! ?! ?! ?! ?! ?! ?! ?! ?! ?! ?! ?! ?! ?! ?! ?! ?! 8! 8! ?! ?! $# $# =# =# N# ",
"N# E# E# =# =# E# E# T! T! ?! ?! ?! ?! ?! ?! ?! ?! ?! ?! ?! ?! ?! ?! ?! ?! ?! ?! ?! ?! ?! ?! ?! ?! ?! ?! ?! ?! ?! ?! ?! 4! 4! 1! 1! 6! 6! ?! ?! ?! ?! ?! ?! ?! ?! ?! ?! ?! ?! ?! ?! ?! ?! ?! ?! ?! ?! ?! ?! ?! ?! ?! ?! ?! ?! ?! ?! ?! ?! ?! ?! ?! ?! ?! ?! ?! ?! ?! ?! ?! ?! ?! ?! ?! ?! ?! ?! ?! ?! ?! ?! ?! ?! ?! ?! ?! ?! ?! ?! ?! ?! ?! ?! ?! ?! ?! ?! 0! ?! ?! Z  Z  s  s  s  s  N# N# E# E# E# E# F# F# ]! ]! C! C! ?! ?! ?! ?! ?! ?! ?! ?! ?! ?! ?! ?! ?! 6! 6! 8! 8! ?! ?! ?! ?! ?! ?! ?! ?! ?! ?! ?! ?! ?! ?! ?! ?! ?! ?! ?! ?! ?! ?! ?! ?! ?! ?! ?! ?! ?! ?! ?! ?! ?! ?! ?! ?! ?! ?! ?! ?! ?! ?! ?! ?! ?! ?! ?! ?! ?! ?! ?! ?! ?! ?! ?! ?! ?! ?! ?! ?! ?! ?! ?! ?! ;! ;! ;! ;! ?! ?! ?! ?! ?! ?! ?! ?! ?! ?! ?! ?! ?! ?! ?! ?! ?! ?! ?! ?! ?! ?! ?! ?! ?! 5! 5! ?! ?! 6# 6# =# =# N# ",
"N# E# E# =# =# E# E# T! T! ?! ?! ?! ?! ?! ?! ?! 8! 8! 4! 4! $! $! 4! 4! ?! ?! ?! ?! ?! ?! ?! ?! ?! ?! ?! ?! ?! ?! ?! ?! ?! ?! ?! ?! ?! ?! ?! ?! ?! ?! ?! ?! ?! ?! ?! ?! ?! ?! ?! ?! ?! ?! ?! ?! ?! ?! ?! ?! ?! ?! ?! ?! ?! ?! ?! ?! ?! ?! ?! ?! ?! ?! ?! ?! ?! ?! ?! ?! ?! ?! ?! ?! ?! ?! ?! ?! ?! ?! ?! ?! ?! ?! ?! ?! 6! 6! 8! 8! 8! 8! ;! ;! ?! ?! ?! ?! ?! ?! ?! 6! 6! n  n  s  s  N# N# E# E# =# =# E# E# T! T! ?! ?! ?! ?! ?! 1! 1! 8! 8! ?! ?! ?! ?! ?! ?! ?! ?! ?! ?! ?! ?! ?! ?! ?! ?! ?! ?! ?! ?! ?! ?! ?! ?! ?! ?! ?! ?! ?! ?! ?! ?! ?! ?! ?! ?! ?! ?! ?! ?! ?! ?! ?! ?! ?! ?! ?! ?! ?! ?! ?! ?! ?! ?! ?! ?! ?! ?! ?! ?! ?! ?! ?! ?! ?! ?! ?! ?! ?! ?! ?! ?! ?! ?! ?! ?! ?! ?! ?! ?! ?! ?! ?! ?! ?! ?! ?! ?! ?! ?! ?! ?! ?! ?! ?! ?! ?! ?! ?! ?! ?! ?! ?! 5! 5! ?! ?! 6# 6# =# =# N# ",
"L# D# D# =# =# D# D# L! L! ?! ?! ?! ?! ?! ?! ?! 8! 8! 4! 4! $! $! 4! 4! ?! ?! ?! ?! ?! ?! ?! ?! ?! ?! ?! ?! ?! ?! ?! ?! ?! ?! ?! ?! ?! ?! ?! ?! ?! ?! ?! ?! ?! ?! ?! ?! ?! ?! ?! ?! ?! ?! ?! ?! ?! ?! ?! ?! ?! ?! ?! ?! ?! ?! ?! ?! ?! ?! ?! ?! ?! ?! ?! ?! ?! ?! ?! ?! ?! ?! ?! ?! ?! ?! ?! ?! ?! ?! ?! ?! ?! ?! ?! ?! 6! 6! 8! 8! 8! 8! ;! ;! ?! ?! ?! ?! ?! ?! ?! 6! 6! n  n  s  s  N# N# E# E# =# =# E# E# T! T! ?! ?! ?! ?! ?! 1! 1! 8! 8! ?! ?! ?! ?! ?! ?! ?! ?! ?! ?! ?! ?! ?! ?! ?! ?! ?! ?! ?! ?! ?! ?! ?! ?! ?! ?! ?! ?! ?! ?! ?! ?! ?! ?! ?! ?! ?! ?! ?! ?! ?! ?! ?! ?! ?! ?! ?! ?! ?! ?! ?! ?! ?! ?! ?! ?! ?! ?! ?! ?! ?! ?! ?! ?! ?! ?! ?! ?! ?! ?! ?! ?! ?! ?! ?! ?! ?! ?! ?! ?! ?! ?! ?! ?! ?! ?! ?! ?! ?! ?! ?! ?! ?! ?! ?! ?! ?! ?! ?! ?! ?! ?! ?! 8! 8! ?! ?! 5# 5# =# =# N# ",
"L# D# D# =# =# D# D# L! L! ?! ?! ?! ?! ?! ?! ?! ?! ?! ?! ?! ?! ?! B! B! C! C! C! C! C! C! F! F! C! C! B! B! B! B! A! A! ?! ?! ?! ?! ?! ?! ?! ?! ?! ?! ?! ?! ?! ?! ?! ?! ?! ?! ?! ?! ?! ?! ?! ?! ?! ?! ?! ?! ?! ?! ?! ?! ?! ?! ?! ?! ?! ?! ?! ?! 8! 8! 1! 1! 0! 0! ;! ;! ?! ?! ?! ?! ?! ?! ?! ?! ?! ?! ?! ?! ?! ?! ?! ?! ?! ?! ?! ?! ?! ?! ?! ?! ?! ?! 8! 8! 4! ?! ?! ?! ?! m  m  s  s  L# L# D# D# =# =# D# D# L! L! ?! ?! ?! ?! ?! ?! ?! ?! ?! ?! ?! 8! 8! 1! 1! 1! 1! ,! ,! '! '! 4! 4! 8! 8! 8! 8! ;! ;! ;! ;! ;! ;! ?! ?! ?! ?! ?! ?! ?! ?! ?! ?! ?! ?! ?! ?! ?! ?! 8! 8! 8! 8! 8! 8! 8! 8! 6! 6! 6! 6! 8! 8! 1! 1! 4! 4! 0! 0! 0! 0! 6! 6! 8! 8! ?! ?! ?! ?! ?! ?! ?! ?! ?! ?! ?! ?! ?! ?! ?! ?! ?! ?! ?! ?! ?! ?! ?! ?! ?! ?! ?! ?! ?! ?! ?! ?! ?! ?! ;! ?! ?! 8! 8! ?! ?! 5# 5# =# =# N# ",
"L# ># ># =# =# D# D# F! F! ?! ?! ?! ?! ?! ?! ?! ?! ?! ?! ?! ?! ?! B! B! C! C! C! C! C! C! F! F! C! C! B! B! B! B! A! A! ?! ?! ?! ?! ?! ?! ?! ?! ?! ?! ?! ?! ?! ?! ?! ?! ?! ?! ?! ?! ?! ?! ?! ?! ?! ?! ?! ?! ?! ?! ?! ?! ?! ?! ?! ?! ?! ?! ?! ?! 8! 8! 1! 1! 0! 0! ;! ;! ?! ?! ?! ?! ?! ?! ?! ?! ?! ?! ?! ?! ?! ?! ?! ?! ?! ?! ?! ?! ?! ?! ?! ?! ?! ?! 8! 8! 4! ?! ?! ?! ?! m  m  s  s  L# L# D# D# =# =# D# D# L! L! ?! ?! ?! ?! ?! ?! ?! ?! ?! ?! ?! 8! 8! 1! 1! 1! 1! ,! ,! '! '! 4! 4! 8! 8! 8! 8! ;! ;! ;! ;! ;! ;! ?! ?! ?! ?! ?! ?! ?! ?! ?! ?! ?! ?! ?! ?! ?! ?! 8! 8! 8! 8! 8! 8! 8! 8! 6! 6! 6! 6! 8! 8! 1! 1! 4! 4! 0! 0! 0! 0! 6! 6! 8! 8! ?! ?! ?! ?! ?! ?! ?! ?! ?! ?! ?! ?! ?! ?! ?! ?! ?! ?! ?! ?! ?! ?! ?! ?! ?! ?! ?! ?! ?! ?! ?! ?! ?! ?! ;! ?! ?! 8! 8! B! B! 2# 2# =# =# N# ",
"L# ># ># =# =# D# D# F! F! ?! ?! C! C! C! E! E! F! F! J! J! k! k! )# )# /# /# ,# ,# ,# ,# ,# ,# 1# 1# *# *# {! {! V! V! W! W! C! C! A! A! ?! ?! ?! ?! ?! ?! ?! ?! ?! ?! ?! ?! ?! ?! ?! ?! ?! ?! ?! ?! ?! ?! ?! ?! ?! ?! ?! ?! ?! ?! ?! ?! ?! ?! ?! ?! ?! ?! ?! ?! ?! ?! ?! ?! ?! ?! ?! ?! ?! ?! ?! ?! ?! ?! ?! ?! N! N! c! c! !# !# h! h! C! C! B! B! A! A! ?! ?! ?! ?! ?! !! !! s  s  L# L# ># ># =# =# D# D# F! F! ?! ?! B! C! C! C! C! B! B! ?! ?! ?! ?! ?! ?! ?! ?! ?! ?! ?! ?! ?! ?! ?! ?! ?! ?! ?! ?! ?! ?! ?! ?! ?! ?! ?! ?! ?! ?! ?! ?! ?! ?! ?! ?! ?! ?! ?! ?! ?! ?! ?! ?! ?! ?! ?! ?! ?! ?! ?! ?! ?! ?! ?! ?! ?! ?! ?! ?! ?! ?! ?! ?! ?! ?! ?! ?! ?! ?! ?! ?! ?! ?! ?! ?! ?! ?! ?! ?! ?! ?! ?! ?! ?! ?! ?! ?! ?! ?! ?! ?! ?! ?! ?! ?! ?! ?! ?! ?! ?! ?! ?! 8! 8! B! B! 2# 2# =# =# N# ",
"L# =# =# =# =# =# =# C! C! ?! ?! C! C! C! E! E! F! F! J! J! k! k! )# )# /# /# ,# ,# ,# ,# ,# ,# 1# 1# *# *# {! {! V! V! W! W! C! C! A! A! ?! ?! ?! ?! ?! ?! ?! ?! ?! ?! ?! ?! ?! ?! ?! ?! ?! ?! ?! ?! ?! ?! ?! ?! ?! ?! ?! ?! ?! ?! ?! ?! ?! ?! ?! ?! ?! ?! ?! ?! ?! ?! ?! ?! ?! ?! ?! ?! ?! ?! ?! ?! ?! ?! ?! ?! N! N! c! c! !# !# h! h! C! C! B! B! A! A! ?! ?! ?! ?! ?! !! !! s  s  L# L# ># ># =# =# D# D# F! F! ?! ?! B! C! C! C! C! B! B! ?! ?! ?! ?! ?! ?! ?! ?! ?! ?! ?! ?! ?! ?! ?! ?! ?! ?! ?! ?! ?! ?! ?! ?! ?! ?! ?! ?! ?! ?! ?! ?! ?! ?! ?! ?! ?! ?! ?! ?! ?! ?! ?! ?! ?! ?! ?! ?! ?! ?! ?! ?! ?! ?! ?! ?! ?! ?! ?! ?! ?! ?! ?! ?! ?! ?! ?! ?! ?! ?! ?! ?! ?! ?! ?! ?! ?! ?! ?! ?! ?! ?! ?! ?! ?! ?! ?! ?! ?! ?! ?! ?! ?! ?! ?! ?! ?! ?! ?! ?! ?! ?! ?! 8! 8! F! F! 7# 7# =# =# N# ",
"L# =# =# =# =# =# =# C! C! ?! ?! j! {! {! 3# 3# 4# 4# 3# 3# 6# 6# =# =# D# D# E# E# E# E# E# E# E# E# D# D# =# =# =# =# 7# 7# 3# 3# m! m! X! X! I! I! E! E! C! C! E! E! C! C! X! X! m! m! n! n! i! i! b! b! Z! Z! Z! Z! p! p! $# $# %# %# ,# ,# %# %# r! r! E! E! E! E! C! C! C! C! E! E! U! U! u! u! 1# 1# ,# ,# 7# 7# ;# ;# =# =# B# B# =# =# =# =# )# )# j! ?! ?! ?! ?! y  y  s  s  L# L# =# =# =# =# =# =# C! C! ?! ?! g! v! v! o! o! `! `! e! e! a! a! E! E! E! E! E! E! C! C! C! C! C! C! E! E! E! E! E! E! C! C! C! C! C! C! C! C! C! C! C! C! C! C! C! C! C! C! B! B! C! C! C! C! E! E! F! F! F! F! I! I! P! P! R! R! J! J! C! C! C! C! C! C! ?! ?! ?! ?! A! A! B! B! B! B! B! B! B! B! B! B! T! T! Z! Z! T! T! W! W! |! |! ,# ,# (# (# $# $# !# !# }! ?! ?! 8! 8! F! F! 7# 7# =# =# N# ",
"L# =# =# =# =# 9# 9# ?! ?! ?! ?! j! {! {! 3# 3# 4# 4# 3# 3# 6# 6# =# =# D# D# E# E# E# E# E# E# E# E# D# D# =# =# =# =# 7# 7# 3# 3# m! m! X! X! I! I! E! E! C! C! E! E! C! C! X! X! m! m! n! n! i! i! b! b! Z! Z! Z! Z! p! p! $# $# %# %# ,# ,# %# %# r! r! E! E! E! E! C! C! C! C! E! E! U! U! u! u! 1# 1# ,# ,# 7# 7# ;# ;# =# =# B# B# =# =# =# =# )# )# j! ?! ?! ?! ?! y  y  s  s  L# L# =# =# =# =# =# =# C! C! ?! ?! g! v! v! o! o! `! `! e! e! a! a! E! E! E! E! E! E! C! C! C! C! C! C! E! E! E! E! E! E! C! C! C! C! C! C! C! C! C! C! C! C! C! C! C! C! C! C! B! B! C! C! C! C! E! E! F! F! F! F! I! I! P! P! R! R! J! J! C! C! C! C! C! C! ?! ?! ?! ?! A! A! B! B! B! B! B! B! B! B! B! B! T! T! Z! Z! T! T! W! W! |! |! ,# ,# (# (# $# $# !# !# }! ?! ?! ;! ;! L! L! =# =# B# B# N# ",
"L# =# =# =# =# 9# 9# ?! ?! ?! ?! C# D# D# E# E# E# E# D# D# D# D# E# E# E# E# E# E# E# E# D# D# D# D# D# D# =# =# =# =# =# =# =# =# =# =# =# =# =# =# =# =# 3# 3# 7# 7# 6# 6# 6# 6# ,# ,# ,# ,# ,# ,# 1# 1# 6# 6# =# =# =# =# 6# 6# 8# 8# 9# 9# 7# 7# 1# 1# 7# 7# =# =# 7# 7# 7# 7# =# =# A# A# =# =# 7# 7# =# =# C# C# D# D# E# E# E# E# E# E# D# D# 9# 9# 3# ?! ?! ?! ?! s  s  s  s  L# L# =# =# =# =# 9# 9# ?! ?! ?! ?! D# D# D# =# =# =# =# D# D# =# =# =# =# =# =# 6# 6# 3# 3# ,# ,# 1# 1# 6# 6# =# =# =# =# 7# 7# 3# 3# 1# 1# ,# ,# 1# 1# 7# 7# 7# 7# <# <# :# :# 6# 6# 3# 3# ,# ,# 1# 1# 1# 1# 3# 3# 6# 6# 6# 6# 6# 6# 3# 3# 1# 1# 0# 0# 1# 1# ,# ,# ,# ,# 4# 4# 7# 7# 7# 7# 3# 3# 3# 3# 7# 7# =# =# C# C# D# D# F# F# E# E# E# E# E# E# D# D# =# =# =# ?! ?! ;! ;! L! L! =# =# B# B# N# ",
"L# 7# 7# =# =# {! {! ?! ?! 6! 6! C# D# D# E# E# E# E# D# D# D# D# E# E# E# E# E# E# E# E# D# D# D# D# D# D# =# =# =# =# =# =# =# =# =# =# =# =# =# =# =# =# 3# 3# 7# 7# 6# 6# 6# 6# ,# ,# ,# ,# ,# ,# 1# 1# 6# 6# =# =# =# =# 6# 6# 8# 8# 9# 9# 7# 7# 1# 1# 7# 7# =# =# 7# 7# 7# 7# =# =# A# A# =# =# 7# 7# =# =# C# C# D# D# E# E# E# E# E# E# D# D# 9# 9# 3# ?! ?! ?! ?! s  s  s  s  L# L# =# =# =# =# 9# 9# ?! ?! ?! ?! D# D# D# =# =# =# =# D# D# =# =# =# =# =# =# 6# 6# 3# 3# ,# ,# 1# 1# 6# 6# =# =# =# =# 7# 7# 3# 3# 1# 1# ,# ,# 1# 1# 7# 7# 7# 7# <# <# :# :# 6# 6# 3# 3# ,# ,# 1# 1# 1# 1# 3# 3# 6# 6# 6# 6# 6# 6# 3# 3# 1# 1# 0# 0# 1# 1# ,# ,# ,# ,# 4# 4# 7# 7# 7# 7# 3# 3# 3# 3# 7# 7# =# =# C# C# D# D# F# F# E# E# E# E# E# E# D# D# =# =# =# ?! ?! 8! 8! S! S! 8# 8# ># ># L# ",
"L# 7# 7# =# =# {! {! ?! ?! 6! 6! D# E# E# D# D# =# =# =# =# =# =# =# =# B# B# D# D# D# D# C# C# E# E# C# C# =# =# 7# 7# 7# 7# 7# 7# 7# 7# =# =# =# =# =# =# =# =# =# =# =# =# =# =# 7# 7# 9# 9# 9# 9# A# A# C# C# C# C# D# D# =# =# =# =# =# =# =# =# =# =# A# A# A# A# D# D# D# D# D# D# A# A# =# =# 6# 6# D# D# E# E# D# D# E# E# E# E# D# D# D# D# D# D# 9# ;! ;! ?! ?! s  s  s  s  L# L# 7# 7# =# =# {! {! ?! ?! 6! 6! I# I# I# I# I# K# K# I# I# F# F# F# F# E# E# E# E# E# E# F# F# I# I# I# I# I# I# H# H# H# H# F# F# F# F# E# E# F# F# E# E# E# E# E# E# E# E# E# E# E# E# F# F# E# E# D# D# C# C# A# A# A# A# A# A# =# =# =# =# =# =# A# A# D# D# D# D# D# D# E# E# E# E# D# D# D# D# D# D# E# E# I# I# K# K# K# K# K# K# I# I# J# J# I# I# E# E# E# ?! ?! 8! 8! S! S! 8# 8# ># ># L# ",
"L# =# =# =# =# S! S! ?! ?! 4! 4! D# E# E# D# D# =# =# =# =# =# =# =# =# B# B# D# D# D# D# C# C# E# E# C# C# =# =# 7# 7# 7# 7# 7# 7# 7# 7# =# =# =# =# =# =# =# =# =# =# =# =# =# =# 7# 7# 9# 9# 9# 9# A# A# C# C# C# C# D# D# =# =# =# =# =# =# =# =# =# =# A# A# A# A# D# D# D# D# D# D# A# A# =# =# 6# 6# D# D# E# E# D# D# E# E# E# E# D# D# D# D# D# D# 9# ;! ;! ?! ?! s  s  s  s  L# L# 7# 7# =# =# {! {! ?! ?! 6! 6! I# I# I# I# I# K# K# I# I# F# F# F# F# E# E# E# E# E# E# F# F# I# I# I# I# I# I# H# H# H# H# F# F# F# F# E# E# F# F# E# E# E# E# E# E# E# E# E# E# E# E# F# F# E# E# D# D# C# C# A# A# A# A# A# A# =# =# =# =# =# =# A# A# D# D# D# D# D# D# E# E# E# E# D# D# D# D# D# D# E# E# I# I# K# K# K# K# K# K# I# I# J# J# I# I# E# E# E# ?! ?! 8! 8! W! W! A# A# B# B# N# ",
"L# =# =# =# =# S! S! ?! ?! 4! 4! N# N# N# N# N# N# N# M# M# M# M# M# M# N# N# N# N# N# N# N# N# N# N# N# N# N# N# N# N# M# M# M# M# M# M# N# N# N# N# N# N# N# N# N# N# N# N# N# N# N# N# N# N# N# N# N# N# O# O# O# O# O# O# N# N# N# N# N# N# N# N# N# N# N# N# N# N# N# N# N# N# N# N# N# N# M# M# M# M# N# N# N# N# N# N# N# N# N# N# N# N# N# N# N# N# N# 4! 4! ?! ?! s  s  s  s  L# L# =# =# =# =# S! S! ?! ?! 4! 4! O# O# O# O# O# O# O# O# O# O# O# O# O# O# O# O# O# O# O# M# M# M# M# M# M# M# M# M# M# M# M# M# M# M# M# M# M# M# M# M# M# M# M# M# M# M# M# M# M# M# M# M# M# M# M# M# M# M# M# M# M# M# M# M# M# M# M# M# M# M# M# M# M# M# M# M# M# M# M# M# M# M# M# N# N# N# N# N# N# N# N# O# O# O# O# O# O# O# O# O# O# O# O# O# O# O# O# N# ?! ?! 8! 8! W! W! A# A# B# B# N# ",
"L# D# D# ?# ?# J! J! ?! ?! 0! 0! N# N# N# N# N# N# N# M# M# M# M# M# M# N# N# N# N# N# N# N# N# N# N# N# N# N# N# N# N# M# M# M# M# M# M# N# N# N# N# N# N# N# N# N# N# N# N# N# N# N# N# N# N# N# N# N# N# O# O# O# O# O# O# N# N# N# N# N# N# N# N# N# N# N# N# N# N# N# N# N# N# N# N# N# N# M# M# M# M# N# N# N# N# N# N# N# N# N# N# N# N# N# N# N# N# N# 4! 4! ?! ?! s  s  s  s  L# L# =# =# =# =# S! S! ?! ?! 4! 4! O# O# O# O# O# O# O# O# O# O# O# O# O# O# O# O# O# O# O# M# M# M# M# M# M# M# M# M# M# M# M# M# M# M# M# M# M# M# M# M# M# M# M# M# M# M# M# M# M# M# M# M# M# M# M# M# M# M# M# M# M# M# M# M# M# M# M# M# M# M# M# M# M# M# M# M# M# M# M# M# M# M# M# N# N# N# N# N# N# N# N# O# O# O# O# O# O# O# O# O# O# O# O# O# O# O# O# N# ?! ?! 8! 8! Z! Z! C# C# D# D# N# ",
"L# D# D# ?# ?# J! J! ?! ?! 0! 0! w  s  s  s  s  s  s  s  s  s  s  s  s  y  y  y  y  w  w  s  s  s  s  s  s  s  s  s  s  s  s  s  s  s  s  s  s  y  y  %! %! &! &! )! )! &! &! %! %! %! %! %! %! &! &! &! &! &! &! &! &! #! #! |  |  }  }  y  y  x  x  w  w  s  s  s  s  s  s  s  s  s  s  s  s  s  s  s  s  x  x  w  w  w  w  |  |  !! !! !! !! }  }  w  w  y  &! &! ?! ?! s  s  s  s  L# L# D# D# ?# ?# J! J! ?! ?! 0! 0! <! /! /! #! #! |  |  y  y  y  y  |  |  !! !! }  }  y  y  y  y  s  s  x  x  s  s  s  s  s  s  s  s  s  s  s  s  x  x  y  y  |  |  }  }  }  }  }  }  !! !! .! .! )! )! %! %! %! %! %! %! !! !! }  }  }  }  !! !! !! !! {  {  !! !! }  }  #! #! #! #! y  y  s  s  s  s  s  s  s  s  s  s  s  s  s  s  s  s  s  s  s  s  s  s  s  s  s  ?! ?! 8! 8! Z! Z! C# C# D# D# N# ",
"L# A# A# C# C# A! A! ?! ?! '! '! w  s  s  s  s  s  s  s  s  s  s  s  s  y  y  y  y  w  w  s  s  s  s  s  s  s  s  s  s  s  s  s  s  s  s  s  s  y  y  %! %! &! &! )! )! &! &! %! %! %! %! %! %! &! &! &! &! &! &! &! &! #! #! |  |  }  }  y  y  x  x  w  w  s  s  s  s  s  s  s  s  s  s  s  s  s  s  s  s  x  x  w  w  w  w  |  |  !! !! !! !! }  }  w  w  y  &! &! ?! ?! s  s  s  s  L# L# D# D# ?# ?# J! J! ?! ?! 0! 0! <! /! /! #! #! |  |  y  y  y  y  |  |  !! !! }  }  y  y  y  y  s  s  x  x  s  s  s  s  s  s  s  s  s  s  s  s  x  x  y  y  |  |  }  }  }  }  }  }  !! !! .! .! )! )! %! %! %! %! %! %! !! !! }  }  }  }  !! !! !! !! {  {  !! !! }  }  #! #! #! #! y  y  s  s  s  s  s  s  s  s  s  s  s  s  s  s  s  s  s  s  s  s  s  s  s  s  s  ?! ?! 6! 6! j! j! D# D# D# D# L# ",
"L# A# A# C# C# A! A! ?! ?! '! '! s  s  s  s  s  s  s  `  `  }  }  y  y  s  s  s  s  s  s  s  s  s  s  s  s  s  s  s  s  s  s  s  s  s  s  s  s  s  s  s  s  s  s  s  s  s  s  s  s  w  w  w  w  s  s  s  s  s  s  s  s  s  s  s  s  s  s  s  s  s  s  s  s  s  s  s  s  s  s  s  s  s  s  s  s  s  s  s  s  s  s  s  s  s  s  s  s  s  s  s  s  s  s  s  s  s  5! 5! ?! ?! s  s  s  s  L# L# A# A# C# C# A! A! ?! ?! '! '! s  s  s  s  s  s  s  s  s  s  s  n  n  s  s  s  s  s  s  s  s  s  s  s  s  s  s  s  s  s  s  s  s  s  s  s  s  s  s  s  s  s  s  s  s  s  s  s  s  s  s  s  s  s  s  s  s  s  s  n  n  T  T  X  X  y  y  '! '! y  y  !! !! $! $! D  D  1  1  7  7  h  h  f  f  i  i  i  i  n  n  s  s  s  s  s  s  s  s  s  s  s  s  V  V  P  P  M  ?! ?! 6! 6! j! j! D# D# D# D# L# ",
"L# =# =# 7# 7# ?! ?! ?! ?! 1! 1! s  s  s  s  s  s  s  `  `  }  }  y  y  s  s  s  s  s  s  s  s  s  s  s  s  s  s  s  s  s  s  s  s  s  s  s  s  s  s  s  s  s  s  s  s  s  s  s  s  w  w  w  w  s  s  s  s  s  s  s  s  s  s  s  s  s  s  s  s  s  s  s  s  s  s  s  s  s  s  s  s  s  s  s  s  s  s  s  s  s  s  s  s  s  s  s  s  s  s  s  s  s  s  s  s  s  5! 5! ?! ?! s  s  s  s  L# L# A# A# C# C# A! A! ?! ?! '! '! s  s  s  s  s  s  s  s  s  s  s  n  n  s  s  s  s  s  s  s  s  s  s  s  s  s  s  s  s  s  s  s  s  s  s  s  s  s  s  s  s  s  s  s  s  s  s  s  s  s  s  s  s  s  s  s  s  s  s  n  n  T  T  X  X  y  y  '! '! y  y  !! !! $! $! D  D  1  1  7  7  h  h  f  f  i  i  i  i  n  n  s  s  s  s  s  s  s  s  s  s  s  s  V  V  P  P  M  ?! ?! 5! 5! 2# 2# E# E# D# D# L# ",
"L# =# =# 7# 7# ?! ?! ?! ?! 1! 1! ?! ?! ?! ?! ?! ?! ?! ?! ?! ?! ?! ?! ?! ?! ?! ?! ?! ?! ?! ?! ?! ?! ?! ?! ?! ?! ?! ?! ?! ?! ?! y  y  T  T  ^  ^  q  q  s  s  s  s  s  s  s  s  s  s  s  s  s  s  5! 5! ?! ?! ?! ?! ?! ?! ?! ?! ?! ?! 4! 4! b  b  _  _  `  `  M  M  `  `  `  `  =  =  6  6  1  1  ,  ,  (  (  [  [  P  P  U  U  ^  ^  s  s  s  s  s  s  ~  ~  9! 8! 8! ?! ?! s  s  s  s  L# L# =# =# 7# 7# ?! ?! ?! ?! 1! 1! ~  s  s  ,! ,! ?! ?! ?! ?! ?! ?! ?! ?! ?! ?! ?! ?! y  y  a  a  l  l  X  X  W  W  T  T  H  H  =  =  `  `  4! 4! ?! ?! ?! ?! ?! ?! ?! ?! ?! ?! ?! ?! ?! ?! ?! ?! ?! ?! ?! ?! ?! ?! ?! ?! ?! ?! ?! ?! ?! ?! ?! ?! ?! ?! ?! ?! ?! ?! ?! ?! ?! ?! ?! ?! ?! ?! ?! ?! ?! ?! ?! ?! ?! ?! ?! ?! ?! ?! ?! ?! ?! ?! ?! ?! ?! ?! ?! ?! ?! ?! ?! ?! ?! 5! 5! 2# 2# E# E# D# D# L# ",
"L# A# A# =# =# ?! ?! ?! ?! 5! 5! ?! ?! ?! ?! ?! ?! ?! ?! ?! ?! ?! ?! ?! ?! ?! ?! ?! ?! ?! ?! ?! ?! ?! ?! ?! ?! ?! ?! ?! ?! ?! y  y  T  T  ^  ^  q  q  s  s  s  s  s  s  s  s  s  s  s  s  s  s  5! 5! ?! ?! ?! ?! ?! ?! ?! ?! ?! ?! 4! 4! b  b  _  _  `  `  M  M  `  `  `  `  =  =  6  6  1  1  ,  ,  (  (  [  [  P  P  U  U  ^  ^  s  s  s  s  s  s  ~  ~  9! 8! 8! ?! ?! s  s  s  s  L# L# =# =# 7# 7# ?! ?! ?! ?! 1! 1! ~  s  s  ,! ,! ?! ?! ?! ?! ?! ?! ?! ?! ?! ?! ?! ?! y  y  a  a  l  l  X  X  W  W  T  T  H  H  =  =  `  `  4! 4! ?! ?! ?! ?! ?! ?! ?! ?! ?! ?! ?! ?! ?! ?! ?! ?! ?! ?! ?! ?! ?! ?! ?! ?! ?! ?! ?! ?! ?! ?! ?! ?! ?! ?! ?! ?! ?! ?! ?! ?! ?! ?! ?! ?! ?! ?! ?! ?! ?! ?! ?! ?! ?! ?! ?! ?! ?! ?! ?! ?! ?! ?! ?! ?! ?! ?! ?! ?! ?! ?! ?! ?! ?! 1! 1! 6# 6# E# E# D# D# L# ",
"L# A# A# =# =# ?! ?! ?! ?! 5! 5! ?! ?! ?! ?! ?! ;! ;! 4! 4! ?! ?! ?! ?! ?! ?! ?! ?! 4! 4! ?! ?! ?! ?! ?! ?! ?! ?! ?! ?! ?! ?! ?! ?! ?! ?! ?! ?! ?! ?! ?! ?! 4! 4! h  h  i  i  F  F  ?! ?! ?! ?! ?! ?! ?! ?! ?! ?! ?! ?! ?! ?! ?! ?! ?! ?! ?! ?! ?! ?! ?! ?! ?! ?! ?! ?! ?! ?! ?! ?! ?! ?! ?! ?! ?! ?! ?! ?! ?! ?! ?! ?! ?! ?! ?! ?! ?! ?! ?! ?! ?! ?! ?! ?! ?! ?! ?! ?! ?! X  X  s  s  L# L# A# A# =# =# ?! ?! ?! ?! 5! 5! ?! ?! ?! ?! ?! ?! ?! ?! ?! ?! ?! ?! ?! ?! ?! ?! ?! ?! ?! ?! ?! ?! ?! ?! ?! v  v  5! 5! ?! ?! ?! ?! ?! ?! ?! ?! ?! ?! ?! ?! ?! ?! ?! ?! ?! ?! ?! ?! ?! ?! ?! ?! ?! ?! ?! ?! ?! ?! ?! ?! ?! ?! ?! ?! ?! ?! ?! ?! ?! ?! ?! ?! ?! ?! ?! ?! ?! ?! ?! ?! ?! ?! ?! ?! ?! ?! ?! ?! ?! ?! ?! ?! ?! ?! ?! ?! 8! 8! 8! 8! ?! ?! ;! ;! ?! ?! ?! ?! ?! 1! 1! 6# 6# E# E# D# D# L# ",
"L# A# A# D# D# ?! ?! ?! ?! 6! 6! ?! ?! ?! ?! ?! ;! ;! 4! 4! ?! ?! ?! ?! ?! ?! ?! ?! 4! 4! ?! ?! ?! ?! ?! ?! ?! ?! ?! ?! ?! ?! ?! ?! ?! ?! ?! ?! ?! ?! ?! ?! 4! 4! h  h  i  i  F  F  ?! ?! ?! ?! ?! ?! ?! ?! ?! ?! ?! ?! ?! ?! ?! ?! ?! ?! ?! ?! ?! ?! ?! ?! ?! ?! ?! ?! ?! ?! ?! ?! ?! ?! ?! ?! ?! ?! ?! ?! ?! ?! ?! ?! ?! ?! ?! ?! ?! ?! ?! ?! ?! ?! ?! ?! ?! ?! ?! ?! ?! X  X  s  s  L# L# A# A# =# =# ?! ?! ?! ?! 5! 5! ?! ?! ?! ?! ?! ?! ?! ?! ?! ?! ?! ?! ?! ?! ?! ?! ?! ?! ?! ?! ?! ?! ?! ?! ?! v  v  5! 5! ?! ?! ?! ?! ?! ?! ?! ?! ?! ?! ?! ?! ?! ?! ?! ?! ?! ?! ?! ?! ?! ?! ?! ?! ?! ?! ?! ?! ?! ?! ?! ?! ?! ?! ?! ?! ?! ?! ?! ?! ?! ?! ?! ?! ?! ?! ?! ?! ?! ?! ?! ?! ?! ?! ?! ?! ?! ?! ?! ?! ?! ?! ?! ?! ?! ?! ?! ?! 8! 8! 8! 8! ?! ?! ;! ;! ?! ?! ?! ?! ?! 6! 6! =# =# E# E# D# D# L# ",
"L# A# A# D# D# ?! ?! ?! ?! 6! 6! ?! ?! ?! ?! ?! ?! ?! ?! ?! ?! ?! ?! ?! 5! 5! 8! 8! 8! 8! 4! 4! 1! 1! 0! 0! ?! ?! ?! ?! ?! ?! ?! ?! ?! ?! ?! ?! ?! ?! ?! ?! ?! ?! ?! ?! ?! ?! ?! ?! ?! ?! ?! ?! 0! 0! 8! 8! ?! ?! ?! ?! ?! ?! ?! ?! ?! ?! ?! ?! ?! ?! ?! ?! ?! ?! ?! ?! ?! ?! ?! ?! ?! ?! ?! ?! ?! ?! ?! ?! ?! ?! ?! ?! ?! ?! ?! ?! ?! ?! ?! ?! ?! ?! ?! ?! ?! ?! ?! ?! ?! S  S  s  s  L# L# A# A# D# D# ?! ?! ?! ?! 6! 6! ;! 8! 8! 5! 5! ?! ?! ?! ?! ?! ?! ?! ?! ?! ?! ?! ?! ?! ?! ?! ?! ?! ?! ?! ?! ?! ?! ?! ?! ?! ?! ?! ?! ?! ?! ?! ?! ?! ?! ?! ?! ?! ?! ?! ?! ?! ?! ?! ?! ?! ?! ?! ?! ?! ?! ?! ?! ?! ?! ?! ?! ?! ?! 8! 8! 5! 5! 5! 5! 8! 8! ?! ?! ?! ?! ?! ?! ?! ?! ?! ?! ?! ?! ?! ?! ?! ?! ?! ?! ?! ?! ?! ?! ?! ?! ?! ?! ?! ?! ?! ?! ?! ?! ?! ?! ?! ?! ?! ?! ?! 6! 6! =# =# E# E# D# D# L# ",
"L# A# A# C# C# ?! ?! ?! ?! ?! ?! ?! ?! ?! ?! ?! ?! ?! ?! ?! ?! ?! ?! ?! 5! 5! 8! 8! 8! 8! 4! 4! 1! 1! 0! 0! ?! ?! ?! ?! ?! ?! ?! ?! ?! ?! ?! ?! ?! ?! ?! ?! ?! ?! ?! ?! ?! ?! ?! ?! ?! ?! ?! ?! 0! 0! 8! 8! ?! ?! ?! ?! ?! ?! ?! ?! ?! ?! ?! ?! ?! ?! ?! ?! ?! ?! ?! ?! ?! ?! ?! ?! ?! ?! ?! ?! ?! ?! ?! ?! ?! ?! ?! ?! ?! ?! ?! ?! ?! ?! ?! ?! ?! ?! ?! ?! ?! ?! ?! ?! ?! S  S  s  s  L# L# A# A# D# D# ?! ?! ?! ?! 6! 6! ;! 8! 8! 5! 5! ?! ?! ?! ?! ?! ?! ?! ?! ?! ?! ?! ?! ?! ?! ?! ?! ?! ?! ?! ?! ?! ?! ?! ?! ?! ?! ?! ?! ?! ?! ?! ?! ?! ?! ?! ?! ?! ?! ?! ?! ?! ?! ?! ?! ?! ?! ?! ?! ?! ?! ?! ?! ?! ?! ?! ?! ?! ?! 8! 8! 5! 5! 5! 5! 8! 8! ?! ?! ?! ?! ?! ?! ?! ?! ?! ?! ?! ?! ?! ?! ?! ?! ?! ?! ?! ?! ?! ?! ?! ?! ?! ?! ?! ?! ?! ?! ?! ?! ?! ?! ?! ?! ?! ?! ?! 0! 0! D# D# F# F# D# D# L# ",
"L# A# A# C# C# ?! ?! ?! ?! ?! ?! ?! ?! ?! ?! ?! ?! ?! ?! ?! ?! ?! ?! ?! ?! ?! ?! ?! ?! ?! ?! ?! ?! ?! ?! ?! ?! ?! ?! ?! ?! ?! ?! ?! ?! ?! ?! ?! ?! ?! ?! ?! ?! ?! ?! ?! ?! ?! ?! ?! ?! ?! ?! ?! ?! ?! ?! ?! ?! ?! ?! ?! ;! ;! ;! ;! ?! ?! ?! ?! ?! ?! ?! ?! ?! ?! ?! ?! ?! ?! ?! ?! 5! 5! ?! ?! ?! ?! ?! ?! ?! ?! 8! 8! 4! 4! 5! 5! 4! 4! 8! 8! 6! 6! ?! ?! ?! ?! ?! ?! ?! X  X  s  s  L# L# A# A# C# C# ?! ?! ?! ?! ?! ?! ?! ?! ?! ?! ?! ?! ?! ?! ?! ?! ?! ?! ?! ?! ?! ?! ?! ?! ?! 8! 8! ,! ,! 5! 5! ,! ,! ,! ,! 0! 0! 1! 1! 6! 6! 8! 8! ?! ?! ?! ?! ?! ?! ?! ?! ?! ?! ?! ?! ?! ?! ?! ?! ?! ?! ?! ?! ?! ?! ?! ?! ?! ?! ?! ?! ?! ?! ?! ?! ?! ?! ?! ?! ?! ?! ?! ?! ?! ?! 8! 8! 0! 0! ,! ,! 5! 5! 4! 4! 5! 5! 6! 6! 8! 8! 1! 1! 5! 5! 8! 8! 8! 8! 1! 1! 4! 4! 5! ?! ?! 0! 0! D# D# F# F# D# D# L# ",
"L# A# A# C# C# ?! ?! ?! ?! ;! ;! ?! ?! ?! ?! ?! ?! ?! ?! ?! ?! ?! ?! ?! ?! ?! ?! ?! ?! ?! ?! ?! ?! ?! ?! ?! ?! ?! ?! ?! ?! ?! ?! ?! ?! ?! ?! ?! ?! ?! ?! ?! ?! ?! ?! ?! ?! ?! ?! ?! ?! ?! ?! ?! ?! ?! ?! ?! ?! ?! ?! ?! ;! ;! ;! ;! ?! ?! ?! ?! ?! ?! ?! ?! ?! ?! ?! ?! ?! ?! ?! ?! 5! 5! ?! ?! ?! ?! ?! ?! ?! ?! 8! 8! 4! 4! 5! 5! 4! 4! 8! 8! 6! 6! ?! ?! ?! ?! ?! ?! ?! X  X  s  s  L# L# A# A# C# C# ?! ?! ?! ?! ?! ?! ?! ?! ?! ?! ?! ?! ?! ?! ?! ?! ?! ?! ?! ?! ?! ?! ?! ?! ?! 8! 8! ,! ,! 5! 5! ,! ,! ,! ,! 0! 0! 1! 1! 6! 6! 8! 8! ?! ?! ?! ?! ?! ?! ?! ?! ?! ?! ?! ?! ?! ?! ?! ?! ?! ?! ?! ?! ?! ?! ?! ?! ?! ?! ?! ?! ?! ?! ?! ?! ?! ?! ?! ?! ?! ?! ?! ?! ?! ?! 8! 8! 0! 0! ,! ,! 5! 5! 4! 4! 5! 5! 6! 6! 8! 8! 1! 1! 5! 5! 8! 8! 8! 8! 1! 1! 4! 4! 5! ?! ?! ?! ?! D# D# I# I# F# F# L# ",
"L# A# A# C# C# ?! ?! ?! ?! ;! ;! 5! 5! 5! 8! 8! 4! 4! 5! 5! 6! 6! 8! 8! ?! ?! ?! ?! ?! ?! ?! ?! ?! ?! ?! ?! ?! ?! ?! ?! ?! ?! ;! ;! 6! 6! (! (! 5! 5! 8! 8! ?! ?! ?! ?! ?! ?! ?! ?! ?! ?! ?! ?! ?! ?! ?! ?! ?! ?! ?! ?! ?! ?! ?! ?! ?! ?! ?! ?! ?! ?! ?! ?! ?! ?! ?! ?! ?! ?! ?! ?! ?! ?! ?! ?! ?! ?! ?! ?! ?! ?! ?! ?! ?! ?! ?! ?! ?! ?! ?! ?! ?! ?! ?! ?! ?! ?! ?! ?! ?! X  X  s  s  L# L# A# A# C# C# ?! ?! ?! ?! ;! ;! ?! ?! ?! ?! ?! ?! ?! ?! ?! ?! ?! 1! 1! '! '! $! $! 8! 8! ?! ?! ?! ?! ?! ?! ?! ?! ?! ?! ?! ?! ?! ?! ?! ?! ?! ?! ?! ?! ?! ?! ?! ?! ?! ?! ?! ?! ?! ?! ?! ?! ?! ?! ?! ?! ?! ?! ?! ?! ?! ?! 8! 8! 8! 8! 6! 6! ?! ?! ?! ?! ?! ?! ?! ?! ?! ?! ?! ?! ?! ?! ?! ?! ?! ?! ?! ?! ?! ?! ?! ?! ?! ?! ?! ?! ?! ?! ?! ?! ?! ?! ?! ?! ?! ?! ?! ?! ?! ?! ?! ?! ?! D# D# I# I# F# F# L# ",
"L# =# =# 9# 9# ?! ?! ?! ?! ?! ?! 5! 5! 5! 8! 8! 4! 4! 5! 5! 6! 6! 8! 8! ?! ?! ?! ?! ?! ?! ?! ?! ?! ?! ?! ?! ?! ?! ?! ?! ?! ?! ;! ;! 6! 6! (! (! 5! 5! 8! 8! ?! ?! ?! ?! ?! ?! ?! ?! ?! ?! ?! ?! ?! ?! ?! ?! ?! ?! ?! ?! ?! ?! ?! ?! ?! ?! ?! ?! ?! ?! ?! ?! ?! ?! ?! ?! ?! ?! ?! ?! ?! ?! ?! ?! ?! ?! ?! ?! ?! ?! ?! ?! ?! ?! ?! ?! ?! ?! ?! ?! ?! ?! ?! ?! ?! ?! ?! ?! ?! X  X  s  s  L# L# A# A# C# C# ?! ?! ?! ?! ;! ;! ?! ?! ?! ?! ?! ?! ?! ?! ?! ?! ?! 1! 1! '! '! $! $! 8! 8! ?! ?! ?! ?! ?! ?! ?! ?! ?! ?! ?! ?! ?! ?! ?! ?! ?! ?! ?! ?! ?! ?! ?! ?! ?! ?! ?! ?! ?! ?! ?! ?! ?! ?! ?! ?! ?! ?! ?! ?! ?! ?! 8! 8! 8! 8! 6! 6! ?! ?! ?! ?! ?! ?! ?! ?! ?! ?! ?! ?! ?! ?! ?! ?! ?! ?! ?! ?! ?! ?! ?! ?! ?! ?! ?! ?! ?! ?! ?! ?! ?! ?! ?! ?! ?! ?! ?! ?! ?! ?! ?! ;! ;! C# C# I# I# F# F# L# ",
"L# =# =# 9# 9# ?! ?! ?! ?! ?! ?! ?! ?! ?! ?! ?! ?! ?! ?! ?! 8! 8! ?! ?! ?! ?! ?! ?! ?! ?! ;! ;! 8! 8! 5! 5! 4! 4! ?! ?! ?! ?! ?! ?! ?! ?! ?! ?! ?! ?! ?! ?! ?! ?! ?! ?! ?! ?! ?! ?! ?! ?! 8! 8! ?! ?! ?! ?! ?! ?! ?! ?! ?! ?! ?! ?! ?! ?! ;! ;! 0! 0! 1! 1! ?! ?! ?! ?! ?! ?! ?! ?! ?! ?! ?! ?! ?! ?! ?! ?! ?! ?! ?! ?! ?! ?! ?! ?! ?! ?! ?! ?! ?! ?! ?! ?! ?! ?! ?! ?! ?! #! #! s  s  L# L# =# =# 9# 9# ?! ?! ?! ?! ?! ?! ?! ?! ?! ?! ?! ?! ?! ?! ?! ?! ?! ?! ?! ?! ?! ?! ?! ?! ?! 8! 8! 8! 8! 8! 8! ?! ?! ?! ?! ?! ?! ?! ?! ?! ?! ?! ?! ?! ?! ?! ?! ?! ?! ?! ?! ?! ?! ?! ?! ?! ?! ?! ?! ?! ?! ?! ?! ?! ?! ?! ?! ?! ?! ?! ?! ?! ?! ?! ?! ?! ?! ?! ?! ?! ?! ?! ?! ?! ?! ?! ?! ?! ?! ?! ?! ?! ?! ?! ?! ?! ?! ?! ?! ?! ?! ?! ?! ?! ?! ?! ?! ?! ?! ?! ?! ?! ?! ?! ?! ?! ;! ;! C# C# I# I# F# F# L# ",
"L# =# =# =# =# ?! ?! ?! ?! ?! ?! ?! ?! ?! ?! ?! ?! ?! ?! ?! 8! 8! ?! ?! ?! ?! ?! ?! ?! ?! ;! ;! 8! 8! 5! 5! 4! 4! ?! ?! ?! ?! ?! ?! ?! ?! ?! ?! ?! ?! ?! ?! ?! ?! ?! ?! ?! ?! ?! ?! ?! ?! 8! 8! ?! ?! ?! ?! ?! ?! ?! ?! ?! ?! ?! ?! ?! ?! ;! ;! 0! 0! 1! 1! ?! ?! ?! ?! ?! ?! ?! ?! ?! ?! ?! ?! ?! ?! ?! ?! ?! ?! ?! ?! ?! ?! ?! ?! ?! ?! ?! ?! ?! ?! ?! ?! ?! ?! ?! ?! ?! #! #! s  s  L# L# =# =# 9# 9# ?! ?! ?! ?! ?! ?! ?! ?! ?! ?! ?! ?! ?! ?! ?! ?! ?! ?! ?! ?! ?! ?! ?! ?! ?! 8! 8! 8! 8! 8! 8! ?! ?! ?! ?! ?! ?! ?! ?! ?! ?! ?! ?! ?! ?! ?! ?! ?! ?! ?! ?! ?! ?! ?! ?! ?! ?! ?! ?! ?! ?! ?! ?! ?! ?! ?! ?! ?! ?! ?! ?! ?! ?! ?! ?! ?! ?! ?! ?! ?! ?! ?! ?! ?! ?! ?! ?! ?! ?! ?! ?! ?! ?! ?! ?! ?! ?! ?! ?! ?! ?! ?! ?! ?! ?! ?! ?! ?! ?! ?! ?! ?! ?! ?! ?! ?! ?! ?! :# :# H# H# H# H# L# ",
"L# =# =# =# =# ?! ?! ?! ?! ?! ?! 8! ?! ?! ?! ?! ?! ?! ?! ?! ?! ?! ?! ?! 0! 0! ?! ?! ?! ?! ?! ?! ?! ?! ?! ?! 8! 8! ?! ?! ?! ?! ?! ?! ?! ?! ?! ?! ?! ?! ?! ?! ?! ?! ?! ?! ?! ?! ?! ?! ?! ?! ?! ?! ?! ?! ?! ?! ?! ?! ?! ?! ;! ;! 8! 8! 6! 6! 6! 6! 5! 5! 8! 8! 5! 5! 6! 6! 6! 6! ?! ?! ?! ?! ?! ?! ?! ?! ?! ?! ?! ?! ?! ?! ?! ?! ?! ?! ?! ?! ;! ;! 8! 8! -! -! 5! ?! ?! ?! ?! 1! 1! s  s  L# L# =# =# =# =# ?! ?! ?! ?! ?! ?! ?! ?! ?! ?! ?! ?! ?! ?! ?! ?! ?! ?! ?! ?! ?! ?! ?! ?! ?! ?! ?! ?! ?! ;! ;! 8! 8! 6! 6! 8! 8! ?! ?! ?! ?! ?! ?! ?! ?! 4! 4! ;! ;! ?! ?! ?! ?! ?! ?! ?! ?! ?! ?! ?! ?! ?! ?! ?! ?! ?! ?! ?! ?! ?! ?! ?! ?! ?! ?! ?! ?! ?! ?! ?! ?! ;! ;! 8! 8! 6! 6! 0! 0! 6! 6! ?! ?! ?! ?! ?! ?! ?! ?! ?! ?! ?! ?! ?! ?! ?! ?! ?! ?! ;! ;! 5! 5! ?! ?! ?! ?! ?! :# :# H# H# H# H# L# ",
"L# =# =# 7# 7# ?! ?! ?! ?! ?! ?! 8! ?! ?! ?! ?! ?! ?! ?! ?! ?! ?! ?! ?! 0! 0! ?! ?! ?! ?! ?! ?! ?! ?! ?! ?! 8! 8! ?! ?! ?! ?! ?! ?! ?! ?! ?! ?! ?! ?! ?! ?! ?! ?! ?! ?! ?! ?! ?! ?! ?! ?! ?! ?! ?! ?! ?! ?! ?! ?! ?! ?! ;! ;! 8! 8! 6! 6! 6! 6! 5! 5! 8! 8! 5! 5! 6! 6! 6! 6! ?! ?! ?! ?! ?! ?! ?! ?! ?! ?! ?! ?! ?! ?! ?! ?! ?! ?! ?! ?! ;! ;! 8! 8! -! -! 5! ?! ?! ?! ?! 1! 1! s  s  L# L# =# =# =# =# ?! ?! ?! ?! ?! ?! ?! ?! ?! ?! ?! ?! ?! ?! ?! ?! ?! ?! ?! ?! ?! ?! ?! ?! ?! ?! ?! ?! ?! ;! ;! 8! 8! 6! 6! 8! 8! ?! ?! ?! ?! ?! ?! ?! ?! 4! 4! ;! ;! ?! ?! ?! ?! ?! ?! ?! ?! ?! ?! ?! ?! ?! ?! ?! ?! ?! ?! ?! ?! ?! ?! ?! ?! ?! ?! ?! ?! ?! ?! ?! ?! ;! ;! 8! 8! 6! 6! 0! 0! 6! 6! ?! ?! ?! ?! ?! ?! ?! ?! ?! ?! ?! ?! ?! ?! ?! ?! ?! ?! ;! ;! 5! 5! ?! ?! ?! ?! ?! {! {! F# F# I# I# N# ",
"L# =# =# 7# 7# ?! ?! ?! ?! ?! ?! ?! ?! ?! ?! ?! ?! ?! ?! ?! ?! ?! ?! ?! ?! ?! ?! ?! ?! ?! ?! ?! ?! ?! ?! ?! ?! ?! ?! ?! ?! ?! ?! ?! ?! ?! ?! ?! ?! ?! ?! ?! ?! ?! ?! ?! ?! ?! ?! ?! ?! ?! ?! ?! ?! ?! ?! ?! ?! ?! ?! ?! ?! ?! ?! ?! ?! ?! ?! ?! ?! ?! ?! ?! ?! ?! ?! ?! ?! ?! ?! ?! ?! ?! ?! ?! ?! ?! ?! ?! ?! ?! ?! ?! ?! ?! ?! ?! ?! ?! ?! ?! ?! ?! ?! ?! ?! ?! ?! ?! ?! 8! 8! s  s  L# L# =# =# 7# 7# ?! ?! ?! ?! ?! ?! ?! ?! ?! ?! ?! ?! ?! ?! ?! ?! ?! ?! ?! ?! ?! ?! ?! ?! ?! ?! ?! ?! ?! ?! ?! ?! ?! ?! ?! ?! ?! ?! ?! ?! ?! ?! ?! ?! ?! ?! ?! ?! ?! ?! ?! ?! ?! ?! ?! ;! ;! ?! ?! 8! 8! 8! 8! 8! 8! 8! 8! 6! 6! 8! 8! 8! 8! 8! 8! 8! 8! 8! 8! 6! 6! 6! 6! 6! 6! 8! 8! 6! 6! ?! ?! ?! ?! ?! ?! ?! ?! ?! ?! ?! ?! ?! ?! ?! ?! ?! ?! ?! ?! ?! ?! 6! 6! ;! ?! ?! ?! ?! {! {! F# F# I# I# N# ",
"L# A# A# 7# 7# ?! ?! ?! ?! ?! ?! ?! ?! ?! ?! ?! ?! ?! ?! ?! ?! ?! ?! ?! ?! ?! ?! ?! ?! ?! ?! ?! ?! ?! ?! ?! ?! ?! ?! ?! ?! ?! ?! ?! ?! ?! ?! ?! ?! ?! ?! ?! ?! ?! ?! ?! ?! ?! ?! ?! ?! ?! ?! ?! ?! ?! ?! ?! ?! ?! ?! ?! ?! ?! ?! ?! ?! ?! ?! ?! ?! ?! ?! ?! ?! ?! ?! ?! ?! ?! ?! ?! ?! ?! ?! ?! ?! ?! ?! ?! ?! ?! ?! ?! ?! ?! ?! ?! ?! ?! ?! ?! ?! ?! ?! ?! ?! ?! ?! ?! ?! 8! 8! s  s  L# L# =# =# 7# 7# ?! ?! ?! ?! ?! ?! ?! ?! ?! ?! ?! ?! ?! ?! ?! ?! ?! ?! ?! ?! ?! ?! ?! ?! ?! ?! ?! ?! ?! ?! ?! ?! ?! ?! ?! ?! ?! ?! ?! ?! ?! ?! ?! ?! ?! ?! ?! ?! ?! ?! ?! ?! ?! ?! ?! ;! ;! ?! ?! 8! 8! 8! 8! 8! 8! 8! 8! 6! 6! 8! 8! 8! 8! 8! 8! 8! 8! 8! 8! 6! 6! 6! 6! 6! 6! 8! 8! 6! 6! ?! ?! ?! ?! ?! ?! ?! ?! ?! ?! ?! ?! ?! ?! ?! ?! ?! ?! ?! ?! ?! ?! 6! 6! ;! ?! ?! ?! ?! ^! ^! E# E# I# I# N# ",
"L# A# A# 7# 7# ?! ?! ?! ?! ?! ?! ?! ?! ?! A! A! B! B! ?! ?! ?! ?! ?! ?! ?! ?! ?! ?! ?! ?! ?! ?! ?! ?! ?! ?! ?! ?! ?! ?! ?! ?! ?! ?! ?! ?! ?! ?! ?! ?! ?! ?! ?! ?! ?! ?! ?! ?! ?! ?! ?! ?! ?! ?! ?! ?! ?! ?! ?! ?! ?! ?! ?! ?! ?! ?! ?! ?! ?! ?! ?! ?! ?! ?! ?! ?! ?! ?! ?! ?! ?! ?! ?! ?! ?! ?! ?! ?! ?! ?! B! B! B! B! G! G! E! E! ?! ?! ?! ?! 5! 5! ,! ,! (! ?! ?! ?! ?! ?! ?! s  s  L# L# A# A# 7# 7# ?! ?! ?! ?! ?! ?! ?! ?! ?! ?! ?! ?! ?! ?! ?! ?! ?! ?! ?! ?! ?! B! B! I! I! F! F! H! H! E! E! B! B! ?! ?! C! C! C! C! C! C! C! C! C! C! B! B! ?! ?! ?! ?! ?! ?! ?! ?! ?! ?! ?! ?! ?! ?! ?! ?! ?! ?! ?! ?! ?! ?! ?! ?! ?! ?! ?! ?! ?! ?! ?! ?! ?! ?! ?! ?! ?! ?! ?! ?! ?! ?! ?! ?! ?! ?! ?! ?! ?! ?! ?! ?! ?! ?! ?! ?! ?! ?! ?! ?! ?! ?! ?! ?! ?! ?! ?! ?! ?! ?! ?! ^! ^! E# E# I# I# N# ",
"L# A# A# 7# 7# ?! ?! ?! ?! ?! ?! ?! ?! ?! A! A! B! B! ?! ?! ?! ?! ?! ?! ?! ?! ?! ?! ?! ?! ?! ?! ?! ?! ?! ?! ?! ?! ?! ?! ?! ?! ?! ?! ?! ?! ?! ?! ?! ?! ?! ?! ?! ?! ?! ?! ?! ?! ?! ?! ?! ?! ?! ?! ?! ?! ?! ?! ?! ?! ?! ?! ?! ?! ?! ?! ?! ?! ?! ?! ?! ?! ?! ?! ?! ?! ?! ?! ?! ?! ?! ?! ?! ?! ?! ?! ?! ?! ?! ?! B! B! B! B! G! G! E! E! ?! ?! ?! ?! 5! 5! ,! ,! (! ?! ?! ?! ?! ?! ?! s  s  L# L# A# A# 7# 7# ?! ?! ?! ?! ?! ?! ?! ?! ?! ?! ?! ?! ?! ?! ?! ?! ?! ?! ?! ?! ?! B! B! I! I! F! F! H! H! E! E! B! B! ?! ?! C! C! C! C! C! C! C! C! C! C! B! B! ?! ?! ?! ?! ?! ?! ?! ?! ?! ?! ?! ?! ?! ?! ?! ?! ?! ?! ?! ?! ?! ?! ?! ?! ?! ?! ?! ?! ?! ?! ?! ?! ?! ?! ?! ?! ?! ?! ?! ?! ?! ?! ?! ?! ?! ?! ?! ?! ?! ?! ?! ?! ?! ?! ?! ?! ?! ?! ?! ?! ?! ?! ?! ?! ?! ?! ?! ?! ?! ?! ?! L! L! E# E# E# E# N# ",
"L# A# A# 7# 7# ?! ?! ?! ?! ?! ?! !# $# $# r! r! j! j! e! e! J! J! J! J! L! L! N! N! E! E! C! C! B! B! A! A! I! I! N! N! N! N! N! N! J! J! B! B! C! C! M! M! N! N! T! T! T! T! T! T! ^! ^! W! W! X! X! ^! ^! _! _! u! u! r! r! h! h! s! s! W! W! N! N! N! N! N! N! N! N! T! T! L! L! N! N! T! T! r! r! 9# 9# =# =# 9# 9# =# =# 3# 3# f! f! J! J! Z! Z! m! m! E! ?! ?! ?! ?! ?! ?! s  s  L# L# A# A# 7# 7# ?! ?! ?! ?! ?! ?! I! I! I! ^! ^! x! x! 7# 7# 7# 7# 9# 9# =# =# A# A# E# E# D# D# D# D# =# =# D# D# D# D# =# =# |! |! $# $# {! {! 2# 2# z! z! e! e! d! d! Z! Z! X! X! m! m! Z! Z! W! W! P! P! N! N! O! O! P! P! F! F! J! J! L! L! N! N! N! N! N! N! N! N! X! X! x! x! {! {! )# )# )# )# $# $# $# $# )# )# )# )# )# )# <# <# ,# ,# !# !# z! z! m! m! F! ?! ?! ?! ?! L! L! E# E# E# E# N# ",
"L# A# A# 3# 3# ?! ?! ?! ?! ?! ?! !# $# $# r! r! j! j! e! e! J! J! J! J! L! L! N! N! E! E! C! C! B! B! A! A! I! I! N! N! N! N! N! N! J! J! B! B! C! C! M! M! N! N! T! T! T! T! T! T! ^! ^! W! W! X! X! ^! ^! _! _! u! u! r! r! h! h! s! s! W! W! N! N! N! N! N! N! N! N! T! T! L! L! N! N! T! T! r! r! 9# 9# =# =# 9# 9# =# =# 3# 3# f! f! J! J! Z! Z! m! m! E! ?! ?! ?! ?! ?! ?! s  s  L# L# A# A# 7# 7# ?! ?! ?! ?! ?! ?! I! I! I! ^! ^! x! x! 7# 7# 7# 7# 9# 9# =# =# A# A# E# E# D# D# D# D# =# =# D# D# D# D# =# =# |! |! $# $# {! {! 2# 2# z! z! e! e! d! d! Z! Z! X! X! m! m! Z! Z! W! W! P! P! N! N! O! O! P! P! F! F! J! J! L! L! N! N! N! N! N! N! N! N! X! X! x! x! {! {! )# )# )# )# $# $# $# $# )# )# )# )# )# )# <# <# ,# ,# !# !# z! z! m! m! F! ?! ?! ?! ?! G! G! C# C# E# E# L# ",
"L# A# A# 3# 3# ?! ?! ?! ?! ?! ?! 7# 9# 9# 9# 9# =# =# =# =# 9# 9# 7# 7# =# =# =# =# 6# 6# 7# 7# 7# 7# 3# 3# 1# 1# ,# ,# +# +# 1# 1# 1# 1# 1# 1# ,# ,# 3# 3# 7# 7# 9# 9# =# =# =# =# =# =# 9# 9# 6# 6# 7# 7# 3# 3# 1# 1# 1# 1# 3# 3# 3# 3# 1# 1# 1# 1# 1# 1# 3# 3# 7# 7# 7# 7# =# =# =# =# A# A# C# C# E# E# E# E# E# E# F# F# E# E# D# D# =# =# 7# 7# 6# 6# 6# ?! ?! ?! ?! ?! ?! s  s  L# L# A# A# 3# 3# ?! ?! ?! ?! ?! ?! 7# =# =# C# C# =# =# =# =# A# A# E# E# E# E# D# D# E# E# E# E# F# F# F# F# F# F# E# E# D# D# =# =# =# =# 9# 9# 6# 6# 1# 1# 6# 6# 6# 6# 6# 6# 7# 7# 6# 6# 6# 6# 6# 6# 6# 6# 6# 6# 3# 3# 3# 3# 1# 1# 1# 1# 6# 6# 6# 6# 1# 1# 1# 1# 1# 1# 1# 1# 3# 3# 1# 1# 4# 4# 7# 7# 7# 7# 6# 6# :# :# ;# ;# ;# ;# =# =# =# =# 7# 7# 7# 7# 7# 7# =# ?! ?! ?! ?! G! G! C# C# E# E# L# ",
"L# A# A# 8# 8# ?! ?! ?! ?! ?! ?! 7# 9# 9# 9# 9# =# =# =# =# 9# 9# 7# 7# =# =# =# =# 6# 6# 7# 7# 7# 7# 3# 3# 1# 1# ,# ,# +# +# 1# 1# 1# 1# 1# 1# ,# ,# 3# 3# 7# 7# 9# 9# =# =# =# =# =# =# 9# 9# 6# 6# 7# 7# 3# 3# 1# 1# 1# 1# 3# 3# 3# 3# 1# 1# 1# 1# 1# 1# 3# 3# 7# 7# 7# 7# =# =# =# =# A# A# C# C# E# E# E# E# E# E# F# F# E# E# D# D# =# =# 7# 7# 6# 6# 6# ?! ?! ?! ?! ?! ?! s  s  L# L# A# A# 3# 3# ?! ?! ?! ?! ?! ?! 7# =# =# C# C# =# =# =# =# A# A# E# E# E# E# D# D# E# E# E# E# F# F# F# F# F# F# E# E# D# D# =# =# =# =# 9# 9# 6# 6# 1# 1# 6# 6# 6# 6# 6# 6# 7# 7# 6# 6# 6# 6# 6# 6# 6# 6# 6# 6# 3# 3# 3# 3# 1# 1# 1# 1# 6# 6# 6# 6# 1# 1# 1# 1# 1# 1# 1# 1# 3# 3# 1# 1# 4# 4# 7# 7# 7# 7# 6# 6# :# :# ;# ;# ;# ;# =# =# =# =# 7# 7# 7# 7# 7# 7# =# ?! ?! ?! ?! F! F! =# =# D# D# L# ",
"L# A# A# 8# 8# ?! ?! ?! ?! ?! ?! =# =# =# =# =# =# =# D# D# D# D# =# =# =# =# =# =# =# =# =# =# B# B# A# A# D# D# D# D# =# =# =# =# =# =# =# =# =# =# C# C# A# A# A# A# D# D# D# D# D# D# D# D# E# E# F# F# E# E# F# F# E# E# E# E# E# E# D# D# D# D# C# C# D# D# D# D# E# E# E# E# F# F# F# F# E# E# E# E# A# A# A# A# A# A# A# A# D# D# D# D# D# D# D# D# D# ?! ?! ?! ?! ?! ?! s  s  L# L# A# A# 8# 8# ?! ?! ?! ?! ?! ?! A# D# D# D# D# A# A# D# D# E# E# E# E# E# E# F# F# E# E# E# E# D# D# D# D# D# D# D# D# C# C# =# =# =# =# =# =# =# =# =# =# =# =# =# =# 9# 9# 7# 7# 1# 1# 1# 1# 6# 6# 6# 6# =# =# 6# 6# 6# 6# 6# 6# =# =# =# =# =# =# =# =# =# =# D# D# D# D# E# E# E# E# F# F# F# F# F# F# E# E# E# E# D# D# D# D# D# D# B# B# B# B# B# B# B# B# =# ?! ?! ?! ?! F! F! =# =# D# D# L# ",
"L# =# =# 8# 8# ?! ?! ?! ?! ?! ?! =# =# =# =# =# =# =# D# D# D# D# =# =# =# =# =# =# =# =# =# =# B# B# A# A# D# D# D# D# =# =# =# =# =# =# =# =# =# =# C# C# A# A# A# A# D# D# D# D# D# D# D# D# E# E# F# F# E# E# F# F# E# E# E# E# E# E# D# D# D# D# C# C# D# D# D# D# E# E# E# E# F# F# F# F# E# E# E# E# A# A# A# A# A# A# A# A# D# D# D# D# D# D# D# D# D# ?! ?! ?! ?! ?! ?! s  s  L# L# A# A# 8# 8# ?! ?! ?! ?! ?! ?! A# D# D# D# D# A# A# D# D# E# E# E# E# E# E# F# F# E# E# E# E# D# D# D# D# D# D# D# D# C# C# =# =# =# =# =# =# =# =# =# =# =# =# =# =# 9# 9# 7# 7# 1# 1# 1# 1# 6# 6# 6# 6# =# =# 6# 6# 6# 6# 6# 6# =# =# =# =# =# =# =# =# =# =# D# D# D# D# E# E# E# E# F# F# F# F# F# F# E# E# E# E# D# D# D# D# D# D# B# B# B# B# B# B# B# B# =# ?! ?! ?! ?! C! C! =# =# =# =# L# ",
"L# =# =# 8# 8# ?! ?! ?! ?! ?! ?! P# P# P# P# P# P# P# P# P# P# P# P# P# P# P# P# P# O# O# P# P# O# O# O# O# N# N# O# O# P# P# P# P# P# P# P# P# P# P# P# P# O# O# P# P# P# P# O# O# N# N# N# N# N# N# N# N# N# N# N# N# N# N# N# N# N# N# N# N# N# N# N# N# N# N# N# N# N# N# N# N# N# N# N# N# N# N# O# O# P# P# P# P# P# P# P# P# P# P# P# P# P# P# O# O# N# ?! ?! ?! ?! #! #! s  s  L# L# =# =# 8# 8# ?! ?! ?! ?! ?! ?! P# P# P# P# P# P# P# P# P# P# P# P# P# P# P# P# P# P# P# P# P# P# P# P# P# P# P# P# P# P# P# P# P# P# P# P# P# P# P# P# P# P# P# P# P# P# P# P# P# P# P# P# P# P# P# P# P# P# P# P# P# P# P# P# P# P# P# P# P# P# P# P# P# P# P# P# P# P# P# P# P# P# P# P# P# P# P# P# P# P# P# P# P# P# P# P# P# P# P# P# P# P# P# P# P# P# P# P# ?! ?! ?! ?! C! C! =# =# =# =# L# ",
"L# C# C# C# C# ?! ?! ?! ?! ?! ?! P# P# P# P# P# P# P# P# P# P# P# P# P# P# P# P# P# O# O# P# P# O# O# O# O# N# N# O# O# P# P# P# P# P# P# P# P# P# P# P# P# O# O# P# P# P# P# O# O# N# N# N# N# N# N# N# N# N# N# N# N# N# N# N# N# N# N# N# N# N# N# N# N# N# N# N# N# N# N# N# N# N# N# N# N# N# N# O# O# P# P# P# P# P# P# P# P# P# P# P# P# P# P# O# O# N# ?! ?! ?! ?! #! #! s  s  L# L# =# =# 8# 8# ?! ?! ?! ?! ?! ?! P# P# P# P# P# P# P# P# P# P# P# P# P# P# P# P# P# P# P# P# P# P# P# P# P# P# P# P# P# P# P# P# P# P# P# P# P# P# P# P# P# P# P# P# P# P# P# P# P# P# P# P# P# P# P# P# P# P# P# P# P# P# P# P# P# P# P# P# P# P# P# P# P# P# P# P# P# P# P# P# P# P# P# P# P# P# P# P# P# P# P# P# P# P# P# P# P# P# P# P# P# P# P# P# P# P# P# P# ?! ?! ?! ?! C! C! 9# 9# =# =# L# ",
"L# C# C# C# C# ?! ?! ?! ?! ?! ?! |  }  }  !! !! !! !! !! !! #! #! #! #! !! !! x  x  s  s  w  w  |  |  #! #! %! %! !! !! !! !! }  }  %! %! /! /! /! /! &! &! #! #! #! #! #! #! #! #! %! %! &! &! )! )! &! &! !! !! !! !! #! #! #! #! y  y  s  s  s  s  s  s  s  s  s  s  s  s  s  s  w  w  w  w  y  y  |  |  }  }  !! !! #! #! #! #! %! %! %! %! %! %! %! %! )! ?! ?! ?! ?! q  q  s  s  L# L# C# C# C# C# ?! ?! ?! ?! ?! ?! y  s  s  s  s  s  s  s  s  s  s  s  s  s  s  w  w  x  x  y  y  !! !! #! #! %! %! #! #! #! #! !! !! }  }  w  w  s  s  s  s  s  s  w  w  x  x  s  s  s  s  s  s  y  y  !! !! !! !! !! !! %! %! %! %! .! .! )! )! %! %! %! %! }  }  s  s  s  s  s  s  s  s  s  s  s  s  s  s  s  s  s  s  s  s  s  s  s  s  s  s  s  s  s  s  s  s  s  ?! ?! ?! ?! C! C! 9# 9# =# =# L# ",
"L# D# D# @# @# I! I! ?! ?! ?! ?! |  }  }  !! !! !! !! !! !! #! #! #! #! !! !! x  x  s  s  w  w  |  |  #! #! %! %! !! !! !! !! }  }  %! %! /! /! /! /! &! &! #! #! #! #! #! #! #! #! %! %! &! &! )! )! &! &! !! !! !! !! #! #! #! #! y  y  s  s  s  s  s  s  s  s  s  s  s  s  s  s  w  w  w  w  y  y  |  |  }  }  !! !! #! #! #! #! %! %! %! %! %! %! %! %! )! ?! ?! ?! ?! q  q  s  s  L# L# C# C# C# C# ?! ?! ?! ?! ?! ?! y  s  s  s  s  s  s  s  s  s  s  s  s  s  s  w  w  x  x  y  y  !! !! #! #! %! %! #! #! #! #! !! !! }  }  w  w  s  s  s  s  s  s  w  w  x  x  s  s  s  s  s  s  y  y  !! !! !! !! !! !! %! %! %! %! .! .! )! )! %! %! %! %! }  }  s  s  s  s  s  s  s  s  s  s  s  s  s  s  s  s  s  s  s  s  s  s  s  s  s  s  s  s  s  s  s  s  s  ?! ?! ?! ?! C! C! =# =# =# =# L# ",
"L# D# D# @# @# I! I! ?! ?! ?! ?! s  n  n  e  e  `  `  `  `  s  s  s  s  s  s  s  s  s  s  s  s  s  s  s  s  s  s  s  s  s  s  s  s  n  n  f  f  n  n  s  s  s  s  s  s  s  s  s  s  s  s  s  s  s  s  s  s  s  s  s  s  s  s  s  s  s  s  n  n  s  s  s  s  s  s  s  s  s  s  s  s  s  s  s  s  s  s  s  s  s  s  s  s  s  s  s  s  s  s  s  s  s  s  s  s  s  ?! ?! '! '! :  :  s  s  L# L# D# D# @# @# I! I! ?! ?! ?! ?! s  s  s  s  s  s  s  s  s  s  s  s  s  s  s  s  s  s  s  I  I  V  V  i  i  s  s  s  s  c  c  X  X  X  X  P  P  s  s  s  s  s  s  s  s  s  s  s  s  s  s  b  b  e  e  n  n  s  s  n  n  n  n  s  s  s  s  s  s  s  s  s  s  s  s  s  s  s  s  q  q  s  s  s  s  s  s  s  s  s  s  s  s  s  s  s  s  s  s  s  s  s  s  s  s  s  s  s  ?! ?! ?! ?! C! C! =# =# =# =# L# ",
"L# D# D# =# =# m! m! ?! ?! ?! ?! s  n  n  e  e  `  `  `  `  s  s  s  s  s  s  s  s  s  s  s  s  s  s  s  s  s  s  s  s  s  s  s  s  n  n  f  f  n  n  s  s  s  s  s  s  s  s  s  s  s  s  s  s  s  s  s  s  s  s  s  s  s  s  s  s  s  s  n  n  s  s  s  s  s  s  s  s  s  s  s  s  s  s  s  s  s  s  s  s  s  s  s  s  s  s  s  s  s  s  s  s  s  s  s  s  s  ?! ?! '! '! :  :  s  s  L# L# D# D# @# @# I! I! ?! ?! ?! ?! s  s  s  s  s  s  s  s  s  s  s  s  s  s  s  s  s  s  s  I  I  V  V  i  i  s  s  s  s  c  c  X  X  X  X  P  P  s  s  s  s  s  s  s  s  s  s  s  s  s  s  b  b  e  e  n  n  s  s  n  n  n  n  s  s  s  s  s  s  s  s  s  s  s  s  s  s  s  s  q  q  s  s  s  s  s  s  s  s  s  s  s  s  s  s  s  s  s  s  s  s  s  s  s  s  s  s  s  ?! ?! ?! ?! E! E! ;# ;# =# =# L# ",
"L# D# D# =# =# m! m! ?! ?! ?! ?! i  *! *! ?! ?! ?! ?! ?! ?! ?! ?! ?! ?! ?! ?! ?! ?! ?! ?! ?! ?! ?! ?! ?! ?! ?! ?! ?! ?! ?! ?! ?! ?! ?! ?! ?! ?! ?! ?! ?! ?! ?! ?! ?! ?! ?! ?! ?! ?! ?! ?! ?! ?! ?! ?! ?! ?! ?! ?! ?! ?! ?! ?! ?! ?! ?! ?! ?! ?! 4! 4! '! '! G  G  3  3  '  '  E  E  G  G  X  X  s  s  s  s  h  h  `  `  s  s  ?! ?! 8! 8! 0! 0! +! +! p  p  w  ?! ?! &! &! 5  5  s  s  L# L# D# D# =# =# m! m! ?! ?! ?! ?! ?! ?! ?! ?! ?! ?! ?! ?! ?! ?! ?! ?! ?! ?! ?! ?! ?! ?! ?! ?! ?! ?! ?! ?! ?! ?! ?! ?! ?! ?! ?! ?! ?! ?! ?! ?! ?! ?! ?! ?! ?! ?! ?! ?! ?! ?! ?! ?! ?! ?! ?! ?! ?! ?! ?! ?! ?! ?! ?! ?! ?! ?! ?! ?! ?! &! &! }  }  ?! ?! ?! ?! ?! ?! ?! ?! ?! ?! ?! ?! ?! ?! #! #! U  U  e  e  e  e  `  `  U  U  k  k  8! 8! 1! 1! s  s  n  n  |  |  x  ?! ?! ?! ?! E! E! ;# ;# =# =# L# ",
"L# E# E# A# A# &# &# 5! 5! ?! ?! i  *! *! ?! ?! ?! ?! ?! ?! ?! ?! ?! ?! ?! ?! ?! ?! ?! ?! ?! ?! ?! ?! ?! ?! ?! ?! ?! ?! ?! ?! ?! ?! ?! ?! ?! ?! ?! ?! ?! ?! ?! ?! ?! ?! ?! ?! ?! ?! ?! ?! ?! ?! ?! ?! ?! ?! ?! ?! ?! ?! ?! ?! ?! ?! ?! ?! ?! ?! 4! 4! '! '! G  G  3  3  '  '  E  E  G  G  X  X  s  s  s  s  h  h  `  `  s  s  ?! ?! 8! 8! 0! 0! +! +! p  p  w  ?! ?! &! &! 5  5  s  s  L# L# D# D# =# =# m! m! ?! ?! ?! ?! ?! ?! ?! ?! ?! ?! ?! ?! ?! ?! ?! ?! ?! ?! ?! ?! ?! ?! ?! ?! ?! ?! ?! ?! ?! ?! ?! ?! ?! ?! ?! ?! ?! ?! ?! ?! ?! ?! ?! ?! ?! ?! ?! ?! ?! ?! ?! ?! ?! ?! ?! ?! ?! ?! ?! ?! ?! ?! ?! ?! ?! ?! ?! ?! ?! &! &! }  }  ?! ?! ?! ?! ?! ?! ?! ?! ?! ?! ?! ?! ?! ?! #! #! U  U  e  e  e  e  `  `  U  U  k  k  8! 8! 1! 1! s  s  n  n  |  |  x  ?! ?! ?! ?! C! C! ># ># =# =# L# ",
"L# E# E# A# A# &# &# 5! 5! ?! ?! ?! ?! ?! ?! ?! ?! ?! ?! ?! ?! ?! ?! ?! ?! ?! ?! ?! 6! 6! 8! 8! 1! 1! 8! 8! ?! ?! ?! ?! ?! ?! ?! ?! ?! ?! 8! 8! 5! 5! 1! 1! (! (! (! (! 1! 1! 0! 0! ,! ,! ,! ,! 5! 5! 6! 6! 5! 5! 6! 6! 5! 5! ,! ,! ;! ;! ?! ?! ?! ?! ?! ?! ?! ?! ?! ?! ?! ?! ,! ,! u  u  d  d  ~  ~  ?! ?! ?! ?! ?! ?! ?! ?! ?! ?! ?! ?! ?! ?! ?! ?! ?! ?! ?! ?! ?! y  y  f  f  s  s  L# L# E# E# A# A# &# &# 5! 5! ?! ?! ?! ?! ?! ?! ?! ?! ?! ?! ?! ?! ?! ?! ?! ?! ?! ?! ?! ?! ?! ?! ?! ?! ?! ?! ?! ?! ?! ?! ?! ?! ?! ?! ?! ?! ?! ?! ?! ?! ?! ?! ?! ?! ?! ?! ?! ?! ?! ?! ?! ?! ?! ?! ?! ?! ?! ?! ?! ?! ?! ?! ?! ?! ?! ?! ?! ?! ?! ?! ?! ?! ?! ?! ?! ?! ?! ?! ?! ?! ?! ?! ?! ?! ?! ?! ?! ?! ?! ?! ?! ?! ?! ?! ?! ?! ?! ?! ?! ?! ?! ?! ?! ?! ?! ?! ?! ?! ?! ?! ?! ?! ?! ?! C! C! ># ># =# =# L# ",
"L# E# E# C# C# z! z! ?! ?! ?! ?! ?! ?! ?! ?! ?! ?! ?! ?! ?! ?! ?! ?! ?! ?! ?! ?! ?! 6! 6! 8! 8! 1! 1! 8! 8! ?! ?! ?! ?! ?! ?! ?! ?! ?! ?! 8! 8! 5! 5! 1! 1! (! (! (! (! 1! 1! 0! 0! ,! ,! ,! ,! 5! 5! 6! 6! 5! 5! 6! 6! 5! 5! ,! ,! ;! ;! ?! ?! ?! ?! ?! ?! ?! ?! ?! ?! ?! ?! ,! ,! u  u  d  d  ~  ~  ?! ?! ?! ?! ?! ?! ?! ?! ?! ?! ?! ?! ?! ?! ?! ?! ?! ?! ?! ?! ?! y  y  f  f  s  s  L# L# E# E# A# A# &# &# 5! 5! ?! ?! ?! ?! ?! ?! ?! ?! ?! ?! ?! ?! ?! ?! ?! ?! ?! ?! ?! ?! ?! ?! ?! ?! ?! ?! ?! ?! ?! ?! ?! ?! ?! ?! ?! ?! ?! ?! ?! ?! ?! ?! ?! ?! ?! ?! ?! ?! ?! ?! ?! ?! ?! ?! ?! ?! ?! ?! ?! ?! ?! ?! ?! ?! ?! ?! ?! ?! ?! ?! ?! ?! ?! ?! ?! ?! ?! ?! ?! ?! ?! ?! ?! ?! ?! ?! ?! ?! ?! ?! ?! ?! ?! ?! ?! ?! ?! ?! ?! ?! ?! ?! ?! ?! ?! ?! ?! ?! ?! ?! ?! ?! ?! ?! A! A! B# B# D# D# L# ",
"L# E# E# C# C# z! z! ?! ?! ?! ?! ?! ?! ?! ?! ?! ?! ?! ?! ?! 8! 8! 0! 0! 1! 1! ;! ;! ?! ?! ?! ?! ?! ?! ?! ?! ?! ?! ?! ?! ?! ?! ?! ?! ?! ?! ?! ?! ?! ?! ?! ?! ?! ?! ?! ?! ?! ?! ?! ?! ?! ?! ?! ?! ?! ?! ?! ?! ?! ?! ?! ?! ?! ?! ?! ?! ?! ?! ?! ?! ?! ?! ,! ,! ;! ;! ?! ?! ?! ?! ?! ?! ?! ?! ?! ?! ?! ?! ?! ?! ?! ?! ?! ?! ?! ?! ?! ?! ?! ?! ?! ?! ?! ?! ?! ?! ?! ?! ?! r  r  s  s  s  s  L# L# E# E# C# C# z! z! ?! ?! ?! ?! ?! ?! ?! ?! ?! ?! ?! ?! ?! ?! ?! ?! ?! ?! ?! ?! ?! ?! ?! ?! ?! ?! ?! ?! ?! ?! ?! 8! 8! ?! ?! ?! ?! ?! ?! ?! ?! ?! ?! ?! ?! ?! ?! ?! ?! ?! ?! ?! ?! ?! ?! ?! ?! ?! ?! ?! ?! ?! ?! ?! ?! ?! ?! ?! ?! ?! ?! ?! ?! ?! ?! ?! ?! ?! ?! ?! ?! ?! ?! ?! ?! ?! ?! ?! ?! ?! ?! ?! ?! ?! ?! ?! ?! ?! ?! ?! ?! ?! ?! ?! ?! ?! ?! ?! ?! ?! ?! ?! ?! ?! ?! ?! A! A! B# B# D# D# L# ",
"L# E# E# E# E# R! R! ?! ?! ?! ?! ?! ?! ?! ?! ?! ?! ?! ?! ?! 8! 8! 0! 0! 1! 1! ;! ;! ?! ?! ?! ?! ?! ?! ?! ?! ?! ?! ?! ?! ?! ?! ?! ?! ?! ?! ?! ?! ?! ?! ?! ?! ?! ?! ?! ?! ?! ?! ?! ?! ?! ?! ?! ?! ?! ?! ?! ?! ?! ?! ?! ?! ?! ?! ?! ?! ?! ?! ?! ?! ?! ?! ,! ,! ;! ;! ?! ?! ?! ?! ?! ?! ?! ?! ?! ?! ?! ?! ?! ?! ?! ?! ?! ?! ?! ?! ?! ?! ?! ?! ?! ?! ?! ?! ?! ?! ?! ?! ?! r  r  s  s  s  s  L# L# E# E# C# C# z! z! ?! ?! ?! ?! ?! ?! ?! ?! ?! ?! ?! ?! ?! ?! ?! ?! ?! ?! ?! ?! ?! ?! ?! ?! ?! ?! ?! ?! ?! ?! ?! 8! 8! ?! ?! ?! ?! ?! ?! ?! ?! ?! ?! ?! ?! ?! ?! ?! ?! ?! ?! ?! ?! ?! ?! ?! ?! ?! ?! ?! ?! ?! ?! ?! ?! ?! ?! ?! ?! ?! ?! ?! ?! ?! ?! ?! ?! ?! ?! ?! ?! ?! ?! ?! ?! ?! ?! ?! ?! ?! ?! ?! ?! ?! ?! ?! ?! ?! ?! ?! ?! ?! ?! ?! ?! ?! ?! ?! ?! ?! ?! ?! ?! ?! ?! ?! B! B! E# E# E# E# L# ",
"L# E# E# E# E# R! R! ?! ?! ?! ?! ?! ?! ?! ?! ?! ?! ?! ?! ?! ?! ?! ?! ?! ?! ?! ?! ?! 8! 8! ?! ?! ?! ?! ?! ?! ?! ?! ?! ?! ?! ?! ?! ?! ?! ?! ?! ?! ?! ?! ?! ?! ?! ?! ?! ?! ?! ?! ?! ?! ?! ?! ?! ?! ?! ?! ?! ?! ?! ?! ?! ?! ?! ?! ?! ?! ?! ?! ?! ?! ?! ?! ?! ?! ?! ?! ?! ?! ?! ?! ?! ?! ?! ?! ?! ?! ?! ?! 8! 8! ?! ?! ?! ?! ?! ?! ?! ?! ?! ?! ?! ?! ?! ?! ?! ?! ?! ?! ?! y  y  s  s  s  s  L# L# E# E# E# E# R! R! ?! ?! ?! ?! ?! ?! ?! ?! ?! ?! ?! ?! ?! 6! 6! 0! 0! 5! 5! ?! ?! ?! ?! ?! ?! ?! ?! ?! ?! ?! ?! ?! ?! ?! ?! ?! ?! ?! ?! ?! ?! ?! ?! ?! ?! ?! ?! ?! ?! ?! ?! ?! ?! ?! ?! ?! ?! ?! ?! ?! ?! ?! ?! ?! ?! ?! ?! ?! ?! ?! ?! ?! ?! ?! ?! ?! ?! ?! ?! ?! ?! ?! ?! ?! ?! ?! ?! ?! ?! ?! ?! ?! ?! ?! ?! ?! ?! ?! ?! ?! ?! ?! ?! ?! ?! ?! ?! ?! ?! ?! ?! ?! ?! ?! ?! ?! B! B! E# E# E# E# L# ",
"L# E# E# E# E# B! B! ?! ?! ?! ?! ?! ?! ?! ?! ?! ?! ?! ?! ?! ?! ?! ?! ?! ?! ?! ?! ?! 8! 8! ?! ?! ?! ?! ?! ?! ?! ?! ?! ?! ?! ?! ?! ?! ?! ?! ?! ?! ?! ?! ?! ?! ?! ?! ?! ?! ?! ?! ?! ?! ?! ?! ?! ?! ?! ?! ?! ?! ?! ?! ?! ?! ?! ?! ?! ?! ?! ?! ?! ?! ?! ?! ?! ?! ?! ?! ?! ?! ?! ?! ?! ?! ?! ?! ?! ?! ?! ?! 8! 8! ?! ?! ?! ?! ?! ?! ?! ?! ?! ?! ?! ?! ?! ?! ?! ?! ?! ?! ?! y  y  s  s  s  s  L# L# E# E# E# E# R! R! ?! ?! ?! ?! ?! ?! ?! ?! ?! ?! ?! ?! ?! 6! 6! 0! 0! 5! 5! ?! ?! ?! ?! ?! ?! ?! ?! ?! ?! ?! ?! ?! ?! ?! ?! ?! ?! ?! ?! ?! ?! ?! ?! ?! ?! ?! ?! ?! ?! ?! ?! ?! ?! ?! ?! ?! ?! ?! ?! ?! ?! ?! ?! ?! ?! ?! ?! ?! ?! ?! ?! ?! ?! ?! ?! ?! ?! ?! ?! ?! ?! ?! ?! ?! ?! ?! ?! ?! ?! ?! ?! ?! ?! ?! ?! ?! ?! ?! ?! ?! ?! ?! ?! ?! ?! ?! ?! ?! ?! ?! ?! ?! ?! ?! ?! ?! R! R! E# E# E# E# L# ",
"L# E# E# E# E# B! B! ?! ?! ?! ?! ?! ?! ?! ?! ?! 8! 8! ?! ?! ?! ?! ?! ?! ?! ?! ?! ?! ?! ?! ?! ?! ?! ?! ?! ?! ?! ?! ?! ?! ;! ;! ?! ?! ?! ?! ?! ?! ?! ?! ?! ?! ?! ?! ?! ?! ?! ?! ?! ?! ?! ?! ?! ?! ?! ?! ?! ?! ?! ?! ?! ?! ?! ?! ?! ?! ?! ?! ?! ?! ?! ?! ?! ?! ?! ?! ?! ?! ?! ?! ?! ?! ?! ?! ?! ?! ?! ?! ?! ?! ?! ?! ?! ?! ?! ?! ?! ?! ?! ?! ?! ?! ?! ?! ?! ?! ?! ?! ?! /! /! n  n  s  s  L# L# E# E# E# E# B! B! ?! ?! ?! ?! ;! ;! ;! ?! ?! 8! 8! ?! ?! ?! ?! ?! ?! ?! ?! ?! ?! ?! ?! ?! ?! ?! ?! ?! ?! ?! ?! ?! ?! ?! ?! ?! ?! ?! ?! ?! ?! ?! ?! ?! ?! ?! ?! ?! ?! ?! ?! ?! ?! ?! ?! ?! ?! ?! ?! ?! ?! ?! ?! ?! ?! ?! ?! ?! ?! ?! ?! ?! ?! ?! ?! ?! ?! ?! ?! ?! ?! ?! ?! ?! ?! ?! ?! (! (! &! &! (! (! ,! ,! 4! 4! 5! 5! 8! 8! 6! 6! 6! 6! ;! ;! 8! 8! 8! 8! ?! ?! ?! ?! ?! R! R! E# E# E# E# L# ",
"L# D# D# B# B# A! A! ?! ?! ?! ?! ?! ?! ?! ?! ?! 8! 8! ?! ?! ?! ?! ?! ?! ?! ?! ?! ?! ?! ?! ?! ?! ?! ?! ?! ?! ?! ?! ?! ?! ;! ;! ?! ?! ?! ?! ?! ?! ?! ?! ?! ?! ?! ?! ?! ?! ?! ?! ?! ?! ?! ?! ?! ?! ?! ?! ?! ?! ?! ?! ?! ?! ?! ?! ?! ?! ?! ?! ?! ?! ?! ?! ?! ?! ?! ?! ?! ?! ?! ?! ?! ?! ?! ?! ?! ?! ?! ?! ?! ?! ?! ?! ?! ?! ?! ?! ?! ?! ?! ?! ?! ?! ?! ?! ?! ?! ?! ?! ?! /! /! n  n  s  s  L# L# E# E# E# E# B! B! ?! ?! ?! ?! ;! ;! ;! ?! ?! 8! 8! ?! ?! ?! ?! ?! ?! ?! ?! ?! ?! ?! ?! ?! ?! ?! ?! ?! ?! ?! ?! ?! ?! ?! ?! ?! ?! ?! ?! ?! ?! ?! ?! ?! ?! ?! ?! ?! ?! ?! ?! ?! ?! ?! ?! ?! ?! ?! ?! ?! ?! ?! ?! ?! ?! ?! ?! ?! ?! ?! ?! ?! ?! ?! ?! ?! ?! ?! ?! ?! ?! ?! ?! ?! ?! ?! ?! (! (! &! &! (! (! ,! ,! 4! 4! 5! 5! 8! 8! 6! 6! 6! 6! ;! ;! 8! 8! 8! 8! ?! ?! ?! ?! ?! z! z! C# C# E# E# L# ",
"L# D# D# B# B# A! A! ?! ?! ?! ?! ?! ?! ?! ?! ?! ?! ?! ?! ?! ?! ?! ?! ?! ?! ?! ?! ?! ?! ?! ?! ?! ?! ?! ?! ?! ;! ;! 6! 6! 8! 8! ?! ?! ?! ?! 8! 8! ?! ?! ?! ?! ?! ?! ?! ?! ?! ?! ?! ?! ?! ?! ?! ?! ?! ?! ?! ?! ?! ?! ?! ?! ?! ?! ?! ?! ?! ?! ?! ?! ?! ?! ?! ?! ?! ?! ?! ?! ?! ?! ?! ?! ?! ?! ?! ?! ?! ?! ?! ?! ?! ?! ?! ?! ?! ?! ?! ?! ?! ?! ?! ?! ?! ?! ?! ?! ?! ?! ?! 9! 9! ^  ^  w  w  L# L# D# D# B# B# A! A! ?! ?! ?! ?! 5! ?! ?! ?! ?! ?! ?! ?! ?! ?! ?! ?! ?! ?! ?! ?! ?! ?! ?! ?! ?! ?! ?! ?! ?! ?! ?! ?! ?! ?! ?! ?! ?! ?! ?! ?! ?! ?! ?! ?! ?! ?! ?! ?! ?! ?! ?! ?! ?! ?! ?! ?! ?! ?! ?! ?! ?! ?! ?! ?! ?! ?! ?! ?! ?! ?! ?! ?! ?! ?! ?! ?! ?! ?! ?! ?! ?! ?! ?! ?! ?! ?! ?! ;! ;! ?! ?! ?! ?! ?! ?! ?! ?! ?! ?! ?! ?! ?! ?! ?! ?! ?! ?! ?! ?! ?! ?! ?! ?! ?! ?! ?! z! z! C# C# E# E# L# ",
"L# =# =# ># ># C! C! ?! ?! ?! ?! ?! ?! ?! ?! ?! ?! ?! ?! ?! ?! ?! ?! ?! ?! ?! ?! ?! ?! ?! ?! ?! ?! ?! ?! ?! ;! ;! 6! 6! 8! 8! ?! ?! ?! ?! 8! 8! ?! ?! ?! ?! ?! ?! ?! ?! ?! ?! ?! ?! ?! ?! ?! ?! ?! ?! ?! ?! ?! ?! ?! ?! ?! ?! ?! ?! ?! ?! ?! ?! ?! ?! ?! ?! ?! ?! ?! ?! ?! ?! ?! ?! ?! ?! ?! ?! ?! ?! ?! ?! ?! ?! ?! ?! ?! ?! ?! ?! ?! ?! ?! ?! ?! ?! ?! ?! ?! ?! ?! 9! 9! ^  ^  w  w  L# L# D# D# B# B# A! A! ?! ?! ?! ?! 5! ?! ?! ?! ?! ?! ?! ?! ?! ?! ?! ?! ?! ?! ?! ?! ?! ?! ?! ?! ?! ?! ?! ?! ?! ?! ?! ?! ?! ?! ?! ?! ?! ?! ?! ?! ?! ?! ?! ?! ?! ?! ?! ?! ?! ?! ?! ?! ?! ?! ?! ?! ?! ?! ?! ?! ?! ?! ?! ?! ?! ?! ?! ?! ?! ?! ?! ?! ?! ?! ?! ?! ?! ?! ?! ?! ?! ?! ?! ?! ?! ?! ?! ;! ;! ?! ?! ?! ?! ?! ?! ?! ?! ?! ?! ?! ?! ?! ?! ?! ?! ?! ?! ?! ?! ?! ?! ?! ?! ?! 5! 5! &# &# A# A# E# E# L# ",
"L# =# =# ># ># C! C! ?! ?! ?! ?! ?! ?! ?! ?! ?! ?! ?! ?! ?! ?! ?! ?! ?! ?! ?! ?! ?! ?! ?! ?! ?! ?! ?! ?! ?! ?! ?! ?! ?! ?! ?! ?! ?! ?! ?! ?! ?! ?! ?! ?! ?! ?! ?! ?! ?! ?! ?! ?! ?! ?! ?! ?! ?! ?! ?! ?! ?! ?! ?! ?! ?! ?! ?! ?! ?! ?! ?! ?! ?! ?! ?! ?! ?! ?! ?! ?! ?! ?! ?! ?! ?! ?! ?! ?! ?! ?! ?! 8! 8! 6! 6! 8! 8! 8! 8! 6! 6! 8! 8! 8! 8! 8! 8! ?! ?! ?! ?! ?! ?! ?! `  `  y  y  L# L# =# =# ># ># C! C! ?! ?! ?! ?! ?! ?! ?! ?! ?! ?! ?! ?! ?! ?! ?! ?! ?! ?! ?! ?! ?! ?! ?! ?! ?! ?! ?! ?! ?! ?! ?! ?! ?! ?! ?! ?! ?! ?! ?! ?! ?! ?! ?! 8! 8! 5! 5! 0! 0! 6! 6! 8! 8! 6! 6! 6! 6! 8! 8! 4! 4! 0! 0! -! -! 0! 0! -! -! 4! 4! 6! 6! 8! 8! ?! ?! ?! ?! ?! ?! 8! 8! 6! 6! 6! 6! 8! 8! ?! ?! ?! ?! ?! ?! ?! ?! ?! ?! ?! ?! ?! ?! ?! ?! ?! ?! ?! ?! ?! ?! ?! ?! ?! 5! 5! &# &# A# A# E# E# L# ",
"L# =# =# ;# ;# E! E! ?! ?! ?! ?! ?! ?! ?! ?! ?! ?! ?! ?! ?! ?! ?! ?! ?! ?! ?! ?! ?! ?! ?! ?! ?! ?! ?! ?! ?! ?! ?! ?! ?! ?! ?! ?! ?! ?! ?! ?! ?! ?! ?! ?! ?! ?! ?! ?! ?! ?! ?! ?! ?! ?! ?! ?! ?! ?! ?! ?! ?! ?! ?! ?! ?! ?! ?! ?! ?! ?! ?! ?! ?! ?! ?! ?! ?! ?! ?! ?! ?! ?! ?! ?! ?! ?! ?! ?! ?! ?! ?! 8! 8! 6! 6! 8! 8! 8! 8! 6! 6! 8! 8! 8! 8! 8! 8! ?! ?! ?! ?! ?! ?! ?! `  `  y  y  L# L# =# =# ># ># C! C! ?! ?! ?! ?! ?! ?! ?! ?! ?! ?! ?! ?! ?! ?! ?! ?! ?! ?! ?! ?! ?! ?! ?! ?! ?! ?! ?! ?! ?! ?! ?! ?! ?! ?! ?! ?! ?! ?! ?! ?! ?! ?! ?! 8! 8! 5! 5! 0! 0! 6! 6! 8! 8! 6! 6! 6! 6! 8! 8! 4! 4! 0! 0! -! -! 0! 0! -! -! 4! 4! 6! 6! 8! 8! ?! ?! ?! ?! ?! ?! 8! 8! 6! 6! 6! 6! 8! 8! ?! ?! ?! ?! ?! ?! ?! ?! ?! ?! ?! ?! ?! ?! ?! ?! ?! ?! ?! ?! ?! ?! ?! ?! ?! ?! ?! m! m! =# =# D# D# L# ",
"L# =# =# ;# ;# E! E! ?! ?! ?! ?! B! B! B! B! B! C! C! C! C! B! B! A! A! ?! ?! ?! ?! ?! ?! ?! ?! ?! ?! ?! ?! ?! ?! ?! ?! ?! ?! ?! ?! ?! ?! ?! ?! ?! ?! 8! 8! 8! 8! 8! 8! 8! 8! :! :! :! :! :! :! >! >! D! D! F! F! B! B! B! B! A! A! A! A! ?! ?! ?! ?! ?! ?! ?! ?! ?! ?! ?! ?! ?! ?! ?! ?! ?! ?! ?! ?! ?! ?! ?! ?! ?! ?! ?! ?! ?! ?! ?! ?! B! B! ?! ?! ?! ?! ?! ?! ?! ?! ?! `  `  y  y  L# L# =# =# ;# ;# E! E! ?! ?! ?! ?! ?! ?! ?! ?! ?! ?! ?! ?! ?! ?! ?! ?! ?! ?! ?! 8! 8! 8! 8! 6! 6! ?! ?! ?! ?! ?! ?! ?! ?! ?! ?! ?! ?! ?! ?! ?! ?! ?! ?! ?! ?! ?! ?! ?! ?! ?! ?! ?! ?! ?! ?! ?! ?! ?! ?! ?! ?! ?! ?! ?! ?! ?! ?! ?! ?! ?! ?! ?! ?! ?! ?! ?! ?! ?! ?! ?! ?! ?! ?! ?! ?! ?! ?! ?! ?! ?! ?! ?! ?! ?! ?! ?! ?! ?! ?! ?! ?! ?! ?! ?! ?! ?! ?! ?! ?! ?! ?! ?! ?! ?! ?! ?! m! m! =# =# D# D# L# ",
"L# =# =# =# =# C! C! ?! ?! ?! ?! B! B! B! B! B! C! C! C! C! B! B! A! A! ?! ?! ?! ?! ?! ?! ?! ?! ?! ?! ?! ?! ?! ?! ?! ?! ?! ?! ?! ?! ?! ?! ?! ?! ?! ?! 8! 8! 8! 8! 8! 8! 8! 8! :! :! :! :! :! :! >! >! D! D! F! F! B! B! B! B! A! A! A! A! ?! ?! ?! ?! ?! ?! ?! ?! ?! ?! ?! ?! ?! ?! ?! ?! ?! ?! ?! ?! ?! ?! ?! ?! ?! ?! ?! ?! ?! ?! ?! ?! B! B! ?! ?! ?! ?! ?! ?! ?! ?! ?! `  `  y  y  L# L# =# =# ;# ;# E! E! ?! ?! ?! ?! ?! ?! ?! ?! ?! ?! ?! ?! ?! ?! ?! ?! ?! ?! ?! 8! 8! 8! 8! 6! 6! ?! ?! ?! ?! ?! ?! ?! ?! ?! ?! ?! ?! ?! ?! ?! ?! ?! ?! ?! ?! ?! ?! ?! ?! ?! ?! ?! ?! ?! ?! ?! ?! ?! ?! ?! ?! ?! ?! ?! ?! ?! ?! ?! ?! ?! ?! ?! ?! ?! ?! ?! ?! ?! ?! ?! ?! ?! ?! ?! ?! ?! ?! ?! ?! ?! ?! ?! ?! ?! ?! ?! ?! ?! ?! ?! ?! ?! ?! ?! ?! ?! ?! ?! ?! ?! ?! ?! ?! ?! ?! ?! I! I! @# @# D# D# L# ",
"L# =# =# =# =# C! C! ?! ?! ?! ?! 9# =# =# =# =# D# D# D# D# D# D# {! {! e! e! N! N! F! F! C! C! B! B! ?! ?! ?! ?! ?! ?! ?! ?! ?! ?! A! A! B! B! C! C! F! F! |! |! 1# 1# +# +# 6# 6# 6# 6# 6# 6# <# <# =# =# ;# ;# 1# 1# 3# 3# u! u! S! S! N! N! I! I! E! E! B! B! A! A! ?! ?! ?! ?! C! C! u! u! ~! ~! ~! ~! *# *# ,# ,# 1# 1# 1# 1# 1# 1# 1# 1# 1# 1# ,# ,# 3# ?! ?! ?! ?! M  M  y  y  L# L# =# =# =# =# C! C! ?! ?! ?! ?! x! e! e! ~! ~! 1# 1# d! d! B! B! A! A! ?! ?! ?! ?! ?! ?! B! B! B! B! C! C! I! I! K! K! S! S! t! t! ~! ~! $# $# {! {! r! r! [! [! E! E! C! C! C! C! B! B! B! B! A! A! B! B! F! F! F! F! G! G! N! N! q! q! $# $# '# '# $# $# )# )# ,# ,# '# '# u! u! F! F! B! B! ?! ?! ?! ?! ?! ?! A! A! Q! Q! C! C! C! C! E! E! F! F! N! N! T! T! _! ?! ?! ?! ?! I! I! @# @# D# D# L# ",
"L# =# =# 9# 9# C! C! ?! ?! ?! ?! 9# =# =# =# =# D# D# D# D# D# D# {! {! e! e! N! N! F! F! C! C! B! B! ?! ?! ?! ?! ?! ?! ?! ?! ?! ?! A! A! B! B! C! C! F! F! |! |! 1# 1# +# +# 6# 6# 6# 6# 6# 6# <# <# =# =# ;# ;# 1# 1# 3# 3# u! u! S! S! N! N! I! I! E! E! B! B! A! A! ?! ?! ?! ?! C! C! u! u! ~! ~! ~! ~! *# *# ,# ,# 1# 1# 1# 1# 1# 1# 1# 1# 1# 1# ,# ,# 3# ?! ?! ?! ?! M  M  y  y  L# L# =# =# =# =# C! C! ?! ?! ?! ?! x! e! e! ~! ~! 1# 1# d! d! B! B! A! A! ?! ?! ?! ?! ?! ?! B! B! B! B! C! C! I! I! K! K! S! S! t! t! ~! ~! $# $# {! {! r! r! [! [! E! E! C! C! C! C! B! B! B! B! A! A! B! B! F! F! F! F! G! G! N! N! q! q! $# $# '# '# $# $# )# )# ,# ,# '# '# u! u! F! F! B! B! ?! ?! ?! ?! ?! ?! A! A! Q! Q! C! C! C! C! E! E! F! F! N! N! T! T! _! ?! ?! ?! ?! ?! ?! C# C# C# C# L# ",
"L# =# =# 9# 9# C! C! ?! ?! ?! ?! F# F# F# H# H# F# F# F# F# F# F# D# D# =# =# =# =# 9# 9# 6# 6# =# =# 7# 7# 1# 1# 3# 3# $# $# r! r! x! x! $# $# 3# 3# 1# 1# 6# 6# 9# 9# =# =# C# C# C# C# E# E# F# F# E# E# E# E# D# D# D# D# A# A# =# =# 7# 7# 9# 9# B# B# 7# 7# 7# 7# 1# 1# 1# 1# 9# 9# =# =# 9# 9# =# =# =# =# =# =# =# =# 6# 6# 6# 6# 7# 7# 7# 7# 9# 9# =# ?! ?! ?! ?! s  s  y  y  L# L# =# =# 9# 9# C! C! ?! ?! ?! ?! =# B# B# E# E# D# D# =# =# ;# ;# `! `! ]! ]! m! m! 5# 5# 3# 3# 3# 3# 6# 6# 6# 6# 9# 9# =# =# =# =# =# =# =# =# 7# 7# 6# 6# 6# 6# 3# 3# 6# 6# 3# 3# 1# 1# 1# 1# 1# 1# 9# 9# 6# 6# 6# 6# 7# 7# 9# 9# 9# 9# 7# 7# 7# 7# =# =# C# C# A# A# =# =# 6# 6# 3# 3# 3# 3# 6# 6# =# =# 4# 4# ,# ,# $# $# $# $# ,# ,# 3# 3# ,# ,# +# +# +# +# )# ?! ?! ?! ?! ?! ?! C# C# C# C# L# ",
"L# =# =# =# =# C! C! ?! ?! ?! ?! F# F# F# H# H# F# F# F# F# F# F# D# D# =# =# =# =# 9# 9# 6# 6# =# =# 7# 7# 1# 1# 3# 3# $# $# r! r! x! x! $# $# 3# 3# 1# 1# 6# 6# 9# 9# =# =# C# C# C# C# E# E# F# F# E# E# E# E# D# D# D# D# A# A# =# =# 7# 7# 9# 9# B# B# 7# 7# 7# 7# 1# 1# 1# 1# 9# 9# =# =# 9# 9# =# =# =# =# =# =# =# =# 6# 6# 6# 6# 7# 7# 7# 7# 9# 9# =# ?! ?! ?! ?! s  s  y  y  L# L# =# =# 9# 9# C! C! ?! ?! ?! ?! =# B# B# E# E# D# D# =# =# ;# ;# `! `! ]! ]! m! m! 5# 5# 3# 3# 3# 3# 6# 6# 6# 6# 9# 9# =# =# =# =# =# =# =# =# 7# 7# 6# 6# 6# 6# 3# 3# 6# 6# 3# 3# 1# 1# 1# 1# 1# 1# 9# 9# 6# 6# 6# 6# 7# 7# 9# 9# 9# 9# 7# 7# 7# 7# =# =# C# C# A# A# =# =# 6# 6# 3# 3# 3# 3# 6# 6# =# =# 4# 4# ,# ,# $# $# $# $# ,# ,# 3# 3# ,# ,# +# +# +# +# )# ?! ?! ?! ?! ?! ?! 8# 8# =# =# L# ",
"L# =# =# =# =# C! C! ?! ?! ?! ?! F# E# E# D# D# D# D# C# C# A# A# =# =# 7# 7# 7# 7# 7# 7# 7# 7# ;# ;# =# =# =# =# =# =# =# =# C# C# =# =# D# D# F# F# F# F# E# E# E# E# D# D# E# E# D# D# I# I# I# I# F# F# G# G# F# F# G# G# I# I# I# I# F# F# E# E# E# E# E# E# E# E# E# E# F# F# H# H# H# H# H# H# H# H# F# F# F# F# F# F# E# E# D# D# A# A# =# =# =# =# =# ?! ?! ?! ?! 5! 5! y  y  L# L# =# =# =# =# C! C! ?! ?! ?! ?! F# F# F# H# H# I# I# F# F# C# C# 9# 9# =# =# =# =# D# D# E# E# E# E# E# E# E# E# D# D# D# D# C# C# D# D# C# C# C# C# B# B# D# D# D# D# D# D# D# D# D# D# D# D# D# D# =# =# D# D# D# D# F# F# E# E# E# E# E# E# D# D# D# D# E# E# E# E# E# E# E# E# D# D# E# E# D# D# D# D# D# D# C# C# B# B# D# D# =# =# =# =# =# =# 7# 7# 3# 3# 6# ?! ?! ?! ?! ?! ?! 8# 8# =# =# L# ",
"L# D# D# =# =# F! F! ?! ?! ?! ?! F# E# E# D# D# D# D# C# C# A# A# =# =# 7# 7# 7# 7# 7# 7# 7# 7# ;# ;# =# =# =# =# =# =# =# =# C# C# =# =# D# D# F# F# F# F# E# E# E# E# D# D# E# E# D# D# I# I# I# I# F# F# G# G# F# F# G# G# I# I# I# I# F# F# E# E# E# E# E# E# E# E# E# E# F# F# H# H# H# H# H# H# H# H# F# F# F# F# F# F# E# E# D# D# A# A# =# =# =# =# =# ?! ?! ?! ?! 5! 5! y  y  L# L# =# =# =# =# C! C! ?! ?! ?! ?! F# F# F# H# H# I# I# F# F# C# C# 9# 9# =# =# =# =# D# D# E# E# E# E# E# E# E# E# D# D# D# D# C# C# D# D# C# C# C# C# B# B# D# D# D# D# D# D# D# D# D# D# D# D# D# D# =# =# D# D# D# D# F# F# E# E# E# E# E# E# D# D# D# D# E# E# E# E# E# E# E# E# D# D# E# E# D# D# D# D# D# D# C# C# B# B# D# D# =# =# =# =# =# =# 7# 7# 3# 3# 6# ?! ?! ?! ?! ?! ?! 8# 8# A# A# L# ",
"L# D# D# =# =# F! F! ?! ?! ?! ?! D# B# B# A# A# D# D# D# D# D# D# D# D# D# D# =# =# =# =# =# =# =# =# =# =# ># ># B# B# B# B# D# D# D# D# E# E# F# F# F# F# D# D# E# E# A# A# C# C# A# A# D# D# E# E# H# H# I# I# H# H# H# H# I# I# I# I# K# K# K# K# I# I# I# I# I# I# I# I# I# I# I# I# H# H# H# H# H# H# H# H# H# H# H# H# F# F# E# E# C# C# C# C# C# C# C# ?! ?! ?! ?! 4! 4! y  y  L# L# D# D# =# =# F! F! ?! ?! ?! ?! H# H# H# F# F# I# I# E# E# D# D# D# D# E# E# E# E# E# E# E# E# D# D# D# D# C# C# C# C# A# A# =# =# =# =# A# A# A# A# C# C# D# D# D# D# D# D# E# E# E# E# E# E# E# E# D# D# E# E# E# E# F# F# F# F# E# E# E# E# E# E# D# D# B# B# C# C# C# C# =# =# ># ># @# @# D# D# C# C# C# C# D# D# E# E# D# D# ># ># =# =# =# =# 9# 9# 9# 9# =# ?! ?! ?! ?! ?! ?! 8# 8# A# A# L# ",
"L# E# E# C# C# G! G! ?! ?! ?! ?! D# B# B# A# A# D# D# D# D# D# D# D# D# D# D# =# =# =# =# =# =# =# =# =# =# ># ># B# B# B# B# D# D# D# D# E# E# F# F# F# F# D# D# E# E# A# A# C# C# A# A# D# D# E# E# H# H# I# I# H# H# H# H# I# I# I# I# K# K# K# K# I# I# I# I# I# I# I# I# I# I# I# I# H# H# H# H# H# H# H# H# H# H# H# H# F# F# E# E# C# C# C# C# C# C# C# ?! ?! ?! ?! 4! 4! y  y  L# L# D# D# =# =# F! F! ?! ?! ?! ?! H# H# H# F# F# I# I# E# E# D# D# D# D# E# E# E# E# E# E# E# E# D# D# D# D# C# C# C# C# A# A# =# =# =# =# A# A# A# A# C# C# D# D# D# D# D# D# E# E# E# E# E# E# E# E# D# D# E# E# E# E# F# F# F# F# E# E# E# E# E# E# D# D# B# B# C# C# C# C# =# =# ># ># @# @# D# D# C# C# C# C# D# D# E# E# D# D# ># ># =# =# =# =# 9# 9# 9# 9# =# ?! ?! ?! ?! ?! ?! 3# 3# A# A# L# ",
"L# E# E# C# C# G! G! ?! ?! ?! ?! %! %! %! #! #! &! &! &! &! #! #! !! !! %! %! &! &! #! #! #! #! #! #! %! %! &! &! )! )! 2! 2! 4! 4! 3! 3! 2! 2! /! /! /! /! /! /! )! )! &! &! %! %! /! /! 2! 2! 2! 2! .! .! )! )! %! %! #! #! /! /! 7! 7! <! <! 7! 7! /! /! /! /! /! /! 2! 2! 2! 2! 3! 3! 4! 4! 7! 7! 7! 7! 7! 7! 4! 4! 3! 3! 2! 2! /! /! .! .! )! )! )! )! %! ?! ?! ?! ?! 1! 1! x  x  L# L# E# E# C# C# G! G! ?! ?! ?! ?! 4! 4! 4! /! /! )! )! }  }  }  }  }  }  !! !! !! !! %! %! #! #! !! !! !! !! x  x  w  w  w  w  s  s  x  x  y  y  w  w  w  w  w  w  x  x  x  x  y  y  y  y  y  y  |  |  %! %! )! )! )! )! &! &! %! %! #! #! )! )! /! /! )! )! )! )! )! )! )! )! |  |  |  |  !! !! |  |  |  |  |  |  }  }  !! !! !! !! !! !! !! !! !! !! !! !! !! !! !! ?! ?! ?! ?! ?! ?! 3# 3# A# A# L# ",
"N# E# E# E# E# L! L! ?! ?! ?! ?! %! %! %! #! #! &! &! &! &! #! #! !! !! %! %! &! &! #! #! #! #! #! #! %! %! &! &! )! )! 2! 2! 4! 4! 3! 3! 2! 2! /! /! /! /! /! /! )! )! &! &! %! %! /! /! 2! 2! 2! 2! .! .! )! )! %! %! #! #! /! /! 7! 7! <! <! 7! 7! /! /! /! /! /! /! 2! 2! 2! 2! 3! 3! 4! 4! 7! 7! 7! 7! 7! 7! 4! 4! 3! 3! 2! 2! /! /! .! .! )! )! )! )! %! ?! ?! ?! ?! 1! 1! x  x  L# L# E# E# C# C# G! G! ?! ?! ?! ?! 4! 4! 4! /! /! )! )! }  }  }  }  }  }  !! !! !! !! %! %! #! #! !! !! !! !! x  x  w  w  w  w  s  s  x  x  y  y  w  w  w  w  w  w  x  x  x  x  y  y  y  y  y  y  |  |  %! %! )! )! )! )! &! &! %! %! #! #! )! )! /! /! )! )! )! )! )! )! )! )! |  |  |  |  !! !! |  |  |  |  |  |  }  }  !! !! !! !! !! !! !! !! !! !! !! !! !! !! !! ?! ?! ?! ?! ?! ?! 7# 7# A# A# L# ",
"N# E# E# E# E# L! L! ?! ?! ?! ?! s  s  s  s  s  s  s  s  s  s  s  s  s  s  s  s  s  s  s  s  s  s  s  s  s  s  s  s  s  s  s  s  s  s  s  s  s  s  s  s  s  s  s  s  s  s  s  s  s  s  s  s  s  s  s  s  s  s  s  s  s  s  s  s  s  s  s  s  s  s  s  s  s  s  s  s  s  s  s  s  s  s  s  s  s  s  s  s  s  s  s  s  s  s  s  s  s  s  s  s  s  s  s  s  s  s  6! 6! ?! ?! 0! 0! s  s  N# N# E# E# E# E# L! L! ?! ?! ?! ?! s  s  s  s  s  s  s  s  s  s  s  s  s  s  s  s  s  s  s  s  s  s  s  s  s  s  s  s  s  s  s  s  s  s  s  s  s  s  s  s  s  s  s  s  s  s  s  s  s  s  s  s  s  s  s  s  s  s  s  s  s  s  s  s  s  s  s  s  s  s  s  s  s  s  s  s  s  y  y  s  s  s  s  s  s  s  s  s  s  s  s  s  s  s  s  s  s  s  s  s  s  s  s  s  s  s  s  s  ?! ?! ?! ?! ?! ?! 7# 7# A# A# L# ",
"N# I# I# E# E# ^! ^! ?! ?! ?! ?! s  s  s  s  s  s  s  s  s  s  s  s  s  s  s  s  s  s  s  s  s  s  s  s  s  s  s  s  s  s  s  s  s  s  s  s  s  s  s  s  s  s  s  s  s  s  s  s  s  s  s  s  s  s  s  s  s  s  s  s  s  s  s  s  s  s  s  s  s  s  s  s  s  s  s  s  s  s  s  s  s  s  s  s  s  s  s  s  s  s  s  s  s  s  s  s  s  s  s  s  s  s  s  s  s  s  6! 6! ?! ?! 0! 0! s  s  N# N# E# E# E# E# L! L! ?! ?! ?! ?! s  s  s  s  s  s  s  s  s  s  s  s  s  s  s  s  s  s  s  s  s  s  s  s  s  s  s  s  s  s  s  s  s  s  s  s  s  s  s  s  s  s  s  s  s  s  s  s  s  s  s  s  s  s  s  s  s  s  s  s  s  s  s  s  s  s  s  s  s  s  s  s  s  s  s  s  s  y  y  s  s  s  s  s  s  s  s  s  s  s  s  s  s  s  s  s  s  s  s  s  s  s  s  s  s  s  s  s  ?! ?! ?! ?! ?! ?! 7# 7# A# A# L# ",
"N# I# I# E# E# ^! ^! ?! ?! ?! ?! s  s  s  s  s  s  s  s  s  s  s  s  s  s  s  s  s  s  s  s  s  s  s  s  s  s  s  s  s  s  s  s  s  s  s  s  s  s  s  s  s  s  s  s  s  q  q  n  n  n  n  s  s  s  s  s  s  s  s  s  s  s  s  s  s  s  s  s  s  s  s  s  s  s  s  s  s  s  s  s  s  s  s  s  s  s  s  s  s  n  n  `  `  L  L  I  I  P  P  C  C  6  6  0  0  5  4! 4! ?! ?! 0! 0! s  s  N# N# I# I# E# E# ^! ^! ?! ?! ?! ?! s  s  s  s  s  s  s  s  s  s  s  s  s  s  s  s  s  s  s  s  s  n  n  b  b  X  X  R  R  )  )  *  *  5  5  J  J  Y  Y  ?  ?  p  p  |  |  |  |  |  |  |  |  |  |  }  }  }  }  |  |  |  |  |  |  |  |  |  |  x  x  s  s  s  s  s  s  e  e  n  n  s  s  s  s  s  s  s  s  s  s  s  s  s  s  s  s  s  s  ,! ,! 4! 4! s  s  e  e  `  `  U  ?! ?! ?! ?! ?! ?! 7# 7# A# A# L# ",
"N# I# I# F# F# {! {! ?! ?! ?! ?! s  s  s  s  s  s  s  s  s  s  s  s  s  s  s  s  s  s  s  s  s  s  s  s  s  s  s  s  s  s  s  s  s  s  s  s  s  s  s  s  s  s  s  s  s  q  q  n  n  n  n  s  s  s  s  s  s  s  s  s  s  s  s  s  s  s  s  s  s  s  s  s  s  s  s  s  s  s  s  s  s  s  s  s  s  s  s  s  s  n  n  `  `  L  L  I  I  P  P  C  C  6  6  0  0  5  4! 4! ?! ?! 0! 0! s  s  N# N# I# I# E# E# ^! ^! ?! ?! ?! ?! s  s  s  s  s  s  s  s  s  s  s  s  s  s  s  s  s  s  s  s  s  n  n  b  b  X  X  R  R  )  )  *  *  5  5  J  J  Y  Y  ?  ?  p  p  |  |  |  |  |  |  |  |  |  |  }  }  }  }  |  |  |  |  |  |  |  |  |  |  x  x  s  s  s  s  s  s  e  e  n  n  s  s  s  s  s  s  s  s  s  s  s  s  s  s  s  s  s  s  ,! ,! 4! 4! s  s  e  e  `  `  U  ?! ?! ?! ?! ?! ?! 7# 7# =# =# L# ",
"N# I# I# F# F# {! {! ?! ?! ?! ?! T  X  X  x  x  i  i  y  y  s  s  s  s  s  s  8! 8! 4! 4! ?! ?! ?! ?! ?! ?! ?! ?! ?! ?! ?! ?! ?! ?! ?! ?! ?! ?! ?! ?! ?! ?! ?! ?! ?! ?! ?! ?! ?! ?! ?! ?! ?! ?! ?! ?! ?! ?! ?! ?! ?! ?! ?! ?! ?! ?! ?! ?! ?! ?! ?! ?! ?! ?! ?! ?! ?! ?! 8! 8! 8! 8! 8! 8! -! -! x  x  l  l  ?! ?! ?! ?! ?! ?! ?! ?! ?! ?! ?! ?! ?! ?! ?! ?! ?! 6! 6! ?! ?! 0! 0! s  s  N# N# I# I# F# F# {! {! ?! ?! ?! ?! ?! ?! ?! ?! ?! ?! ?! ?! ?! ?! ?! ?! ?! ?! ?! ?! ?! ?! ?! ?! ?! ?! ?! ?! ?! ?! ?! ?! ?! ?! ?! ?! ?! 8! 8! ?! ?! ?! ?! ?! ?! ?! ?! ?! ?! ?! ?! ?! ?! ?! ?! ?! ?! ?! ?! ?! ?! ?! ?! ?! ?! ?! ?! ?! ?! ?! ?! ?! ?! ?! ?! ?! ?! ?! ?! ?! ?! ?! ?! ?! ?! ?! ?! ?! ?! ?! ?! ?! ?! ?! ?! ?! ?! ?! ?! ?! ?! ?! ?! ?! ?! ?! ?! ?! ?! ?! ?! ?! ?! ?! ?! ?! ?! ?! 7# 7# =# =# L# ",
"L# H# H# H# H# :# :# ?! ?! ?! ?! T  X  X  x  x  i  i  y  y  s  s  s  s  s  s  8! 8! 4! 4! ?! ?! ?! ?! ?! ?! ?! ?! ?! ?! ?! ?! ?! ?! ?! ?! ?! ?! ?! ?! ?! ?! ?! ?! ?! ?! ?! ?! ?! ?! ?! ?! ?! ?! ?! ?! ?! ?! ?! ?! ?! ?! ?! ?! ?! ?! ?! ?! ?! ?! ?! ?! ?! ?! ?! ?! ?! ?! 8! 8! 8! 8! 8! 8! -! -! x  x  l  l  ?! ?! ?! ?! ?! ?! ?! ?! ?! ?! ?! ?! ?! ?! ?! ?! ?! 6! 6! ?! ?! 0! 0! s  s  N# N# I# I# F# F# {! {! ?! ?! ?! ?! ?! ?! ?! ?! ?! ?! ?! ?! ?! ?! ?! ?! ?! ?! ?! ?! ?! ?! ?! ?! ?! ?! ?! ?! ?! ?! ?! ?! ?! ?! ?! ?! ?! 8! 8! ?! ?! ?! ?! ?! ?! ?! ?! ?! ?! ?! ?! ?! ?! ?! ?! ?! ?! ?! ?! ?! ?! ?! ?! ?! ?! ?! ?! ?! ?! ?! ?! ?! ?! ?! ?! ?! ?! ?! ?! ?! ?! ?! ?! ?! ?! ?! ?! ?! ?! ?! ?! ?! ?! ?! ?! ?! ?! ?! ?! ?! ?! ?! ?! ?! ?! ?! ?! ?! ?! ?! ?! ?! ?! ?! ?! ?! ?! ?! =# =# =# =# L# ",
"L# H# H# H# H# :# :# ?! ?! ?! ?! ?! ?! ?! ?! ?! ?! ?! ?! ?! ?! ?! ?! ?! ?! ?! ?! ?! ?! ?! ?! ?! ?! ?! ?! ?! ?! ?! ?! ?! ?! ?! ?! ?! ?! ?! ?! ?! 8! 8! ,! ,! *! *! ?! ?! ?! ?! ?! ?! ?! ?! ?! ?! ?! ?! ?! ?! ?! ?! ?! ?! ?! ?! ?! ?! ?! ?! ?! ?! ?! ?! ?! ?! ?! ?! ?! ?! ?! ?! ?! ?! ?! ?! ?! ?! ?! ?! ?! ?! ?! ?! ;! ;! ;! ;! ?! ?! ?! ?! ?! ?! ?! ?! ?! ?! ?! 8! 8! ?! ?! 0! 0! s  s  L# L# H# H# H# H# :# :# ?! ?! ?! ?! ?! ?! ?! ?! ?! ?! ?! ?! ?! ?! ?! ?! ?! ?! ?! ?! ?! ?! ?! ?! ?! ?! ?! ?! ?! ?! ?! ?! ?! ?! ?! ?! ?! ?! ?! ?! ?! ?! ?! ?! ?! ?! ?! ?! ?! ?! ?! ?! ?! ?! ?! ?! ?! ?! ?! ?! ?! ?! ?! ?! ?! ?! ?! ?! ?! ?! ?! ?! ?! ?! ?! ?! ?! ;! ;! 6! 6! ;! ;! ?! ?! ?! ?! ?! ?! 8! 8! 6! 6! 0! 0! (! (! (! (! *! *! 0! 0! 5! 5! 8! 8! ?! ?! ?! ?! ?! ?! ?! ?! ?! ?! ?! =# =# =# =# L# ",
"L# F# F# I# I# C# C# ;! ;! ?! ?! ?! ?! ?! ?! ?! ?! ?! ?! ?! ?! ?! ?! ?! ?! ?! ?! ?! ?! ?! ?! ?! ?! ?! ?! ?! ?! ?! ?! ?! ?! ?! ?! ?! ?! ?! ?! ?! 8! 8! ,! ,! *! *! ?! ?! ?! ?! ?! ?! ?! ?! ?! ?! ?! ?! ?! ?! ?! ?! ?! ?! ?! ?! ?! ?! ?! ?! ?! ?! ?! ?! ?! ?! ?! ?! ?! ?! ?! ?! ?! ?! ?! ?! ?! ?! ?! ?! ?! ?! ?! ?! ;! ;! ;! ;! ?! ?! ?! ?! ?! ?! ?! ?! ?! ?! ?! 8! 8! ?! ?! 0! 0! s  s  L# L# H# H# H# H# :# :# ?! ?! ?! ?! ?! ?! ?! ?! ?! ?! ?! ?! ?! ?! ?! ?! ?! ?! ?! ?! ?! ?! ?! ?! ?! ?! ?! ?! ?! ?! ?! ?! ?! ?! ?! ?! ?! ?! ?! ?! ?! ?! ?! ?! ?! ?! ?! ?! ?! ?! ?! ?! ?! ?! ?! ?! ?! ?! ?! ?! ?! ?! ?! ?! ?! ?! ?! ?! ?! ?! ?! ?! ?! ?! ?! ?! ?! ;! ;! 6! 6! ;! ;! ?! ?! ?! ?! ?! ?! 8! 8! 6! 6! 0! 0! (! (! (! (! *! *! 0! 0! 5! 5! 8! 8! ?! ?! ?! ?! ?! ?! ?! ?! ?! ?! ?! 9# 9# =# =# L# ",
"L# F# F# I# I# C# C# ;! ;! ?! ?! ?! ?! ?! ?! ?! ?! ?! ?! ?! ?! ?! ?! ?! ?! ?! ?! ?! ?! ?! ?! ?! ?! ?! ?! ?! ?! ?! ?! ?! ?! ?! ?! ?! ?! ?! ?! ?! ?! ?! ?! ?! ?! ?! ?! ?! 8! 8! 8! 8! 6! 6! 6! 6! 5! 5! 6! 6! 0! 0! ~  ~  0! 0! -! -! 8! 8! ?! ?! ?! ?! ;! ;! ?! ?! 8! 8! 8! 8! ;! ;! ;! ;! ?! ?! 8! 8! ;! ;! ?! ?! ?! ?! ?! ?! ?! ?! ?! ?! ?! ?! 0! 0! 1! 1! ?! 8! 8! ?! ?! &! &! s  s  L# L# F# F# I# I# C# C# ;! ;! ?! ?! ?! ?! ?! ?! ?! ?! ?! ;! ;! ?! ?! ?! ?! ?! ?! ?! ?! ?! ?! ?! ?! ?! ?! ?! ?! ?! ?! 4! 4! ~  ~  ,! ,! ?! ?! ?! ?! ?! ?! ?! ?! ?! ?! ?! ?! ?! ?! ?! ?! ?! ?! ?! ?! ?! ?! ?! ?! ?! ?! ?! ?! ?! ?! ?! ?! ?! ?! ?! ?! ?! ?! ?! ?! ?! ?! ?! ?! ?! ?! ?! ?! ?! ?! ?! ?! ?! ?! ?! ?! ?! ?! ?! ?! ?! ?! ?! ?! ?! ?! ?! ?! 4! 4! 0! 0! (! (! 6! ?! ?! ?! ?! ?! ?! 9# 9# =# =# L# ",
"L# F# F# I# I# D# D# ?! ?! ?! ?! ?! ?! ?! ?! ?! ?! ?! ?! ?! ?! ?! ?! ?! ?! ?! ?! ?! ?! ?! ?! ?! ?! ?! ?! ?! ?! ?! ?! ?! ?! ?! ?! ?! ?! ?! ?! ?! ?! ?! ?! ?! ?! ?! ?! ?! 8! 8! 8! 8! 6! 6! 6! 6! 5! 5! 6! 6! 0! 0! ~  ~  0! 0! -! -! 8! 8! ?! ?! ?! ?! ;! ;! ?! ?! 8! 8! 8! 8! ;! ;! ;! ;! ?! ?! 8! 8! ;! ;! ?! ?! ?! ?! ?! ?! ?! ?! ?! ?! ?! ?! 0! 0! 1! 1! ?! 8! 8! ?! ?! &! &! s  s  L# L# F# F# I# I# C# C# ;! ;! ?! ?! ?! ?! ?! ?! ?! ?! ?! ;! ;! ?! ?! ?! ?! ?! ?! ?! ?! ?! ?! ?! ?! ?! ?! ?! ?! ?! ?! 4! 4! ~  ~  ,! ,! ?! ?! ?! ?! ?! ?! ?! ?! ?! ?! ?! ?! ?! ?! ?! ?! ?! ?! ?! ?! ?! ?! ?! ?! ?! ?! ?! ?! ?! ?! ?! ?! ?! ?! ?! ?! ?! ?! ?! ?! ?! ?! ?! ?! ?! ?! ?! ?! ?! ?! ?! ?! ?! ?! ?! ?! ?! ?! ?! ?! ?! ?! ?! ?! ?! ?! ?! ?! 4! 4! 0! 0! (! (! 6! ;! ;! ?! ?! ?! ?! C# C# A# A# L# ",
"L# F# F# I# I# D# D# ?! ?! ?! ?! ?! ?! ?! ?! ?! ?! ?! ?! ?! ?! ?! ?! ?! ?! ?! ?! ?! ?! ?! ?! ?! ?! ?! ?! ?! ?! ?! ?! ?! ?! ?! ?! ?! ?! ?! ?! ?! ?! ?! ?! ?! ?! ?! ?! ?! ?! ?! ?! ?! ?! ?! ?! ?! ?! ?! ?! ?! ?! ?! ?! ?! ?! ?! ?! ?! ?! ?! ?! ?! ?! ?! ?! ?! ?! ?! ?! ?! ?! ?! ?! ?! ?! ?! ?! ?! ?! ?! ?! ?! ?! ?! ?! ?! ?! ?! ?! ?! ?! ?! ?! ?! ?! ?! ?! ?! ?! ?! ?! ?! ?! &! &! s  s  L# L# F# F# I# I# D# D# ?! ?! ?! ?! ?! ?! ?! ?! ?! 6! 6! (! (! ~  ~  0! 0! ?! ?! ?! ?! ?! ?! ?! ?! ;! ;! 8! 8! 8! 8! 8! 8! 6! 6! 8! 8! 8! 8! 4! 4! 5! 5! 5! 5! 6! 6! 8! 8! 8! 8! 6! 6! 4! 4! ,! ,! *! *! 4! 4! 5! 5! 8! 8! ?! ?! ?! ?! ?! ?! ?! ?! ?! ?! ?! ?! ?! ?! ?! ?! ?! ?! ?! ?! ?! ?! ?! ?! ?! ?! ?! ?! ?! ?! ?! ?! ?! ?! ?! ?! ?! ?! ?! ?! ?! ?! ?! ?! ?! ?! ?! ;! ;! ?! ?! ?! ?! C# C# A# A# L# ",
"L# D# D# F# F# D# D# 0! 0! ?! ?! ?! ?! ?! ?! ?! ?! ?! ?! ?! ?! ?! ?! ?! ?! ?! ?! ?! ?! ?! ?! ?! ?! ?! ?! ?! ?! ?! ?! ?! ?! ?! ?! ?! ?! ?! ?! ?! ?! ?! ?! ?! ?! ?! ?! ?! ?! ?! ?! ?! ?! ?! ?! ?! ?! ?! ?! ?! ?! ?! ?! ?! ?! ?! ?! ?! ?! ?! ?! ?! ?! ?! ?! ?! ?! ?! ?! ?! ?! ?! ?! ?! ?! ?! ?! ?! ?! ?! ?! ?! ?! ?! ?! ?! ?! ?! ?! ?! ?! ?! ?! ?! ?! ?! ?! ?! ?! ?! ?! ?! ?! &! &! s  s  L# L# F# F# I# I# D# D# ?! ?! ?! ?! ?! ?! ?! ?! ?! 6! 6! (! (! ~  ~  0! 0! ?! ?! ?! ?! ?! ?! ?! ?! ;! ;! 8! 8! 8! 8! 8! 8! 6! 6! 8! 8! 8! 8! 4! 4! 5! 5! 5! 5! 6! 6! 8! 8! 8! 8! 6! 6! 4! 4! ,! ,! *! *! 4! 4! 5! 5! 8! 8! ?! ?! ?! ?! ?! ?! ?! ?! ?! ?! ?! ?! ?! ?! ?! ?! ?! ?! ?! ?! ?! ?! ?! ?! ?! ?! ?! ?! ?! ?! ?! ?! ?! ?! ?! ?! ?! ?! ?! ?! ?! ?! ?! ?! ?! ?! ?! ?! ?! ?! ?! ?! ?! C# C# A# A# L# ",
"L# D# D# F# F# D# D# 0! 0! ?! ?! ?! ?! ?! ?! ?! ?! ?! ?! ?! ?! ?! ?! ?! ?! ?! ?! ?! ?! ?! ?! ?! ?! ?! ?! ?! ?! ?! ?! ?! ?! ?! ?! ?! ?! ?! ?! ?! ?! ?! ?! ?! ?! ?! ?! ?! ?! ?! ?! ?! ?! ?! ?! ?! ?! ?! ?! ?! ?! ?! 8! 8! 4! 4! 5! 5! ;! ;! ?! ?! ?! ?! ?! ?! ?! ?! ?! ?! ?! ?! ?! ?! ?! ?! ?! ?! ?! ?! ?! ?! ?! ?! -! -! ?! ?! ;! ;! ?! ?! 8! 8! 6! 6! 1! 1! (! ?! ?! ?! ?! $! $! s  s  L# L# D# D# F# F# D# D# 0! 0! ?! ?! ?! ?! ?! ?! ?! ?! ?! ?! ?! ?! ?! ?! ?! ?! ?! ?! ?! ?! ?! ?! ?! ?! ?! ?! ?! ?! ?! ?! ?! ;! ;! ;! ;! 8! 8! 8! 8! ?! ?! ?! ?! ?! ?! ?! ?! ?! ?! ?! ?! ?! ?! ?! ?! ?! ?! ?! ?! ?! ?! ?! ?! ?! ?! ?! ?! ?! ?! ?! ?! ?! ?! ?! ?! ?! ?! ?! ?! ?! ?! ?! ?! 8! 8! 8! 8! 6! 6! 6! 6! 4! 4! 4! 4! 5! 5! 0! 0! 1! 1! 1! 1! 4! 4! 6! 6! 8! 8! ?! ?! ?! ?! ?! ?! ?! C# C# A# A# L# ",
"L# D# D# E# E# =# =# 6! 6! ?! ?! ?! ?! ?! ?! ?! ?! ?! ?! ?! ?! ?! ?! ?! ?! ?! ?! ?! ?! ?! ?! ?! ?! ?! ?! ?! ?! ?! ?! ?! ?! ?! ?! ?! ?! ?! ?! ?! ?! ?! ?! ?! ?! ?! ?! ?! ?! ?! ?! ?! ?! ?! ?! ?! ?! ?! ?! ?! ?! ?! 8! 8! 4! 4! 5! 5! ;! ;! ?! ?! ?! ?! ?! ?! ?! ?! ?! ?! ?! ?! ?! ?! ?! ?! ?! ?! ?! ?! ?! ?! ?! ?! -! -! ?! ?! ;! ;! ?! ?! 8! 8! 6! 6! 1! 1! (! ?! ?! ?! ?! $! $! s  s  L# L# D# D# F# F# D# D# 0! 0! ?! ?! ?! ?! ?! ?! ?! ?! ?! ?! ?! ?! ?! ?! ?! ?! ?! ?! ?! ?! ?! ?! ?! ?! ?! ?! ?! ?! ?! ?! ?! ;! ;! ;! ;! 8! 8! 8! 8! ?! ?! ?! ?! ?! ?! ?! ?! ?! ?! ?! ?! ?! ?! ?! ?! ?! ?! ?! ?! ?! ?! ?! ?! ?! ?! ?! ?! ?! ?! ?! ?! ?! ?! ?! ?! ?! ?! ?! ?! ?! ?! ?! ?! 8! 8! 8! 8! 6! 6! 6! 6! 4! 4! 4! 4! 5! 5! 0! 0! 1! 1! 1! 1! 4! 4! 6! 6! 8! 8! ?! 6! 6! ?! ?! ?! ?! D# D# A# A# L# ",
"L# D# D# E# E# =# =# 6! 6! ?! ?! ?! $! $! '! '! (! (! (! (! 0! 0! ~  ~  -! -! *! *! *! *! &! &! ,! ,! ,! ,! 5! 5! ?! ?! ?! ?! ;! ;! ?! ?! ?! ?! 8! 8! 0! 0! 6! 6! ?! ?! ;! ;! ?! ?! ?! ?! ?! ?! ?! ?! ?! ?! ?! ?! ?! ?! ?! ?! ?! ?! ?! ?! ?! ?! ?! ?! ?! ?! ?! ?! ?! ?! ?! ?! 5! 5! ?! ?! ?! ?! ?! ?! ?! ?! ?! ?! ?! ?! ?! ?! ?! ?! ?! ?! ?! ?! ?! ?! ?! ?! ?! ?! ?! ?! ?! s  s  s  s  L# L# D# D# E# E# =# =# 6! 6! ?! ?! ?! ?! ?! ?! ?! ?! ?! ?! ?! ?! ?! ?! ?! ?! ?! ?! ?! ?! ?! ?! ?! ?! ?! ?! ?! ?! ?! ?! ?! ?! ?! ?! ?! ?! ?! ?! ?! ;! ;! ?! ?! ?! ?! ?! ?! ?! ?! ?! ?! ?! ?! ?! ?! ?! ?! ?! ?! ?! ?! ?! ?! ?! ?! ?! ?! ?! ?! ?! ?! ?! ?! ?! ?! ?! ?! ?! ?! ?! ?! ?! ?! ?! ?! ?! ?! ?! ?! ?! ?! ?! ?! ?! ?! ?! ?! ?! ?! ?! ?! ?! ?! ?! ?! ?! ?! ?! ?! ?! 6! 6! ?! ?! ?! ?! D# D# A# A# L# ",
"L# D# D# E# E# 6# 6# 1! 1! ?! ?! ?! $! $! '! '! (! (! (! (! 0! 0! ~  ~  -! -! *! *! *! *! &! &! ,! ,! ,! ,! 5! 5! ?! ?! ?! ?! ;! ;! ?! ?! ?! ?! 8! 8! 0! 0! 6! 6! ?! ?! ;! ;! ?! ?! ?! ?! ?! ?! ?! ?! ?! ?! ?! ?! ?! ?! ?! ?! ?! ?! ?! ?! ?! ?! ?! ?! ?! ?! ?! ?! ?! ?! ?! ?! 5! 5! ?! ?! ?! ?! ?! ?! ?! ?! ?! ?! ?! ?! ?! ?! ?! ?! ?! ?! ?! ?! ?! ?! ?! ?! ?! ?! ?! ?! ?! s  s  s  s  L# L# D# D# E# E# =# =# 6! 6! ?! ?! ?! ?! ?! ?! ?! ?! ?! ?! ?! ?! ?! ?! ?! ?! ?! ?! ?! ?! ?! ?! ?! ?! ?! ?! ?! ?! ?! ?! ?! ?! ?! ?! ?! ?! ?! ?! ?! ;! ;! ?! ?! ?! ?! ?! ?! ?! ?! ?! ?! ?! ?! ?! ?! ?! ?! ?! ?! ?! ?! ?! ?! ?! ?! ?! ?! ?! ?! ?! ?! ?! ?! ?! ?! ?! ?! ?! ?! ?! ?! ?! ?! ?! ?! ?! ?! ?! ?! ?! ?! ?! ?! ?! ?! ?! ?! ?! ?! ?! ?! ?! ?! ?! ?! ?! ?! ?! ?! ?! 5! 5! ?! ?! ?! ?! =# =# A# A# L# ",
"L# D# D# E# E# 6# 6# 1! 1! ?! ?! ?! ?! ?! ?! ?! ?! ?! ?! ?! ?! ?! ?! ?! ?! ?! ?! ?! ?! ?! ?! ?! ?! ?! ?! ?! ?! ?! ?! ?! ?! ?! ?! ?! ?! ?! ?! ?! 5! 5! 0! 0! 5! 5! ?! ?! ?! ?! ?! ?! ?! ?! ?! ?! ?! ?! ?! ?! ?! ?! ?! ?! A! A! A! A! ?! ?! ?! ?! ?! ?! ?! ?! ?! ?! ?! ?! ?! ?! ?! ?! ?! ?! ?! ?! ?! ?! ?! ?! ?! ?! ?! ?! ?! ?! ?! ?! ?! ?! ?! ?! ?! ?! ?! ?! ?! ?! ?! ?! ?! s  s  s  s  L# L# D# D# E# E# 6# 6# 1! 1! ?! ?! ?! ?! ?! ?! ?! ?! ?! ?! ?! ?! ?! ?! ?! ?! ?! ?! ?! ?! ?! ?! ?! ?! ?! ?! ?! ?! ?! ?! ?! ?! ?! ?! ?! ?! ?! ?! ?! ?! ?! ?! ?! ?! ?! ?! ?! ?! ?! ?! ?! ?! ?! A! A! B! B! ?! ?! ?! ?! ?! ?! ?! ?! ?! ?! ?! ?! ?! ?! 5! 5! ?! ?! ?! ?! ?! ?! ?! ?! ?! ?! ?! ?! ?! ?! ?! ?! ?! ?! ?! ?! ?! ?! ?! ?! ?! ?! ?! ?! ?! ?! ?! ?! ?! ?! ?! ?! ?! 5! 5! ?! ?! ?! ?! =# =# A# A# L# ",
"L# D# D# E# E# 2# 2# 5! 5! ?! ?! ?! ?! ?! ?! ?! ?! ?! ?! ?! ?! ?! ?! ?! ?! ?! ?! ?! ?! ?! ?! ?! ?! ?! ?! ?! ?! ?! ?! ?! ?! ?! ?! ?! ?! ?! ?! ?! 5! 5! 0! 0! 5! 5! ?! ?! ?! ?! ?! ?! ?! ?! ?! ?! ?! ?! ?! ?! ?! ?! ?! ?! A! A! A! A! ?! ?! ?! ?! ?! ?! ?! ?! ?! ?! ?! ?! ?! ?! ?! ?! ?! ?! ?! ?! ?! ?! ?! ?! ?! ?! ?! ?! ?! ?! ?! ?! ?! ?! ?! ?! ?! ?! ?! ?! ?! ?! ?! ?! ?! s  s  s  s  L# L# D# D# E# E# 6# 6# 1! 1! ?! ?! ?! ?! ?! ?! ?! ?! ?! ?! ?! ?! ?! ?! ?! ?! ?! ?! ?! ?! ?! ?! ?! ?! ?! ?! ?! ?! ?! ?! ?! ?! ?! ?! ?! ?! ?! ?! ?! ?! ?! ?! ?! ?! ?! ?! ?! ?! ?! ?! ?! ?! ?! A! A! B! B! ?! ?! ?! ?! ?! ?! ?! ?! ?! ?! ?! ?! ?! ?! 5! 5! ?! ?! ?! ?! ?! ?! ?! ?! ?! ?! ?! ?! ?! ?! ?! ?! ?! ?! ?! ?! ?! ?! ?! ?! ?! ?! ?! ?! ?! ?! ?! ?! ?! ?! ?! ?! ?! 1! 1! ?! ?! ?! ?! 7# 7# =# =# L# ",
"L# D# D# E# E# 2# 2# 5! 5! ?! ?! ?! ?! ?! ?! ?! B! B! F! F! e! e! %# %# 1# 1# 6# 6# -# -# '# '# k! k! V! V! N! N! F! F! ?! ?! ?! ?! ?! ?! ?! ?! ?! ?! ?! ?! ?! ?! A! A! E! E! X! X! f! f! {! {! !# !# +# +# 1# 1# 6# 6# =# =# {! {! 7# 7# 6# 6# ,# ,# .# .# +# +# z! z! l! l! y! y! +# +# *# *# ## ## $# $# +# +# 1# 1# f! f! F! F! E! E! A! A! ?! ?! ?! ?! ?! ?! ?! ?! ?! s  s  s  s  L# L# D# D# E# E# 2# 2# 5! 5! ?! ?! F! F! F! ?! ?! ?! ?! ?! ?! ?! ?! ?! ?! ?! ?! ?! ?! ?! ?! ?! ?! ?! ?! ?! ?! A! A! F! F! ^! ^! t! t! y! y! +# +# '# '# ,# ,# 1# 1# *# *# ,# ,# 1# 1# 6# 6# 3# 3# ,# ,# '# '# '# '# 1# 1# t! t! n! n! ]! ]! ?! ?! ?! ?! ?! ?! ?! ?! ?! ?! ?! ?! 5! 5! ,! ,! 1! 1! 6! 6! ?! ?! ?! ?! ?! ?! ?! ?! ?! ?! ?! ?! B! B! C! C! C! C! C! C! C! 1! 1! ?! ?! ?! ?! 7# 7# =# =# L# ",
"L# D# D# D# D# j! j! 6! 6! ?! ?! ?! ?! ?! ?! ?! B! B! F! F! e! e! %# %# 1# 1# 6# 6# -# -# '# '# k! k! V! V! N! N! F! F! ?! ?! ?! ?! ?! ?! ?! ?! ?! ?! ?! ?! ?! ?! A! A! E! E! X! X! f! f! {! {! !# !# +# +# 1# 1# 6# 6# =# =# {! {! 7# 7# 6# 6# ,# ,# .# .# +# +# z! z! l! l! y! y! +# +# *# *# ## ## $# $# +# +# 1# 1# f! f! F! F! E! E! A! A! ?! ?! ?! ?! ?! ?! ?! ?! ?! s  s  s  s  L# L# D# D# E# E# 2# 2# 5! 5! ?! ?! F! F! F! ?! ?! ?! ?! ?! ?! ?! ?! ?! ?! ?! ?! ?! ?! ?! ?! ?! ?! ?! ?! ?! ?! A! A! F! F! ^! ^! t! t! y! y! +# +# '# '# ,# ,# 1# 1# *# *# ,# ,# 1# 1# 6# 6# 3# 3# ,# ,# '# '# '# '# 1# 1# t! t! n! n! ]! ]! ?! ?! ?! ?! ?! ?! ?! ?! ?! ?! ?! ?! 5! 5! ,! ,! 1! 1! 6! 6! ?! ?! ?! ?! ?! ?! ?! ?! ?! ?! ?! ?! B! B! C! C! C! C! C! C! C! '! '! ?! ?! A! A! C# C# A# A# L# ",
"L# D# D# D# D# j! j! 6! 6! ?! ?! k! 1# 1# 1# 1# 7# 7# =# =# =# =# =# =# A# A# D# D# D# D# D# D# D# D# =# =# 7# 7# 7# 7# ~! ~! +# +# 1# 1# 3# 3# +# +# 0# 0# ,# ,# 6# 6# 3# 3# 9# 9# =# =# =# =# =# =# D# D# D# D# D# D# D# D# D# D# C# C# C# C# =# =# =# =# =# =# =# =# =# =# =# =# =# =# D# D# B# B# D# D# D# D# D# D# =# =# 7# 7# 3# 3# 1# 1# `! `! T! T! N! ?! ?! ?! ?! s  s  s  s  L# L# D# D# D# D# j! j! 6! 6! ?! ?! 7# =# =# 7# 7# 6# 6# 4# 4# 1# 1# 1# 1# ,# ,# 3# 3# +# +# ,# ,# ,# ,# ,# ,# ,# ,# 3# 3# 3# 3# 6# 6# 6# 6# 8# 8# 8# 8# =# =# =# =# A# A# A# A# D# D# D# D# D# D# E# E# D# D# =# =# =# =# 7# 7# 9# 9# 1# 1# 6# 6# 1# 1# 3# 3# 1# 1# 0# 0# )# )# j! j! S! S! S! S! N! N! S! S! S! S! z! z! (# (# 3# 3# 4# 4# 5# 5# 7# 7# 3# 3# 3# 3# ;# '! '! ?! ?! A! A! C# C# A# A# L# ",
"N# D# D# C# C# Z! Z! 8! 8! ?! ?! k! 1# 1# 1# 1# 7# 7# =# =# =# =# =# =# A# A# D# D# D# D# D# D# D# D# =# =# 7# 7# 7# 7# ~! ~! +# +# 1# 1# 3# 3# +# +# 0# 0# ,# ,# 6# 6# 3# 3# 9# 9# =# =# =# =# =# =# D# D# D# D# D# D# D# D# D# D# C# C# C# C# =# =# =# =# =# =# =# =# =# =# =# =# =# =# D# D# B# B# D# D# D# D# D# D# =# =# 7# 7# 3# 3# 1# 1# `! `! T! T! N! ?! ?! ?! ?! s  s  s  s  L# L# D# D# D# D# j! j! 6! 6! ?! ?! 7# =# =# 7# 7# 6# 6# 4# 4# 1# 1# 1# 1# ,# ,# 3# 3# +# +# ,# ,# ,# ,# ,# ,# ,# ,# 3# 3# 3# 3# 6# 6# 6# 6# 8# 8# 8# 8# =# =# =# =# A# A# A# A# D# D# D# D# D# D# E# E# D# D# =# =# =# =# 7# 7# 9# 9# 1# 1# 6# 6# 1# 1# 3# 3# 1# 1# 0# 0# )# )# j! j! S! S! S! S! N! N! S! S! S! S! z! z! (# (# 3# 3# 4# 4# 5# 5# 7# 7# 3# 3# 3# 3# ;# 0! 0! ?! ?! J! J! ?# ?# D# D# L# ",
"N# D# D# C# C# Z! Z! 8! 8! ?! ?! A# D# D# D# D# E# E# E# E# E# E# E# E# E# E# D# D# C# C# C# C# E# E# D# D# B# B# ?# ?# A# A# A# A# =# =# A# A# A# A# ?# ?# A# A# D# D# =# =# C# C# E# E# H# H# E# E# D# D# D# D# D# D# D# D# A# A# A# A# D# D# E# E# E# E# E# E# D# D# =# =# C# C# C# C# D# D# D# D# D# D# E# E# E# E# F# F# E# E# C# C# D# D# C# C# =# =# A# ?! ?! ?! ?! s  s  s  s  N# N# D# D# C# C# Z! Z! 8! 8! ?! ?! F# F# F# F# F# E# E# D# D# D# D# D# D# D# D# D# D# E# E# E# E# E# E# D# D# D# D# C# C# D# D# D# D# D# D# C# C# A# A# D# D# D# D# D# D# D# D# D# D# D# D# D# D# F# F# F# F# E# E# E# E# D# D# E# E# E# E# E# E# E# E# D# D# D# D# D# D# C# C# D# D# D# D# A# A# A# A# A# A# D# D# D# D# D# D# E# E# D# D# D# D# D# D# A# A# A# A# =# 0! 0! ?! ?! J! J! ?# ?# D# D# L# ",
"N# B# B# A# A# W! W! 8! 8! ?! ?! A# D# D# D# D# E# E# E# E# E# E# E# E# E# E# D# D# C# C# C# C# E# E# D# D# B# B# ?# ?# A# A# A# A# =# =# A# A# A# A# ?# ?# A# A# D# D# =# =# C# C# E# E# H# H# E# E# D# D# D# D# D# D# D# D# A# A# A# A# D# D# E# E# E# E# E# E# D# D# =# =# C# C# C# C# D# D# D# D# D# D# E# E# E# E# F# F# E# E# C# C# D# D# C# C# =# =# A# ?! ?! ?! ?! s  s  s  s  N# N# D# D# C# C# Z! Z! 8! 8! ?! ?! F# F# F# F# F# E# E# D# D# D# D# D# D# D# D# D# D# E# E# E# E# E# E# D# D# D# D# C# C# D# D# D# D# D# D# C# C# A# A# D# D# D# D# D# D# D# D# D# D# D# D# D# D# F# F# F# F# E# E# E# E# D# D# E# E# E# E# E# E# E# E# D# D# D# D# D# D# C# C# D# D# D# D# A# A# A# A# A# A# D# D# D# D# D# D# E# E# D# D# D# D# D# D# A# A# A# A# =# 4! 4! ?! ?! S! S! =# =# =# =# L# ",
"N# B# B# A# A# W! W! 8! 8! ?! ?! M# M# M# M# M# M# M# M# M# N# N# N# N# N# N# N# N# N# N# N# N# N# N# N# N# N# N# N# N# N# N# N# N# N# N# M# M# M# M# M# M# M# M# M# M# N# N# N# N# N# N# N# N# N# N# N# N# N# N# N# N# N# N# N# N# N# N# N# N# N# N# M# M# M# M# N# N# N# N# N# N# N# N# N# N# N# N# N# N# N# N# N# N# N# N# N# N# N# N# N# N# N# N# N# N# N# ?! ?! ?! ?! s  s  s  s  N# N# B# B# A# A# W! W! 8! 8! ?! ?! M# M# M# M# M# M# M# M# M# M# M# M# M# M# M# M# M# M# M# M# M# M# M# M# M# M# M# M# M# M# M# M# M# M# M# N# N# N# N# N# N# N# N# N# N# N# N# N# N# N# N# N# N# N# N# N# N# N# N# N# N# N# N# M# M# M# M# M# M# M# M# M# M# M# M# M# M# M# M# M# M# M# M# M# M# M# M# M# M# M# M# M# M# M# M# M# M# M# M# M# M# M# M# M# M# N# N# N# 4! 4! ?! ?! S! S! =# =# =# =# L# ",
"L# ># ># 8# 8# S! S! 8! 8! ?! ?! M# M# M# M# M# M# M# M# M# N# N# N# N# N# N# N# N# N# N# N# N# N# N# N# N# N# N# N# N# N# N# N# N# N# N# M# M# M# M# M# M# M# M# M# M# N# N# N# N# N# N# N# N# N# N# N# N# N# N# N# N# N# N# N# N# N# N# N# N# N# N# M# M# M# M# N# N# N# N# N# N# N# N# N# N# N# N# N# N# N# N# N# N# N# N# N# N# N# N# N# N# N# N# N# N# N# ?! ?! ?! ?! s  s  s  s  N# N# B# B# A# A# W! W! 8! 8! ?! ?! M# M# M# M# M# M# M# M# M# M# M# M# M# M# M# M# M# M# M# M# M# M# M# M# M# M# M# M# M# M# M# M# M# M# M# N# N# N# N# N# N# N# N# N# N# N# N# N# N# N# N# N# N# N# N# N# N# N# N# N# N# N# N# M# M# M# M# M# M# M# M# M# M# M# M# M# M# M# M# M# M# M# M# M# M# M# M# M# M# M# M# M# M# M# M# M# M# M# M# M# M# M# M# M# M# N# N# N# 6! 6! ?! ?! {! {! =# =# 7# 7# L# ",
"L# ># ># 8# 8# S! S! 8! 8! ?! ?! s  s  s  s  s  s  s  s  s  s  s  s  s  s  s  s  s  s  s  s  s  s  s  s  s  s  s  s  s  s  s  s  s  s  s  s  s  s  s  s  s  s  s  s  s  s  s  s  s  s  s  s  s  s  s  s  s  s  s  s  s  s  s  s  s  s  s  s  s  s  s  s  s  s  s  s  s  s  s  s  s  s  s  s  s  s  s  s  s  s  s  s  s  s  s  s  s  s  s  s  s  s  s  s  s  s  ?! ?! 8! 8! s  s  s  s  L# L# ># ># 8# 8# S! S! 8! 8! ?! ?! s  s  s  s  s  s  s  s  s  s  s  s  s  s  s  s  s  s  s  s  s  s  s  s  s  s  s  s  s  s  s  s  s  s  s  s  s  s  s  s  s  s  s  s  s  s  s  s  s  s  s  s  s  s  s  s  s  s  s  s  s  s  s  s  s  s  s  s  s  s  s  s  s  s  s  s  s  s  s  s  s  s  s  s  s  s  s  s  s  s  s  s  s  s  s  s  s  s  s  s  s  s  s  s  s  s  s  s  6! 6! ?! ?! {! {! =# =# 7# 7# L# ",
"N# B# B# =# =# L! L! ;! ;! ?! ?! s  s  s  s  s  s  s  s  s  s  s  s  s  s  s  s  s  s  s  s  s  s  s  s  s  s  s  s  s  s  s  s  s  s  s  s  s  s  s  s  s  s  s  s  s  s  s  s  s  s  s  s  s  s  s  s  s  s  s  s  s  s  s  s  s  s  s  s  s  s  s  s  s  s  s  s  s  s  s  s  s  s  s  s  s  s  s  s  s  s  s  s  s  s  s  s  s  s  s  s  s  s  s  s  s  s  ?! ?! 8! 8! s  s  s  s  L# L# ># ># 8# 8# S! S! 8! 8! ?! ?! s  s  s  s  s  s  s  s  s  s  s  s  s  s  s  s  s  s  s  s  s  s  s  s  s  s  s  s  s  s  s  s  s  s  s  s  s  s  s  s  s  s  s  s  s  s  s  s  s  s  s  s  s  s  s  s  s  s  s  s  s  s  s  s  s  s  s  s  s  s  s  s  s  s  s  s  s  s  s  s  s  s  s  s  s  s  s  s  s  s  s  s  s  s  s  s  s  s  s  s  s  s  s  s  s  s  s  s  ?! ?! ?! ?! 9# 9# =# =# =# =# L# ",
"N# B# B# =# =# L! L! ;! ;! ?! ?! X  `  `  b  b  s  s  s  s  s  s  s  s  s  s  s  s  s  s  s  s  s  s  s  s  s  s  s  s  s  s  s  s  s  s  s  s  s  s  s  s  s  s  s  s  s  s  s  s  s  s  n  n  e  e  n  n  s  s  s  s  s  s  s  s  s  s  s  s  s  s  s  s  s  s  s  s  s  s  s  s  s  s  s  s  s  s  s  s  s  s  s  s  s  s  s  s  s  s  s  s  s  s  s  s  s  ?! ?! 8! 8! s  s  y  y  N# N# B# B# =# =# L! L! ;! ;! ?! ?! s  s  s  i  i  s  s  s  s  s  s  s  s  s  s  s  s  s  s  s  s  s  s  s  s  s  s  s  s  s  s  s  s  s  s  s  s  s  s  n  n  X  X  B  B  M  M  q  q  s  s  s  s  s  s  s  s  s  s  `  `  U  U  T  T  c  c  |  |  ,! ,! 1! 1! s  s  s  s  s  s  s  s  s  s  s  s  s  s  s  s  s  s  s  s  s  s  s  s  n  n  h  h  s  s  s  s  s  s  f  ?! ?! ?! ?! 9# 9# =# =# =# =# L# ",
"N# =# =# 7# 7# F! F! 8! 8! ?! ?! X  `  `  b  b  s  s  s  s  s  s  s  s  s  s  s  s  s  s  s  s  s  s  s  s  s  s  s  s  s  s  s  s  s  s  s  s  s  s  s  s  s  s  s  s  s  s  s  s  s  s  n  n  e  e  n  n  s  s  s  s  s  s  s  s  s  s  s  s  s  s  s  s  s  s  s  s  s  s  s  s  s  s  s  s  s  s  s  s  s  s  s  s  s  s  s  s  s  s  s  s  s  s  s  s  s  ?! ?! 8! 8! s  s  y  y  N# N# B# B# =# =# L! L! ;! ;! ?! ?! s  s  s  i  i  s  s  s  s  s  s  s  s  s  s  s  s  s  s  s  s  s  s  s  s  s  s  s  s  s  s  s  s  s  s  s  s  s  s  n  n  X  X  B  B  M  M  q  q  s  s  s  s  s  s  s  s  s  s  `  `  U  U  T  T  c  c  |  |  ,! ,! 1! 1! s  s  s  s  s  s  s  s  s  s  s  s  s  s  s  s  s  s  s  s  s  s  s  s  n  n  h  h  s  s  s  s  s  s  f  ?! ?! C! C! =# =# =# =# =# =# L# ",
"N# =# =# 7# 7# F! F! 8! 8! ?! ?! ?! ?! ?! r  r  O  O  P  P  B  B  I  I  @  @  i  i  s  s  s  s  s  s  s  s  s  s  ^  ^  ?! ?! ?! ?! ?! ?! 6! 6! *! *! &! &! s  s  `  `  }  }  s  s  '! '! ?! ?! 0! 0! e  e  ;  ;  +  +  0  0  I  I  G  G  c  c  L  L  X  X  &! &! #! #! X  X  g  g  p  p  }  }  ?! ?! ?! ?! ?! ?! ?! ?! ?! ?! ?! ?! ?! ?! ?! ?! ?! ?! ?! ?! ?! ?! ?! ?! ?! s  s  y  y  N# N# =# =# 7# 7# F! F! 8! 8! ?! ?! B  ]  ]  )! )! e  e  &  &  @  @  <  <  A  A  T  T  p  p  ?! ?! ?! ?! ?! ?! ?! ?! ?! ?! ?! ?! ?! ?! ?! ?! ?! ?! ?! ?! ?! ?! ?! ?! ?! ?! ?! ?! 1! 1! U  U  1  1  b  b  y  y  x  x  ?! ?! ?! ?! ?! ?! ?! ?! ?! ?! ?! ?! ?! ?! ?! ?! #! #! o  o  g  g  g  g  n  n  s  s  s  s  s  s  n  n  Y  Y  y  y  ?  ?  2  2  9  9  *  *  N  N  ?! ?! ?! C! C! =# =# =# =# =# =# L# ",
"N# =# =# 2# 2# B! B! 8! 8! ?! ?! ?! ?! ?! r  r  O  O  P  P  B  B  I  I  @  @  i  i  s  s  s  s  s  s  s  s  s  s  ^  ^  ?! ?! ?! ?! ?! ?! 6! 6! *! *! &! &! s  s  `  `  }  }  s  s  '! '! ?! ?! 0! 0! e  e  ;  ;  +  +  0  0  I  I  G  G  c  c  L  L  X  X  &! &! #! #! X  X  g  g  p  p  }  }  ?! ?! ?! ?! ?! ?! ?! ?! ?! ?! ?! ?! ?! ?! ?! ?! ?! ?! ?! ?! ?! ?! ?! ?! ?! s  s  y  y  N# N# =# =# 7# 7# F! F! 8! 8! ?! ?! B  ]  ]  )! )! e  e  &  &  @  @  <  <  A  A  T  T  p  p  ?! ?! ?! ?! ?! ?! ?! ?! ?! ?! ?! ?! ?! ?! ?! ?! ?! ?! ?! ?! ?! ?! ?! ?! ?! ?! ?! ?! 1! 1! U  U  1  1  b  b  y  y  x  x  ?! ?! ?! ?! ?! ?! ?! ?! ?! ?! ?! ?! ?! ?! ?! ?! #! #! o  o  g  g  g  g  n  n  s  s  s  s  s  s  n  n  Y  Y  y  y  ?  ?  2  2  9  9  *  *  N  N  ?! ?! ?! F! F! D# D# =# =# ># ># L# ",
"N# =# =# 2# 2# B! B! 8! 8! ?! ?! ?! ?! ?! ?! ?! ?! ?! ?! ?! ?! ?! ?! ?! ?! ?! )! )! %  %        -  -  b  b  1! 1! ?! ?! ?! ?! ,! ,! ?! ?! ?! ?! ?! ?! ?! ?! ?! ?! ?! ?! ?! ?! ?! ?! ?! ?! ?! ?! ?! ?! ?! ?! 9! 9! Q  Q  U  U  /! /! ?! ?! ?! ?! ?! ?! ?! ?! ?! ?! ?! ?! ?! ?! ?! ?! ?! ?! ?! ?! ?! ?! ?! ?! ?! ?! ?! ?! ?! ?! ?! ?! ?! ?! ?! ?! ?! ?! ?! ?! ?! ?! ?! ?! ?! s  s  x  x  N# N# =# =# 2# 2# B! B! 8! 8! ?! ?! ?! ?! ?! ?! ?! ?! ?! ?! ?! ?! ?! ?! ?! ?! ?! ?! ?! ?! ?! ?! ?! ?! ?! ?! ?! ?! ?! ?! ?! ?! ?! ?! ?! ?! ?! ?! ?! ;! ;! ?! ?! 8! 8! ,! ,! 5! 5! ?! ?! ?! ?! ?! ?! ?! ?! ?! ?! ?! ?! ?! ?! ?! ?! ?! ?! ?! ?! 4! 4! $! $! 5! 5! 8! 8! ?! ?! 8! 8! ?! ?! ?! ?! ?! ?! ?! ?! s  s  8! 8! ?! ?! ?! ?! ?! ?! ?! ?! ?! ?! ?! ?! ?! ?! ?! ?! ?! ?! ?! F! F! D# D# =# =# ># ># L# ",
"N# =# =# 5# 5# ?! ?! 8! 8! ?! ?! ?! ?! ?! ?! ?! ?! ?! ?! ?! ?! ?! ?! ?! ?! ?! )! )! %  %        -  -  b  b  1! 1! ?! ?! ?! ?! ,! ,! ?! ?! ?! ?! ?! ?! ?! ?! ?! ?! ?! ?! ?! ?! ?! ?! ?! ?! ?! ?! ?! ?! ?! ?! 9! 9! Q  Q  U  U  /! /! ?! ?! ?! ?! ?! ?! ?! ?! ?! ?! ?! ?! ?! ?! ?! ?! ?! ?! ?! ?! ?! ?! ?! ?! ?! ?! ?! ?! ?! ?! ?! ?! ?! ?! ?! ?! ?! ?! ?! ?! ?! ?! ?! ?! ?! s  s  x  x  N# N# =# =# 2# 2# B! B! 8! 8! ?! ?! ?! ?! ?! ?! ?! ?! ?! ?! ?! ?! ?! ?! ?! ?! ?! ?! ?! ?! ?! ?! ?! ?! ?! ?! ?! ?! ?! ?! ?! ?! ?! ?! ?! ?! ?! ?! ?! ;! ;! ?! ?! 8! 8! ,! ,! 5! 5! ?! ?! ?! ?! ?! ?! ?! ?! ?! ?! ?! ?! ?! ?! ?! ?! ?! ?! ?! ?! 4! 4! $! $! 5! 5! 8! 8! ?! ?! 8! 8! ?! ?! ?! ?! ?! ?! ?! ?! s  s  8! 8! ?! ?! ?! ?! ?! ?! ?! ?! ?! ?! ?! ?! ?! ?! ?! ?! ?! ?! ?! L! L! D# D# =# =# D# D# L# ",
"N# =# =# 5# 5# ?! ?! 8! 8! ?! ?! ?! ?! ?! ?! ?! ?! ?! ?! ?! ?! ?! ?! ?! ?! ?! ?! ?! ?! ?! ?! ?! ?! ?! ?! ?! ?! ?! ?! ?! ?! ?! ?! ?! ?! ?! ?! ?! ?! ?! ?! ?! ?! ?! ?! ?! ?! ?! ?! ?! ?! ?! ?! ?! ?! ?! ?! ?! ?! ?! ?! ?! ?! ?! ?! ?! ?! ?! ?! ?! ?! ?! ?! ?! ?! ?! ?! ?! ?! ?! ?! ?! ?! ?! ?! ?! ?! ?! ?! ?! ?! ?! ?! ?! ?! ?! ?! ?! ?! ?! ?! ?! ?! ?! ?! ?! ?! ?! ?! 0! 0! s  s  s  s  N# N# =# =# 5# 5# ?! ?! 8! 8! ?! ?! ?! ?! ?! ?! ?! ?! ?! ?! ?! ?! ?! ?! ?! ?! ?! ?! ?! ?! ?! ?! ?! ?! ?! ?! ?! ?! ?! ?! ?! ?! ?! ?! ?! ?! ?! ?! ?! ?! ?! ?! ?! ?! ?! ?! ?! ?! ?! ?! ?! ?! ?! 8! 8! 8! 8! ?! ?! ?! ?! ?! ?! ?! ?! ?! ?! ?! ?! ?! ?! ?! ?! ?! ?! ?! ?! ?! ?! ?! ?! ?! ?! ?! ?! ?! ?! ?! ?! ?! ?! ?! ?! ?! ?! ?! ?! 8! 8! 6! 6! 5! 5! 4! 4! 6! 6! 0! 0! 6! ?! ?! L! L! D# D# =# =# D# D# L# ",
"N# =# =# 6# 6# ?! ?! 5! 5! ?! ?! ?! ?! ?! ?! ?! ?! ?! ?! ?! ?! ?! ?! ?! ?! ?! ?! ?! ?! ?! ?! ?! ?! ?! ?! ?! ?! ?! ?! ?! ?! ?! ?! ?! ?! ?! ?! ?! ?! ?! ?! ?! ?! ?! ?! ?! ?! ?! ?! ?! ?! ?! ?! ?! ?! ?! ?! ?! ?! ?! ?! ?! ?! ?! ?! ?! ?! ?! ?! ?! ?! ?! ?! ?! ?! ?! ?! ?! ?! ?! ?! ?! ?! ?! ?! ?! ?! ?! ?! ?! ?! ?! ?! ?! ?! ?! ?! ?! ?! ?! ?! ?! ?! ?! ?! ?! ?! ?! ?! 0! 0! s  s  s  s  N# N# =# =# 5# 5# ?! ?! 8! 8! ?! ?! ?! ?! ?! ?! ?! ?! ?! ?! ?! ?! ?! ?! ?! ?! ?! ?! ?! ?! ?! ?! ?! ?! ?! ?! ?! ?! ?! ?! ?! ?! ?! ?! ?! ?! ?! ?! ?! ?! ?! ?! ?! ?! ?! ?! ?! ?! ?! ?! ?! ?! ?! 8! 8! 8! 8! ?! ?! ?! ?! ?! ?! ?! ?! ?! ?! ?! ?! ?! ?! ?! ?! ?! ?! ?! ?! ?! ?! ?! ?! ?! ?! ?! ?! ?! ?! ?! ?! ?! ?! ?! ?! ?! ?! ?! ?! 8! 8! 6! 6! 5! 5! 4! 4! 6! 6! 0! 0! 6! ?! ?! T! T! E# E# =# =# E# E# N# ",
"N# =# =# 6# 6# ?! ?! 5! 5! ?! ?! ?! ?! ?! ?! ?! ?! ?! ?! ?! ?! ?! ?! ?! ?! ?! ?! ?! ?! ?! ?! ?! ?! ?! ?! ?! ?! ?! ?! ?! ?! ?! ?! ?! ;! ;! 5! 5! 4! 4! 4! 4! 5! 5! ,! ,! ,! ,! 6! 6! -! -! (! (! *! *! 6! 6! 6! 6! ?! ?! ?! ?! ?! ?! ?! ?! ?! ?! ?! ?! ?! ?! ?! ?! ?! ?! 8! 8! 8! 8! ?! ?! ?! ?! ?! ?! ?! ?! ?! ?! ?! ?! ?! ?! ?! ?! ?! ?! ?! ?! ?! ?! ?! ?! ?! ?! ?! c  c  s  s  s  s  N# N# =# =# 6# 6# ?! ?! 5! 5! ?! ?! ?! ?! ?! ?! ?! ?! ?! ?! ?! ?! ?! ?! ?! ?! ?! ?! ?! ?! ?! ?! ?! ?! ?! ?! ?! ?! ?! ?! ?! ?! ?! ?! ?! ?! ?! ?! ?! ?! ?! 6! 6! ?! ?! ?! ?! ?! ?! ?! ?! ?! ?! ?! ?! ?! ?! ?! ?! ?! ?! ?! ?! ?! ?! ?! ?! 8! 8! 6! 6! 6! 6! 5! 5! 4! 4! 6! 6! 5! 5! 6! 6! 8! 8! ?! ?! ?! ?! ?! ?! ?! ?! ?! ?! ?! ?! ?! ?! ?! ?! ?! ?! ?! ?! ?! ?! ?! ?! ?! ?! ?! T! T! E# E# =# =# E# E# N# ",
"N# =# =# $# $# ?! ?! 8! 8! ?! ?! ?! ?! ?! ?! ?! ?! ?! ?! ?! ?! ?! ?! ?! ?! ?! ?! ?! ?! ?! ?! ?! ?! ?! ?! ?! ?! ?! ?! ?! ?! ?! ?! ?! ;! ;! 5! 5! 4! 4! 4! 4! 5! 5! ,! ,! ,! ,! 6! 6! -! -! (! (! *! *! 6! 6! 6! 6! ?! ?! ?! ?! ?! ?! ?! ?! ?! ?! ?! ?! ?! ?! ?! ?! ?! ?! 8! 8! 8! 8! ?! ?! ?! ?! ?! ?! ?! ?! ?! ?! ?! ?! ?! ?! ?! ?! ?! ?! ?! ?! ?! ?! ?! ?! ?! ?! ?! c  c  s  s  s  s  N# N# =# =# 6# 6# ?! ?! 5! 5! ?! ?! ?! ?! ?! ?! ?! ?! ?! ?! ?! ?! ?! ?! ?! ?! ?! ?! ?! ?! ?! ?! ?! ?! ?! ?! ?! ?! ?! ?! ?! ?! ?! ?! ?! ?! ?! ?! ?! ?! ?! 6! 6! ?! ?! ?! ?! ?! ?! ?! ?! ?! ?! ?! ?! ?! ?! ?! ?! ?! ?! ?! ?! ?! ?! ?! ?! 8! 8! 6! 6! 6! 6! 5! 5! 4! 4! 6! 6! 5! 5! 6! 6! 8! 8! ?! ?! ?! ?! ?! ?! ?! ?! ?! ?! ?! ?! ?! ?! ?! ?! ?! ?! ?! ?! ?! ?! ?! ?! ?! C! C! ]! ]! F# F# E# E# E# E# N# ",
"N# =# =# $# $# ?! ?! 8! 8! ?! ?! ?! ?! ?! ?! ?! ?! ?! ?! ?! 6! 6! $! $! ,! ,! 6! 6! ?! ?! ?! ?! ?! ?! ?! ?! ?! ?! ?! ?! ?! ?! ?! ?! ?! ?! ?! ?! ?! ?! ?! ?! ?! ?! ?! ?! ?! ?! ?! ?! ?! ?! ?! ?! ?! ?! ?! ?! ?! ?! ?! ?! ?! ?! ?! ?! ?! ?! ?! ?! ?! ?! ?! ?! ?! ?! ?! ?! ?! ?! ?! ?! ?! ?! ?! ?! ?! ?! ?! ?! ?! ?! ?! ?! ?! ?! ?! ?! ?! ?! ?! ?! 1! 1! 6! 6! 6! ?! ?! T  T  s  s  s  s  N# N# =# =# $# $# ?! ?! 8! 8! ?! ?! ?! ?! ?! ?! ?! ?! ?! ?! ?! ?! ?! ?! ?! ?! ?! ?! ?! ?! ?! ?! ?! ?! ?! ?! ?! ?! ?! 5! 5! ,! ,! (! (! (! (! &! &! $! $! 0! 0! 5! 5! (! (! ,! ,! &! &! 0! 0! ,! ,! y  y  ~  ~   !  ! '! '! $! $! -! -! (! (! $! $! ~  ~  (! (! ~  ~  (! (! 8! 8! ?! ?! ?! ?! ?! ?! ?! ?! ?! ?! ?! ?! ?! ?! ?! ?! ?! ?! ?! ?! ?! ?! ?! ?! ?! ?! ?! ?! ?! C! C! ]! ]! F# F# E# E# E# E# N# ",
"M# 9# 9# $# $# ?! ?! ?! ?! ?! ?! ?! ?! ?! ?! ?! ?! ?! ?! ?! 6! 6! $! $! ,! ,! 6! 6! ?! ?! ?! ?! ?! ?! ?! ?! ?! ?! ?! ?! ?! ?! ?! ?! ?! ?! ?! ?! ?! ?! ?! ?! ?! ?! ?! ?! ?! ?! ?! ?! ?! ?! ?! ?! ?! ?! ?! ?! ?! ?! ?! ?! ?! ?! ?! ?! ?! ?! ?! ?! ?! ?! ?! ?! ?! ?! ?! ?! ?! ?! ?! ?! ?! ?! ?! ?! ?! ?! ?! ?! ?! ?! ?! ?! ?! ?! ?! ?! ?! ?! ?! ?! 1! 1! 6! 6! 6! ?! ?! T  T  s  s  s  s  N# N# =# =# $# $# ?! ?! 8! 8! ?! ?! ?! ?! ?! ?! ?! ?! ?! ?! ?! ?! ?! ?! ?! ?! ?! ?! ?! ?! ?! ?! ?! ?! ?! ?! ?! ?! ?! 5! 5! ,! ,! (! (! (! (! &! &! $! $! 0! 0! 5! 5! (! (! ,! ,! &! &! 0! 0! ,! ,! y  y  ~  ~   !  ! '! '! $! $! -! -! (! (! $! $! ~  ~  (! (! ~  ~  (! (! 8! 8! ?! ?! ?! ?! ?! ?! ?! ?! ?! ?! ?! ?! ?! ?! ?! ?! ?! ?! ?! ?! ?! ?! ?! ?! ?! ?! ?! ?! ?! C! C! _! _! F# F# F# F# E# E# N# ",
"M# 9# 9# $# $# ?! ?! ?! ?! ?! ?! ?! ?! ?! ?! ?! ?! ?! ?! ?! ?! ?! ?! ?! ?! ?! ?! ?! ?! ?! ?! ?! 8! 8! ?! ?! ?! ?! ?! ?! ?! ?! ?! ?! ?! ?! ?! ?! ?! ?! ?! ?! 8! 8! ?! ?! ?! ?! ?! ?! ?! ?! ?! ?! ?! ?! ;! ;! ?! ?! ?! ?! ?! ?! ?! ?! ?! ?! ?! ?! ?! ?! ?! ?! ?! ?! ?! ?! 5! 5! ~  ~   !  ! ~  ~  $! $! 0! 0! 5! 5! 0! 0! 6! 6! 8! 8! 8! 8! 8! 8! ?! ?! ?! ?! ?! ?! ?! O  O  s  s  s  s  M# M# 9# 9# $# $# ?! ?! ?! ?! ?! ?! ?! ?! ?! ?! ?! ?! ?! ?! ?! ?! ?! ?! ?! 8! 8! 8! 8! 8! 8! ?! ?! ?! ?! ?! ?! ?! ?! ?! ?! 8! 8! 8! 8! 6! 6! 8! 8! 8! 8! 8! 8! ?! ?! ?! ?! ?! ?! ?! ?! ?! ?! ?! ?! ?! ?! ?! ?! ?! ?! ?! ?! ?! ?! ?! ?! ?! ?! ?! ?! ?! ?! ?! ?! ?! ?! ?! ?! ?! ?! ?! ?! ?! ?! ?! ?! ?! ?! ?! ?! ?! ?! ?! ?! ?! ?! ?! ?! ?! ?! ?! ?! ?! ?! ?! ?! ?! ?! ?! C! C! _! _! F# F# F# F# E# E# N# ",
"N# 7# 7# ## ## ?! ?! ?! ?! ?! ?! ?! ?! ?! ?! ?! ?! ?! ?! ?! ?! ?! ?! ?! ?! ?! ?! ?! ?! ?! ?! ?! 8! 8! ?! ?! ?! ?! ?! ?! ?! ?! ?! ?! ?! ?! ?! ?! ?! ?! ?! ?! 8! 8! ?! ?! ?! ?! ?! ?! ?! ?! ?! ?! ?! ?! ;! ;! ?! ?! ?! ?! ?! ?! ?! ?! ?! ?! ?! ?! ?! ?! ?! ?! ?! ?! ?! ?! 5! 5! ~  ~   !  ! ~  ~  $! $! 0! 0! 5! 5! 0! 0! 6! 6! 8! 8! 8! 8! 8! 8! ?! ?! ?! ?! ?! ?! ?! O  O  s  s  s  s  M# M# 9# 9# $# $# ?! ?! ?! ?! ?! ?! ?! ?! ?! ?! ?! ?! ?! ?! ?! ?! ?! ?! ?! 8! 8! 8! 8! 8! 8! ?! ?! ?! ?! ?! ?! ?! ?! ?! ?! 8! 8! 8! 8! 6! 6! 8! 8! 8! 8! 8! 8! ?! ?! ?! ?! ?! ?! ?! ?! ?! ?! ?! ?! ?! ?! ?! ?! ?! ?! ?! ?! ?! ?! ?! ?! ?! ?! ?! ?! ?! ?! ?! ?! ?! ?! ?! ?! ?! ?! ?! ?! ?! ?! ?! ?! ?! ?! ?! ?! ?! ?! ?! ?! ?! ?! ?! ?! ?! ?! ?! ?! ?! ?! ?! ?! ?! ?! ?! C! C! %# %# I# I# H# H# F# F# N# ",
"N# 7# 7# ## ## ?! ?! ?! ?! ?! ?! ?! ?! ?! ?! ?! ?! ?! ?! ?! 8! 8! 1! 1!  !  ! 8! 8! ?! ?! ?! ?! ?! ?! ?! ?! ?! ?! ?! ?! 5! 5! 5! 5! 0! 0! 4! 4! 1! 1! ?! ?! ?! ?! ?! ?! ?! ?! 8! 8! 1! 1! 1! 1! ?! ?! ?! ?! ?! ?! ?! ?! ?! ?! ?! ?! ?! ?! ?! ?! ?! ?! ?! ?! ?! ?! ?! ?! ?! ?! ?! ?! ?! ?! ?! ?! ?! ?! ?! ?! ?! ?! ?! ?! ?! ?! ?! ?! ?! ?! ?! ?! ?! ?! ?! ?! ?! ?! ?! 7  7  s  s  s  s  N# N# 7# 7# ## ## ?! ?! ?! ?! ?! ?! ?! ?! ?! ?! ?! ?! ?! ?! ?! ?! ?! ?! ?! ?! ?! ?! ?! ?! ?! ?! ?! ?! ?! ?! ?! ?! ?! ?! ?! ?! ?! ?! ?! ?! ?! ?! ?! ?! ?! ?! ?! ?! ?! ?! ?! ?! ?! ?! ?! ?! ?! ?! ?! ?! ?! ?! ?! ?! ?! ?! ?! ?! ?! ?! ?! ?! ?! ?! ?! ?! ?! ?! ?! ?! ?! ?! ?! ?! ?! ?! ?! ?! ?! ?! ?! ?! ?! ?! ?! ?! ?! ?! ?! ?! ?! ?! ?! ?! ?! ?! ?! ?! ?! ?! ?! ?! ?! ?! C! C! %# %# I# I# H# H# F# F# N# ",
"L# 7# 7# $# $# ?! ?! 8! 8! ?! ?! ?! ?! ?! ?! ?! ?! ?! ?! ?! 8! 8! 1! 1!  !  ! 8! 8! ?! ?! ?! ?! ?! ?! ?! ?! ?! ?! ?! ?! 5! 5! 5! 5! 0! 0! 4! 4! 1! 1! ?! ?! ?! ?! ?! ?! ?! ?! 8! 8! 1! 1! 1! 1! ?! ?! ?! ?! ?! ?! ?! ?! ?! ?! ?! ?! ?! ?! ?! ?! ?! ?! ?! ?! ?! ?! ?! ?! ?! ?! ?! ?! ?! ?! ?! ?! ?! ?! ?! ?! ?! ?! ?! ?! ?! ?! ?! ?! ?! ?! ?! ?! ?! ?! ?! ?! ?! ?! ?! 7  7  s  s  s  s  N# N# 7# 7# ## ## ?! ?! ?! ?! ?! ?! ?! ?! ?! ?! ?! ?! ?! ?! ?! ?! ?! ?! ?! ?! ?! ?! ?! ?! ?! ?! ?! ?! ?! ?! ?! ?! ?! ?! ?! ?! ?! ?! ?! ?! ?! ?! ?! ?! ?! ?! ?! ?! ?! ?! ?! ?! ?! ?! ?! ?! ?! ?! ?! ?! ?! ?! ?! ?! ?! ?! ?! ?! ?! ?! ?! ?! ?! ?! ?! ?! ?! ?! ?! ?! ?! ?! ?! ?! ?! ?! ?! ?! ?! ?! ?! ?! ?! ?! ?! ?! ?! ?! ?! ?! ?! ?! ?! ?! ?! ?! ?! ?! ?! ?! ?! ?! ?! ?! C! C! ,# ,# I# I# K# K# H# H# L# ",
"L# 7# 7# $# $# ?! ?! 8! 8! ?! ?! E! F! F! I! I! N! N! N! N! T! T! T! T! T! T! S! S! S! S! T! T! T! T! N! N! J! J! F! F! C! C! C! C! A! A! ?! ?! ?! ?! ?! ?! ?! ?! ?! ?! ?! ?! ?! ?! ?! ?! ?! ?! ?! ?! B! B! C! C! E! E! F! F! E! E! ?! ?! ?! ?! ?! ?! ?! ?! ?! ?! ?! ?! A! A! C! C! B! B! B! B! A! A! ?! ?! ?! ?! ?! ?! ?! ?! ?! ?! ?! ?! ?! ?! ?! ?! ;! ;! 8! ?! ?! 4  4  s  s  s  s  L# L# 7# 7# $# $# ?! ?! 8! 8! ?! ?! ?! ?! ?! ?! ?! ?! ?! ?! ?! ?! ?! ?! ?! ?! ?! ?! ?! ?! ?! ?! ?! ?! ?! ?! ?! ?! ?! ?! ?! ?! ?! ?! ?! ?! ?! ?! ?! ?! ?! ?! ?! ?! ?! ?! ?! ?! ?! ?! ?! 8! 8! 1! 1! 0! 0! 4! 4! 5! 5! 8! 8! 8! 8! ;! ;! ?! ?! ?! ?! ?! ?! ?! ?! ?! ?! ?! ?! ?! ?! ?! ?! ?! ?! ?! ?! ?! ?! ?! ?! ?! ?! ?! ?! ?! ?! B! B! B! B! B! B! C! C! C! C! C! C! C! C! C! ,# ,# I# I# K# K# H# H# L# ",
"L# 9# 9# $# $# ?! ?! '! '! ?! ?! E! F! F! I! I! N! N! N! N! T! T! T! T! T! T! S! S! S! S! T! T! T! T! N! N! J! J! F! F! C! C! C! C! A! A! ?! ?! ?! ?! ?! ?! ?! ?! ?! ?! ?! ?! ?! ?! ?! ?! ?! ?! ?! ?! B! B! C! C! E! E! F! F! E! E! ?! ?! ?! ?! ?! ?! ?! ?! ?! ?! ?! ?! A! A! C! C! B! B! B! B! A! A! ?! ?! ?! ?! ?! ?! ?! ?! ?! ?! ?! ?! ?! ?! ?! ?! ;! ;! 8! ?! ?! 4  4  s  s  s  s  L# L# 7# 7# $# $# ?! ?! 8! 8! ?! ?! ?! ?! ?! ?! ?! ?! ?! ?! ?! ?! ?! ?! ?! ?! ?! ?! ?! ?! ?! ?! ?! ?! ?! ?! ?! ?! ?! ?! ?! ?! ?! ?! ?! ?! ?! ?! ?! ?! ?! ?! ?! ?! ?! ?! ?! ?! ?! ?! ?! 8! 8! 1! 1! 0! 0! 4! 4! 5! 5! 8! 8! 8! 8! ;! ;! ?! ?! ?! ?! ?! ?! ?! ?! ?! ?! ?! ?! ?! ?! ?! ?! ?! ?! ?! ?! ?! ?! ?! ?! ?! ?! ?! ?! ?! ?! B! B! B! B! B! B! C! C! C! C! C! C! C! B! B! Y! Y! B# B# H# H# D# D# L# ",
"L# 9# 9# $# $# ?! ?! '! '! ?! ?! Z! j! j! }! }! =# =# D# D# E# E# F# F# F# F# E# E# D# D# D# D# =# =# )# )# r! r! e! e! U! U! W! W! w! w! x! x! $# $#  #  # t! t! r! r! r! r! {! {! )# )# '# '# ;# ;# 9# 9# =# =# =# =# 7# 7# 1# 1# +# +# t! t! `! `! O! O! J! J! F! F! L! L! N! N! N! N! N! N! J! J! J! J! F! F! L! L! E! E! C! C! C! C! C! C! C! C! B! B! B! ?! ?! p  p  s  s  s  s  L# L# 9# 9# $# $# ?! ?! '! '! ?! ?! F! F! F! F! F! F! F! F! F! C! C! F! F! J! J! J! J! J! J! F! F! F! F! E! E! E! E! C! C! C! C! C! C! C! C! B! B! B! B! B! B! C! C! F! F! F! F! I! I! I! I! I! I! I! I! J! J! J! J! L! L! N! N! N! N! F! F! E! E! E! E! E! E! C! C! C! C! B! B! B! B! C! C! E! E! E! E! J! J! N! N! L! L! N! N! S! S! T! T! T! T! U! U! Z! Z! N! N! S! B! B! Y! Y! B# B# H# H# D# D# L# ",
"L# =# =# ,# ,# ?! ?! ?! ?! ?! ?! Z! j! j! }! }! =# =# D# D# E# E# F# F# F# F# E# E# D# D# D# D# =# =# )# )# r! r! e! e! U! U! W! W! w! w! x! x! $# $#  #  # t! t! r! r! r! r! {! {! )# )# '# '# ;# ;# 9# 9# =# =# =# =# 7# 7# 1# 1# +# +# t! t! `! `! O! O! J! J! F! F! L! L! N! N! N! N! N! N! J! J! J! J! F! F! L! L! E! E! C! C! C! C! C! C! C! C! B! B! B! ?! ?! p  p  s  s  s  s  L# L# 9# 9# $# $# ?! ?! '! '! ?! ?! F! F! F! F! F! F! F! F! F! C! C! F! F! J! J! J! J! J! J! F! F! F! F! E! E! E! E! C! C! C! C! C! C! C! C! B! B! B! B! B! B! C! C! F! F! F! F! I! I! I! I! I! I! I! I! J! J! J! J! L! L! N! N! N! N! F! F! E! E! E! E! E! E! C! C! C! C! B! B! B! B! C! C! E! E! E! E! J! J! N! N! L! L! N! N! S! S! T! T! T! T! U! U! Z! Z! N! N! S! ?! ?! F! F! =# =# D# D# =# =# L# ",
"L# =# =# ,# ,# ?! ?! ?! ?! ?! ?! D# F# F# E# E# F# F# H# H# I# I# H# H# H# H# H# H# I# I# H# H# H# H# F# F# H# H# H# H# F# F# E# E# =# =# A# A# A# A# =# =# =# =# =# =# C# C# A# A# E# E# C# C# =# =# =# =# =# =# =# =# 9# 9# =# =# =# =# 7# 7# 7# 7# 6# 6# 5# 5# =# =# 1# 1# 1# 1# 1# 1# 1# 1# 7# 7# 3# 3# 6# 6# 7# 7# 7# 7# =# =# A# A# =# =# =# =# =# =# =# ?! ?! ?! ?! s  s  s  s  L# L# =# =# ,# ,# ?! ?! ?! ?! ?! ?! ;# 6# 6# 9# 9# 1# 1# 3# 3# 7# 7# 6# 6# ?# ?# =# =# =# =# 7# 7# 7# 7# 4# 4# 1# 1# 1# 1# 1# 1# 3# 3# 1# 1# 3# 3# ,# ,# {! {! ## ## 1# 1# 6# 6# =# =# =# =# =# =# =# =# =# =# 7# 7# 9# 9# =# =# C# C# 7# 7# 9# 9# =# =# 7# 7# 9# 9# 7# 7# 6# 6# 3# 3# 3# 3# 6# 6# :# :# A# A# A# A# =# =# 7# 7# =# =# 9# 9# 6# 6# 3# 3# 1# 1# 1# 1# 1# ?! ?! F! F! =# =# D# D# =# =# L# ",
"L# =# =# 7# 7# ?! ?! ?! ?! ?! ?! D# F# F# E# E# F# F# H# H# I# I# H# H# H# H# H# H# I# I# H# H# H# H# F# F# H# H# H# H# F# F# E# E# =# =# A# A# A# A# =# =# =# =# =# =# C# C# A# A# E# E# C# C# =# =# =# =# =# =# =# =# 9# 9# =# =# =# =# 7# 7# 7# 7# 6# 6# 5# 5# =# =# 1# 1# 1# 1# 1# 1# 1# 1# 7# 7# 3# 3# 6# 6# 7# 7# 7# 7# =# =# A# A# =# =# =# =# =# =# =# ?! ?! ?! ?! s  s  s  s  L# L# =# =# ,# ,# ?! ?! ?! ?! ?! ?! ;# 6# 6# 9# 9# 1# 1# 3# 3# 7# 7# 6# 6# ?# ?# =# =# =# =# 7# 7# 7# 7# 4# 4# 1# 1# 1# 1# 1# 1# 3# 3# 1# 1# 3# 3# ,# ,# {! {! ## ## 1# 1# 6# 6# =# =# =# =# =# =# =# =# =# =# 7# 7# 9# 9# =# =# C# C# 7# 7# 9# 9# =# =# 7# 7# 9# 9# 7# 7# 6# 6# 3# 3# 3# 3# 6# 6# :# :# A# A# A# A# =# =# 7# 7# =# =# 9# 9# 6# 6# 3# 3# 1# 1# 1# 1# 1# ?! ?! C! C! 3# 3# C# C# =# =# L# ",
"L# =# =# 7# 7# ?! ?! ?! ?! ?! ?! I# I# I# J# J# I# I# I# I# I# I# I# I# I# I# I# I# I# I# H# H# F# F# H# H# I# I# H# H# H# H# H# H# H# H# F# F# E# E# E# E# D# D# A# A# D# D# D# D# A# A# C# C# C# C# E# E# D# D# D# D# A# A# C# C# ?# ?# =# =# =# =# =# =# =# =# =# =# A# A# D# D# A# A# D# D# D# D# D# D# E# E# E# E# D# D# F# F# F# F# D# D# C# C# D# D# D# ?! ?! ?! ?! l  l  s  s  L# L# =# =# 7# 7# ?! ?! ?! ?! ?! ?! =# 6# 6# 1# 1# 3# 3# 6# 6# 6# 6# A# A# B# B# D# D# D# D# A# A# C# C# C# C# C# C# =# =# =# =# =# =# =# =# =# =# =# =# =# =# 7# 7# 7# 7# 6# 6# 7# 7# =# =# 9# 9# =# =# =# =# =# =# =# =# 7# 7# =# =# 9# 9# =# =# =# =# =# =# =# =# =# =# =# =# 9# 9# =# =# D# D# E# E# I# I# G# G# F# F# E# E# E# E# D# D# C# C# B# B# D# D# D# D# =# ?! ?! C! C! 3# 3# C# C# =# =# L# ",
"L# =# =# C# C# ?! ?! ?! ?! ?! ?! I# I# I# J# J# I# I# I# I# I# I# I# I# I# I# I# I# I# I# H# H# F# F# H# H# I# I# H# H# H# H# H# H# H# H# F# F# E# E# E# E# D# D# A# A# D# D# D# D# A# A# C# C# C# C# E# E# D# D# D# D# A# A# C# C# ?# ?# =# =# =# =# =# =# =# =# =# =# A# A# D# D# A# A# D# D# D# D# D# D# E# E# E# E# D# D# F# F# F# F# D# D# C# C# D# D# D# ?! ?! ?! ?! l  l  s  s  L# L# =# =# 7# 7# ?! ?! ?! ?! ?! ?! =# 6# 6# 1# 1# 3# 3# 6# 6# 6# 6# A# A# B# B# D# D# D# D# A# A# C# C# C# C# C# C# =# =# =# =# =# =# =# =# =# =# =# =# =# =# 7# 7# 7# 7# 6# 6# 7# 7# =# =# 9# 9# =# =# =# =# =# =# =# =# 7# 7# =# =# 9# 9# =# =# =# =# =# =# =# =# =# =# =# =# 9# 9# =# =# D# D# E# E# I# I# G# G# F# F# E# E# E# E# D# D# C# C# B# B# D# D# D# D# =# ?! ?! B! B! 4# 4# B# B# A# A# L# ",
"L# =# =# C# C# ?! ?! ?! ?! ?! ?! M# M# M# M# M# M# M# M# M# M# M# M# M# M# M# M# M# M# M# M# M# M# M# M# M# M# M# M# M# M# M# M# M# M# M# N# N# N# N# N# N# N# N# N# N# N# N# N# N# O# O# O# O# O# O# O# O# O# O# O# O# O# O# P# P# P# P# P# P# O# O# O# O# O# O# O# O# N# N# N# N# N# N# N# N# N# N# N# N# N# N# N# N# N# N# M# M# M# M# M# M# M# M# M# M# M# ?! ?! ?! ?! V  V  s  s  L# L# =# =# C# C# ?! ?! ?! ?! ?! ?! N# N# N# N# N# N# N# N# N# N# N# N# N# N# N# N# N# N# N# N# N# N# N# N# N# N# N# N# N# N# N# N# N# N# N# N# N# N# N# N# N# N# N# N# N# N# N# N# N# N# N# N# N# N# N# N# N# N# N# N# N# O# O# O# O# N# N# N# N# N# N# N# N# N# N# O# O# O# O# N# N# N# N# N# N# N# N# N# N# N# N# N# N# N# N# N# N# N# N# N# N# O# O# O# O# O# O# P# ?! ?! B! B! 4# 4# B# B# A# A# L# ",
"L# 9# 9# =# =# ?! ?! ?! ?! ;! ;! M# M# M# M# M# M# M# M# M# M# M# M# M# M# M# M# M# M# M# M# M# M# M# M# M# M# M# M# M# M# M# M# M# M# M# N# N# N# N# N# N# N# N# N# N# N# N# N# N# O# O# O# O# O# O# O# O# O# O# O# O# O# O# P# P# P# P# P# P# O# O# O# O# O# O# O# O# N# N# N# N# N# N# N# N# N# N# N# N# N# N# N# N# N# N# M# M# M# M# M# M# M# M# M# M# M# ?! ?! ?! ?! V  V  s  s  L# L# =# =# C# C# ?! ?! ?! ?! ?! ?! N# N# N# N# N# N# N# N# N# N# N# N# N# N# N# N# N# N# N# N# N# N# N# N# N# N# N# N# N# N# N# N# N# N# N# N# N# N# N# N# N# N# N# N# N# N# N# N# N# N# N# N# N# N# N# N# N# N# N# N# N# O# O# O# O# N# N# N# N# N# N# N# N# N# N# O# O# O# O# N# N# N# N# N# N# N# N# N# N# N# N# N# N# N# N# N# N# N# N# N# N# O# O# O# O# O# O# P# ?! ?! B! B! {! {! =# =# =# =# L# ",
"L# 9# 9# =# =# ?! ?! ?! ?! ;! ;! w  y  y  !! !! }  }  y  y  s  s  s  s  s  s  w  w  y  y  |  |  |  |  }  }  }  }  y  y  w  w  }  }  }  }  #! #! &! &! !! !! #! #! !! !! !! !! !! !! }  }  !! !! )! )! 2! 2! 4! 4! 3! 3! 7! 7! 7! 7! <! <! =! =! 2! 2! 2! 2! 3! 3! 3! 3! 2! 2! 2! 2! 2! 2! 2! 2! )! )! #! #! #! #! #! #! #! #! %! %! #! #! #! #! )! )! )! )! 4! ?! ?! ?! ?! ?! ?! s  s  L# L# 9# 9# =# =# ?! ?! ?! ?! ;! ;! )! )! )! &! &! %! %! %! %! !! !! !! !! %! %! )! )! #! #! |  |  %! %! %! %! /! /! 3! 3! /! /! )! )! )! )! /! /! 7! 7! 7! 7! )! )! &! &! &! &! %! %! #! #! %! %! )! )! &! &! s  s  s  s  s  s  s  s  s  s  s  s  s  s  s  s  x  x  #! #! !! !! !! !! }  }  !! !! %! %! #! #! !! !! !! !! !! !! }  }  }  }  !! !! !! !! !! !! #! #! #! ?! ?! B! B! {! {! =# =# =# =# L# ",
"L# =# =# 3# 3# B! B! ?! ?! ;! ;! w  y  y  !! !! }  }  y  y  s  s  s  s  s  s  w  w  y  y  |  |  |  |  }  }  }  }  y  y  w  w  }  }  }  }  #! #! &! &! !! !! #! #! !! !! !! !! !! !! }  }  !! !! )! )! 2! 2! 4! 4! 3! 3! 7! 7! 7! 7! <! <! =! =! 2! 2! 2! 2! 3! 3! 3! 3! 2! 2! 2! 2! 2! 2! 2! 2! )! )! #! #! #! #! #! #! #! #! %! %! #! #! #! #! )! )! )! )! 4! ?! ?! ?! ?! ?! ?! s  s  L# L# 9# 9# =# =# ?! ?! ?! ?! ;! ;! )! )! )! &! &! %! %! %! %! !! !! !! !! %! %! )! )! #! #! |  |  %! %! %! %! /! /! 3! 3! /! /! )! )! )! )! /! /! 7! 7! 7! 7! )! )! &! &! &! &! %! %! #! #! %! %! )! )! &! &! s  s  s  s  s  s  s  s  s  s  s  s  s  s  s  s  x  x  #! #! !! !! !! !! }  }  !! !! %! %! #! #! !! !! !! !! !! !! }  }  }  }  !! !! !! !! !! !! #! #! #! ?! ?! B! B! c! c! C# C# =# =# L# ",
"L# =# =# 3# 3# B! B! ?! ?! ;! ;! s  s  s  s  s  s  s  s  s  s  s  s  s  s  s  s  s  s  s  s  s  s  s  s  s  s  s  s  s  s  s  e  e  c  c  s  s  s  s  s  s  s  s  s  s  s  s  s  s  s  s  s  s  w  w  s  s  s  s  w  w  w  w  s  s  s  s  s  s  s  s  s  s  s  s  s  s  s  s  s  s  s  s  s  s  s  s  s  s  s  s  s  s  s  s  s  s  s  s  s  s  s  s  s  s  s  ?! ?! ?! ?! ?! ?! s  s  L# L# =# =# 3# 3# B! B! ?! ?! ;! ;! s  s  s  s  s  s  s  s  s  s  s  s  s  s  s  s  s  s  s  s  s  s  s  s  s  X  X  c  c  i  i  i  i  }  }  }  }  |  |  }  }  s  s  s  s  s  s  s  s  s  s  s  s  s  s  s  s  s  s  s  s  s  s  s  s  s  s  s  s  s  s  s  s  s  s  s  s  s  s  s  s  s  s  s  s  s  s  s  s  s  s  s  s  s  s  s  s  s  s  s  s  s  s  e  e  >  >  .  ?! ?! B! B! c! c! C# C# =# =# L# ",
"L# B# B# 1# 1# Z! Z! ?! ?! ?! ?! s  s  s  s  s  s  s  s  s  s  s  s  s  s  s  s  s  s  s  s  s  s  s  s  s  s  s  s  s  s  s  e  e  c  c  s  s  s  s  s  s  s  s  s  s  s  s  s  s  s  s  s  s  w  w  s  s  s  s  w  w  w  w  s  s  s  s  s  s  s  s  s  s  s  s  s  s  s  s  s  s  s  s  s  s  s  s  s  s  s  s  s  s  s  s  s  s  s  s  s  s  s  s  s  s  s  ?! ?! ?! ?! ?! ?! s  s  L# L# =# =# 3# 3# B! B! ?! ?! ;! ;! s  s  s  s  s  s  s  s  s  s  s  s  s  s  s  s  s  s  s  s  s  s  s  s  s  X  X  c  c  i  i  i  i  }  }  }  }  |  |  }  }  s  s  s  s  s  s  s  s  s  s  s  s  s  s  s  s  s  s  s  s  s  s  s  s  s  s  s  s  s  s  s  s  s  s  s  s  s  s  s  s  s  s  s  s  s  s  s  s  s  s  s  s  s  s  s  s  s  s  s  s  s  s  e  e  >  >  .  ?! ?! B! B! W! W! C# C# =# =# L# ",
"L# B# B# 1# 1# Z! Z! ?! ?! ?! ?! j  a  a  4! 4! y  y  ?! ?! ?! ?! ?! ?! 9! 9! 8! 8! ?! ?! 4! 4! 1! 1! ?! ?! ?! ?! ?! ?! ?! ?! ?! ?! z  z  N  N  /  /  V  V  s  s  s  s  s  s  s  s  s  s  s  s  s  s  s  s  #! #! 1! 1! 8! 8! ?! ?! ?! ?! ?! ?! ?! ?! ?! ?! 8! 8! *! *! i  i  n  n  '! '! T  T  s  s  s  s  s  s  a  a  X  X  i  i  K  K  G  G  =  =  @  @  8  ?! ?! ?! ?! ?! ?! s  s  L# L# B# B# 1# 1# Z! Z! ?! ?! ?! ?! s  s  s  s  s  s  s  X  X  4! 4! ?! ?! ?! ?! ?! ?! '! '! `  `  s  s  !! !! ?! ?! ?! ?! ?! ?! ?! ?! ?! ?! ?! ?! ?! ?! ?! ?! ?! ?! ?! ?! ?! ?! ?! ?! ?! ?! 8! 8! 4! 4! }  }  }  }  |  |  p  p  s  s  #! #! '! '! }  }  t  t  X  X  n  n  !! !! `  `  T  T  O  O  X  X  i  i  ?! ?! ?! ?! ?! ?! ?! ?! 4! 4! ~  ~  |  |  8! 8! ?! ?! ?! ?! ?! B! B! W! W! C# C# =# =# L# ",
"L# D# D# 6# 6# t! t! ?! ?! ?! ?! j  a  a  4! 4! y  y  ?! ?! ?! ?! ?! ?! 9! 9! 8! 8! ?! ?! 4! 4! 1! 1! ?! ?! ?! ?! ?! ?! ?! ?! ?! ?! z  z  N  N  /  /  V  V  s  s  s  s  s  s  s  s  s  s  s  s  s  s  s  s  #! #! 1! 1! 8! 8! ?! ?! ?! ?! ?! ?! ?! ?! ?! ?! 8! 8! *! *! i  i  n  n  '! '! T  T  s  s  s  s  s  s  a  a  X  X  i  i  K  K  G  G  =  =  @  @  8  ?! ?! ?! ?! ?! ?! s  s  L# L# B# B# 1# 1# Z! Z! ?! ?! ?! ?! s  s  s  s  s  s  s  X  X  4! 4! ?! ?! ?! ?! ?! ?! '! '! `  `  s  s  !! !! ?! ?! ?! ?! ?! ?! ?! ?! ?! ?! ?! ?! ?! ?! ?! ?! ?! ?! ?! ?! ?! ?! ?! ?! ?! ?! 8! 8! 4! 4! }  }  }  }  |  |  p  p  s  s  #! #! '! '! }  }  t  t  X  X  n  n  !! !! `  `  T  T  O  O  X  X  i  i  ?! ?! ?! ?! ?! ?! ?! ?! 4! 4! ~  ~  |  |  8! 8! ?! ?! ?! ?! ?! :! :! W! W! C# C# =# =# L# ",
"L# D# D# 6# 6# t! t! ?! ?! ?! ?! ?! ?! ?! ?! ?! ?! ?! ?! ?! ?! ?! ?! ?! ?! ?! ?! ?! ?! ?! 6! 6! 6! 6! ?! ?! ?! ?! ?! ?! ?! ?! ?! ?! ?! ?! ?! ?! ?! ?! ?! ?! ?! ?! ?! ?! #! #! x  x  9! 9! ?! ?! ?! ?! ?! ?! ?! ?! ?! ?! ?! ?! ?! ?! ?! ?! ?! ?! ?! ?! ?! ?! ?! ?! ?! ?! ?! ?! ?! ?! ?! ?! ?! ?! ?! ?! x  x  ~  ~  ?! ?! ?! ?! ?! ?! ?! ?! {  {  -  -  6! 6! ?! ?! ?! ?! ?! ?! ?! s  s  L# L# D# D# 6# 6# t! t! ?! ?! ?! ?! ?! 4! 4! ?! ?! ?! ?! ?! ?! ?! ?! ?! ?! ?! ?! ?! ?! ?! ?! ?! ?! ?! ?! 8! 8! ?! ?! ?! ?! ?! ?! ?! ?! ?! ?! ?! ?! ?! ?! ?! ?! ?! ?! ?! ?! ?! ?! ?! ?! ?! ?! ?! ?! ?! ?! ?! ?! ?! ?! ?! ?! ?! ?! ?! ?! ?! ?! ,! ,! ;! ;! ?! ?! ?! ?! ?! ?! ?! ?! ?! ?! ?! ?! ?! ?! ?! ?! ?! ?! ?! ?! ?! ?! ?! ?! ?! ?! ?! ?! ?! ?! ?! ?! ?! ?! ?! ?! ?! ?! ?! :! :! W! W! C# C# =# =# L# ",
"L# D# D# 6# 6# x! x! ?! ?! ?! ?! ?! ?! ?! ?! ?! ?! ?! ?! ?! ?! ?! ?! ?! ?! ?! ?! ?! ?! ?! 6! 6! 6! 6! ?! ?! ?! ?! ?! ?! ?! ?! ?! ?! ?! ?! ?! ?! ?! ?! ?! ?! ?! ?! ?! ?! #! #! x  x  9! 9! ?! ?! ?! ?! ?! ?! ?! ?! ?! ?! ?! ?! ?! ?! ?! ?! ?! ?! ?! ?! ?! ?! ?! ?! ?! ?! ?! ?! ?! ?! ?! ?! ?! ?! ?! ?! x  x  ~  ~  ?! ?! ?! ?! ?! ?! ?! ?! {  {  -  -  6! 6! ?! ?! ?! ?! ?! ?! ?! s  s  L# L# D# D# 6# 6# t! t! ?! ?! ?! ?! ?! 4! 4! ?! ?! ?! ?! ?! ?! ?! ?! ?! ?! ?! ?! ?! ?! ?! ?! ?! ?! ?! ?! 8! 8! ?! ?! ?! ?! ?! ?! ?! ?! ?! ?! ?! ?! ?! ?! ?! ?! ?! ?! ?! ?! ?! ?! ?! ?! ?! ?! ?! ?! ?! ?! ?! ?! ?! ?! ?! ?! ?! ?! ?! ?! ?! ?! ,! ,! ;! ;! ?! ?! ?! ?! ?! ?! ?! ?! ?! ?! ?! ?! ?! ?! ?! ?! ?! ?! ?! ?! ?! ?! ?! ?! ?! ?! ?! ?! ?! ?! ?! ?! ?! ?! ?! ?! ?! ?! ?! :! :! ^! ^! =# =# 9# 9# L# ",
"L# D# D# 6# 6# x! x! ?! ?! ?! ?! *! *! *! 8! 8! ?! ?! ?! ?! ?! ?! ?! ?! ?! ?! ?! ?! ?! ?! ?! ?! ?! ?! ?! ?! ?! ?! ?! ?! ?! ?! ?! ?! ?! ?! ?! ?! ?! ?! ?! ?! ?! ?! ?! ?! ?! ?! ?! ?! ?! ?! ?! ?! ?! ?! ?! ?! ?! ?! ?! ?! ?! ?! ?! ?! ?! ?! ?! ?! ?! ?! ?! ?! ?! ?! ?! ?! ?! ?! ?! ?! ?! ?! ?! ?! ?! ?! ?! ?! ?! ?! ?! ?! ?! ?! ?! ?! ?! ?! ?! ?! ?! ?! ?! ?! ?! ?! ?! ?! ?! ?! ?! s  s  L# L# D# D# 6# 6# x! x! ?! ?! ?! ?! ?! ?! ?! ?! ?! ?! ?! ?! ?! ?! ?! ?! ?! ?! ?! ?! ?! ?! ?! ?! ?! ?! ?! ?! ?! ?! ?! ?! ?! ?! ?! ?! ?! ?! ?! ?! ?! ?! ?! ?! ?! ?! ?! ,! ,! 8! 8! ?! ?! ?! ?! ?! ?! ?! ?! ?! ?! ?! ?! ?! ?! ?! ?! ?! ?! ?! ?! ?! ?! ?! ?! ?! ?! ?! ?! ?! ?! 8! 8! 0! 0! 1! 1! ?! ?! ?! ?! ?! ?! ?! ?! ?! ?! ?! ?! ?! ?! ?! ?! ?! ?! ?! ?! ?! ?! ?! ?! ?! ?! ?! :! :! ^! ^! =# =# 9# 9# L# ",
"L# D# D# 9# 9# }! }! ?! ?! ?! ?! *! *! *! 8! 8! ?! ?! ?! ?! ?! ?! ?! ?! ?! ?! ?! ?! ?! ?! ?! ?! ?! ?! ?! ?! ?! ?! ?! ?! ?! ?! ?! ?! ?! ?! ?! ?! ?! ?! ?! ?! ?! ?! ?! ?! ?! ?! ?! ?! ?! ?! ?! ?! ?! ?! ?! ?! ?! ?! ?! ?! ?! ?! ?! ?! ?! ?! ?! ?! ?! ?! ?! ?! ?! ?! ?! ?! ?! ?! ?! ?! ?! ?! ?! ?! ?! ?! ?! ?! ?! ?! ?! ?! ?! ?! ?! ?! ?! ?! ?! ?! ?! ?! ?! ?! ?! ?! ?! ?! ?! ?! ?! s  s  L# L# D# D# 6# 6# x! x! ?! ?! ?! ?! ?! ?! ?! ?! ?! ?! ?! ?! ?! ?! ?! ?! ?! ?! ?! ?! ?! ?! ?! ?! ?! ?! ?! ?! ?! ?! ?! ?! ?! ?! ?! ?! ?! ?! ?! ?! ?! ?! ?! ?! ?! ?! ?! ,! ,! 8! 8! ?! ?! ?! ?! ?! ?! ?! ?! ?! ?! ?! ?! ?! ?! ?! ?! ?! ?! ?! ?! ?! ?! ?! ?! ?! ?! ?! ?! ?! ?! 8! 8! 0! 0! 1! 1! ?! ?! ?! ?! ?! ?! ?! ?! ?! ?! ?! ?! ?! ?! ?! ?! ?! ?! ?! ?! ?! ?! ?! ?! ?! ?! ?! @! @! t! t! C# C# =# =# L# ",
"L# D# D# 9# 9# }! }! ?! ?! ?! ?! ?! ?! ?! ?! ?! ?! ?! ?! ?! ?! ?! ?! ?! ?! ?! ?! ?! ?! ?! ?! ?! ?! ?! ?! ?! ?! ?! ?! ?! ?! ?! ?! ?! ?! ?! ?! ?! ?! ?! ?! ?! 8! 8! 5! 5! ?! ?! ?! ?! ?! ?! ?! ?! ?! ?! ?! ?! ?! ?! ?! ?! ?! ?! ?! ?! ?! ?! ?! ?! ?! ?! ?! ?! ?! ?! 8! 8! 8! 8! ?! ?! 8! 8! 8! 8! ?! ?! ?! ?! ?! ?! ?! ?! ?! ?! 8! 8! 8! 8! ;! ;! 8! 8! ;! ;! 8! ?! ?! ?! ?! 9! 9! s  s  L# L# D# D# 9# 9# }! }! ?! ?! ?! ?! ?! ?! ?! ?! ?! ?! ?! ?! ?! ?! ?! ?! ?! ?! ?! ?! ?! ?! ?! ?! ?! ?! ?! ?! ?! ?! ?! ?! ?! ?! ?! ?! ?! ?! ?! ?! ?! ?! ?! ?! ?! ?! ?! ?! ?! ?! ?! ?! ?! ?! ?! 6! 6! 4! 4! ;! ;! ?! ?! ?! ?! 0! 0! *! *! 8! 8! ?! ?! ?! ?! ?! ?! ?! ?! ?! ?! ?! ?! ?! ?! ?! ?! ?! ?! ?! ?! ?! ?! ?! ?! ?! ?! ?! ?! ?! ?! 8! 8! ?! ?! ?! ?! ?! ?! ?! ?! 8! ?! ?! @! @! t! t! C# C# =# =# L# ",
"L# D# D# =# =# $# $# ?! ?! ?! ?! ?! ?! ?! ?! ?! ?! ?! ?! ?! ?! ?! ?! ?! ?! ?! ?! ?! ?! ?! ?! ?! ?! ?! ?! ?! ?! ?! ?! ?! ?! ?! ?! ?! ?! ?! ?! ?! ?! ?! ?! ?! 8! 8! 5! 5! ?! ?! ?! ?! ?! ?! ?! ?! ?! ?! ?! ?! ?! ?! ?! ?! ?! ?! ?! ?! ?! ?! ?! ?! ?! ?! ?! ?! ?! ?! 8! 8! 8! 8! ?! ?! 8! 8! 8! 8! ?! ?! ?! ?! ?! ?! ?! ?! ?! ?! 8! 8! 8! 8! ;! ;! 8! 8! ;! ;! 8! ?! ?! ?! ?! 9! 9! s  s  L# L# D# D# 9# 9# }! }! ?! ?! ?! ?! ?! ?! ?! ?! ?! ?! ?! ?! ?! ?! ?! ?! ?! ?! ?! ?! ?! ?! ?! ?! ?! ?! ?! ?! ?! ?! ?! ?! ?! ?! ?! ?! ?! ?! ?! ?! ?! ?! ?! ?! ?! ?! ?! ?! ?! ?! ?! ?! ?! ?! ?! 6! 6! 4! 4! ;! ;! ?! ?! ?! ?! 0! 0! *! *! 8! 8! ?! ?! ?! ?! ?! ?! ?! ?! ?! ?! ?! ?! ?! ?! ?! ?! ?! ?! ?! ?! ?! ?! ?! ?! ?! ?! ?! ?! ?! ?! 8! 8! ?! ?! ?! ?! ?! ?! ?! ?! 8! ?! ?! C! C! +# +# C# C# =# =# L# ",
"L# D# D# =# =# $# $# ?! ?! ?! ?! ?! ?! ?! ?! ?! ?! ?! ?! ?! ?! ?! ?! ?! ?! ?! ?! ?! ?! ?! ?! ?! ?! ?! ?! ?! ?! ?! ?! ?! ?! ?! ?! ?! ?! ?! ?! ?! ?! ?! ?! ?! ?! ?! ?! ?! ?! ?! ?! ?! ?! ?! ?! ?! ?! ?! 8! 8! 8! 8! ?! ?! 8! 8! 8! 8! 6! 6! 8! 8! 5! 5! 6! 6! 5! 5! 8! 8! 8! 8! ?! ?! ?! ?! ?! ?! ?! ?! ?! ?! ?! ?! ?! ?! ?! ?! ?! ?! ?! ?! ?! ?! ?! ?! ?! ?! ?! ?! ?! ?! ?! '! '! s  s  L# L# D# D# =# =# $# $# ?! ?! ?! ?! ?! ?! ?! ?! ?! ?! ?! ?! ?! ?! ?! ?! ?! ?! ?! ?! ?! ?! ?! ?! ?! ?! ?! ?! ?! ?! ?! ?! ?! ?! ?! ?! ?! ?! ?! ?! ?! 1! 1! 8! 8! ?! ?! ?! ?! ?! ?! ?! ?! ?! ?! ?! ?! ?! ?! ?! ?! ;! ;! 0! 0! ?! ?! ?! ?! ?! ?! ?! ?! ?! ?! ?! ?! ?! ?! ?! ?! ?! ?! ?! ?! ?! ?! 1! 1! 1! 1! 6! 6! ?! ?! ?! ?! 6! 6! ?! ?! ?! ?! ?! ?! ?! ?! (! (! 8! 8! ?! ?! ?! C! C! +# +# C# C# =# =# L# ",
"L# A# A# =# =# '# '# ?! ?! ?! ?! ?! ?! ?! ?! ?! ?! ?! ?! ?! ?! ?! ?! ?! ?! ?! ?! ?! ?! ?! ?! ?! ?! ?! ?! ?! ?! ?! ?! ?! ?! ?! ?! ?! ?! ?! ?! ?! ?! ?! ?! ?! ?! ?! ?! ?! ?! ?! ?! ?! ?! ?! ?! ?! ?! ?! 8! 8! 8! 8! ?! ?! 8! 8! 8! 8! 6! 6! 8! 8! 5! 5! 6! 6! 5! 5! 8! 8! 8! 8! ?! ?! ?! ?! ?! ?! ?! ?! ?! ?! ?! ?! ?! ?! ?! ?! ?! ?! ?! ?! ?! ?! ?! ?! ?! ?! ?! ?! ?! ?! ?! '! '! s  s  L# L# D# D# =# =# $# $# ?! ?! ?! ?! ?! ?! ?! ?! ?! ?! ?! ?! ?! ?! ?! ?! ?! ?! ?! ?! ?! ?! ?! ?! ?! ?! ?! ?! ?! ?! ?! ?! ?! ?! ?! ?! ?! ?! ?! ?! ?! 1! 1! 8! 8! ?! ?! ?! ?! ?! ?! ?! ?! ?! ?! ?! ?! ?! ?! ?! ?! ;! ;! 0! 0! ?! ?! ?! ?! ?! ?! ?! ?! ?! ?! ?! ?! ?! ?! ?! ?! ?! ?! ?! ?! ?! ?! 1! 1! 1! 1! 6! 6! ?! ?! ?! ?! 6! 6! ?! ?! ?! ?! ?! ?! ?! ?! (! (! 8! 8! ?! ?! ?! F! F! =# =# C# C# C# C# L# ",
"L# A# A# =# =# '# '# ?! ?! ?! ?! ?! ?! ?! ?! ?! ?! ?! ?! ?! ?! ?! ?! ?! ?! ?! ?! ?! ?! ?! ?! ?! 8! 8! 5! 5! 0! 0! ,! ,! (! (! 0! 0! 1! 1! 4! 4! ?! ?! ?! ?! ?! ?! ?! ?! ?! ?! ?! ?! ?! ?! ?! ?! ?! ?! ?! ?! ?! ?! ?! ?! ?! ?! ?! ?! ?! ?! ?! ?! ?! ?! ?! ?! ?! ?! ?! ?! ?! ?! ?! ?! ?! ?! ?! ?! ?! ?! ?! ?! ?! ?! ?! ?! ?! ?! ?! ?! ?! ?! ?! ?! ?! ?! ?! ?! ?! ?! ?! ?! ?! ~  ~  s  s  L# L# A# A# =# =# '# '# ?! ?! ?! ?! ?! ?! ?! ?! ?! ?! ?! ?! ?! ?! ?! ?! ?! ?! ?! ?! ?! ?! ?! ?! ?! ?! ?! ?! ?! ?! ?! ?! ?! 5! 5! ?! ?! ?! ?! ?! ?! ?! ?! ?! ?! ?! ?! ?! ?! ?! ?! ?! ?! ?! ?! ?! ?! ?! ?! ?! ?! ?! ?! ?! ?! ?! ?! ?! ?! ?! ?! ,! ,! 8! 8! ?! ?! ?! ?! ?! ?! ?! ?! ?! ?! ?! ?! 0! 0!  !  ! ~  ~  ,! ,! 6! 6! ?! ?! ?! ?! ?! ?! ?! ?! ?! ?! 8! 8! 8! 8! ?! ?! ?! F! F! =# =# C# C# C# C# L# ",
"L# D# D# =# =# 1# 1# ?! ?! ?! ?! ?! ?! ?! ?! ?! ?! ?! ?! ?! ?! ?! ?! ?! ?! ?! ?! ?! ?! ?! ?! ?! 8! 8! 5! 5! 0! 0! ,! ,! (! (! 0! 0! 1! 1! 4! 4! ?! ?! ?! ?! ?! ?! ?! ?! ?! ?! ?! ?! ?! ?! ?! ?! ?! ?! ?! ?! ?! ?! ?! ?! ?! ?! ?! ?! ?! ?! ?! ?! ?! ?! ?! ?! ?! ?! ?! ?! ?! ?! ?! ?! ?! ?! ?! ?! ?! ?! ?! ?! ?! ?! ?! ?! ?! ?! ?! ?! ?! ?! ?! ?! ?! ?! ?! ?! ?! ?! ?! ?! ?! ~  ~  s  s  L# L# A# A# =# =# '# '# ?! ?! ?! ?! ?! ?! ?! ?! ?! ?! ?! ?! ?! ?! ?! ?! ?! ?! ?! ?! ?! ?! ?! ?! ?! ?! ?! ?! ?! ?! ?! ?! ?! 5! 5! ?! ?! ?! ?! ?! ?! ?! ?! ?! ?! ?! ?! ?! ?! ?! ?! ?! ?! ?! ?! ?! ?! ?! ?! ?! ?! ?! ?! ?! ?! ?! ?! ?! ?! ?! ?! ,! ,! 8! 8! ?! ?! ?! ?! ?! ?! ?! ?! ?! ?! ?! ?! 0! 0!  !  ! ~  ~  ,! ,! 6! 6! ?! ?! ?! ?! ?! ?! ?! ?! ?! ?! 8! 8! 8! 8! ?! ?! ?! F! F! C# C# D# D# D# D# L# ",
"L# D# D# =# =# 1# 1# ?! ?! ?! ?! ?! ?! ?! ?! ?! ?! ?! ?! ?! ?! ?! ?! ?! ?! ?! ?! ?! ?! ?! ?! ?! ?! ?! ?! ?! ?! ?! ?! ?! ?! ?! ?! ?! ?! ?! ?! ?! ?! ?! ?! ?! ?! ?! ?! ?! ?! ?! ?! ?! ?! ?! ?! ?! (! (! ,! ,! ?! ?! ?! ?! ?! ?! ?! ?! ?! ?! ?! ?! ?! ?! ?! ?! ?! ?! ?! ?! ?! ?! 0! 0! 4! 4! 8! 8! ?! ?! ?! ?! ?! ?! ?! ?! ?! ?! ?! ?! ?! ?! ?! ?! ?! ?! ?! ?! ?! ?! ?! ?! ?! }  }  s  s  L# L# D# D# =# =# 1# 1# ?! ?! ?! ?! ?! ?! ?! ?! ?! ?! ?! ?! ?! ?! ?! ?! ?! ?! ?! ?! ?! ?! ?! ?! ?! ?! ?! ?! ?! 8! 8! ;! ;! 8! 8! 6! 6! (! (! ?! ?! ?! ?! ?! ?! ?! ?! ?! ?! ?! ?! 8! 8! 1! 1! ?! ?! ?! ?! ?! ?! ?! ?! 8! 8! -! -! $! $!  !  ! 5! 5! ?! ?! ?! ?! ?! ?! ?! ?! ?! ?! 6! 6! (! (! 1! 1! 8! 8! ?! ?! ?! ?! ?! ?! ?! ?! ?! ?! ?! ?! ?! ?! ?! ?! ?! ?! ?! ?! ?! ?! ?! F! F! C# C# D# D# D# D# L# ",
"L# D# D# ;# ;# 3# 3# A! A! ?! ?! ?! ?! ?! ?! ?! ?! ?! ?! ?! ?! ?! ?! ?! ?! ?! ?! ?! ?! ?! ?! ?! ?! ?! ?! ?! ?! ?! ?! ?! ?! ?! ?! ?! ?! ?! ?! ?! ?! ?! ?! ?! ?! ?! ?! ?! ?! ?! ?! ?! ?! ?! ?! ?! (! (! ,! ,! ?! ?! ?! ?! ?! ?! ?! ?! ?! ?! ?! ?! ?! ?! ?! ?! ?! ?! ?! ?! ?! ?! 0! 0! 4! 4! 8! 8! ?! ?! ?! ?! ?! ?! ?! ?! ?! ?! ?! ?! ?! ?! ?! ?! ?! ?! ?! ?! ?! ?! ?! ?! ?! }  }  s  s  L# L# D# D# =# =# 1# 1# ?! ?! ?! ?! ?! ?! ?! ?! ?! ?! ?! ?! ?! ?! ?! ?! ?! ?! ?! ?! ?! ?! ?! ?! ?! ?! ?! ?! ?! 8! 8! ;! ;! 8! 8! 6! 6! (! (! ?! ?! ?! ?! ?! ?! ?! ?! ?! ?! ?! ?! 8! 8! 1! 1! ?! ?! ?! ?! ?! ?! ?! ?! 8! 8! -! -! $! $!  !  ! 5! 5! ?! ?! ?! ?! ?! ?! ?! ?! ?! ?! 6! 6! (! (! 1! 1! 8! 8! ?! ?! ?! ?! ?! ?! ?! ?! ?! ?! ?! ?! ?! ?! ?! ?! ?! ?! ?! ?! ?! ?! ?! F! F! D# D# D# D# E# E# L# ",
"L# D# D# ;# ;# 3# 3# A! A! ?! ?! ?! ?! ?! ?! ?! ?! ?! ?! ?! 8! 8! 5! 5! 1! 1! 1! 1! ;! ;! ?! ?! ?! ?! ?! ?! ?! ?! ?! ?! ?! ?! ?! ?! ?! ?! ?! ?! ?! ?! ?! ?! ?! ?! ?! ?! ?! ?! ?! ?! ?! ?! B! B! C! C! C! C! C! C! C! C! ?! ?! ?! ?! ?! ?! ?! ?! ?! ?! 6! 6! 4! 4! 0! 0! '! '! 1! 1! 5! 5! 6! 6! ?! ?! ;! ;! ?! ?! ?! ?! ?! ?! ?! ?! ?! ?! ?! ?! ?! ?! ?! ?! ?! ?! ?! ?! ?! y  y  s  s  L# L# D# D# ;# ;# 3# 3# A! A! ?! ?! ?! ?! ?! ?! ?! ?! ?! ?! ?! ?! ?! ?! ?! ?! ?! ?! ?! ?! ?! ?! ?! ?! ?! ?! ?! ?! ?! ?! ?! ?! ?! ?! ?! ?! ?! ?! ?! ?! ?! ?! ?! ?! ?! ?! ?! ?! ?! ?! ?! ?! ?! ?! ?! ?! ?! ?! ?! ?! ?! ?! ?! ?! ?! ;! ;! ;! ;! ?! ?! ?! ?! ?! ?! ?! ?! ?! ?! ?! ?! ?! ?! ?! ?! ?! ?! ?! ?! ?! ?! ?! ?! ?! ?! ?! ?! ?! ?! ?! ?! ?! ?! ?! ?! ?! ?! ?! ?! ?! ?! ?! F! F! D# D# D# D# E# E# L# ",
"N# D# D# =# =# 0# 0# B! B! ?! ?! ?! ?! ?! ?! ?! ?! ?! ?! ?! 8! 8! 5! 5! 1! 1! 1! 1! ;! ;! ?! ?! ?! ?! ?! ?! ?! ?! ?! ?! ?! ?! ?! ?! ?! ?! ?! ?! ?! ?! ?! ?! ?! ?! ?! ?! ?! ?! ?! ?! ?! ?! B! B! C! C! C! C! C! C! C! C! ?! ?! ?! ?! ?! ?! ?! ?! ?! ?! 6! 6! 4! 4! 0! 0! '! '! 1! 1! 5! 5! 6! 6! ?! ?! ;! ;! ?! ?! ?! ?! ?! ?! ?! ?! ?! ?! ?! ?! ?! ?! ?! ?! ?! ?! ?! ?! ?! y  y  s  s  L# L# D# D# ;# ;# 3# 3# A! A! ?! ?! ?! ?! ?! ?! ?! ?! ?! ?! ?! ?! ?! ?! ?! ?! ?! ?! ?! ?! ?! ?! ?! ?! ?! ?! ?! ?! ?! ?! ?! ?! ?! ?! ?! ?! ?! ?! ?! ?! ?! ?! ?! ?! ?! ?! ?! ?! ?! ?! ?! ?! ?! ?! ?! ?! ?! ?! ?! ?! ?! ?! ?! ?! ?! ;! ;! ;! ;! ?! ?! ?! ?! ?! ?! ?! ?! ?! ?! ?! ?! ?! ?! ?! ?! ?! ?! ?! ?! ?! ?! ?! ?! ?! ?! ?! ?! ?! ?! ?! ?! ?! ?! ?! ?! ?! ?! ?! ?! ?! ?! ?! E! E! D# D# C# C# D# D# L# ",
"N# D# D# =# =# 0# 0# B! B! ?! ?! E! C! C! A! A! ?! ?! A! A! ?! ?! ?! ?! A! A! B! B! B! B! C! C! C! C! E! E! F! F! F! F! F! F! C! C! @! @! :! :! :! :! B! B! B! B! B! B! B! B! C! C! F! F! Y! Y! ,# ,# %# %# _! _! ]! ]! T! T! L! L! F! F! C! C! ?! ?! ?! ?! ?! ?! ?! ?! ?! ?! ?! ?! ?! ?! ?! ?! ?! ?! ?! ?! ?! ?! ?! ?! ?! ?! ?! ?! ?! ?! ?! ?! ?! ?! ?! ?! ?! ?! ?! ?! ?! }  }  s  s  N# N# D# D# =# =# 0# 0# B! B! ?! ?! ?! ?! ?! ?! ?! ?! ?! ?! ?! ?! ?! ?! ?! ?! ?! ?! ?! ;! ;! ?! ?! 0! 0! 6! 6! 1! 1! 5! 5! 6! 6! 8! 8! 8! 8! 8! 8! ;! ;! 8! 8! 8! 8! 8! 8! 5! 5! 8! 8! ?! ?! ?! ?! 8! 8! '! '! ?! ?! ?! ?! ?! ?! ?! ?! ?! ?! ?! ?! ?! ?! ?! ?! ?! ?! ?! ?! ?! ?! ?! ?! A! A! B! B! E! E! J! J! L! L! J! J! L! L! L! L! J! J! J! J! F! F! E! E! B! B! ?! ?! ?! E! E! D# D# C# C# D# D# L# ",
"N# D# D# =# =# 1# 1# E! E! ?! ?! E! C! C! A! A! ?! ?! A! A! ?! ?! ?! ?! A! A! B! B! B! B! C! C! C! C! E! E! F! F! F! F! F! F! C! C! @! @! :! :! :! :! B! B! B! B! B! B! B! B! C! C! F! F! Y! Y! ,# ,# %# %# _! _! ]! ]! T! T! L! L! F! F! C! C! ?! ?! ?! ?! ?! ?! ?! ?! ?! ?! ?! ?! ?! ?! ?! ?! ?! ?! ?! ?! ?! ?! ?! ?! ?! ?! ?! ?! ?! ?! ?! ?! ?! ?! ?! ?! ?! ?! ?! ?! ?! }  }  s  s  N# N# D# D# =# =# 0# 0# B! B! ?! ?! ?! ?! ?! ?! ?! ?! ?! ?! ?! ?! ?! ?! ?! ?! ?! ?! ?! ;! ;! ?! ?! 0! 0! 6! 6! 1! 1! 5! 5! 6! 6! 8! 8! 8! 8! 8! 8! ;! ;! 8! 8! 8! 8! 8! 8! 5! 5! 8! 8! ?! ?! ?! ?! 8! 8! '! '! ?! ?! ?! ?! ?! ?! ?! ?! ?! ?! ?! ?! ?! ?! ?! ?! ?! ?! ?! ?! ?! ?! ?! ?! A! A! B! B! E! E! J! J! L! L! J! J! L! L! L! L! J! J! J! J! F! F! E! E! B! B! ?! ?! ?! C! C! A# A# A# A# =# =# L# ",
"N# D# D# =# =# 1# 1# E! E! ?! ?! 6# 7# 7# 9# 9# 3# 3# 7# 7# 0# 0# 1# 1# 1# 1# 3# 3# 6# 6# 9# 9# A# A# D# D# D# D# C# C# =# =# +# +# t! t! ^! ^! W! W! W! W! c! c! {! {! 4# 4# 3# 3# =# =# B# B# I# I# I# I# F# F# F# F# E# E# D# D# D# D# =# =# 9# 9# {! {! S! S! J! J! A! A! ?! ?! ?! ?! ?! ?! ?! ?! ?! ?! ?! ?! ?! ?! ?! ?! ?! ?! ?! ?! ?! ?! ?! ?! ?! ?! ?! ?! ?! ?! ?! s  s  s  s  N# N# D# D# =# =# 1# 1# E! E! ?! ?! C! C! C! C! C! F! F! G! G! L! L! ^! ^! {! {! :# :# C# C# D# D# D# D# =# =# 6# 6# 2# 2# j! j! Z! Z! W! W! S! S! L! L! F! F! B! B! ?! ?! ?! ?! ?! ?! ?! ?! ?! ?! ?! ?! ?! ?! ?! ?! ?! ?! ?! ?! ?! ?! B! B! Z! Z! t! t! x! x! }! }! $# $# '# '# 1# 1# 3# 3# 0# 0# 1# 1# +# +# 1# 1# 3# 3# =# =# =# =# =# =# =# =# =# =# 3# 3# 1# 1# m! ?! ?! C! C! A# A# A# A# =# =# L# ",
"N# D# D# 9# 9# +# +# J! J! ?! ?! 6# 7# 7# 9# 9# 3# 3# 7# 7# 0# 0# 1# 1# 1# 1# 3# 3# 6# 6# 9# 9# A# A# D# D# D# D# C# C# =# =# +# +# t! t! ^! ^! W! W! W! W! c! c! {! {! 4# 4# 3# 3# =# =# B# B# I# I# I# I# F# F# F# F# E# E# D# D# D# D# =# =# 9# 9# {! {! S! S! J! J! A! A! ?! ?! ?! ?! ?! ?! ?! ?! ?! ?! ?! ?! ?! ?! ?! ?! ?! ?! ?! ?! ?! ?! ?! ?! ?! ?! ?! ?! ?! ?! ?! s  s  s  s  N# N# D# D# =# =# 1# 1# E! E! ?! ?! C! C! C! C! C! F! F! G! G! L! L! ^! ^! {! {! :# :# C# C# D# D# D# D# =# =# 6# 6# 2# 2# j! j! Z! Z! W! W! S! S! L! L! F! F! B! B! ?! ?! ?! ?! ?! ?! ?! ?! ?! ?! ?! ?! ?! ?! ?! ?! ?! ?! ?! ?! ?! ?! B! B! Z! Z! t! t! x! x! }! }! $# $# '# '# 1# 1# 3# 3# 0# 0# 1# 1# +# +# 1# 1# 3# 3# =# =# =# =# =# =# =# =# =# =# 3# 3# 1# 1# m! ?! ?! C! C! 9# 9# A# A# A# A# L# ",
"N# D# D# 9# 9# +# +# J! J! ?! ?! =# =# =# =# =# =# =# 9# 9# =# =# =# =# =# =# =# =# =# =# A# A# A# A# C# C# D# D# D# D# C# C# C# C# C# C# =# =# C# C# C# C# C# C# =# =# B# B# C# C# D# D# H# H# K# K# H# H# F# F# E# E# =# =# =# =# =# =# =# =# =# =# =# =# =# =# ?# ?# C# C# 7# 7# =# =# D# D# C# C# C# C# 9# 9# =# =# 7# 7# 7# 7# 7# 7# 3# 3# 8# 8# 8# 8# C# ?! ?! ?! ?! s  s  s  s  N# N# D# D# 9# 9# +# +# J! J! ?! ?! =# 9# 9# =# =# =# =# C# C# E# E# E# E# F# F# H# H# I# I# I# I# F# F# E# E# E# E# E# E# D# D# C# C# A# A# 8# 8# =# =# 7# 7# 2# 2# 5# 5# 6# 6# $# $# $# $# ## ## $# $# $# $# ,# ,# 7# 7# C# C# =# =# 3# 3# 1# 1# 6# 6# 6# 6# 9# 9# =# =# =# =# =# =# ;# ;# =# =# =# =# 9# 9# 9# 9# =# =# A# A# D# D# D# D# D# D# E# E# C# C# A# A# =# ?! ?! C! C! 9# 9# A# A# A# A# L# ",
"N# D# D# 9# 9# 1# 1# L! L! ?! ?! =# =# =# =# =# =# =# 9# 9# =# =# =# =# =# =# =# =# =# =# A# A# A# A# C# C# D# D# D# D# C# C# C# C# C# C# =# =# C# C# C# C# C# C# =# =# B# B# C# C# D# D# H# H# K# K# H# H# F# F# E# E# =# =# =# =# =# =# =# =# =# =# =# =# =# =# ?# ?# C# C# 7# 7# =# =# D# D# C# C# C# C# 9# 9# =# =# 7# 7# 7# 7# 7# 7# 3# 3# 8# 8# 8# 8# C# ?! ?! ?! ?! s  s  s  s  N# N# D# D# 9# 9# +# +# J! J! ?! ?! =# 9# 9# =# =# =# =# C# C# E# E# E# E# F# F# H# H# I# I# I# I# F# F# E# E# E# E# E# E# D# D# C# C# A# A# 8# 8# =# =# 7# 7# 2# 2# 5# 5# 6# 6# $# $# $# $# ## ## $# $# $# $# ,# ,# 7# 7# C# C# =# =# 3# 3# 1# 1# 6# 6# 6# 6# 9# 9# =# =# =# =# =# =# ;# ;# =# =# =# =# 9# 9# 9# 9# =# =# A# A# D# D# D# D# D# D# E# E# C# C# A# A# =# ;! ;! B! B! 6# 6# =# =# =# =# L# ",
"N# D# D# 9# 9# 1# 1# L! L! ?! ?! E# E# E# F# F# E# E# D# D# D# D# D# D# A# A# =# =# =# =# A# A# =# =# D# D# E# E# D# D# C# C# =# =# =# =# 9# 9# =# =# =# =# =# =# =# =# A# A# =# =# =# =# D# D# H# H# F# F# E# E# E# E# E# E# D# D# ># ># =# =# =# =# 7# 7# =# =# D# D# A# A# =# =# A# A# A# A# A# A# A# A# =# =# =# =# =# =# A# A# A# A# A# A# A# A# =# =# C# ?! ?! ?! ?! s  s  s  s  N# N# D# D# 9# 9# 1# 1# L! L! ?! ?! =# =# =# =# =# D# D# E# E# E# E# I# I# I# I# H# H# F# F# F# F# D# D# D# D# D# D# D# D# D# D# D# D# B# B# ># ># B# B# =# =# =# =# =# =# =# =# =# =# 9# 9# 7# 7# 7# 7# 9# 9# =# =# =# =# =# =# 9# 9# =# =# B# B# D# D# D# D# D# D# D# D# A# A# D# D# D# D# D# D# D# D# D# D# D# D# ># ># E# E# E# E# D# D# D# D# D# D# D# D# D# D# F# ;! ;! B! B! 6# 6# =# =# =# =# L# ",
"N# ># ># =# =# 3# 3# J! J! ?! ?! E# E# E# F# F# E# E# D# D# D# D# D# D# A# A# =# =# =# =# A# A# =# =# D# D# E# E# D# D# C# C# =# =# =# =# 9# 9# =# =# =# =# =# =# =# =# A# A# =# =# =# =# D# D# H# H# F# F# E# E# E# E# E# E# D# D# ># ># =# =# =# =# 7# 7# =# =# D# D# A# A# =# =# A# A# A# A# A# A# A# A# =# =# =# =# =# =# A# A# A# A# A# A# A# A# =# =# C# ?! ?! ?! ?! s  s  s  s  N# N# D# D# 9# 9# 1# 1# L! L! ?! ?! =# =# =# =# =# D# D# E# E# E# E# I# I# I# I# H# H# F# F# F# F# D# D# D# D# D# D# D# D# D# D# D# D# B# B# ># ># B# B# =# =# =# =# =# =# =# =# =# =# 9# 9# 7# 7# 7# 7# 9# 9# =# =# =# =# =# =# 9# 9# =# =# B# B# D# D# D# D# D# D# D# D# A# A# D# D# D# D# D# D# D# D# D# D# D# D# ># ># E# E# E# E# D# D# D# D# D# D# D# D# D# D# F# 1! 1! B! B! 3# 3# =# =# =# =# L# ",
"N# ># ># =# =# 3# 3# J! J! ?! ?! L# L# L# N# N# L# L# L# L# L# L# L# L# L# L# L# L# L# L# L# L# L# L# L# L# L# L# L# L# L# L# L# L# L# L# L# L# L# L# L# L# L# L# L# L# L# L# L# L# L# L# L# L# L# L# N# N# N# N# N# N# N# N# L# L# L# L# L# L# L# L# L# L# L# L# L# L# L# L# L# L# L# L# L# L# L# L# L# L# L# L# L# L# L# L# L# L# L# L# L# L# L# L# L# L# L# ?! ?! ?! ?! s  s  s  s  N# N# ># ># =# =# 3# 3# J! J! ?! ?! L# L# L# L# L# L# L# L# L# N# N# N# N# N# N# L# L# L# L# L# L# L# L# L# L# L# L# L# L# L# L# N# N# N# N# L# L# N# N# N# N# N# N# N# N# N# N# N# N# M# M# N# N# L# L# L# L# L# L# L# L# L# L# L# L# L# L# L# L# L# L# L# L# L# L# L# L# L# L# L# L# L# L# N# N# N# N# N# N# N# N# N# N# N# N# M# M# N# N# N# N# N# N# N# N# N# N# M# 1! 1! B! B! 3# 3# =# =# =# =# L# ",
"N# E# E# A# A# =# =# L! L! ?! ?! L# L# L# N# N# L# L# L# L# L# L# L# L# L# L# L# L# L# L# L# L# L# L# L# L# L# L# L# L# L# L# L# L# L# L# L# L# L# L# L# L# L# L# L# L# L# L# L# L# L# L# L# L# L# L# N# N# N# N# N# N# N# N# L# L# L# L# L# L# L# L# L# L# L# L# L# L# L# L# L# L# L# L# L# L# L# L# L# L# L# L# L# L# L# L# L# L# L# L# L# L# L# L# L# L# L# ?! ?! ?! ?! s  s  s  s  N# N# ># ># =# =# 3# 3# J! J! ?! ?! L# L# L# L# L# L# L# L# L# N# N# N# N# N# N# L# L# L# L# L# L# L# L# L# L# L# L# L# L# L# L# N# N# N# N# L# L# N# N# N# N# N# N# N# N# N# N# N# N# M# M# N# N# L# L# L# L# L# L# L# L# L# L# L# L# L# L# L# L# L# L# L# L# L# L# L# L# L# L# L# L# L# L# N# N# N# N# N# N# N# N# N# N# N# N# M# M# N# N# N# N# N# N# N# N# N# N# M# 1! 1! A! A! 1# 1# =# =# A# A# L# ",
"N# E# E# A# A# =# =# L! L! ?! ?! s  s  s  s  s  s  s  s  s  s  s  s  s  s  s  s  s  s  s  s  s  s  s  s  s  s  s  s  s  s  s  s  s  s  s  s  s  s  s  s  s  s  s  s  s  s  s  s  s  s  s  s  s  s  s  s  s  s  s  s  s  s  s  s  s  s  s  s  s  s  s  s  s  s  s  s  s  s  s  s  s  s  s  s  s  s  s  s  s  s  s  s  s  s  s  s  s  s  s  s  s  s  s  s  s  s  ?! ?! ?! ?! s  s  s  s  N# N# E# E# A# A# =# =# L! L! ?! ?! y  y  y  y  y  y  y  x  x  s  s  s  s  s  s  s  s  s  s  s  s  s  s  s  s  s  s  s  s  s  s  s  s  s  s  s  s  y  y  y  y  x  x  s  s  s  s  s  s  s  s  s  s  s  s  s  s  s  s  s  s  s  s  s  s  s  s  s  s  s  s  s  s  s  s  s  s  s  s  s  s  s  s  s  s  s  s  s  s  s  s  s  s  s  s  s  s  s  s  }  }  }  }  y  y  y  y  y  1! 1! A! A! 1# 1# =# =# A# A# L# ",
"M# E# E# D# D# =# =# L! L! ?! ?! s  s  s  s  s  s  s  s  s  s  s  s  s  s  s  s  s  s  s  s  s  s  s  s  s  s  s  s  s  s  s  s  s  s  s  s  s  s  s  s  s  s  s  s  s  s  s  s  s  s  s  s  s  s  s  s  s  s  s  s  s  s  s  s  s  s  s  s  s  s  s  s  s  s  s  s  s  s  s  s  s  s  s  s  s  s  s  s  s  s  s  s  s  s  s  s  s  s  s  s  s  s  s  s  s  s  ?! ?! ?! ?! s  s  s  s  N# N# E# E# A# A# =# =# L! L! ?! ?! y  y  y  y  y  y  y  x  x  s  s  s  s  s  s  s  s  s  s  s  s  s  s  s  s  s  s  s  s  s  s  s  s  s  s  s  s  y  y  y  y  x  x  s  s  s  s  s  s  s  s  s  s  s  s  s  s  s  s  s  s  s  s  s  s  s  s  s  s  s  s  s  s  s  s  s  s  s  s  s  s  s  s  s  s  s  s  s  s  s  s  s  s  s  s  s  s  s  s  }  }  }  }  y  y  y  y  y  5! 5! ?! ?! 1# 1# =# =# D# D# L# ",
"M# E# E# D# D# =# =# L! L! ?! ?! l  s  s  n  n  s  s  s  s  s  s  s  s  y  y  '! '! '! '! s  s  s  s  s  s  s  s  n  n  ?! ?! ?! ?! ?! ?! ?! ?! ?! ?! '! '! Y  Y  x  x  e  e  e  e  ]  ]  e  e  s  s  s  s  s  s  s  s  n  n  m  m  !! !! y  y  s  s  s  s  s  s  s  s  s  s  s  s  X  X  S  S  X  X  X  X  #! #! 1! 1! 8! 8! ?! ?! ?! ?! ?! ?! ?! ?! #! #! q  ?! ?! ?! ?! s  s  s  s  M# M# E# E# D# D# =# =# L! L! ?! ?! M  s  s  5! 5! 4! 4! 1! 1! 0! 0! 0! 0! 0! 0! 0! 0! &! &! &! &! $! $! s  s  s  s  s  s  s  s  s  s  s  s  s  s  s  s  s  s  s  s  s  s  s  s  s  s  s  s  s  s  s  s  s  s  s  s  l  l  V  V  ?! ?! ?! ?! ?! ?! ?! ?! ?! ?! 9! 9! '! '! ~  ~  }  }  y  y  }  }  s  s  s  s  s  s  s  s  s  s  s  s  i  i  a  a  s  s  s  s  s  s  s  5! 5! ?! ?! 1# 1# =# =# D# D# L# ",
"N# D# D# D# D# =# =# J! J! ?! ?! l  s  s  n  n  s  s  s  s  s  s  s  s  y  y  '! '! '! '! s  s  s  s  s  s  s  s  n  n  ?! ?! ?! ?! ?! ?! ?! ?! ?! ?! '! '! Y  Y  x  x  e  e  e  e  ]  ]  e  e  s  s  s  s  s  s  s  s  n  n  m  m  !! !! y  y  s  s  s  s  s  s  s  s  s  s  s  s  X  X  S  S  X  X  X  X  #! #! 1! 1! 8! 8! ?! ?! ?! ?! ?! ?! ?! ?! #! #! q  ?! ?! ?! ?! s  s  s  s  M# M# E# E# D# D# =# =# L! L! ?! ?! M  s  s  5! 5! 4! 4! 1! 1! 0! 0! 0! 0! 0! 0! 0! 0! &! &! &! &! $! $! s  s  s  s  s  s  s  s  s  s  s  s  s  s  s  s  s  s  s  s  s  s  s  s  s  s  s  s  s  s  s  s  s  s  s  s  l  l  V  V  ?! ?! ?! ?! ?! ?! ?! ?! ?! ?! 9! 9! '! '! ~  ~  }  }  y  y  }  }  s  s  s  s  s  s  s  s  s  s  s  s  i  i  a  a  s  s  s  s  s  s  s  8! 8! ?! ?! 0# 0# =# =# D# D# L# ",
"N# D# D# D# D# =# =# J! J! ?! ?! ?! ?! ?! ?! ?! ?! ?! ?! ?! ?! ?! ?! ?! ?! ?! ?! ?! ?! ?! ?! ?! ?! ?! ?! ?! ?! ?! ?! ?! ?! ?! ?! ?! ?! ?! ?! ?! ?! ?! ?! ?! ?! ?! ?! ?! ?! ?! ?! ?! ?! ?! ?! ?! $  $  #  #  !  !  Z  Z  6! 6! ?! ?! ?! ?! ?! ?! ?! ?! ?! ?! ?! ?! ?! ?! ?! ?! ?! ?! ?! ?! ?! ?! ?! ?! ?! ?! ?! ?! ?! ?! ?! ?! ?! ?! ?! ?! ?! ?! ?! ?! ?! ?! ?! ?! ?! ?! ?! i  i  s  s  N# N# D# D# D# D# =# =# J! J! ?! ?! ?! ?! ?! ?! ?! ?! ?! ?! ?! ?! ?! ?! ?! ?! ?! ?! ?! ?! ?! ?! ?! ?! ?! ?! ?! ?! ?! ?! ?! ?! ?! ?! ?! ?! ?! 8! 8! 8! 8! ?! ?! ?! ?! 0! 0! c  c  T  T  O  O  7  7  4  4  p  p  ?! ?! ?! ?! ?! ?! ?! ?! ?! ?! ?! ?! ?! ?! ?! ?! ?! ?! ?! ?! ?! ?! ?! ?! ?! ?! ?! ?! ?! ?! ?! ?! ?! ?! ?! ?! ?! ?! ?! ?! ?! ?! ?! ?! ?! ?! 0! 0! T  T  ~  8! 8! ?! ?! 0# 0# =# =# D# D# L# ",
"N# D# D# D# D# =# =# J! J! ?! ?! ?! ?! ?! ?! ?! ?! ?! ?! ?! ?! ?! ?! ?! ?! ?! ?! ?! ?! ?! ?! ?! ?! ?! ?! ?! ?! ?! ?! ?! ?! ?! ?! ?! ?! ?! ?! ?! ?! ?! ?! ?! ?! ?! ?! ?! ?! ?! ?! ?! ?! ?! ?! ?! $  $  #  #  !  !  Z  Z  6! 6! ?! ?! ?! ?! ?! ?! ?! ?! ?! ?! ?! ?! ?! ?! ?! ?! ?! ?! ?! ?! ?! ?! ?! ?! ?! ?! ?! ?! ?! ?! ?! ?! ?! ?! ?! ?! ?! ?! ?! ?! ?! ?! ?! ?! ?! ?! ?! i  i  s  s  N# N# D# D# D# D# =# =# J! J! ?! ?! ?! ?! ?! ?! ?! ?! ?! ?! ?! ?! ?! ?! ?! ?! ?! ?! ?! ?! ?! ?! ?! ?! ?! ?! ?! ?! ?! ?! ?! ?! ?! ?! ?! ?! ?! 8! 8! 8! 8! ?! ?! ?! ?! 0! 0! c  c  T  T  O  O  7  7  4  4  p  p  ?! ?! ?! ?! ?! ?! ?! ?! ?! ?! ?! ?! ?! ?! ?! ?! ?! ?! ?! ?! ?! ?! ?! ?! ?! ?! ?! ?! ?! ?! ?! ?! ?! ?! ?! ?! ?! ?! ?! ?! ?! ?! ?! ?! ?! ?! 0! 0! T  T  ~  ?! ?! A! A! 7# 7# 9# 9# D# D# L# ",
"N# D# D# D# D# =# =# J! J! ?! ?! 8! ?! ?! ?! ?! ?! ?! ?! ?! ?! ?! ?! ?! ?! ?! ?! ?! ?! ?! ?! ?! ?! ?! ?! ?! ?! ?! ?! ?! ?! ?! ?! ?! ?! ?! ?! ?! ?! ?! ?! ?! ?! ?! ?! ?! ?! ?! ?! ?! ?! ?! ?! ?! -! -! ?! ?! ?! ?! ?! ?! ?! ?! ?! ?! ?! ?! ?! ?! ?! ?! ;! ;! 4! 4! &! &! 5! 5! 8! 8! ?! ?! ?! ?! ?! ?! ?! ?! ?! ?! ?! ?! ?! ?! ?! ?! ?! ?! ?! ?! ?! ?! ?! ?! ?! ?! ?! ?! ?! a  a  }  }  N# N# D# D# D# D# =# =# J! J! ?! ?! ?! ?! ?! ?! ?! ?! ?! ?! ?! 6! 6! 4! 4! 6! 6! 8! 8! 8! 8! ?! ?! ?! ?! ?! ?! ?! ?! ?! ?! ?! ?! ?! ?! ?! ?! ?! ?! ?! ?! ?! ?! ?! ?! ?! ?! ?! ?! ?! ?! ?! ?! ?! ?! ?! ?! ?! ?! ?! ?! ?! ?! ?! ?! ?! ?! ?! ?! ?! ?! ?! ?! ?! ?! ?! ?! ?! ?! ?! ?! ?! ?! ?! ?! ?! ?! ?! ?! ?! ?! ?! ?! ?! ?! ?! ?! ?! ?! ?! ?! ?! ?! ?! ?! ?! ?! ?! ?! ?! ?! ?! A! A! 7# 7# 9# 9# D# D# L# ",
"N# D# D# E# E# =# =# F! F! ?! ?! 8! ?! ?! ?! ?! ?! ?! ?! ?! ?! ?! ?! ?! ?! ?! ?! ?! ?! ?! ?! ?! ?! ?! ?! ?! ?! ?! ?! ?! ?! ?! ?! ?! ?! ?! ?! ?! ?! ?! ?! ?! ?! ?! ?! ?! ?! ?! ?! ?! ?! ?! ?! ?! -! -! ?! ?! ?! ?! ?! ?! ?! ?! ?! ?! ?! ?! ?! ?! ?! ?! ;! ;! 4! 4! &! &! 5! 5! 8! 8! ?! ?! ?! ?! ?! ?! ?! ?! ?! ?! ?! ?! ?! ?! ?! ?! ?! ?! ?! ?! ?! ?! ?! ?! ?! ?! ?! ?! ?! a  a  }  }  N# N# D# D# D# D# =# =# J! J! ?! ?! ?! ?! ?! ?! ?! ?! ?! ?! ?! 6! 6! 4! 4! 6! 6! 8! 8! 8! 8! ?! ?! ?! ?! ?! ?! ?! ?! ?! ?! ?! ?! ?! ?! ?! ?! ?! ?! ?! ?! ?! ?! ?! ?! ?! ?! ?! ?! ?! ?! ?! ?! ?! ?! ?! ?! ?! ?! ?! ?! ?! ?! ?! ?! ?! ?! ?! ?! ?! ?! ?! ?! ?! ?! ?! ?! ?! ?! ?! ?! ?! ?! ?! ?! ?! ?! ?! ?! ?! ?! ?! ?! ?! ?! ?! ?! ?! ?! ?! ?! ?! ?! ?! ?! ?! ?! ?! ?! ?! ?! ?! ?! ?! 3# 3# =# =# E# E# L# ",
"N# D# D# E# E# =# =# F! F! ?! ?! ?! ?! ?! ?! ?! ?! ?! ?! ?! ?! ?! ?! ?! ?! ?! ?! ?! ?! ?! ?! ?! ?! ?! ?! ?! ?! ?! ?! ?! ?! ?! ?! ?! ?! ?! ?! ?! ?! ?! ?! ?! ?! ?! ?! ?! ?! ?! ?! ?! ?! ?! ?! ?! ?! ?! ?! ?! ?! ?! ?! ?! ?! ?! ?! ?! ?! ?! ?! ?! ?! ?! ?! ?! ?! ?! ?! ?! ?! ?! ?! ?! ?! ?! ?! ?! ?! ?! ?! ?! ?! ?! ?! ?! ?! ?! ?! ?! ?! ?! ?! ?! ?! ?! ?! ?! ?! ?! ?! ?! ?! s  s  }  }  N# N# D# D# E# E# =# =# F! F! ?! ?! ?! ?! ?! ?! ?! ?! ?! ?! ?! ?! ?! ?! ?! ?! ?! ?! ?! ?! ?! ?! ?! ?! ?! ?! ?! ?! ?! ?! ?! ?! ?! ?! ?! ?! ?! ?! ?! ?! ?! ?! ?! ?! ?! ?! ?! ?! ?! ?! ?! ?! ?! ?! ?! ?! ?! ?! ?! ?! ?! ?! ?! ?! ?! ?! ?! ?! ?! ?! ?! ?! ?! ?! ?! ?! ?! ?! ?! ?! ?! ?! ?! ?! ?! ?! ?! ?! ?! 5! 5! ?! ?! ?! ?! ?! ?! ?! ?! ?! ?! ?! ?! ?! ?! ?! ?! ?! ?! ?! ?! ?! ?! ?! 3# 3# =# =# E# E# L# ",
"N# D# D# C# C# 3# 3# E! E! ?! ?! ?! ?! ?! ?! ?! ?! ?! ?! ?! ?! ?! ?! ?! ?! ?! ?! ?! ?! ?! ?! ?! ?! ?! ?! ?! ?! ?! ?! ?! ?! ?! ?! ?! ?! ?! ?! ?! ?! ?! ?! ?! ?! ?! ?! ?! ?! ?! ?! ?! ?! ?! ?! ?! ?! ?! ?! ?! ?! ?! ?! ?! ?! ?! ?! ?! ?! ?! ?! ?! ?! ?! ?! ?! ?! ?! ?! ?! ?! ?! ?! ?! ?! ?! ?! ?! ?! ?! ?! ?! ?! ?! ?! ?! ?! ?! ?! ?! ?! ?! ?! ?! ?! ?! ?! ?! ?! ?! ?! ?! ?! s  s  }  }  N# N# D# D# E# E# =# =# F! F! ?! ?! ?! ?! ?! ?! ?! ?! ?! ?! ?! ?! ?! ?! ?! ?! ?! ?! ?! ?! ?! ?! ?! ?! ?! ?! ?! ?! ?! ?! ?! ?! ?! ?! ?! ?! ?! ?! ?! ?! ?! ?! ?! ?! ?! ?! ?! ?! ?! ?! ?! ?! ?! ?! ?! ?! ?! ?! ?! ?! ?! ?! ?! ?! ?! ?! ?! ?! ?! ?! ?! ?! ?! ?! ?! ?! ?! ?! ?! ?! ?! ?! ?! ?! ?! ?! ?! ?! ?! 5! 5! ?! ?! ?! ?! ?! ?! ?! ?! ?! ?! ?! ?! ?! ?! ?! ?! ?! ?! ?! ?! ?! A! A! 9# 9# =# =# F# F# N# ",
"N# D# D# C# C# 3# 3# E! E! ?! ?! ?! ?! ?! ?! ?! ?! ?! ?! ?! ?! ?! ?! ?! ?! ?! ?! ?! ?! ?! ?! ?! ?! ?! ?! ?! ?! ?! ?! ?! ?! ?! ?! ?! ?! ?! ?! ?! ?! ?! 8! 8! ?! ?! ?! ?! ?! ?! ?! ?! ?! ?! ?! ?! ?! ?! ?! ?! ?! ?! ?! ?! ?! ?! ?! ?! ?! ?! ?! ?! ?! ?! ?! ?! ?! ?! ?! ?! ?! ?! 8! 8! 8! 8! 0! 0! (! (! 6! 6! ;! ;! ?! ?! ?! ?! ?! ?! ?! ?! ?! ?! ?! ?! ?! ?! ?! ?! ?! 0! 0! s  s  y  y  N# N# D# D# C# C# 3# 3# E! E! ?! ?! ?! ?! ?! ?! ?! ?! ?! ?! ?! ?! ?! ?! ?! ?! ?! ?! ?! ?! ?! ?! ?! ?! ?! ?! ?! ?! ?! ?! ?! ?! ?! 0! 0! ;! ;! 1! 1! 8! 8! 8! 8! 6! 6! 4! 4! 1! 1! 1! 1! 4! 4! 4! 4! 4! 4! -! -! 6! 6! 0! 0! -! -! 0! 0! 4! 4! 1! 1! 0! 0! 1! 1! 4! 4! 6! 6! 1! 1! 4! 4! 0! 0! 0! 0! 0! 0!  !  !  !  ! ,! ,! ,! ,! 5! 5! 8! 8! ;! ;! ?! ?! ?! ?! ?! ?! ?! ?! ?! A! A! 9# 9# =# =# F# F# N# ",
"N# D# D# A# A# 1# 1# B! B! ?! ?! ?! ?! ?! ?! ?! ?! ?! ?! ?! ?! ?! ?! ?! ?! ?! ?! ?! ?! ?! ?! ?! ?! ?! ?! ?! ?! ?! ?! ?! ?! ?! ?! ?! ?! ?! ?! ?! ?! ?! 8! 8! ?! ?! ?! ?! ?! ?! ?! ?! ?! ?! ?! ?! ?! ?! ?! ?! ?! ?! ?! ?! ?! ?! ?! ?! ?! ?! ?! ?! ?! ?! ?! ?! ?! ?! ?! ?! ?! ?! 8! 8! 8! 8! 0! 0! (! (! 6! 6! ;! ;! ?! ?! ?! ?! ?! ?! ?! ?! ?! ?! ?! ?! ?! ?! ?! ?! ?! 0! 0! s  s  y  y  N# N# D# D# C# C# 3# 3# E! E! ?! ?! ?! ?! ?! ?! ?! ?! ?! ?! ?! ?! ?! ?! ?! ?! ?! ?! ?! ?! ?! ?! ?! ?! ?! ?! ?! ?! ?! ?! ?! ?! ?! 0! 0! ;! ;! 1! 1! 8! 8! 8! 8! 6! 6! 4! 4! 1! 1! 1! 1! 4! 4! 4! 4! 4! 4! -! -! 6! 6! 0! 0! -! -! 0! 0! 4! 4! 1! 1! 0! 0! 1! 1! 4! 4! 6! 6! 1! 1! 4! 4! 0! 0! 0! 0! 0! 0!  !  !  !  ! ,! ,! ,! ,! 5! 5! 8! 8! ;! ;! ?! ?! ?! ?! ?! ?! ?! ?! ?! C! C! 7# 7# =# =# E# E# L# ",
"N# D# D# A# A# 1# 1# B! B! ?! ?! ?! ?! ?! ?! ?! ?! ?! ?! ?! ?! ?! ?! ?! ?! ?! ?! ?! ?! ?! ?! ?! ?! ?! ?! ?! ?! ?! ?! ?! 4! 4! 1! 1! 6! 6! ?! ?! ?! ?! ?! ?! ?! ?! ?! ?! ?! ?! ?! ?! ?! ?! ?! ?! ?! ?! ?! ?! ?! ?! ?! ?! ?! ?! ?! ?! ?! ?! ?! ?! ?! ?! ?! ?! ?! ?! ?! ?! ?! ?! ?! ?! ?! ?! ?! ?! ?! ?! ?! ?! ?! ?! ?! ?! ?! ?! ?! ?! ?! ?! ?! ?! ?! ?! ?! ?! 0! ?! ?! T  T  s  s  y  y  N# N# D# D# A# A# 1# 1# B! B! ?! ?! ?! ?! ?! ?! ?! ?! ?! ?! ?! ?! ?! ?! ?! 6! 6! 8! 8! ?! ?! ?! ?! ?! ?! ?! ?! ?! ?! ?! ?! ?! ?! ?! ?! ?! ?! ?! ?! ?! ?! ?! ?! ?! ?! ?! ?! ?! ?! ?! ?! ?! ?! ?! ?! ?! ?! ?! ?! ?! ?! ?! ?! ?! ?! ?! ?! ?! ?! ?! ?! ?! ?! ?! ?! ?! ?! ?! ?! ?! ?! ?! ?! ;! ;! ;! ;! ?! ?! ?! ?! ?! ?! ?! ?! ?! ?! ?! ?! ?! ?! ?! ?! ?! ?! ?! ?! ?! ?! ?! ?! ?! C! C! 7# 7# =# =# E# E# L# ",
"M# F# F# =# =# m! m! ?! ?! ?! ?! ?! ?! ?! ?! ?! ?! ?! ?! ?! ?! ?! ?! ?! ?! ?! ?! ?! ?! ?! ?! ?! ?! ?! ?! ?! ?! ?! ?! ?! 4! 4! 1! 1! 6! 6! ?! ?! ?! ?! ?! ?! ?! ?! ?! ?! ?! ?! ?! ?! ?! ?! ?! ?! ?! ?! ?! ?! ?! ?! ?! ?! ?! ?! ?! ?! ?! ?! ?! ?! ?! ?! ?! ?! ?! ?! ?! ?! ?! ?! ?! ?! ?! ?! ?! ?! ?! ?! ?! ?! ?! ?! ?! ?! ?! ?! ?! ?! ?! ?! ?! ?! ?! ?! ?! ?! 0! ?! ?! T  T  s  s  y  y  N# N# D# D# A# A# 1# 1# B! B! ?! ?! ?! ?! ?! ?! ?! ?! ?! ?! ?! ?! ?! ?! ?! 6! 6! 8! 8! ?! ?! ?! ?! ?! ?! ?! ?! ?! ?! ?! ?! ?! ?! ?! ?! ?! ?! ?! ?! ?! ?! ?! ?! ?! ?! ?! ?! ?! ?! ?! ?! ?! ?! ?! ?! ?! ?! ?! ?! ?! ?! ?! ?! ?! ?! ?! ?! ?! ?! ?! ?! ?! ?! ?! ?! ?! ?! ?! ?! ?! ?! ?! ?! ;! ;! ;! ;! ?! ?! ?! ?! ?! ?! ?! ?! ?! ?! ?! ?! ?! ?! ?! ?! ?! ?! ?! ?! ?! ?! ?! ?! ?! E! E! 6# 6# =# =# E# E# L# ",
"M# F# F# =# =# m! m! ?! ?! ?! ?! ?! ?! ?! ?! ?! 8! 8! 4! 4! $! $! 4! 4! ?! ?! ?! ?! ?! ?! ?! ?! ?! ?! ?! ?! ?! ?! ?! ?! ?! ?! ?! ?! ?! ?! ?! ?! ?! ?! ?! ?! ?! ?! ?! ?! ?! ?! ?! ?! ?! ?! ?! ?! ?! ?! ?! ?! ?! ?! ?! ?! ?! ?! ?! ?! ?! ?! ?! ?! ?! ?! ?! ?! ?! ?! ?! ?! ?! ?! ?! ?! ?! ?! ?! ?! ?! ?! ?! ?! ?! ?! ?! ?! 6! 6! 8! 8! 8! 8! ;! ;! ?! ?! ?! ?! ?! ?! ?! ~  ~  s  s  y  y  M# M# F# F# =# =# m! m! ?! ?! ?! ?! ?! ?! ?! 1! 1! 8! 8! ?! ?! ?! ?! ?! ?! ?! ?! ?! ?! ?! ?! ?! ?! ?! ?! ?! ?! ?! ?! ?! ?! ?! ?! ?! ?! ?! ?! ?! ?! ?! ?! ?! ?! ?! ?! ?! ?! ?! ?! ?! ?! ?! ?! ?! ?! ?! ?! ?! ?! ?! ?! ?! ?! ?! ?! ?! ?! ?! ?! ?! ?! ?! ?! ?! ?! ?! ?! ?! ?! ?! ?! ?! ?! ?! ?! ?! ?! ?! ?! ?! ?! ?! ?! ?! ?! ?! ?! ?! ?! ?! ?! ?! ?! ?! ?! ?! ?! ?! ?! ?! ?! ?! E! E! 6# 6# =# =# E# E# L# ",
"M# E# E# 6# 6# N! N! ?! ?! ?! ?! ?! ?! ?! ?! ?! 8! 8! 4! 4! $! $! 4! 4! ?! ?! ?! ?! ?! ?! ?! ?! ?! ?! ?! ?! ?! ?! ?! ?! ?! ?! ?! ?! ?! ?! ?! ?! ?! ?! ?! ?! ?! ?! ?! ?! ?! ?! ?! ?! ?! ?! ?! ?! ?! ?! ?! ?! ?! ?! ?! ?! ?! ?! ?! ?! ?! ?! ?! ?! ?! ?! ?! ?! ?! ?! ?! ?! ?! ?! ?! ?! ?! ?! ?! ?! ?! ?! ?! ?! ?! ?! ?! ?! 6! 6! 8! 8! 8! 8! ;! ;! ?! ?! ?! ?! ?! ?! ?! ~  ~  s  s  y  y  M# M# F# F# =# =# m! m! ?! ?! ?! ?! ?! ?! ?! 1! 1! 8! 8! ?! ?! ?! ?! ?! ?! ?! ?! ?! ?! ?! ?! ?! ?! ?! ?! ?! ?! ?! ?! ?! ?! ?! ?! ?! ?! ?! ?! ?! ?! ?! ?! ?! ?! ?! ?! ?! ?! ?! ?! ?! ?! ?! ?! ?! ?! ?! ?! ?! ?! ?! ?! ?! ?! ?! ?! ?! ?! ?! ?! ?! ?! ?! ?! ?! ?! ?! ?! ?! ?! ?! ?! ?! ?! ?! ?! ?! ?! ?! ?! ?! ?! ?! ?! ?! ?! ?! ?! ?! ?! ?! ?! ?! ?! ?! ?! ?! ?! ?! ?! ?! ?! ?! L! L! 6# 6# A# A# D# D# L# ",
"M# E# E# 6# 6# N! N! ?! ?! ?! ?! ?! ?! ?! ?! ?! ?! ?! ?! ?! ?! ?! B! B! C! C! C! C! C! C! F! F! C! C! B! B! B! B! A! A! ?! ?! ?! ?! ?! ?! ?! ?! ?! ?! ?! ?! ?! ?! ?! ?! ?! ?! ?! ?! ?! ?! ?! ?! ?! ?! ?! ?! ?! ?! ?! ?! ?! ?! ?! ?! ?! ?! ?! ?! 8! 8! 1! 1! 0! 0! ;! ;! ?! ?! ?! ?! ?! ?! ?! ?! ?! ?! ?! ?! ?! ?! ?! ?! ?! ?! ?! ?! ?! ?! ?! ?! ?! ?! 8! 8! 4! ?! ?! ?! ?! s  s  x  x  M# M# E# E# 6# 6# N! N! ?! ?! ?! ?! ?! ?! ?! ?! ?! ?! ?! ?! ?! 8! 8! 1! 1! 1! 1! ,! ,! '! '! 4! 4! 8! 8! 8! 8! ;! ;! ;! ;! ;! ;! ?! ?! ?! ?! ?! ?! ?! ?! ?! ?! ?! ?! ?! ?! ?! ?! 8! 8! 8! 8! 8! 8! 8! 8! 6! 6! 6! 6! 8! 8! 1! 1! 4! 4! 0! 0! 0! 0! 6! 6! 8! 8! ?! ?! ?! ?! ?! ?! ?! ?! ?! ?! ?! ?! ?! ?! ?! ?! ?! ?! ?! ?! ?! ?! ?! ?! ?! ?! ?! ?! ?! ?! ?! ?! ?! ?! ;! ?! ?! L! L! 6# 6# A# A# D# D# L# ",
"M# D# D# 6# 6# C! C! ?! ?! ?! ?! ?! ?! ?! ?! ?! ?! ?! ?! ?! ?! ?! B! B! C! C! C! C! C! C! F! F! C! C! B! B! B! B! A! A! ?! ?! ?! ?! ?! ?! ?! ?! ?! ?! ?! ?! ?! ?! ?! ?! ?! ?! ?! ?! ?! ?! ?! ?! ?! ?! ?! ?! ?! ?! ?! ?! ?! ?! ?! ?! ?! ?! ?! ?! 8! 8! 1! 1! 0! 0! ;! ;! ?! ?! ?! ?! ?! ?! ?! ?! ?! ?! ?! ?! ?! ?! ?! ?! ?! ?! ?! ?! ?! ?! ?! ?! ?! ?! 8! 8! 4! ?! ?! ?! ?! s  s  x  x  M# M# E# E# 6# 6# N! N! ?! ?! ?! ?! ?! ?! ?! ?! ?! ?! ?! ?! ?! 8! 8! 1! 1! 1! 1! ,! ,! '! '! 4! 4! 8! 8! 8! 8! ;! ;! ;! ;! ;! ;! ?! ?! ?! ?! ?! ?! ?! ?! ?! ?! ?! ?! ?! ?! ?! ?! 8! 8! 8! 8! 8! 8! 8! 8! 6! 6! 6! 6! 8! 8! 1! 1! 4! 4! 0! 0! 0! 0! 6! 6! 8! 8! ?! ?! ?! ?! ?! ?! ?! ?! ?! ?! ?! ?! ?! ?! ?! ?! ?! ?! ?! ?! ?! ?! ?! ?! ?! ?! ?! ?! ?! ?! ?! ?! ?! ?! ;! ?! ?! T! T! =# =# E# E# D# D# L# ",
"M# D# D# 6# 6# C! C! ?! ?! ?! ?! C! C! C! E! E! F! F! J! J! k! k! )# )# /# /# ,# ,# ,# ,# ,# ,# 1# 1# *# *# {! {! V! V! W! W! C! C! A! A! ?! ?! ?! ?! ?! ?! ?! ?! ?! ?! ?! ?! ?! ?! ?! ?! ?! ?! ?! ?! ?! ?! ?! ?! ?! ?! ?! ?! ?! ?! ?! ?! ?! ?! ?! ?! ?! ?! ?! ?! ?! ?! ?! ?! ?! ?! ?! ?! ?! ?! ?! ?! ?! ?! ?! ?! N! N! c! c! !# !# h! h! C! C! B! B! A! A! ?! ?! ?! ?! ?! s  s  s  s  M# M# D# D# 6# 6# C! C! ?! ?! ?! ?! B! C! C! C! C! B! B! ?! ?! ?! ?! ?! ?! ?! ?! ?! ?! ?! ?! ?! ?! ?! ?! ?! ?! ?! ?! ?! ?! ?! ?! ?! ?! ?! ?! ?! ?! ?! ?! ?! ?! ?! ?! ?! ?! ?! ?! ?! ?! ?! ?! ?! ?! ?! ?! ?! ?! ?! ?! ?! ?! ?! ?! ?! ?! ?! ?! ?! ?! ?! ?! ?! ?! ?! ?! ?! ?! ?! ?! ?! ?! ?! ?! ?! ?! ?! ?! ?! ?! ?! ?! ?! ?! ?! ?! ?! ?! ?! ?! ?! ?! ?! ?! ?! ?! ?! ?! ?! ?! ?! T! T! =# =# E# E# D# D# L# ",
"M# D# D# 1# 1# B! B! ?! ?! ?! ?! C! C! C! E! E! F! F! J! J! k! k! )# )# /# /# ,# ,# ,# ,# ,# ,# 1# 1# *# *# {! {! V! V! W! W! C! C! A! A! ?! ?! ?! ?! ?! ?! ?! ?! ?! ?! ?! ?! ?! ?! ?! ?! ?! ?! ?! ?! ?! ?! ?! ?! ?! ?! ?! ?! ?! ?! ?! ?! ?! ?! ?! ?! ?! ?! ?! ?! ?! ?! ?! ?! ?! ?! ?! ?! ?! ?! ?! ?! ?! ?! ?! ?! N! N! c! c! !# !# h! h! C! C! B! B! A! A! ?! ?! ?! ?! ?! s  s  s  s  M# M# D# D# 6# 6# C! C! ?! ?! ?! ?! B! C! C! C! C! B! B! ?! ?! ?! ?! ?! ?! ?! ?! ?! ?! ?! ?! ?! ?! ?! ?! ?! ?! ?! ?! ?! ?! ?! ?! ?! ?! ?! ?! ?! ?! ?! ?! ?! ?! ?! ?! ?! ?! ?! ?! ?! ?! ?! ?! ?! ?! ?! ?! ?! ?! ?! ?! ?! ?! ?! ?! ?! ?! ?! ?! ?! ?! ?! ?! ?! ?! ?! ?! ?! ?! ?! ?! ?! ?! ?! ?! ?! ?! ?! ?! ?! ?! ?! ?! ?! ?! ?! ?! ?! ?! ?! ?! ?! ?! ?! ?! ?! ?! ?! ?! ?! ?! ?! |! |! E# E# E# E# D# D# L# ",
"M# D# D# 1# 1# B! B! ?! ?! ?! ?! j! {! {! 3# 3# 4# 4# 3# 3# 6# 6# =# =# D# D# E# E# E# E# E# E# E# E# D# D# =# =# =# =# 7# 7# 3# 3# m! m! X! X! I! I! E! E! C! C! E! E! C! C! X! X! m! m! n! n! i! i! b! b! Z! Z! Z! Z! p! p! $# $# %# %# ,# ,# %# %# r! r! E! E! E! E! C! C! C! C! E! E! U! U! u! u! 1# 1# ,# ,# 7# 7# ;# ;# =# =# B# B# =# =# =# =# )# )# j! ?! ?! ;! ;! s  s  s  s  M# M# D# D# 1# 1# B! B! ?! ?! ?! ?! g! v! v! o! o! `! `! e! e! a! a! E! E! E! E! E! E! C! C! C! C! C! C! E! E! E! E! E! E! C! C! C! C! C! C! C! C! C! C! C! C! C! C! C! C! C! C! B! B! C! C! C! C! E! E! F! F! F! F! I! I! P! P! R! R! J! J! C! C! C! C! C! C! ?! ?! ?! ?! A! A! B! B! B! B! B! B! B! B! B! B! T! T! Z! Z! T! T! W! W! |! |! ,# ,# (# (# $# $# !# !# }! ?! ?! |! |! E# E# E# E# D# D# L# ",
"L# E# E# 4# 4# A! A! ?! ?! ?! ?! j! {! {! 3# 3# 4# 4# 3# 3# 6# 6# =# =# D# D# E# E# E# E# E# E# E# E# D# D# =# =# =# =# 7# 7# 3# 3# m! m! X! X! I! I! E! E! C! C! E! E! C! C! X! X! m! m! n! n! i! i! b! b! Z! Z! Z! Z! p! p! $# $# %# %# ,# ,# %# %# r! r! E! E! E! E! C! C! C! C! E! E! U! U! u! u! 1# 1# ,# ,# 7# 7# ;# ;# =# =# B# B# =# =# =# =# )# )# j! ?! ?! ;! ;! s  s  s  s  M# M# D# D# 1# 1# B! B! ?! ?! ?! ?! g! v! v! o! o! `! `! e! e! a! a! E! E! E! E! E! E! C! C! C! C! C! C! E! E! E! E! E! E! C! C! C! C! C! C! C! C! C! C! C! C! C! C! C! C! C! C! B! B! C! C! C! C! E! E! F! F! F! F! I! I! P! P! R! R! J! J! C! C! C! C! C! C! ?! ?! ?! ?! A! A! B! B! B! B! B! B! B! B! B! B! T! T! Z! Z! T! T! W! W! |! |! ,# ,# (# (# $# $# !# !# }! C! C! 6# 6# E# E# F# F# D# D# N# ",
"L# E# E# 4# 4# A! A! ?! ?! ?! ?! C# D# D# E# E# E# E# D# D# D# D# E# E# E# E# E# E# E# E# D# D# D# D# D# D# =# =# =# =# =# =# =# =# =# =# =# =# =# =# =# =# 3# 3# 7# 7# 6# 6# 6# 6# ,# ,# ,# ,# ,# ,# 1# 1# 6# 6# =# =# =# =# 6# 6# 8# 8# 9# 9# 7# 7# 1# 1# 7# 7# =# =# 7# 7# 7# 7# =# =# A# A# =# =# 7# 7# =# =# C# C# D# D# E# E# E# E# E# E# D# D# 9# 9# 3# ?! ?! 8! 8! s  s  s  s  L# L# E# E# 4# 4# A! A! ?! ?! ?! ?! D# D# D# =# =# =# =# D# D# =# =# =# =# =# =# 6# 6# 3# 3# ,# ,# 1# 1# 6# 6# =# =# =# =# 7# 7# 3# 3# 1# 1# ,# ,# 1# 1# 7# 7# 7# 7# <# <# :# :# 6# 6# 3# 3# ,# ,# 1# 1# 1# 1# 3# 3# 6# 6# 6# 6# 6# 6# 3# 3# 1# 1# 0# 0# 1# 1# ,# ,# ,# ,# 4# 4# 7# 7# 7# 7# 3# 3# 3# 3# 7# 7# =# =# C# C# D# D# F# F# E# E# E# E# E# E# D# D# =# =# =# C! C! 6# 6# E# E# F# F# D# D# N# ",
"L# B# B# A# A# x! x! ?! ?! ?! ?! C# D# D# E# E# E# E# D# D# D# D# E# E# E# E# E# E# E# E# D# D# D# D# D# D# =# =# =# =# =# =# =# =# =# =# =# =# =# =# =# =# 3# 3# 7# 7# 6# 6# 6# 6# ,# ,# ,# ,# ,# ,# 1# 1# 6# 6# =# =# =# =# 6# 6# 8# 8# 9# 9# 7# 7# 1# 1# 7# 7# =# =# 7# 7# 7# 7# =# =# A# A# =# =# 7# 7# =# =# C# C# D# D# E# E# E# E# E# E# D# D# 9# 9# 3# ?! ?! 8! 8! s  s  s  s  L# L# E# E# 4# 4# A! A! ?! ?! ?! ?! D# D# D# =# =# =# =# D# D# =# =# =# =# =# =# 6# 6# 3# 3# ,# ,# 1# 1# 6# 6# =# =# =# =# 7# 7# 3# 3# 1# 1# ,# ,# 1# 1# 7# 7# 7# 7# <# <# :# :# 6# 6# 3# 3# ,# ,# 1# 1# 1# 1# 3# 3# 6# 6# 6# 6# 6# 6# 3# 3# 1# 1# 0# 0# 1# 1# ,# ,# ,# ,# 4# 4# 7# 7# 7# 7# 3# 3# 3# 3# 7# 7# =# =# C# C# D# D# F# F# E# E# E# E# E# E# D# D# =# =# =# C! C! A# A# E# E# E# E# D# D# N# ",
"L# B# B# A# A# x! x! ?! ?! ?! ?! D# E# E# D# D# =# =# =# =# =# =# =# =# B# B# D# D# D# D# C# C# E# E# C# C# =# =# 7# 7# 7# 7# 7# 7# 7# 7# =# =# =# =# =# =# =# =# =# =# =# =# =# =# 7# 7# 9# 9# 9# 9# A# A# C# C# C# C# D# D# =# =# =# =# =# =# =# =# =# =# A# A# A# A# D# D# D# D# D# D# A# A# =# =# 6# 6# D# D# E# E# D# D# E# E# E# E# D# D# D# D# D# D# 9# ?! ?! ?! ?! i  i  s  s  L# L# B# B# A# A# x! x! ?! ?! ?! ?! I# I# I# I# I# K# K# I# I# F# F# F# F# E# E# E# E# E# E# F# F# I# I# I# I# I# I# H# H# H# H# F# F# F# F# E# E# F# F# E# E# E# E# E# E# E# E# E# E# E# E# F# F# E# E# D# D# C# C# A# A# A# A# A# A# =# =# =# =# =# =# A# A# D# D# D# D# D# D# E# E# E# E# D# D# D# D# D# D# E# E# I# I# K# K# K# K# K# K# I# I# J# J# I# I# E# E# E# C! C! A# A# E# E# E# E# D# D# N# ",
"H# H# I# I# E# E# C# C# D# D# D# D# E# E# D# D# =# =# =# =# =# =# =# =# B# B# D# D# D# D# C# C# E# E# C# C# =# =# 7# 7# 7# 7# 7# 7# 7# 7# =# =# =# =# =# =# =# =# =# =# =# =# =# =# 7# 7# 9# 9# 9# 9# A# A# C# C# C# C# D# D# =# =# =# =# =# =# =# =# =# =# A# A# A# A# D# D# D# D# D# D# A# A# =# =# 6# 6# D# D# E# E# D# D# E# E# E# E# D# D# D# D# D# D# 9# ?! ?! ?! ?! i  i  s  s  L# L# B# B# A# A# x! x! ?! ?! ?! ?! I# I# I# I# I# K# K# I# I# F# F# F# F# E# E# E# E# E# E# F# F# I# I# I# I# I# I# H# H# H# H# F# F# F# F# E# E# F# F# E# E# E# E# E# E# E# E# E# E# E# E# F# F# E# E# D# D# C# C# A# A# A# A# A# A# =# =# =# =# =# =# A# A# D# D# D# D# D# D# E# E# E# E# D# D# D# D# D# D# E# E# I# I# K# K# K# K# K# K# I# I# J# J# I# I# E# E# E# E# D# D# C# C# F# F# I# I# I# I# "
};
