/* XPM */
static char * pixmap[] = {
/* width height num_colors chars_per_pixel */
"64 64 22 1",
/* colors */
"  c #efefef",
"! c #dfdfdf",
"# c #d3d3d3",
"$ c #c7c7c7",
"% c #b7b7b7",
"& c #ababab",
"' c #9b9b9b",
"( c #8f8f8f",
") c #838383",
"* c #7b7b7b",
"+ c #737373",
", c #6b6b6b",
"- c #676767",
". c #5f5f5f",
"/ c #575757",
"0 c #535353",
"1 c #4f4f4f",
"2 c #4b4b4b",
"3 c #474747",
"4 c #3f3f3f",
"5 c #3b3b3b",
"6 c #1f1f1f",
/* pixels */
"6565656565656565656565656565656565656565656565656565656565656565",
"/0/1/1/1/12#!!!#!#!!!#!#!!!65)&%#$##$#%$&)/6333333333301/1/1/1/1",
"0/00/000/03!#$#%###$##%##$(65)$%(&)(((()&1565,(()(((*,-333233323",
"(()((()(602!$$%#%$$%$$%%#(.65&#&(&(&)&(&)/565(#!!!#!%%&()((()(((",
"####%&()6/3!#&&'&(&&&&'&&*065(%(()&&&&)(+1565)!!%$%#!!!#!#$###$#",
"&&&&'&*+603 %'&&&&'&(&)&&,0653&(&&)('(&,/0565(#%&(&(&&'((&(&)&('",
"%'''&(*,623 #&)&(&('''((&(1653*()&(&&)&+55565)!%(&)')((&)('(&'('",
"%&)%)'./653 $('(&&'(*((&(./6533(&&'(((&,55565(!&&)'*&'*(&)&&(*&'",
"'&&('+32662$%&'&)&(')'((&,066203*555555556655+!!(&))'+'(&((*&&+(",
"(()(+033653& &'&(((((()&)/*6653555555565666333$$((((''')(&(&&)&(",
"+,++1255662(#(&((*((&)&(&,/5653566666665656203$&(&)&()(+,-..-.-.",
"0/333666654+!&)'***&'()*(,-5653322+*(&'&&'+512%(,+-.-/0003232332",
"666665656503!$((('')(&*(&(15654+&&#! ###',0603(,-.02335555565656",
"656566565513&#(&)*(&()'()+15665&%!#%)&(&)+5655555555555666666666",
"555555555522($&)&')*(*(&(1/5654&!%&((()((15656656656656445555555",
"025555556503+$)&'(&'&)&)&1+3662& &()&(&)&05653/0//63233233333334",
"''('('(''66/3$%'()''+((((,/0662& )(&&)&((1565,&!#/30*''('''(''''",
"#$##$#%&+46/3(%(&(*(()&(,(,2662&$&&()&(&)/565&#$&63*$#!!!#!!!#!#",
"&'(&(&&,+5603+'&)&&)&+(,0+02662&$&(,++,0/0565#$&)62'##%%&%%%&%%%",
"&('(&)(,+56303'(++,+00+1+036665'(+(,55555556.!&((63'!&&'&(&(')''",
"&((&)&&,/56303-0/0/333566666666(+55566666666.!&&)62'#&(')'('+)()",
"&(&(&)(+156303656566666666666655156666656656(!&&(63($)&'&(&(')''",
"(&+*((&,/5651/25666666661221223(((&&(((*/64-%!&)*62)$&)'(')'**((",
"())*(&)-3565)!!!#$&&(.52-*&&%$$!!!#!!!$'-65*!$'&+63)%&'(&)&(**((",
"((&&)((.2565#$&(''&('512*# !!$%%$%$%$%$,/65(!&'(,62,$)&(('()&(&(",
"'&)(&)+05565!'('&&('&602'!$(&)&')&'&'()-365( &)&/623(+./00--,*()",
"-.-.-0355565#&&&)&(&.623' &'&(*&&()(&)&/365) &&(/6065533332330/0",
"023555666665!)&(&&(*.623' )&('&)(*(&(((1265( )&(16/5666666666553",
"666666656223!&')&(&*.653' ((&)(*(*()(&(1265) &&)/6/5555555656666",
"3--,('()((36!&+'(&))-563( &()(*(*(&*()&0365( (&&16/343101/00/555",
"-(%!#!##$&+6!&&)*(&)-563(!%'(&(&+*(*(&)/565(#((&162&!#%(./332330",
"-&#$$%&&'&46 ('&*(&',362*#$&)(+(**&(&))1565(!&((062!)(%!!#!!!(50",
"-!%&&)&(&)+6 '&(&&)&,2651$!&&'(&)&**(&,/564(#(&(162!()&&)(&())51",
"-#%')&(&)&+6 ')'&(&)-066/& &&'((*(**&)+3562(#&&)/63!&&)(&&)&(.53",
"-!&(&(&&*&16!&&&(((&-1651( %&(&)(')&(&.3654(#'(&162$&(&&)(&(&.53",
"-!&&((''&)/6!%*'*&&'./662,#%&(*')('(((.5662(#(&1/62$&'&(&)(&'/53",
"-#%(&&(&)&06$!)'&(((./6620%!&)&(&(&)(-05653*&*15554&&(&'(&()&/55",
"-!%&'(&(&(16%!*&)((&,/6651(%&(*-.0325555654/5555436+130/0/00/055",
"-!&(&&)&*&06'#'*&&)(,/66503((./35666666665313310/0/6666666666665",
"-#%()'&(&)/6*!&'&)(&-16661356566665656656530/3323332335555555555",
"-!%&&)'&(&06/ ('((&)-0665333555552324123233/0****************+51",
"-!&((&)&(,/63 &()*(&,/6664-*************((('&%&$%$%$%%$%$%$%$*51",
"-$%&&(&(&1661 '(&(()-/5665*$%$%$%$$%$%$%$%#!!           #!##(-62",
"-#%(&(&&)/654 (&*')&-15666*$$     !!  !     !!##%%%$%&%$%%$%*/61",
"-%%&(&)((1653!&&)&((./5666*$$%$%$%$&%$&%$%%&&''((&(&)((&)&(&,/55",
"2$)(&)+,+0653#)(&)&(,/5666-%!%(()(((&)&&(('&&&(*')&&')&(&&'(,065",
"3%&&'(/006643%&)(&()+056663$!%(((&('('&)('&&)'('((*)''(&)&(&,/55",
"3***/0/006554''&)((,-056666%!#&&)(((*()&(')&'*)(&)(&(*+(*'((+065",
"35666/00/6542*-.--.-0056665&##()&(&)(&(**'')&(&((&)(*(()&(+),/65",
"0/0356666554555555555556666(#%&((&)&*()'*'('*&)(*((()&(*(()*,/65",
"323332356652556666666666665)',++,++,&(&&)(*)((*((&)&((&)(((',/65",
"3*&&&&((-220556656656656565035565656/+,*(*******************-165",
"3&$#!#!!%&&(,./255555555554/335555556200/0/0/0/000/0/00/0/000655",
"3&#&&(%#!!!%&&&&&&&'(()**,--1/3334355656565656565666666666666654",
"3&!&&&%&(&%!!!#!#!#!!!!$#$%&&&&&)2035555555556656565656565655532",
"3&!&)&**&'(*&)&(&(&&)&(&&&$#!##%)5312335556555555555555555554320",
"3&$&&&(&((('&)(&*+(&*()(&)&(&&&*-6512&#!'*2230003343334334331/00",
"3&$&)&**'&)&&')*&*(*')&(&(&)&&'-06533!&&!!!#%002%!!#!!!##$&'*230",
"3&)-.-.-.--.-.--.-.-.--.-.-.-.-/05653#%&%&%%%./*!'&&(&)&'&(&#'60",
"3(-5555555555555555555555555555555662%&%%'.')-3%&(&)&&&)&(&)&06/",
"35666666666666666666666666666666666615351-.--.2!'''&&('&''&((16/",
"02555656656656656566566566566566565641/556666650/00000/10/0/1/60",
"0/103332232255555555555555555555555551/105555551066666666666666/",
"5555555555555555555555555555555555555555555555555555555555555555"
};
