/* XPM */
static char * pixmap[] = {
/* width height num_colors chars_per_pixel */
"256 256 90 1",
/* colors */
"  c #585D38",
"! c #575C37",
"# c #565B37",
"$ c #555A37",
"% c #555A36",
"& c #545A36",
"' c #545936",
"( c #545935",
") c #535935",
"* c #535835",
"+ c #535834",
", c #525835",
"- c #525834",
". c #525734",
"/ c #515734",
"0 c #515733",
"1 c #515634",
"2 c #515633",
"3 c #505633",
"4 c #505533",
"5 c #505532",
"6 c #4F5533",
"7 c #4F5532",
"8 c #4F5432",
"9 c #4E5532",
": c #4E5432",
"; c #4E5431",
"< c #4E5331",
"= c #4D5432",
"> c #4D5332",
"? c #4D5331",
"@ c #4D5230",
"A c #4C5331",
"B c #4C5231",
"C c #4C5230",
"D c #4C5130",
"E c #4B5230",
"F c #4B5130",
"G c #4B512F",
"H c #4A5130",
"I c #4A512F",
"J c #4A502F",
"K c #4A502E",
"L c #49502F",
"M c #49502E",
"N c #494F2F",
"O c #494F2E",
"P c #484F2E",
"Q c #484E2E",
"R c #484E2D",
"S c #474E2E",
"T c #474E2D",
"U c #474D2D",
"V c #464E2D",
"W c #464D2D",
"X c #464D2C",
"Y c #464C2C",
"Z c #454D2D",
"[ c #454D2C",
"] c #454C2C",
"^ c #454C2B",
"_ c #454B2B",
"` c #444C2C",
"a c #444B2C",
"b c #444B2B",
"c c #444A2A",
"d c #434B2B",
"e c #434A2B",
"f c #434A2A",
"g c #43492A",
"h c #424A2B",
"i c #424A2A",
"j c #42492A",
"k c #424929",
"l c #41492A",
"m c #414829",
"n c #404829",
"o c #404729",
"p c #404728",
"q c #3F4628",
"r c #3E4627",
"s c #3E4527",
"t c #3D4426",
"u c #3C4426",
"v c #3C4325",
"w c #3B4325",
"x c #3B4224",
"y c #3A4124",
"z c #353A24",
"{ c #2F341F",
/* pixels */
"{{{{{{zzzzzzzzzzzzzzzzzzzzzzaaSSzzzzzz[[{{{{{{{{zz{{{{nnnnaazzzzzzzzaaaaaaaazzzzzz{{zzzzzzaaaazznn{{{{{{zzzzaannnnzzzzzzzzzzzzzzzzzzzz{{{{zz{{zzzzzzzzzz{{{{zzzzaazzzzzzaaaaaa{{{{{{zzzzzzzzzzzznnnnnnaaaazzzzzz{{aazzzzzzzz{{zzzz{{{{{{{{{{{{aaaaaaaazz{{{{zzzz",
"{{{{{{zzzzzzzzzzzzzzzzzzzzzzaaSSzzzzzz[[{{{{{{{{zz{{{{nnnnaazzzzzzzzaaaaaaaazzzzzz{{zzzzzzaaaazznn{{{{{{zzzzaannnnzzzzzzzzzzzzzzzzzzzz{{{{zz{{zzzzzzzzzz{{{{zzzzaazzzzzzaaaaaa{{{{{{zzzzzzzzzzzznnnnnnaaaazzzzzz{{aazzzzzzzz{{zzzz{{{{{{{{{{{{aaaaaaaazz{{{{zzzz",
"nn{{{{zzzzzz??::ffYYEEBBzzaaaazzzzzzzz==))zzzzzzzz{{{{{{aazzzzzzzzzzaazzzzzzzzzz{{{{{{{{{{zzaazz{{{{{{{{{{{{{{aaaaaa{{{{{{zzzzzzzzaa??zz{{zzzzzzzzzzzzzzzzzzzzzzzzzzzzzzzzaaaazzzz{{{{zzzzzz''OOnnnnaaaaaaaazzzzzzaazzzzzzzzzzzzzzzzzzzz{{{{{{aazzzzzzzz{{{{zzzz",
"nn{{{{zzzzzz??::ffYYEEBBzzaaaazzzzzzzz==))zzzzzzzz{{{{{{aazzzzzzzzzzaazzzzzzzzzz{{{{{{{{{{zzaazz{{{{{{{{{{{{{{aaaaaa{{{{{{zzzzzzzzaa??zz{{zzzzzzzzzzzzzzzzzzzzzzzzzzzzzzzzaaaazzzz{{{{zzzzzz''OOnnnnaaaaaaaazzzzzzaazzzzzzzzzzzzzzzzzzzz{{{{{{aazzzzzzzz{{{{zzzz",
"nnOO{{zzzzzzzzzz==JJJJnnzzzzzzzzzzzzzzPP((??aazzzz{{{{zzzzzzzzzzzzzzzzzzzzzzzzzzzzzzzzzz{{{{zzzzzzzzzzzz{{{{{{zznn{{nn{{{{{{{{zzzzaa??zzzzzzBB]]aaaazz77zzzzzzzzzzzzzzzzzzzzzzzzzz{{{{{{zzzz??bb{{{{zzzzaaaazzzzzzzzzzzz{{{{zz..eeAAaazzzzzzzzzzzzzzzzzz{{{{zzzz",
"nnOO{{zzzzzzzzzz==JJJJnnzzzzzzzzzzzzzzPP((??aazzzz{{{{zzzzzzzzzzzzzzzzzzzzzzzzzzzzzzzzzz{{{{zzzzzzzzzzzz{{{{{{zznn{{nn{{{{{{{{zzzzaa??zzzzzzBB]]aaaazz77zzzzzzzzzzzzzzzzzzzzzzzzzz{{{{{{zzzz??bb{{{{zzzzaaaazzzzzzzzzzzz{{{{zz..eeAAaazzzzzzzzzzzzzzzzzz{{{{zzzz",
"zznn{{zzzzzzzzzzzzOOOO{{{{zzzzzzzzzzzzzz44++aazzzzzzzzzzzzzzzzzzzzzzzzzzzzzzzzzzzz{{{{{{{{{{zzzzzzzzzzaazzzz{{zzaa{{zzzz{{{{nnnn??II??zzzzzzUUnn{{{{zz::::zzzzzzzzzzzzzzzzzzaazzzzaaaazzzzzzBBBBzzzzzzzzzzzzzzzzzzzzzz{{{{{{OOAAOOnn{{zzzzzzzzzzzzzzzzzz{{zzaaaa",
"zznn{{zzzzzzzzzzzzOOOO{{{{zzzzzzzzzzzzzz44++aazzzzzzzzzzzzzzzzzzzzzzzzzzzzzzzzzzzz{{{{{{{{{{zzzzzzzzzzaazzzz{{zzaa{{zzzz{{{{nnnn??II??zzzzzzUUnn{{{{zz::::zzzzzzzzzzzzzzzzzzaazzzzaaaazzzzzzBBBBzzzzzzzzzzzzzzzzzzzzzz{{{{{{OOAAOOnn{{zzzzzzzzzzzzzzzzzz{{zzaaaa",
"zzzzLLzzzzzzzzzzzzzzzz{{{{{{zzzzzzzzzzzzaa55nnnnzzzzzzzzzzzzzzzzzz{{{{{{{{{{ff,,::zz{{zz{{{{{{zzzzaaaaaaaazzzz{{{{zzzzzzzzzzaaaa??aaaazzzz{{nn{{{{{{nn::VV::zzzzzz{{zzzzzzzzaazzzzaazzzzzzzzLLEEzzzzzzzzzzzzzzzzzzzzzz{{zz??aaaaaa{{{{zzzzzz{{{{{{zzzzzzzzzzaaaa",
"zzzzLLzzzzzzzzzzzzzzzz{{{{{{zzzzzzzzzzzzaa55nnnnzzzzzzzzzzzzzzzzzz{{{{{{{{{{ff,,::zz{{zz{{{{{{zzzzaaaaaaaazzzz{{{{zzzzzzzzzzaaaa??aaaazzzz{{nn{{{{{{nn::VV::zzzzzz{{zzzzzzzzaazzzzaazzzzzzzzLLEEzzzzzzzzzzzzzzzzzzzzzz{{zz??aaaaaa{{{{zzzzzz{{{{{{zzzzzzzzzzaaaa",
"zzzzzz??aaaazzzzzzzzzz{{{{{{zzzzzzzzzzzzzz??aannaazzzzzzaa777777FF@@;;{{{{{{zzzz::aazzzzzzzznnaa::aaaaaazz{{{{{{{{zzzzzzzzzzzzaa??aazzzzaazzzzzz{{{{nnnnJJ::aazzzzzznn{{aaaa??zzzzaazzzzzznnnnnn{{zzzzzz{{{{{{nnnnzz{{{{zz??aaaaaann{{{{zzzz{{{{{{{{zzzzzzzzaaaa",
"zzzzzz??aaaazzzzzzzzzz{{{{{{zzzzzzzzzzzzzz??aannaazzzzzzaa777777FF@@;;{{{{{{zzzz::aazzzzzzzznnaa::aaaaaazz{{{{{{{{zzzzzzzzzzzzaa??aazzzzaazzzzzz{{{{nnnnJJ::aazzzzzznn{{aaaa??zzzzaazzzzzznnnnnn{{zzzzzz{{{{{{nnnnzz{{{{zz??aaaaaann{{{{zzzz{{{{{{{{zzzzzzzzaaaa",
"zzzzzzzzMMnnzzzzzzzzzzzzzzzzzzzzzz{{{{{{zzaa??nnnn{{zzaa??zz::::77<<CCAAzzzzzzzz::aaaazzzzzzzzzz::aaaazzzzzz{{{{{{zzzzzzzzzz]]VV66{{{{zzTTaazzzzzz{{{{{{{{JJaazzzzzznnnnaaaaaazzzzzzzzzzaaaaaann{{{{{{{{{{{{{{nnnnzzzz{{zzaaaazzzznn{{{{zzzzzznnnnOO{{zzzzzzaazz",
"zzzzzzzzMMnnzzzzzzzzzzzzzzzzzzzzzz{{{{{{zzaa??nnnn{{zzaa??zz::::77<<CCAAzzzzzzzz::aaaazzzzzzzzzz::aaaazzzzzz{{{{{{zzzzzzzzzz]]VV66{{{{zzTTaazzzzzz{{{{{{{{JJaazzzzzznnnnaaaaaazzzzzzzzzzaaaaaann{{{{{{{{{{{{{{nnnnzzzz{{zzaaaazzzznn{{{{zzzzzznnnnOO{{zzzzzzaazz",
"zzzzzzzzzznnnn{{zzzzzzzzzzzzzzzz{{{{{{{{{{{{aaUUnn{{zzaaaaaaaa77zzzzzzzzzzzzzzzz::aaaaaazzzzzzzzzzzzzzzzzzzzzzjj??aazzzzzzzzzzzz{{{{{{zz??PPzzzzzzzz{{zzzzzzaazzzzzz{{nnnnaazzzzzzzzzzzzzzaazzzz{{{{{{{{{{{{zzzzaaaazzzzzzzzaazzzz{{zzzzzzaaaaJJJJ{{zzzzzzzzzzzz",
"zzzzzzzzzznnnn{{zzzzzzzzzzzzzzzz{{{{{{{{{{{{aaUUnn{{zzaaaaaaaa77zzzzzzzzzzzzzzzz::aaaaaazzzzzzzzzzzzzzzzzzzzzzjj??aazzzzzzzzzzzz{{{{{{zz??PPzzzzzzzz{{zzzzzzaazzzzzz{{nnnnaazzzzzzzzzzzzzzaazzzz{{{{{{{{{{{{zzzzaaaazzzzzzzzaazzzz{{zzzzzzaaaaJJJJ{{zzzzzzzzzzzz",
"zzzzzzzzzzaa{{{{{{{{zzzzzzzzzz{{{{{{{{zzzzzzzz{{{{zzzzaaaaaazzzzzzzzzzzzzzzzzz{{JJnnnn{{zzzz{{{{{{{{zzzzzzzzzz{{{{,,aazzzzzz{{{{{{{{zzzz??aazzzzzzzzzzzzzzzzzzzzzzzzzznn{{{{zzzz{{{{{{{{zzzzzzzzzz{{CCJJ{{zzzzzzzzzzzzzzzzzzzzzzzz{{zzzzzzaa====,,zzzzzz{{{{{{zz",
"zzzzzzzzzzaa{{{{{{{{zzzzzzzzzz{{{{{{{{zzzzzzzz{{{{zzzzaaaaaazzzzzzzzzzzzzzzzzz{{JJnnnn{{zzzz{{{{{{{{zzzzzzzzzz{{{{,,aazzzzzz{{{{{{{{zzzz??aazzzzzzzzzzzzzzzzzzzzzzzzzznn{{{{zzzz{{{{{{{{zzzzzzzzzz{{CCJJ{{zzzzzzzzzzzzzzzzzzzzzzzz{{zzzzzzaa====,,zzzzzz{{{{{{zz",
"zzzzzzzzzzzzzz{{{{{{{{zzaaaaOO{{{{{{zzzzaazzzz{{{{zzzzzzaazzzzzzzzzzzzzzzzzz{{{{{{nn{{zzzzzzzz{{{{{{{{{{{{zzzzzz{{OOCCzzzzzz{{{{{{zzzzzz66zz]]zzzzzzzzzzzzzzzzzzzzzzzzzzzzzzzz{{{{{{zzzzzzzzzzzzzzzz{{QQ??BBzzzzzzzzzzzz{{{{zzzzzzzzzzzzzzaaEEaazzzzzznnnn{{{{zz",
"zzzzzzzzzzzzzz{{{{{{{{zzaaaaOO{{{{{{zzzzaazzzz{{{{zzzzzzaazzzzzzzzzzzzzzzzzz{{{{{{nn{{zzzzzzzz{{{{{{{{{{{{zzzzzz{{OOCCzzzzzz{{{{{{zzzzzz66zz]]zzzzzzzzzzzzzzzzzzzzzzzzzzzzzzzz{{{{{{zzzzzzzzzzzzzzzz{{QQ??BBzzzzzzzzzzzz{{{{zzzzzzzzzzzzzzaaEEaazzzzzznnnn{{{{zz",
"zzzzzzzzzzzzzzzz{{zz{{aa????zz{{{{aaaaaaaa::::::zzzzzzzzzzzzzzzzzzzzzzLL::AAUU{{zz{{zzaaaaaa777777{{{{{{{{{{zzzzaannaazzzz{{{{{{{{zzzzzz//zzPPzzzzzzzzzzzzzzzzzzzzzzzzzzzzzz{{{{{{zzzzzzzzzzzzzz{{zz{{zz77BBaaaazzzzzz{{nn{{zzzzzzzzzzzzzzaazzaazzzz{{{{nnaaaazz",
"zzzzzzzzzzzzzzzz{{zz{{aa????zz{{{{aaaaaaaa::::::zzzzzzzzzzzzzzzzzzzzzzLL::AAUU{{zz{{zzaaaaaa777777{{{{{{{{{{zzzzaannaazzzz{{{{{{{{zzzzzz//zzPPzzzzzzzzzzzzzzzzzzzzzzzzzzzzzz{{{{{{zzzzzzzzzzzzzz{{zz{{zz77BBaaaazzzzzz{{nn{{zzzzzzzzzzzzzzaazzaazzzz{{{{nnaaaazz",
"{{{{{{{{zzzzzzzz{{zzzz????aazzzzaaaaaa::::''::zzaa::66aazzzzzzzzzzzzFFLL::AA]]aaaazzzzaaaaaa::77::::{{{{{{{{zzzzzzzzzzzzzzKK??OO{{zzzzzzzz{{{{{{{{zzzzzzzz{{{{{{{{{{{{zzzzzzzzzzzzLL3377zzzz{{nn{{{{{{{{FFTTaaaazzzzzz{{nnaaaazzzzzzzzzzzzzzzzzzzz{{{{{{nnaaaazz",
"{{{{{{{{zzzzzzzz{{zzzz????aazzzzaaaaaa::::''::zzaa::66aazzzzzzzzzzzzFFLL::AA]]aaaazzzzaaaaaa::77::::{{{{{{{{zzzzzzzzzzzzzzKK??OO{{zzzzzzzz{{{{{{{{zzzzzzzz{{{{{{{{{{{{zzzzzzzzzzzzLL3377zzzz{{nn{{{{{{{{FFTTaaaazzzzzz{{nnaaaazzzzzzzzzzzzzzzzzzzz{{{{{{nnaaaazz",
"{{{{nnRRnnzzzzzzzzzzzzHHWWzzzzzz::::==??zzzzzzzzaaLL::JJTT{{{{zzzzzzaa::??zzzzaaaazzzzaaWWzzzzzz::::zzzzzzzzzzzzzzzzzzzzaaaaaa????zzzz{{{{{{{{zzzzzzzzAAzzzz{{{{{{{{{{zzzz{{{{zzaa//,,aazzzz{{nnnnzzzzzzJJ{{nn{{zzzzzz{{{{zzzzzzzzzz{{zzzzzzzzzz{{{{zz{{zzaaaaaa",
"{{{{nnRRnnzzzzzzzzzzzzHHWWzzzzzz::::==??zzzzzzzzaaLL::JJTT{{{{zzzzzzaa::??zzzzaaaazzzzaaWWzzzzzz::::zzzzzzzzzzzzzzzzzzzzaaaaaa????zzzz{{{{{{{{zzzzzzzzAAzzzz{{{{{{{{{{zzzz{{{{zzaa//,,aazzzz{{nnnnzzzzzzJJ{{nn{{zzzzzz{{{{zzzzzzzzzz{{zzzzzzzzzz{{{{zz{{zzaaaaaa",
"zz{{{{OOOOnnzzzzzzzz{{nn{{zzzzzzzzaaaazzzzzzzzzzzzJJaaaa::{{{{{{zzzzzzaazzzzzzzzzzzzzzzzzzzzzzzzaazzzzAA????????zzzzzzzzaazzzzzz??BB{{{{{{{{zzzzzzzzzz??FF::77zzzzzzzzzzzz{{{{aa??**??zzzz{{{{nnaaaazzzz{{{{{{{{{{zzzzzz{{zzzzzzzzOO44zzzzzzzzzz{{zzzzzzzzaazzaa",
"zz{{{{OOOOnnzzzzzzzz{{nn{{zzzzzzzzaaaazzzzzzzzzzzzJJaaaa::{{{{{{zzzzzzaazzzzzzzzzzzzzzzzzzzzzzzzaazzzzAA????????zzzzzzzzaazzzzzz??BB{{{{{{{{zzzzzzzzzz??FF::77zzzzzzzzzzzz{{{{aa??**??zzzz{{{{nnaaaazzzz{{{{{{{{{{zzzzzz{{zzzzzzzzOO44zzzzzzzzzz{{zzzzzzzzaazzaa",
"zzzznnaaRROO==zz{{{{{{{{zzzzzzzzzzaazzzzzzzzzzzzzzzzaaaa::zz{{{{{{zzzzzzzzzzzz{{{{zzzzzzzzzzzzzzzzzzzzzzzzzzzz????zzzzzzzzzzzzzzzzzz{{{{{{{{zzzzzzzzzzzzEENN==aaaazzzzzzzz{{nn==??aaaazzzz{{{{zzaaaazzzzzzzz{{zz{{zzII??77??zzzz{{{{88..aaaazzzzzzzzzzzzzzzzzzzz",
"zzzznnaaRROO==zz{{{{{{{{zzzzzzzzzzaazzzzzzzzzzzzzzzzaaaa::zz{{{{{{zzzzzzzzzzzz{{{{zzzzzzzzzzzzzzzzzzzzzzzzzzzz????zzzzzzzzzzzzzzzzzz{{{{{{{{zzzzzzzzzzzzEENN==aaaazzzzzzzz{{nn==??aaaazzzz{{{{zzaaaazzzzzzzz{{zz{{zzII??77??zzzz{{{{88..aaaazzzzzzzzzzzzzzzzzzzz",
"{{zzzzaaaa::AAJJ{{{{{{zzzzzz{{{{zzzzEEJJ{{zzzzzzzzzzzzaaaaLL{{{{{{{{zzzzzzzz{{88BB33''zz{{{{{{{{{{{{zzzzzzzzzz????zzzz{{{{{{{{zzzzzzzz{{{{zzzzzz{{{{zzzzzz??zz??aaaazzzzzz{{{{zzaazz{{zzzzzz{{zzzzzzzzzzzzzzzzzzzzzzzz??BB::::{{{{{{zz66AAaazzzzzzaazzzzzzzz{{{{",
"{{zzzzaaaa::AAJJ{{{{{{zzzzzz{{{{zzzzEEJJ{{zzzzzzzzzzzzaaaaLL{{{{{{{{zzzzzzzz{{88BB33''zz{{{{{{{{{{{{zzzzzzzzzz????zzzz{{{{{{{{zzzzzzzz{{{{zzzzzz{{{{zzzzzz??zz??aaaazzzzzz{{{{zzaazz{{zzzzzz{{zzzzzzzzzzzzzzzzzzzzzzzz??BB::::{{{{{{zz66AAaazzzzzzaazzzzzzzz{{{{",
"zzzzzzzzzzzzzz{{{{{{{{zzzzzz{{{{{{aa>>**{{{{zzzzzzzzzzzzaazzzzzz{{{{zzzzzz{{{{++))??zz{{{{{{{{{{zzzzzzzzzzzzzzaazzzz==)){{{{{{{{zzzzzzzzzzzzzz{{{{{{zzzzzzaazz??AAaa{{zzzz{{{{zzzzzz{{{{zzzzzzzzzzzzzzzzzzzzzzzzzzzzzzzzAAEEaann{{{{zzaa77AAzzzzzzFF==zz{{{{{{{{",
"zzzzzzzzzzzzzz{{{{{{{{zzzzzz{{{{{{aa>>**{{{{zzzzzzzzzzzzaazzzzzz{{{{zzzzzz{{{{++))??zz{{{{{{{{{{zzzzzzzzzzzzzzaazzzz==)){{{{{{{{zzzzzzzzzzzzzz{{{{{{zzzzzzaazz??AAaa{{zzzz{{{{zzzzzz{{{{zzzzzzzzzzzzzzzzzzzzzzzzzzzzzzzzAAEEaann{{{{zzaa77AAzzzzzzFF==zz{{{{{{{{",
"zz{{{{{{zzzzzz{{{{{{zzzzzzzz{{{{nn**))zzzz{{{{zzzzzzzzzzaazzzzzzzzzzzzzzzz{{{{{{)))){{{{{{{{{{{{zzzzaaaazz{{{{{{{{zz::))zz{{{{{{{{:::://AAaa{{{{{{zzzzzzzz::zzzz{{{{{{{{zz{{{{zzzzzzzzzzzzzzzzzzzzzzzzzzzzzzzzzzzzzz{{{{zzCCzz{{{{zzzzaazzzzzzzzzz==aazz{{{{{{{{",
"zz{{{{{{zzzzzz{{{{{{zzzzzzzz{{{{nn**))zzzz{{{{zzzzzzzzzzaazzzzzzzzzzzzzzzz{{{{{{)))){{{{{{{{{{{{zzzzaaaazz{{{{{{{{zz::))zz{{{{{{{{:::://AAaa{{{{{{zzzzzzzz::zzzz{{{{{{{{zz{{{{zzzzzzzzzzzzzzzzzzzzzzzzzzzzzzzzzzzzzz{{{{zzCCzz{{{{zzzzaazzzzzzzzzz==aazz{{{{{{{{",
"zz{{{{{{{{zzzzaa88zzzzzzzzzzzznnJJ::zzzzzz{{{{zzzzzzzzzzzzzzzzzzzzaazzzzzzzzzzzz??EE{{{{{{zz{{zzzzzzzzaann{{{{{{zzzz))::zzzz{{{{GGaa''aaaazz{{{{mm::CCzzzzzzzzzz{{{{aaaazzzzzzzzzzzzzzzzzzzzaaaa==??zzzzzzzzzzzzzzzz{{{{{{zzzz{{{{{{zzzz{{{{zzzzzz??aa{{{{{{{{zz",
"zz{{{{{{{{zzzzaa88zzzzzzzzzzzznnJJ::zzzzzz{{{{zzzzzzzzzzzzzzzzzzzzaazzzzzzzzzzzz??EE{{{{{{zz{{zzzzzzzzaann{{{{{{zzzz))::zzzz{{{{GGaa''aaaazz{{{{mm::CCzzzzzzzzzz{{{{aaaazzzzzzzzzzzzzzzzzzzzaaaa==??zzzzzzzzzzzzzzzz{{{{{{zzzz{{{{{{zzzz{{{{zzzzzz??aa{{{{{{{{zz",
"zzzzzz{{{{{{{{zz//**zzzzzzzz{{nnaa{{zzzz{{{{{{{{zzzzzzzzzzzzzzaaaazzzzzzzzzzzzzzaaaa{{{{7777FFzzzzzzzzzz{{{{{{zzzzzz,,LLzzzzzzzz::TTzzaazzzz{{{{OO==zzzzzzzzzzzz{{{{zzFFAAAAzzzzzzzzzzzzzz??PP66==zz{{{{zzzzzzzzzzzzzz{{{{zzzzzzzzzzzzzz{{{{{{zzzzzzzz{{zz{{nnaa",
"zzzzzz{{{{{{{{zz//**zzzzzzzz{{nnaa{{zzzz{{{{{{{{zzzzzzzzzzzzzzaaaazzzzzzzzzzzzzzaaaa{{{{7777FFzzzzzzzzzz{{{{{{zzzzzz,,LLzzzzzzzz::TTzzaazzzz{{{{OO==zzzzzzzzzzzz{{{{zzFFAAAAzzzzzzzzzzzzzz??PP66==zz{{{{zzzzzzzzzzzzzz{{{{zzzzzzzzzzzzzz{{{{{{zzzzzzzz{{zz{{nnaa",
"zzzzzz{{{{{{{{{{HH**aazzzzzzzznnaa{{IIWWnn{{{{{{zzzzzzzzzzzzzzzzzzzzzzzzzzzzzzzzzzzzzz{{zzaaFFFF::zzzzzz{{{{{{zzzzzzzzaaaazzzzzzzz::zzzzzzzz{{PPOOzzzzzzzzzzzzzzzzzzzzzzAAFFaazzzz{{{{{{zz??66zzzzzzzz{{{{{{nnaa,,??77{{{{zzzzzzzzzzzzaaaa{{{{{{zzzzzz{{zzzz{{zz",
"zzzzzz{{{{{{{{{{HH**aazzzzzzzznnaa{{IIWWnn{{{{{{zzzzzzzzzzzzzzzzzzzzzzzzzzzzzzzzzzzzzz{{zzaaFFFF::zzzzzz{{{{{{zzzzzzzzaaaazzzzzzzz::zzzzzzzz{{PPOOzzzzzzzzzzzzzzzzzzzzzzAAFFaazzzz{{{{{{zz??66zzzzzzzz{{{{{{nnaa,,??77{{{{zzzzzzzzzzzzaaaa{{{{{{zzzzzz{{zzzz{{zz",
"zzzzzzaannzzzzzzzz::nnnn{{zzzzzzzz{{aa,,aann::{{zzzzzzzzzzzzzzzzzzzz{{{{{{MMaaaazzzzzzzzzzzzHH::LLnn{{{{{{]]BBTT{{{{{{zzaazzzzzz{{{{{{{{{{zznnzznn{{{{{{{{{{zzzzzzzzzzzzAAzzaann{{{{{{{{aazznnzzzzzzzzzzzznnnn88GG))zzzzzzzzzzzzzzzzzzaaFFzz{{{{{{zzzzzzzzzzzzzz",
"zzzzzzaannzzzzzzzz::nnnn{{zzzzzzzz{{aa,,aann::{{zzzzzzzzzzzzzzzzzzzz{{{{{{MMaaaazzzzzzzzzzzzHH::LLnn{{{{{{]]BBTT{{{{{{zzaazzzzzz{{{{{{{{{{zznnzznn{{{{{{{{{{zzzzzzzzzzzzAAzzaann{{{{{{{{aazznnzzzzzzzzzzzznnnn88GG))zzzzzzzzzzzzzzzzzzaaFFzz{{{{{{zzzzzzzzzzzzzz",
"zzzzzzaaaaaazzzzzznnnn{{{{{{zzzzzzzzzzzz**??PP::zzzzzzzzzzzzzzzzzzzzzzzzGGFF44{{zzzzzzzzzzzznnbbffnnnn{{zzzzzzBBnn{{{{{{{{zzzzzzzz{{{{{{zzzz{{{{nn{{{{{{{{{{zzzzzzzzzzzzzzzz{{nn{{{{{{{{aaaann{{{{aazzzzzz??77;;zz{{zzzzzzzzzzzzzzzzzzaaFFzz{{{{{{zzzzzzzzzz{{{{",
"zzzzzzaaaaaazzzzzznnnn{{{{{{zzzzzzzzzzzz**??PP::zzzzzzzzzzzzzzzzzzzzzzzzGGFF44{{zzzzzzzzzzzznnbbffnnnn{{zzzzzzBBnn{{{{{{{{zzzzzzzz{{{{{{zzzz{{{{nn{{{{{{{{{{zzzzzzzzzzzzzzzz{{nn{{{{{{{{aaaann{{{{aazzzzzz??77;;zz{{zzzzzzzzzzzzzzzzzzaaFFzz{{{{{{zzzzzzzzzz{{{{",
"{{{{zzzzzzaazzzzzz{{{{{{{{{{{{zzzzzzzzzzzzaa??aazzzzWWnnOO**zzzzzzzzzz9977]]{{{{{{zzzzzzzzzz{{nnnnzzzzzzzz{{zzaaBBPP{{{{{{{{{{zzzzzzzzzzzz{{{{{{zzzz..??TTnnJJzzzzzzzzzzzz{{{{{{{{zzzzzzzzzzzz{{nnaazzzzaaaaaaJJ{{{{{{zz??..aazzzzzzzzzzzzzz{{{{zzzzzzzzzzzzzz{{",
"{{{{zzzzzzaazzzzzz{{{{{{{{{{{{zzzzzzzzzzzzaa??aazzzzWWnnOO**zzzzzzzzzz9977]]{{{{{{zzzzzzzzzz{{nnnnzzzzzzzz{{zzaaBBPP{{{{{{{{{{zzzzzzzzzzzz{{{{{{zzzz..??TTnnJJzzzzzzzzzzzz{{{{{{{{zzzzzzzzzzzz{{nnaazzzzaaaaaaJJ{{{{{{zz??..aazzzzzzzzzzzzzz{{{{zzzzzzzzzzzzzz{{",
"{{{{{{{{zzzzzzzzzzzzzz{{{{{{{{zzzzzzzzzzzzaaaazzzzaaaannmmOO88zzzzzzzzaa::zz{{zz{{zzzzzzzzzzzz{{zzzzzzzzzz{{{{aaaaaazzzz{{TTaaaazzzzzzzzzz{{{{zzzzzz))**,,22))::zzzzzzzzzz{{{{{{{{zzzzzzzzzzzzzznnnnzzzzaaaaaaPP{{zzzzzzzzAA??aaaazzzzzzzzzzzzaaHHSSaaaaaazzzzzz",
"{{{{{{{{zzzzzzzzzzzzzz{{{{{{{{zzzzzzzzzzzzaaaazzzzaaaannmmOO88zzzzzzzzaa::zz{{zz{{zzzzzzzzzzzz{{zzzzzzzzzz{{{{aaaaaazzzz{{TTaaaazzzzzzzzzz{{{{zzzzzz))**,,22))::zzzzzzzzzz{{{{{{{{zzzzzzzzzzzzzznnnnzzzzaaaaaaPP{{zzzzzzzzAA??aaaazzzzzzzzzzzzaaHHSSaaaaaazzzzzz",
"{{{{{{{{zzzzzz{{{{zzzzzz{{{{{{{{aaaaaaaazzzzzzzzzzaaaazz{{{{CCzzzzzzzzaazzzz{{{{{{nn??aazzzzzzzzzzzzzz{{{{{{zzzzzzzzzzzzBBBBCCAAAAzzzzzzzz{{{{zzzzzzzzaaaazzEEHHIIaazzzzzzzz{{zz==zzzzzzzzzzzzzz{{{{zzzzzzzzzzzzzzzzzzzzzzzz66aaaazzzzzzzzzzzzFFHHzzzzaaaaaazzzz",
"{{{{{{{{zzzzzz{{{{zzzzzz{{{{{{{{aaaaaaaazzzzzzzzzzaaaazz{{{{CCzzzzzzzzaazzzz{{{{{{nn??aazzzzzzzzzzzzzz{{{{{{zzzzzzzzzzzzBBBBCCAAAAzzzzzzzz{{{{zzzzzzzzaaaazzEEHHIIaazzzzzzzz{{zz==zzzzzzzzzzzzzz{{{{zzzzzzzzzzzzzzzzzzzzzzzz66aaaazzzzzzzzzzzzFFHHzzzzaaaaaazzzz",
"aa{{{{aaCCEEQQ;;zzzzzzzzzz{{zzaaaaaaaaaaaazzzzzzzzzzaazz{{{{{{{{zzzzzzzzzzzzzzaaaaaa??aazzzzzzzzzzzzzzzz{{{{zzzzzzzzzzzzzzzzzzCC??//??zzzz{{zzzzzzzzzzzzaaaazzaaaaaazzzzzzaa::::==zzzzzzzzzzzzzzzzzzzzzzzzzzzzzzzzzzzzzzzzzzzzJJnnnn{{{{zzzzzzzzzzzzzzzzzzaazz::",
"aa{{{{aaCCEEQQ;;zzzzzzzzzz{{zzaaaaaaaaaaaazzzzzzzzzzaazz{{{{{{{{zzzzzzzzzzzzzzaaaaaa??aazzzzzzzzzzzzzzzz{{{{zzzzzzzzzzzzzzzzzzCC??//??zzzz{{zzzzzzzzzzzzaaaazzaaaaaazzzzzzaa::::==zzzzzzzzzzzzzzzzzzzzzzzzzzzzzzzzzzzzzzzzzzzzJJnnnn{{{{zzzzzzzzzzzzzzzzzzaazz::",
"aazzzzzzPPFF<<OOAAzzzzzzzzzzzzzzzzzzzzzzaazzzzzzzzzzzzzz{{JJJJOOzzzzzzzzzzzzzzzzaazzzzzzzzzzzz::##zzzzzz{{{{zzzzzzzzzzzzzzzzzzzzaa//%%zzzz{{zzzzzzzzzzzzzzaazzzzzzzzzzzzaa::::==zzzzzzzzzzzzzzzzzzzzzzzzzzzzzzzzzzzzaaLLzzzz{{nn{{{{zzzzzzzzzzzzzzzzzz{{{{zz33zz",
"aazzzzzzPPFF<<OOAAzzzzzzzzzzzzzzzzzzzzzzaazzzzzzzzzzzzzz{{JJJJOOzzzzzzzzzzzzzzzzaazzzzzzzzzzzz::##zzzzzz{{{{zzzzzzzzzzzzzzzzzzzzaa//%%zzzz{{zzzzzzzzzzzzzzaazzzzzzzzzzzzaa::::==zzzzzzzzzzzzzzzzzzzzzzzzzzzzzzzzzzzzaaLLzzzz{{nn{{{{zzzzzzzzzzzzzzzzzz{{{{zz33zz",
"aaaazzzz{{{{OOAAAACCzzzzzzzzzzzz{{{{zzzz{{{{OOLLzzzzzzzzzzJJ//zzzzzzzz{{{{{{{{zzaazzzzzzzzzzzz{{2244??zzzz{{{{{{{{zzzzzzzzzz{{{{{{{{<<zzzzzzzzzzzzzzzzzzzzzzzzzzzzzzzzaa::,,,,??zzzzzzzzaa<<nnnnaaaazzzzzz{{{{{{nnaaAAzzzz{{{{zzzzzzzzzzzzzzzzzzzzzzzz{{{{22??zz",
"aaaazzzz{{{{OOAAAACCzzzzzzzzzzzz{{{{zzzz{{{{OOLLzzzzzzzzzzJJ//zzzzzzzz{{{{{{{{zzaazzzzzzzzzzzz{{2244??zzzz{{{{{{{{zzzzzzzzzz{{{{{{{{<<zzzzzzzzzzzzzzzzzzzzzzzzzzzzzzzzaa::,,,,??zzzzzzzzaa<<nnnnaaaazzzzzz{{{{{{nnaaAAzzzz{{{{zzzzzzzzzzzzzzzzzzzzzzzz{{{{22??zz",
"aazzaazz{{{{{{aaaaaazzaaaaWWbbXX{{{{zzzzzz{{]]]]zzzzzzzzHH//,,zzzzzzzzzz{{{{{{{{{{{{zzzzzzzzzz{{??nnnnnnzzzzLLMMRR@@33zz{{{{{{{{{{zzzzzzzzaaaazzzzzzzzzzzzzzzzzzzzzzzzMMffEEaazzzzzzzzzzzzzz@@nnnnaaaazzzzzz{{{{nnQQ{{zzzz{{{{zzzzzzzzaaaaaa{{zzzzzzzz{{{{22nn{{",
"aazzaazz{{{{{{aaaaaazzaaaaWWbbXX{{{{zzzzzz{{]]]]zzzzzzzzHH//,,zzzzzzzzzz{{{{{{{{{{{{zzzzzzzzzz{{??nnnnnnzzzzLLMMRR@@33zz{{{{{{{{{{zzzzzzzzaaaazzzzzzzzzzzzzzzzzzzzzzzzMMffEEaazzzzzzzzzzzzzz@@nnnnaaaazzzzzz{{{{nnQQ{{zzzz{{{{zzzzzzzzaaaaaa{{zzzzzzzz{{{{22nn{{",
"zzzzaazz{{zz{{zzaazzzzaaaaTTRRPP==zzzzzzzzzzpptt{{zzzzzzLL****zzzzzzzzzzzz{{{{{{{{{{{{zzzzzzzzzzTTnnnnnn{{aaaa??::{{{{zz{{{{{{{{zzzzzzzzzzaa{{{{{{zz{{{{nnFF77aazzzzzzaann{{zzzzzzzzzzzzzzzzzzOOTT{{aazzzzzzzzzznnOO{{{{zzzzzzzzzzzzzz??aaaa{{zzzzzzzzzznnOOnnzz",
"zzzzaazz{{zz{{zzaazzzzaaaaTTRRPP==zzzzzzzzzzpptt{{zzzzzzLL****zzzzzzzzzzzz{{{{{{{{{{{{zzzzzzzzzzTTnnnnnn{{aaaa??::{{{{zz{{{{{{{{zzzzzzzzzzaa{{{{{{zz{{{{nnFF77aazzzzzzaann{{zzzzzzzzzzzzzzzzzzOOTT{{aazzzzzzzzzznnOO{{{{zzzzzzzzzzzzzz??aaaa{{zzzzzzzzzznnOOnnzz",
"zzzzzzzzzzzzzzzzzzzzzzzzzz{{BBbbWWzzzzzzzzzzwwmm{{zzzzzzaa??AA{{{{zzzzzz7777{{{{zzzzzzzzzzzzzzzzzz{{{{{{{{aaaaaa{{{{{{zz{{{{{{{{zzzzzzzznnnnnnnnnnzzzzzznnGGJJ7777aaaazz{{{{aaaaaazzzzzz{{zzzzzznn{{{{zzzzzzzzzzzz{{zz{{zzzzzzzzzzzzzzzzzz??JJzzzzzzzzaaaannzzzz",
"zzzzzzzzzzzzzzzzzzzzzzzzzz{{BBbbWWzzzzzzzzzzwwmm{{zzzzzzaa??AA{{{{zzzzzz7777{{{{zzzzzzzzzzzzzzzzzz{{{{{{{{aaaaaa{{{{{{zz{{{{{{{{zzzzzzzznnnnnnnnnnzzzzzznnGGJJ7777aaaazz{{{{aaaaaazzzzzz{{zzzzzznn{{{{zzzzzzzzzzzz{{zz{{zzzzzzzzzzzzzzzzzz??JJzzzzzzzzaaaannzzzz",
"zzzzzzzzzz{{nnaazzzzaazzzz{{zz{{zzzzzzzzzzzzyy__zz{{zzzzaa??nn{{{{{{zzzzzz77GGJJzzzz{{{{{{{{{{zzzzzz{{zz{{aaaazz{{{{{{zzzz{{zz{{zzzzzzzz{{{{{{{{::??zzzz{{{{{{zz77::aazznnJJJJ==??aaaa{{{{zzzzzz{{{{zzzz{{zzzzzzzzzzzzzzzzzzzzzzzzzzzzzzzznnnnaazzzzzzaaaannzzzz",
"zzzzzzzzzz{{nnaazzzzaazzzz{{zz{{zzzzzzzzzzzzyy__zz{{zzzzaa??nn{{{{{{zzzzzz77GGJJzzzz{{{{{{{{{{zzzzzz{{zz{{aaaazz{{{{{{zzzz{{zz{{zzzzzzzz{{{{{{{{::??zzzz{{{{{{zz77::aazznnJJJJ==??aaaa{{{{zzzzzz{{{{zzzz{{zzzzzzzzzzzzzzzzzzzzzzzzzzzzzzzznnnnaazzzzzzaaaannzzzz",
"zzzzzzzzzznnnnnnaazzaaaaaazzzzzzzzzzzzzzzzzzvvzzzzzzzzzzzznnnn{{zzzzzzzzzzzz::AAEEzzzz{{{{{{{{{{nnaa{{zzzzzzzzzz{{zzzzzzzzzzzzzzzzzzzz{{{{nnnnaaaa::zzzzzz{{{{{{zzzzaazz{{nn{{zz????OOnn{{zzzzzzzzzzEEaaGG??zzzzzzzzzzzzzzzz{{{{{{zzzzzz{{{{zzzzzzzzzzzzzzzzzzzz",
"zzzzzzzzzznnnnnnaazzaaaaaazzzzzzzzzzzzzzzzzzvvzzzzzzzzzzzznnnn{{zzzzzzzzzzzz::AAEEzzzz{{{{{{{{{{nnaa{{zzzzzzzzzz{{zzzzzzzzzzzzzzzzzzzz{{{{nnnnaaaa::zzzzzz{{{{{{zzzzaazz{{nn{{zz????OOnn{{zzzzzzzzzzEEaaGG??zzzzzzzzzzzzzzzz{{{{{{zzzzzz{{{{zzzzzzzzzzzzzzzzzzzz",
"zzzzzzzz{{nnzzzzzzzzzzaaaazzzzzzAAaaAAzzzzzzzzzzzzzzzzzzzz{{{{{{zzzzzzzzzzzzzzEEaaaazzzzzz{{{{{{{{nnEE::zzzzzzzzzzzzzzzzzzaaaaSSaa33PP{{zz{{nnzzaa::==zz{{{{zzzzzzzzzznnnn{{{{zzzzzz{{{{{{zzzzzzzzEE????::JJnn{{zzzzzzzzzzaa{{{{{{{{zzzzzzzzzzzzzzzzzzzzzzzzzzzz",
"zzzzzzzz{{nnzzzzzzzzzzaaaazzzzzzAAaaAAzzzzzzzzzzzzzzzzzzzz{{{{{{zzzzzzzzzzzzzzEEaaaazzzzzz{{{{{{{{nnEE::zzzzzzzzzzzzzzzzzzaaaaSSaa33PP{{zz{{nnzzaa::==zz{{{{zzzzzzzzzznnnn{{{{zzzzzz{{{{{{zzzzzzzzEE????::JJnn{{zzzzzzzzzzaa{{{{{{{{zzzzzzzzzzzzzzzzzzzzzzzzzzzz",
"aaaaaa{{nnnnzzzzzzzzzzaaaaaazzzz::::??aazzzzzzzzzzzzzzzzzz{{{{{{{{zzzzzzzz{{{{aaaaaazzzzzz{{{{{{{{{{zz::zzzzzzzzzzzzzz{{nnnnnn////EEzzzzzz{{{{zzzzzz::zzzzzzzzzzzzaa==KKnn{{zzzzzzzzzz{{{{{{zzzzzzzzzzzz::::nnnnnnzzzzzzzzzz??<<{{{{zzzzzzzzzzzzzz::113366zzzzzz",
"aaaaaa{{nnnnzzzzzzzzzzaaaaaazzzz::::??aazzzzzzzzzzzzzzzzzz{{{{{{{{zzzzzzzz{{{{aaaaaazzzzzz{{{{{{{{{{zz::zzzzzzzzzzzzzz{{nnnnnn////EEzzzzzz{{{{zzzzzz::zzzzzzzzzzzzaa==KKnn{{zzzzzzzzzz{{{{{{zzzzzzzzzzzz::::nnnnnnzzzzzzzzzz??<<{{{{zzzzzzzzzzzzzz::113366zzzzzz",
"nnnnnn{{{{nnzzzzzzzzzznnnnnn{{{{zz::**aaaazzzzzzzzzzzzzzzz{{{{{{FFLLzzzz{{{{{{zzzzzzzzzzzz::GGGGzzzzzzRR::aazzzzzzzz{{{{nnaaaazzzzzzzzzzzzzz{{{{zzzzzzzzzzzzzzzzzzzzJJJJ::zzzzzzzzzzzzzz{{77CC{{zzzz{{{{zz::??nnnn{{{{zzzzzz77,,{{zz{{zzzzzzzz{{zzzzzzPPBBaaEEaa",
"nnnnnn{{{{nnzzzzzzzzzznnnnnn{{{{zz::**aaaazzzzzzzzzzzzzzzz{{{{{{FFLLzzzz{{{{{{zzzzzzzzzzzz::GGGGzzzzzzRR::aazzzzzzzz{{{{nnaaaazzzzzzzzzzzzzz{{{{zzzzzzzzzzzzzzzzzzzzJJJJ::zzzzzzzzzzzzzz{{77CC{{zzzz{{{{zz::??nnnn{{{{zzzzzz77,,{{zz{{zzzzzzzz{{zzzzzzPPBBaaEEaa",
"{{{{zzzz{{zzzzzzzzzz{{XX{{{{{{zzzz??aaaazz{{{{{{zzzzzzzzzzzz{{zzzz77::GG{{{{{{zzzzzzzz{{GG::::::66AAzznnJJnn{{zzzz{{{{{{zzzzzzzzzzzzzzzzzzzzzzzzzzzzzzzzzzzzzzzzzzzzzzaaaazzzzzzzzzzzzzz**??==zzzzzz{{{{{{zzaazzzzzzzzzzzzzzEEBB::zzzzzzzzzzzz{{{{{{zzzz::aaaaaa",
"{{{{zzzz{{zzzzzzzzzz{{XX{{{{{{zzzz??aaaazz{{{{{{zzzzzzzzzzzz{{zzzz77::GG{{{{{{zzzzzzzz{{GG::::::66AAzznnJJnn{{zzzz{{{{{{zzzzzzzzzzzzzzzzzzzzzzzzzzzzzzzzzzzzzzzzzzzzzzaaaazzzzzzzzzzzzzz**??==zzzzzz{{{{{{zzaazzzzzzzzzzzzzzEEBB::zzzzzzzzzzzz{{{{{{zzzz::aaaaaa",
"{{zzzzzzzzzzzzzzzzzz{{nn{{{{zzzzzzzzzzzz{{{{nn::::zzzzzzzzzzzzzzzzzzGGnnffnnzzzz{{{{{{nnnn==))zzzzzzzzaann{{{{{{zzzzzzzzzzzzzzzzzzzzzzaa::==??PPzzzzaa,,CCGG{{zzzzzzzzaaaazzzzzz{{zzaa]]**aazzzzzzzzzz{{{{{{zzzzzzzzzzzzzzzzzzEEaaaazzzz::::::EE{{{{{{zzzzaazzaa",
"{{zzzzzzzzzzzzzzzzzz{{nn{{{{zzzzzzzzzzzz{{{{nn::::zzzzzzzzzzzzzzzzzzGGnnffnnzzzz{{{{{{nnnn==))zzzzzzzzaann{{{{{{zzzzzzzzzzzzzzzzzzzzzzaa::==??PPzzzzaa,,CCGG{{zzzzzzzzaaaazzzzzz{{zzaa]]**aazzzzzzzzzz{{{{{{zzzzzzzzzzzzzzzzzzEEaaaazzzz::::::EE{{{{{{zzzzaazzaa",
"zzzzzzzz{{{{nnnn{{zzzz{{{{zzzzzzzzzzzz{{{{nn::))**{{{{{{zzzzzzzzzzzz{{OOnnnnaazzzzzznnnnnnnnzzzzzzzzzzaaaa{{{{{{{{zzzzzzzzzzzz{{{{zzaannJJ11??zzzzzzzz__88..##aaaazz{{{{aaaazzzz{{{{aa::??zzzzzzzzzzzz{{{{{{{{zzzzzz{{{{zzzzzzzzzzzzzz??AA::zzzzzz{{{{{{zzzzaaaa",
"zzzzzzzz{{{{nnnn{{zzzz{{{{zzzzzzzzzzzz{{{{nn::))**{{{{{{zzzzzzzzzzzz{{OOnnnnaazzzzzznnnnnnnnzzzzzzzzzzaaaa{{{{{{{{zzzzzzzzzzzz{{{{zzaannJJ11??zzzzzzzz__88..##aaaazz{{{{aaaazzzz{{{{aa::??zzzzzzzzzzzz{{{{{{{{zzzzzz{{{{zzzzzzzzzzzzzz??AA::zzzzzz{{{{{{zzzzaaaa",
"zzzzzz{{{{nnnnnnzzzzzz{{zzzzzzzzzzzzzz{{nn55((zzzzzzzz{{{{{{zzzzzz{{{{{{UU{{aazzzzzzzznnnnzzzzzzzzzzzzzzzz{{{{{{{{zzzzzz{{{{{{{{{{zzaaaa{{UUzzzzzzzz{{{{{{aa##33aaaazz{{{{aazzzz{{nnaaaaaazzzzzz{{zzzz{{{{{{{{zzzzzzzz{{{{zzzz{{{{{{aa//HHzzzzzzzz{{{{{{aazzaazz",
"zzzzzz{{{{nnnnnnzzzzzz{{zzzzzzzzzzzzzz{{nn55((zzzzzzzz{{{{{{zzzzzz{{{{{{UU{{aazzzzzzzznnnnzzzzzzzzzzzzzzzz{{{{{{{{zzzzzz{{{{{{{{{{zzaaaa{{UUzzzzzzzz{{{{{{aa##33aaaazz{{{{aazzzz{{nnaaaaaazzzzzz{{zzzz{{{{{{{{zzzzzzzz{{{{zzzz{{{{{{aa//HHzzzzzzzz{{{{{{aazzaazz",
"zzzzzzzzzzaaaa{{{{zzzzzzzzzzzzzzzzzzzznnaa..66zzzzzz??MMJJOOCCllzz{{zz{{nnzz{{zzzzzzzzzzzzzzzzzzzzzzzzzzzz{{{{zzzzzzzz{{{{{{{{{{zzzzaazz{{{{zzzzzz{{{{{{{{zzaaaaBBaazz{{{{zzzzzz{{nnzzaaaa{{{{{{{{nnaa__nnzzzzzzzzAAPPTTnn??aa{{{{zzzzzzzzzzzzzzzzzz::aann;;aaaa",
"zzzzzzzzzzaaaa{{{{zzzzzzzzzzzzzzzzzzzznnaa..66zzzzzz??MMJJOOCCllzz{{zz{{nnzz{{zzzzzzzzzzzzzzzzzzzzzzzzzzzz{{{{zzzzzzzz{{{{{{{{{{zzzzaazz{{{{zzzzzz{{{{{{{{zzaaaaBBaazz{{{{zzzzzz{{nnzzaaaa{{{{{{{{nnaa__nnzzzzzzzzAAPPTTnn??aa{{{{zzzzzzzzzzzzzzzzzz::aann;;aaaa",
"aaaazzzzzzaaaazzzzzzzz{{MM{{{{zzzzzzaaaazzaazzzzzzzzzzzzKKUURRoommzzzzzzzzzzzzzzzzzzzzzzzzzzzzzzzzzzzzzzzzzzzz``EECCRR{{{{{{{{zzzzzzzzzz{{{{zzzzzzzzzz{{{{zzzzzzzzzzzz{{zzzzzz{{{{{{zzzz{{{{{{nnnn????zzzzzzzzzzzzzznnnnnnaann{{zz??aa{{{{zzzzzzzzzz::aaBB{{{{zz",
"aaaazzzzzzaaaazzzzzzzz{{MM{{{{zzzzzzaaaazzaazzzzzzzzzzzzKKUURRoommzzzzzzzzzzzzzzzzzzzzzzzzzzzzzzzzzzzzzzzzzzzz``EECCRR{{{{{{{{zzzzzzzzzz{{{{zzzzzzzzzz{{{{zzzzzzzzzzzz{{zzzzzz{{{{{{zzzz{{{{{{nnnn????zzzzzzzzzzzzzznnnnnnaann{{zz??aa{{{{zzzzzzzzzz::aaBB{{{{zz",
"aaaaaazzzzzzaazzzzzzzz##??{{{{{{zzzzaazzzzzzzzzzzzzzzzzz{{??ccvvppmmzzzzzzzzaa??::zzzzzzzzzzzzzzzzzzzzzzzzzzzzzzzzCC??PP{{{{zzzzzzzzzzzzzzzzzzzzzzzzzzzzzzzzzzzzzzzzzzzzzzzzzz{{{{{{zzzzzzzzJJJJ????zzzzzzzzzzzzzzzzzz{{{{zz{{{{zz????zz{{{{{{{{zzaa::??zz{{{{{{",
"aaaaaazzzzzzaazzzzzzzz##??{{{{{{zzzzaazzzzzzzzzzzzzzzzzz{{??ccvvppmmzzzzzzzzaa??::zzzzzzzzzzzzzzzzzzzzzzzzzzzzzzzzCC??PP{{{{zzzzzzzzzzzzzzzzzzzzzzzzzzzzzzzzzzzzzzzzzzzzzzzzzz{{{{{{zzzzzzzzJJJJ????zzzzzzzzzzzzzzzzzz{{{{zz{{{{zz????zz{{{{{{{{zzaa::??zz{{{{{{",
"aazzaazzzzzzzzzz{{{{44::aa{{{{{{zzzzzzzzzzzzzzzzzzzzzzzz{{zzmmzzppppzzzzee]]??77zzzzzz{{{{{{{{{{{{zzzzzzzzzzzzzzzzzzEERRTT{{zzzzzzzzzzaaTTzzzzzzzzzzzzzzzzzzzzzzzz{{{{{{{{zzzzzzzz{{zzzzzzzznnaaaa??zzzzzz{{{{{{{{{{{{{{zzzzzz{{zz????zzzz{{{{{{{{nn::zzzz{{{{zz",
"aazzaazzzzzzzzzz{{{{44::aa{{{{{{zzzzzzzzzzzzzzzzzzzzzzzz{{zzmmzzppppzzzzee]]??77zzzzzz{{{{{{{{{{{{zzzzzzzzzzzzzzzzzzEERRTT{{zzzzzzzzzzaaTTzzzzzzzzzzzzzzzzzzzzzzzz{{{{{{{{zzzzzzzz{{zzzzzzzznnaaaa??zzzzzz{{{{{{{{{{{{{{zzzzzz{{zz????zzzz{{{{{{{{nn::zzzz{{{{zz",
"zzzzzzzzzzzzzz{{{{JJ44::zzzz{{{{zzzzzzzzzzzz{{{{OO??::::??zzzzzzzzzzzzrruuvvRR{{zzzzaaGG{{{{{{nn00{{zzzzzzzzzzzzzzzzaaaaaannzzzzzzzz::CCzzzz{{{{aaBBNN==11EE{{{{zzzz{{{{{{{{{{..66??aazzzzzzzzaaEEzzzzzzAA44{{{{{{{{{{{{{{{{zzzzzzaa??zzzz{{nn{{zz{{nnzzzzzzzzzz",
"zzzzzzzzzzzzzz{{{{JJ44::zzzz{{{{zzzzzzzzzzzz{{{{OO??::::??zzzzzzzzzzzzrruuvvRR{{zzzzaaGG{{{{{{nn00{{zzzzzzzzzzzzzzzzaaaaaannzzzzzzzz::CCzzzz{{{{aaBBNN==11EE{{{{zzzz{{{{{{{{{{..66??aazzzzzzzzaaEEzzzzzzAA44{{{{{{{{{{{{{{{{zzzzzzaa??zzzz{{nn{{zz{{nnzzzzzzzzzz",
"zz{{{{{{{{zzzz{{{{JJ77BBzzzzzzzzzzzzzzzzzz{{nnnnJJJJzzzzzzzzzzzzzzzzzzssssxxQQ{{{{zzaa77aazzzz{{JJ..{{zzzzzzzzzzzzzzzzzzaaaazz{{{{::BBEE{{{{{{aa??,,==66zzzz{{{{{{{{zzzz{{{{zzzz,,??nnnn{{{{{{zzzzzzzz????::zzzzzz{{{{{{{{{{aazzzzaaaazzzz{{nnnnzzzzzzzzzzzzzzzz",
"zz{{{{{{{{zzzz{{{{JJ77BBzzzzzzzzzzzzzzzzzz{{nnnnJJJJzzzzzzzzzzzzzzzzzzssssxxQQ{{{{zzaa77aazzzz{{JJ..{{zzzzzzzzzzzzzzzzzzaaaazz{{{{::BBEE{{{{{{aa??,,==66zzzz{{{{{{{{zzzz{{{{zzzz,,??nnnn{{{{{{zzzzzzzz????::zzzzzz{{{{{{{{{{aazzzzaaaazzzz{{nnnnzzzzzzzzzzzzzzzz",
"{{{{{{zz????zz{{{{JJaazzzzzzzzzzzzzzzzzzzzzzaaAAGGnn{{zzzz::aa??zzzzzzqqssss{{{{{{{{aa77aazzzz{{{{..JJ{{zzzzzzzzzzzzzzzzzzzz{{{{{{aaaann{{{{nnaaaa==aa??zzzzzzzz{{nnnnSSCC{{zzzzzz??nnnn]]{{{{{{zzzz??aa**zzzzzzzzzzzz{{nnaaaaaazzaaaazzzz{{{{zz{{zzzzzzzzzzzz{{",
"{{{{{{zz????zz{{{{JJaazzzzzzzzzzzzzzzzzzzzzzaaAAGGnn{{zzzz::aa??zzzzzzqqssss{{{{{{{{aa77aazzzz{{{{..JJ{{zzzzzzzzzzzzzzzzzzzz{{{{{{aaaann{{{{nnaaaa==aa??zzzzzzzz{{nnnnSSCC{{zzzzzz??nnnn]]{{{{{{zzzz??aa**zzzzzzzzzzzz{{nnaaaaaazzaaaazzzz{{{{zz{{zzzzzzzzzzzz{{",
"{{{{zzzz::::aa{{{{nnaaaazzzz::::zzzzzzzzzzaaaaaann{{{{zzzz::::aaOOzzzzzzsszzzz{{{{{{{{99aazzzz{{{{kkJJzzzzzzzzzzzzzzzzzzzz{{{{{{zzzzzzzz{{{{aaaaaazzaazzzzzzzzzzaannnnBBzzzzzz{{{{zz??BBaazz{{{{zzzzaaaa**zzzzzzzzzzzzzzaaaazzzzzzzzzzzzzzzzzzzzzzzzzzzzzz{{{{{{",
"{{{{zzzz::::aa{{{{nnaaaazzzz::::zzzzzzzzzzaaaaaann{{{{zzzz::::aaOOzzzzzzsszzzz{{{{{{{{99aazzzz{{{{kkJJzzzzzzzzzzzzzzzzzzzz{{{{{{zzzzzzzz{{{{aaaaaazzaazzzzzzzzzzaannnnBBzzzzzz{{{{zz??BBaazz{{{{zzzzaaaa**zzzzzzzzzzzzzzaaaazzzzzzzzzzzzzzzzzzzzzzzzzzzzzz{{{{{{",
"{{zzzzzzzz::aa{{{{{{zzzzzzzz::::::{{zzzzzzaazzaaaa{{zzzzzzzz{{JJnnBBppzzzzzzzz{{{{zzaaaazzaazzzznnaaaann{{zzzzzzzzzzzzzz{{{{{{{{zzzzzz{{{{{{aaaazzzzaazzzzzzzzzzaaBBAAzzzzzzzz{{{{zzzzzzzzzzzzzzzzzzaaaa::zz{{{{{{zzzzzzaaaazzzzzzzzzzzzzzzzzzzzzzzzzzzzzz{{nnaa",
"{{zzzzzzzz::aa{{{{{{zzzzzzzz::::::{{zzzzzzaazzaaaa{{zzzzzzzz{{JJnnBBppzzzzzzzz{{{{zzaaaazzaazzzznnaaaann{{zzzzzzzzzzzzzz{{{{{{{{zzzzzz{{{{{{aaaazzzzaazzzzzzzzzzaaBBAAzzzzzzzz{{{{zzzzzzzzzzzzzzzzzzaaaa::zz{{{{{{zzzzzzaaaazzzzzzzzzzzzzzzzzzzzzzzzzzzzzz{{nnaa",
"aazzzzzzzzaaaazzzzzzzzzz{{zzzz::::nn{{zzzzaazzzzaazzzzzzzzzz{{eeOO??FFoozzzzzz{{{{zzzzaazzaazzzznnaaaann{{zzzz{{{{zzzzzz{{{{{{{{zzzzzz{{{{{{zzaa{{{{nnnnzzzzzzzzQQaaaazzzzzz{{{{zzzzzzzzzzzzzzzzzzzzaaaann{{{{{{zzzzzzzzzz{{{{{{{{{{zzzzzz::LLEEzzzzzzzzzzzz{{aa",
"aazzzzzzzzaaaazzzzzzzzzz{{zzzz::::nn{{zzzzaazzzzaazzzzzzzzzz{{eeOO??FFoozzzzzz{{{{zzzzaazzaazzzznnaaaann{{zzzz{{{{zzzzzz{{{{{{{{zzzzzz{{{{{{zzaa{{{{nnnnzzzzzzzzQQaaaazzzzzz{{{{zzzzzzzzzzzzzzzzzzzzaaaann{{{{{{zzzzzzzzzz{{{{{{{{{{zzzzzz::LLEEzzzzzzzzzzzz{{aa",
"aaaaaazzzzzzzzzzzzzzzz{{{{zzzzzzaannnnzzzzzzzzzzzzzzzzzzzzzz{{{{nnzzzzzzzzzzaaaannzzzzzzzzaazzzzzzaa{{nn{{zzzz{{{{{{zzzz{{{{nnnn??[[zzzz{{{{zzzz{{{{{{{{{{aaaaaannnnzzzzaannnnzzzzzzzzzzaa::aaaaaazznn{{nnnnaaaaaaCCzz{{{{{{{{{{{{zzzz::))**nn77zzzzaazzzzzzzzzz",
"aaaaaazzzzzzzzzzzzzzzz{{{{zzzzzzaannnnzzzzzzzzzzzzzzzzzzzzzz{{{{nnzzzzzzzzzzaaaannzzzzzzzzaazzzzzzaa{{nn{{zzzz{{{{{{zzzz{{{{nnnn??[[zzzz{{{{zzzz{{{{{{{{{{aaaaaannnnzzzzaannnnzzzzzzzzzzaa::aaaaaazznn{{nnnnaaaaaaCCzz{{{{{{{{{{{{zzzz::))**nn77zzzzaazzzzzzzzzz",
"aaaazzaazzzzzzzzzzzz{{{{{{zzzzzznnnnaa{{zzzzzzzzAALLzzzzzzzzzz{{{{{{zzzzzzaaaaaaaa==zzzzzzzzzzzzzz{{{{{{{{zzzzzz{{{{{{zzzzzzzz{{JJ????aazzzzzzzzzzzznnnnnnnnaaaa{{zzzzzzaaaaBBWWaazzzzzzzzEEaaaazzzznnaannnnaa==EEBBzz{{zzzzzzzz{{{{:::://??JJJJ{{zzaaaaaazzzzzz",
"aaaazzaazzzzzzzzzzzz{{{{{{zzzzzznnnnaa{{zzzzzzzzAALLzzzzzzzzzz{{{{{{zzzzzzaaaaaaaa==zzzzzzzzzzzzzz{{{{{{{{zzzzzz{{{{{{zzzzzzzz{{JJ????aazzzzzzzzzzzznnnnnnnnaaaa{{zzzzzzaaaaBBWWaazzzzzzzzEEaaaazzzznnaannnnaa==EEBBzz{{zzzzzzzz{{{{:::://??JJJJ{{zzaaaaaazzzzzz",
"zzaaaaaaaazzzzzzzzzz{{{{{{zzzzzznnnnzz{{zzzzzzzzzzAA//IIooWWzz{{{{{{zzzz{{nnnnnnnn33::zzzzzzzzzzzz{{{{{{{{zzzzaann{{{{{{{{zzzzzzzzTTaaaaaazzzzzzzzzznnnnnn{{zzzzzzAAzzzzzzaa??HHaaaaaazzzzzzzzzzzzPPaaaazz{{zzzz::====zzzzzzzzzzzzaa??aa::{{zz{{{{zzzzaaaazzzzzz",
"zzaaaaaaaazzzzzzzzzz{{{{{{zzzzzznnnnzz{{zzzzzzzzzzAA//IIooWWzz{{{{{{zzzz{{nnnnnnnn33::zzzzzzzzzzzz{{{{{{{{zzzzaann{{{{{{{{zzzzzzzzTTaaaaaazzzzzzzzzznnnnnn{{zzzzzzAAzzzzzzaa??HHaaaaaazzzzzzzzzzzzPPaaaazz{{zzzz::====zzzzzzzzzzzzaa??aa::{{zz{{{{zzzzaaaazzzzzz",
"zzaaaazzzzzzzzzzzzzz{{{{{{zzzzzz{{{{{{{{zzzzzzzzzzzzzzJJJJWWrrvv{{{{zz{{{{{{{{aaLL88OO{{{{{{{{zzzz{{{{{{{{{{zzaannFF<<{{{{zzzzzzzzzzaazzaazzzzzzzzzz{{nnzz{{zzzzzz77JJzzzzzzzzzzaaaazz{{{{zzzzzzzzaaaazzzzzzzzzzzz::zzzzzzzzzzzzzzaaaaaaaa{{{{{{{{zzzzzzaaaazzzz",
"zzaaaazzzzzzzzzzzzzz{{{{{{zzzzzz{{{{{{{{zzzzzzzzzzzzzzJJJJWWrrvv{{{{zz{{{{{{{{aaLL88OO{{{{{{{{zzzz{{{{{{{{{{zzaannFF<<{{{{zzzzzzzzzzaazzaazzzzzzzzzz{{nnzz{{zzzzzz77JJzzzzzzzzzzaaaazz{{{{zzzzzzzzaaaazzzzzzzzzzzz::zzzzzzzzzzzzzzaaaaaaaa{{{{{{{{zzzzzzaaaazzzz",
"{{zzzzzzzzzzzzzzzzzz{{zzzzzzzzzzzzzzzzzzzzzzzzzzzzzzzzzzssNNqqoo{{zzzzJJRRzzzzzzFFKK88::{{{{zzzzzz{{zz{{{{{{zzzzaaJJ**zz{{{{zzzzzzzzWWaaaaaazzzzzzzzzzzzzzzzzzaa//OO{{{{{{zzzzzzzzzzzzzz{{{{{{zzzzaaaazz{{{{zzzzzzzzzzzzzzzzzzzzzzzzaazzzz{{{{{{zzzzzz{{nnnnzzzz",
"{{zzzzzzzzzzzzzzzzzz{{zzzzzzzzzzzzzzzzzzzzzzzzzzzzzzzzzzssNNqqoo{{zzzzJJRRzzzzzzFFKK88::{{{{zzzzzz{{zz{{{{{{zzzzaaJJ**zz{{{{zzzzzzzzWWaaaaaazzzzzzzzzzzzzzzzzzaa//OO{{{{{{zzzzzzzzzzzzzz{{{{{{zzzzaaaazz{{{{zzzzzzzzzzzzzzzzzzzzzzzzaazzzz{{{{{{zzzzzz{{nnnnzzzz",
"{{zzzzzz{{{{{{{{zz7777::EEaazzzzzzzzzzzzzz{{zzzzzzzz{{{{{{yyuu{{zzzz//TTzzzzzzzz{{nn{{{{zzzzzzzzzzzzzzzzzzzzzzzzaaaa::aazzzzzz{{{{{{{{{{zzzzzzzzzzzzzzzzzzzzzzzz????{{{{{{{{zzzzzzzzzzzzzz{{{{{{zzaazz{{{{zzzzzzzzzzzzzzzzzzzz{{{{{{zzzz{{{{{{zzzz{{{{{{{{zzzzzz",
"{{zzzzzz{{{{{{{{zz7777::EEaazzzzzzzzzzzzzz{{zzzzzzzz{{{{{{yyuu{{zzzz//TTzzzzzzzz{{nn{{{{zzzzzzzzzzzzzzzzzzzzzzzzaaaa::aazzzzzz{{{{{{{{{{zzzzzzzzzzzzzzzzzzzzzzzz????{{{{{{{{zzzzzzzzzzzzzz{{{{{{zzaazz{{{{zzzzzzzzzzzzzzzzzzzz{{{{{{zzzz{{{{{{zzzz{{{{{{{{zzzzzz",
"{{zzzzzzzzzz{{{{GG77::::zzzzzzzzzzzz{{{{{{OOnnzzzz{{{{{{{{{{{{{{{{OOBBEEzzzzzzzz{{zzzzzzzzzzzzzzzzzzzzzz{{{{{{{{aaaaaaaazzzz{{{{{{{{{{{{{{zz{{{{{{zzzzzzzz{{zzzz????zz{{{{zz{{zzzzzzzzzzzzzz{{{{{{aazzzzzzzzzzzzzz{{{{zzzzzzzzzz{{{{zzzz{{{{zzzzzz{{{{{{zzzzzzzz",
"{{zzzzzzzzzz{{{{GG77::::zzzzzzzzzzzz{{{{{{OOnnzzzz{{{{{{{{{{{{{{{{OOBBEEzzzzzzzz{{zzzzzzzzzzzzzzzzzzzzzz{{{{{{{{aaaaaaaazzzz{{{{{{{{{{{{{{zz{{{{{{zzzzzzzz{{zzzz????zz{{{{zz{{zzzzzzzzzzzzzz{{{{{{aazzzzzzzzzzzzzz{{{{zzzzzzzzzz{{{{zzzz{{{{zzzzzz{{{{{{zzzzzzzz",
"nnaaaazzzzzzzznnnnzzzzzzzz{{zzzzzzzz{{{{zz????TTFFzz{{zzzzzzzzzzaaAAee{{zzzzzzzz{{zzzzzzaaHHzzzzaa??77{{{{{{{{{{{{nnzzzzzzzzzzOOOORR??{{zzzzzz{{{{{{{{aa??MMzzzzzzaaaannQQzz{{zzzzzz::**,,77ee{{{{zzzzzzzzzzzzzzzzzz{{{{{{zzzzzz{{{{{{zzzzzzzzzzzznnnnaazzzzzzzz",
"nnaaaazzzzzzzznnnnzzzzzzzz{{zzzzzzzz{{{{zz????TTFFzz{{zzzzzzzzzzaaAAee{{zzzzzzzz{{zzzzzzaaHHzzzzaa??77{{{{{{{{{{{{nnzzzzzzzzzzOOOORR??{{zzzzzz{{{{{{{{aa??MMzzzzzzaaaannQQzz{{zzzzzz::**,,77ee{{{{zzzzzzzzzzzzzzzzzz{{{{{{zzzzzz{{{{{{zzzzzzzzzzzznnnnaazzzzzzzz",
"nnAAaaaaaazzzzaaJJzzzzzz{{{{{{zzJJ{{{{{{zzXX??nnppppzzzzzzzzzzzzaaKKnn{{zzzzzzzzzzzzaaaaBB::zzzzzzBB::ff{{{{{{{{{{{{zzzzzzzzzzzzBBBBBB<<PPaazzzz{{zz{{aaaa??????zzzzzz????EEzz{{nn77==//,,zzzzzzzzzzzzzz{{{{{{zzzzzzzz{{{{{{zzaaYY{{{{zzzzzzzzzzzzzzaaaaaazzzzzz",
"nnAAaaaaaazzzzaaJJzzzzzz{{{{{{zzJJ{{{{{{zzXX??nnppppzzzzzzzzzzzzaaKKnn{{zzzzzzzzzzzzaaaaBB::zzzzzzBB::ff{{{{{{{{{{{{zzzzzzzzzzzzBBBBBB<<PPaazzzz{{zz{{aaaa??????zzzzzz????EEzz{{nn77==//,,zzzzzzzzzzzzzz{{{{{{zzzzzzzz{{{{{{zzaaYY{{{{zzzzzzzzzzzzzzaaaaaazzzzzz",
"zzzzNNaaaaaazzzzzzzzzz{{{{zzzzzzCC{{{{zzzzzz????oozzppzzzzzzzzzzaa{{nn{{zzzzzzzzzzaaaaaazzzzzzzzzzzzGGGGaazzzzzzzzzz{{{{{{{{zzzzzzaaaaaaaaaaaazzzzzzzzzzzzaaaa??AAzzzzzzAAAAaazznnnnnnaazzzzzzzzzzzzAAnnOO{{RRnnPPBBzz{{{{{{zzzzDDOO{{zzzzzzzzzzzzzzzzaannPPzzzz",
"zzzzNNaaaaaazzzzzzzzzz{{{{zzzzzzCC{{{{zzzzzz????oozzppzzzzzzzzzzaa{{nn{{zzzzzzzzzzaaaaaazzzzzzzzzzzzGGGGaazzzzzzzzzz{{{{{{{{zzzzzzaaaaaaaaaaaazzzzzzzzzzzzaaaa??AAzzzzzzAAAAaazznnnnnnaazzzzzzzzzzzzAAnnOO{{RRnnPPBBzz{{{{{{zzzzDDOO{{zzzzzzzzzzzzzzzzaannPPzzzz",
"zz{{{{nnzzaazzzzzzzzzz{{{{zzzzzz??{{{{zzzzzzzzjjzz{{nn{{{{zzzzzzzz{{{{{{{{zzzzzzzznn{{nn{{zzzzzzzzzz77aaaazzzzzzzzzz{{<<nn{{zzzzzzzzaaaazzzzzzzzzzzzzzzzzznnnnnnaazzzzzz==aaaazzaannnnnn{{zzzzzzaa??CCJJ88{{zzzz``AAAAzzzzzzzzzzFFAAzzzzzz{{{{{{mmzzzzzzaaPPPPzz",
"zz{{{{nnzzaazzzzzzzzzz{{{{zzzzzz??{{{{zzzzzzzzjjzz{{nn{{{{zzzzzzzz{{{{{{{{zzzzzzzznn{{nn{{zzzzzzzzzz77aaaazzzzzzzzzz{{<<nn{{zzzzzzzzaaaazzzzzzzzzzzzzzzzzznnnnnnaazzzzzz==aaaazzaannnnnn{{zzzzzzaa??CCJJ88{{zzzz``AAAAzzzzzzzzzzFFAAzzzzzz{{{{{{mmzzzzzzaaPPPPzz",
"{{{{{{zzzzzzzzzzzzzzzz{{zzzzzzaaaa{{{{zzzzzzzzppzz{{{{{{{{{{{{zzzz??88{{{{zzzzzzzzaa{{nn{{{{zzzzzzzzaaaazzaazzzzzzzzFFJJCCnnzzzzzzzzaaaazzzzaaaa??::::zz{{{{nn{{aazzzzzzPPaaaazzzzaa{{nn{{{{zzzz))JJkknn{{zzzzzzaaaaaazzzzzzzzzz..AAaazz{{{{{{88FF{{zzzzaann{{zz",
"{{{{{{zzzzzzzzzzzzzzzz{{zzzzzzaaaa{{{{zzzzzzzzppzz{{{{{{{{{{{{zzzz??88{{{{zzzzzzzzaa{{nn{{{{zzzzzzzzaaaazzaazzzzzzzzFFJJCCnnzzzzzzzzaaaazzzzaaaa??::::zz{{{{nn{{aazzzzzzPPaaaazzzzaa{{nn{{{{zzzz))JJkknn{{zzzzzzaaaaaazzzzzzzzzz..AAaazz{{{{{{88FF{{zzzzaann{{zz",
"{{{{zzzzzzzzzzzznn??::zzzzzzaaaazzzzzzzzzzzzzzzzzzzzzz{{{{{{{{{{zz**EE]]{{zzzzzzzzzzzz{{{{{{{{zzzzzzaazzzzzz{{{{{{aa''ee{{{{zzzzzzzzzzzzzzzzzzIIBBCC::nnnn{{aazzzzzzzzzzaazzzzzzzzzzzz{{zz{{zz::aaHHnn{{zzzzzzzzzznnaaaazzzzzzzz``aaaazzzzzzBB33RR{{{{zzzzzzzzzz",
"{{{{zzzzzzzzzzzznn??::zzzzzzaaaazzzzzzzzzzzzzzzzzzzzzz{{{{{{{{{{zz**EE]]{{zzzzzzzzzzzz{{{{{{{{zzzzzzaazzzzzz{{{{{{aa''ee{{{{zzzzzzzzzzzzzzzzzzIIBBCC::nnnn{{aazzzzzzzzzzaazzzzzzzzzzzz{{zz{{zz::aaHHnn{{zzzzzzzzzznnaaaazzzzzzzz``aaaazzzzzzBB33RR{{{{zzzzzzzzzz",
"JJ==zzzzzz{{{{zznn??aa::zzzzzzzzzzzzzzzzzzzzzzzzzzzzzzzz{{{{zz{{))::zzzz{{{{zzzzzzzzzz{{{{{{{{{{zzzzzzzz{{{{{{{{zz77--FF{{{{zzzz{{{{{{zzzzzzzzzzzzEEnnnnnnnnzzzzzz{{{{{{{{{{{{zzzzzzzz{{zzzzzzaazzaaaazzzzzzzzzzaann{{{{zzzzzzaaaannaa{{zzzz3366aazz{{zzzzzzzzzz",
"JJ==zzzzzz{{{{zznn??aa::zzzzzzzzzzzzzzzzzzzzzzzzzzzzzzzz{{{{zz{{))::zzzz{{{{zzzzzzzzzz{{{{{{{{{{zzzzzzzz{{{{{{{{zz77--FF{{{{zzzz{{{{{{zzzzzzzzzzzzEEnnnnnnnnzzzzzz{{{{{{{{{{{{zzzzzzzz{{zzzzzzaazzaaaazzzzzzzzzzaann{{{{zzzzzzaaaannaa{{zzzz3366aazz{{zzzzzzzzzz",
"::????zzzz{{zz{{{{aa??::{{zzzzzzzzzzzzzzzzzzzzzzzzzzzzzzzz{{zz))::aazzzzzzzzzzzzzzzzzzzz{{{{{{{{zzzzzz{{{{{{{{zzzz77aaJJnn{{zzzzzzGG..{{zzzzzzzzzzUUnnaannaazzzzzzzzzz{{{{{{{{nnaaaaaazzzzzzzzzzzzaaaazzzzzzzzzzzzzz{{{{{{zzzzaaaamm{{{{zzzzzzCCaaaazzzzzzzzzzzz",
"::????zzzz{{zz{{{{aa??::{{zzzzzzzzzzzzzzzzzzzzzzzzzzzzzzzz{{zz))::aazzzzzzzzzzzzzzzzzzzz{{{{{{{{zzzzzz{{{{{{{{zzzz77aaJJnn{{zzzzzzGG..{{zzzzzzzzzzUUnnaannaazzzzzzzzzz{{{{{{{{nnaaaaaazzzzzzzzzzzzaaaazzzzzzzzzzzzzz{{{{{{zzzzaaaamm{{{{zzzzzzCCaaaazzzzzzzzzzzz",
"zz::GGOOTT{{{{zzzzzz??zzJJ{{{{{{zz??zzzzzzzzzzzzzzzzzzzzaaaa::::::aazzzzzzzzzzaa??**..AA{{{{{{{{zzzzzz{{{{{{{{zzzzaannnnaazzzzzz::  55{{{{zzzzzzzz{{IIPPzzzzzz::zzzzzzzz{{{{ffYYDDzzzzzzzz{{{{{{zzzzaaaazzzzzzzzzzzz{{{{{{{{aaaazzzz{{{{{{zzzzzzaaaaaaaazzzzaaaa",
"zz::GGOOTT{{{{zzzzzz??zzJJ{{{{{{zz??zzzzzzzzzzzzzzzzzzzzaaaa::::::aazzzzzzzzzzaa??**..AA{{{{{{{{zzzzzz{{{{{{{{zzzzaannnnaazzzzzz::  55{{{{zzzzzzzz{{IIPPzzzzzz::zzzzzzzz{{{{ffYYDDzzzzzzzz{{{{{{zzzzaaaazzzzzzzzzzzz{{{{{{{{aaaazzzz{{{{{{zzzzzzaaaaaaaazzzzaaaa",
"zzzzzzzzzzzzzzzzzzzzzzzzzz{{{{{{zz..::::zzzz{{{{zzzzzzaaaaaazzzzaa{{{{zzzzzz::::,,//::zzzzzz{{{{zz::))++{{{{zzzzzzzzSSzzzzzzzzaa::##nn{{{{zzzzJJ??zzzzzzzzzzzz::::aaaazzzznnaann{{zzzz{{{{{{{{zzzzzzzzzzzzzzzzzzzzzz{{zzzzzzzzzzzzzzzz{{{{{{zzzzzzzzzzzzzzzzaaaa",
"zzzzzzzzzzzzzzzzzzzzzzzzzz{{{{{{zz..::::zzzz{{{{zzzzzzaaaaaazzzzaa{{{{zzzzzz::::,,//::zzzzzz{{{{zz::))++{{{{zzzzzzzzSSzzzzzzzzaa::##nn{{{{zzzzJJ??zzzzzzzzzzzz::::aaaazzzznnaann{{zzzz{{{{{{{{zzzzzzzzzzzzzzzzzzzzzz{{zzzzzzzzzzzzzzzz{{{{{{zzzzzzzzzzzzzzzzaaaa",
"zzzzzzzzzzzzzzzzzzzzzzzzzz{{{{{{zzzz77::::zzzz{{{{{{aaaaaazzzzzzzzzz{{{{{{{{aa??::aazzzzzzzzzz{{::))//zzzz{{zzzz{{{{zzzzzzzzaa::''GG{{zzaaaaaaaaPPzzzzzzzzzzzz{{GGJJnnnnzzzzzzzzzzzz{{{{{{{{zzzzzz{{{{zzzzzz{{{{????AAzzzzzzzzzzzzzzzzzzRR{{{{zzzzzzzz{{{{zzzzaa",
"zzzzzzzzzzzzzzzzzzzzzzzzzz{{{{{{zzzz77::::zzzz{{{{{{aaaaaazzzzzzzzzz{{{{{{{{aa??::aazzzzzzzzzz{{::))//zzzz{{zzzz{{{{zzzzzzzzaa::''GG{{zzaaaaaaaaPPzzzzzzzzzzzz{{GGJJnnnnzzzzzzzzzzzz{{{{{{{{zzzzzz{{{{zzzzzz{{{{????AAzzzzzzzzzzzzzzzzzzRR{{{{zzzzzzzz{{{{zzzzaa",
"aazzzzzz77--zzzzzzzzzzzzzzzz{{{{zzzz{{JJaaaazz{{zz{{nnaazzzzzzzzaaaaaannnn{{zzaaaazzzzzzzzzzzzaaaa::zzzzzzaaaaaa{{{{zzzzzzzzaaaa//EEzzzzzzzzaaaaaaaazzzzzz{{{{{{{{BBaaaaaazzzzzzzzzz{{bb]]{{zz??::{{{{{{zzzzzzUUOOAAzzzzzzzzEEEEzzzzzzzzAAaazzzzzzzzzz{{{{{{zzaa",
"aazzzzzz77--zzzzzzzzzzzzzzzz{{{{zzzz{{JJaaaazz{{zz{{nnaazzzzzzzzaaaaaannnn{{zzaaaazzzzzzzzzzzzaaaa::zzzzzzaaaaaa{{{{zzzzzzzzaaaa//EEzzzzzzzzaaaaaaaazzzzzz{{{{{{{{BBaaaaaazzzzzzzzzz{{bb]]{{zz??::{{{{{{zzzzzzUUOOAAzzzzzzzzEEEEzzzzzzzzAAaazzzzzzzzzz{{{{{{zzaa",
"aazzzzzz{{aaCCzzzzaaAA??zzzzzzzzzzzz{{jjjjiizz{{zz{{{{aazzzzzzJJ::::FFPP{{{{zzaazz{{{{zzzzzzzzaaaannzzzzzzzzzzaannnn{{zzzzaaaaaaaaaazzzzzzzzzzaaaazzzzzzzz{{{{{{{{aaaaaann{{{{zzaaaaJJOOPPzzzzzz##nn{{{{zzzzaa??MM{{zzzzzzzzzzQQnn{{{{zz??[[zzzzzzzzzz{{nn{{{{aa",
"aazzzzzz{{aaCCzzzzaaAA??zzzzzzzzzzzz{{jjjjiizz{{zz{{{{aazzzzzzJJ::::FFPP{{{{zzaazz{{{{zzzzzzzzaaaannzzzzzzzzzzaannnn{{zzzzaaaaaaaaaazzzzzzzzzzaaaazzzzzzzz{{{{{{{{aaaaaann{{{{zzaaaaJJOOPPzzzzzz##nn{{{{zzzzaa??MM{{zzzzzzzzzzQQnn{{{{zz??[[zzzzzzzzzz{{nn{{{{aa",
"zzzzzzzz77nnGGzzzz::==zzzzzzzzzzzzzz{{zzzzzziiJJzz{{{{{{zzzz{{{{{{zzzz::nnzzzzzz{{{{zzzzzzzzzzaazz{{zzzzzzzzzzaannnn{{{{{{aazzaaaazzaazzzz{{{{zzzzzzzzzz{{{{{{{{zzaaaazz{{{{{{nnaaaa::::zzzzzzzz##aa{{{{zzaaaaaann{{zzzzzzzz{{PPnn{{zzzzaaIIzzzzzzaaaaaaaann{{aa",
"zzzzzzzz77nnGGzzzz::==zzzzzzzzzzzzzz{{zzzzzziiJJzz{{{{{{zzzz{{{{{{zzzz::nnzzzzzz{{{{zzzzzzzzzzaazz{{zzzzzzzzzzaannnn{{{{{{aazzaaaazzaazzzz{{{{zzzzzzzzzz{{{{{{{{zzaaaazz{{{{{{nnaaaa::::zzzzzzzz##aa{{{{zzaaaaaann{{zzzzzzzz{{PPnn{{zzzzaaIIzzzzzzaaaaaaaann{{aa",
"{{zzzzzz??OOnn{{aaaazzzzzzJJ==zzzzzz{{zzzzzzzzee==zzzzzzzzzzzz{{{{zzzzzzzzzzzzaannnnaazzzzzzzz{{{{{{zzzzzzzzzzzzaannaazzzzzzzzzz{{{{zzzzzz{{{{{{zzzzzzzz{{zz{{{{zzzzzzzzzzzznnnnnnJJWWzzzzzzzzzzAAnn{{zz{{zzzznnnn{{{{zzzzzz{{aa{{zzzz??AAaazzzzaaaaaaaaaa{{{{zz",
"{{zzzzzz??OOnn{{aaaazzzzzzJJ==zzzzzz{{zzzzzzzzee==zzzzzzzzzzzz{{{{zzzzzzzzzzzzaannnnaazzzzzzzz{{{{{{zzzzzzzzzzzzaannaazzzzzzzzzz{{{{zzzzzz{{{{{{zzzzzzzz{{zz{{{{zzzzzzzzzzzznnnnnnJJWWzzzzzzzzzzAAnn{{zz{{zzzznnnn{{{{zzzzzz{{aa{{zzzz??AAaazzzzaaaaaaaaaa{{{{zz",
"{{{{zzzzzz??nn{{nnaazzzzzzzz??==aajj{{{{zzzzzziieeaazzzzzzzzzz{{{{zzzzzzzzzzzzzzaannaaaa{{{{{{{{{{zzzzzzzzzzzzzzaaaaaaaazz{{{{{{{{{{zzzzzzzz{{{{{{zzzzzz{{zzzz{{zzzzzzzzzzzznnnnnnJJ{{zzzzzzzzzzzzzz{{zz{{zzzz{{{{{{{{zzzzzz{{zzzzzzzz??nnnn{{zzzzzzaaaazz{{{{zz",
"{{{{zzzzzz??nn{{nnaazzzzzzzz??==aajj{{{{zzzzzziieeaazzzzzzzzzz{{{{zzzzzzzzzzzzzzaannaaaa{{{{{{{{{{zzzzzzzzzzzzzzaaaaaaaazz{{{{{{{{{{zzzzzzzz{{{{{{zzzzzz{{zzzz{{zzzzzzzzzzzznnnnnnJJ{{zzzzzzzzzzzzzz{{zz{{zzzz{{{{{{{{zzzzzz{{zzzzzzzz??nnnn{{zzzzzzaaaazz{{{{zz",
"nnnnEE44TT??{{{{{{nn{{zzzzzzzz==NNaaaajjzzzzzziihhzzddzzzzzzzz{{{{zzzzzzaa77::zzzzaaaaaazz{{{{{{{{zzzzzz{{{{{{{{aazzzzzz{{{{{{{{{{zzzzzzzzzzzz<<GG55##11CCzzzzzzzzzzzzzzzzzzzznnaa::zzzzzz{{{{{{zzzzzzzz{{zzzzzz{{zz{{zzzz??PPBBaazzzzzzzznn{{{{zzzzaazzzz{{zzzz",
"nnnnEE44TT??{{{{{{nn{{zzzzzzzz==NNaaaajjzzzzzziihhzzddzzzzzzzz{{{{zzzzzzaa77::zzzzaaaaaazz{{{{{{{{zzzzzz{{{{{{{{aazzzzzz{{{{{{{{{{zzzzzzzzzzzz<<GG55##11CCzzzzzzzzzzzzzzzzzzzznnaa::zzzzzz{{{{{{zzzzzzzz{{zzzzzz{{zz{{zzzz??PPBBaazzzzzzzznn{{{{zzzzaazzzz{{zzzz",
"nnnnaa33aa??aann{{{{{{zzzzzzzz??AAaazzaajjzzzzzzzzzzzzzzzzzzzz{{{{zzzz>>77GGGG{{zzzzaann{{{{{{zzzzzzFF55GG{{{{{{{{zzzzzzzz{{{{nnjj????==zzzzzznn<<OO..//??aazz{{{{zzzzzzzzzzzzzzzzaazzzz{{{{{{{{{{zzaa,,zzzzzzzzzzzzaaBBzzzz????BBaaaazzzzzz{{{{{{zzzzzzzzzzzzzz",
"nnnnaa33aa??aann{{{{{{zzzzzzzz??AAaazzaajjzzzzzzzzzzzzzzzzzzzz{{{{zzzz>>77GGGG{{zzzzaann{{{{{{zzzzzzFF55GG{{{{{{{{zzzzzzzz{{{{nnjj????==zzzzzznn<<OO..//??aazz{{{{zzzzzzzzzzzzzzzzaazzzz{{{{{{{{{{zzaa,,zzzzzzzzzzzzaaBBzzzz????BBaaaazzzzzz{{{{{{zzzzzzzzzzzzzz",
"zzzzzzEEBBaa``bbzzzzzzzzzzzz{{nnnnnn{{{{{{zzzzzzzzzzzzzzzz77AAnnnnzz{{FFnnGG{{{{zzzzzz{{{{{{zzzzzz**??::GGFF{{{{{{{{zzzzzz{{{{zzzz==??**))zzzz{{{{zzzzaaHHaaaazz{{{{{{{{{{zzzzzzzzzzzzEEKK{{{{{{GGnn,,zzzzzzzzzzzzzzaaFFBBaazzzz??AAzzzzzzzzaannnnaaaazzzzzzzzzz",
"zzzzzzEEBBaa``bbzzzzzzzzzzzz{{nnnnnn{{{{{{zzzzzzzzzzzzzzzz77AAnnnnzz{{FFnnGG{{{{zzzzzz{{{{{{zzzzzz**??::GGFF{{{{{{{{zzzzzz{{{{zzzz==??**))zzzz{{{{zzzzaaHHaaaazz{{{{{{{{{{zzzzzzzzzzzzEEKK{{{{{{GGnn,,zzzzzzzzzzzzzzaaFFBBaazzzz??AAzzzzzzzzaannnnaaaazzzzzzzzzz",
"zzzzzzzzzzEEIIzzzzzzzzzzzz{{{{nnnn{{nn{{{{zzzzzzzzee::..eeWWTT{{zz{{{{nnnnGG{{{{{{zzzzzzzzzzzzzzzzzzzzzzJJnnaazz{{{{zzzzzzzzzzzzzzzz====****zzzzzzzzzzaaHHaaaaaazzzz{{{{{{{{{{zzzzzzBB????zz{{JJnnnn,,zzzzzzzzzzzz{{{{zz::PPPPzzzz??zzzzzzzzaaaaaaaaaaaazzzzzzzz",
"zzzzzzzzzzEEIIzzzzzzzzzzzz{{{{nnnn{{nn{{{{zzzzzzzzee::..eeWWTT{{zz{{{{nnnnGG{{{{{{zzzzzzzzzzzzzzzzzzzzzzJJnnaazz{{{{zzzzzzzzzzzzzzzz====****zzzzzzzzzzaaHHaaaaaazzzz{{{{{{{{{{zzzzzzBB????zz{{JJnnnn,,zzzzzzzzzzzz{{{{zz::PPPPzzzz??zzzzzzzzaaaaaaaaaaaazzzzzzzz",
"zzzzzzzz{{{{zzzzzzzzzzzzzz{{{{{{zzzzzzzzzzzzzzaaeeeeeeOOTT??zz{{zzzz{{nnnnaazzzzzzzzzzzzzzzzzz{{{{zzzzzz==aaaazz{{zzzzzz::zzzzzzzzzzzzEEaa??FFzzzzzzzzTTHHaaaazzzzzzzz{{{{{{{{zzzzaaOOJJzzzzzz{{nnKK{{zzzzzzzzzzzz{{{{{{{{nnaazzzzzz{{aaaazzzzzzzzzzaaaazz{{zzzz",
"zzzzzzzz{{{{zzzzzzzzzzzzzz{{{{{{zzzzzzzzzzzzzzaaeeeeeeOOTT??zz{{zzzz{{nnnnaazzzzzzzzzzzzzzzzzz{{{{zzzzzz==aaaazz{{zzzzzz::zzzzzzzzzzzzEEaa??FFzzzzzzzzTTHHaaaazzzzzzzz{{{{{{{{zzzzaaOOJJzzzzzz{{nnKK{{zzzzzzzzzzzz{{{{{{{{nnaazzzzzz{{aaaazzzzzzzzzzaaaazz{{zzzz",
"aaaann{{{{{{{{{{zzzzzzzzzzzzzzzzzzzzzzzzzzzzzzaaaazzggRRJJ{{zzzzzzzzzzaaaaaazzzzzzzzzzzzzzaazzzz{{{{{{zzzz==zzzzzzzz::::::zzzzzzzzzzzzUUPPzzzzzzzzzzzzzzLLzzzzaaZZzzzzzz{{{{zzzzaannnn??zzzzzzaann??zzzzzzzzzzzzzzzz{{{{{{{{zzzzzzzz{{nnnnzzzzzzzzzzzzzz{{{{{{zz",
"aaaann{{{{{{{{{{zzzzzzzzzzzzzzzzzzzzzzzzzzzzzzaaaazzggRRJJ{{zzzzzzzzzzaaaaaazzzzzzzzzzzzzzaazzzz{{{{{{zzzz==zzzzzzzz::::::zzzzzzzzzzzzUUPPzzzzzzzzzzzzzzLLzzzzaaZZzzzzzz{{{{zzzzaannnn??zzzzzzaann??zzzzzzzzzzzzzzzz{{{{{{{{zzzzzzzz{{nnnnzzzzzzzzzzzzzz{{{{{{zz",
"aann{{{{{{zzzzTTAAnnXXOOzzzzzzzzzz{{{{zzzzzzzzzzaa{{nnnn{{{{{{zz{{{{{{zzzzzzzzzz%%zzzz{{zzIIII{{{{{{{{{{zzzzzzzzzzzzaa::RRzzzzzzzzzzzznnaazzzzzzzzzzzzzznn{{zz66::zzzzaaZZzzzzzznnnnnn??zzzzzzaa??FFzzzz??..??aazzzzzz{{aazzzzzzzz{{nnnn{{zzzzzzzzzzzzzzzzzzzzzz",
"aann{{{{{{zzzzTTAAnnXXOOzzzzzzzzzz{{{{zzzzzzzzzzaa{{nnnn{{{{{{zz{{{{{{zzzzzzzzzz%%zzzz{{zzIIII{{{{{{{{{{zzzzzzzzzzzzaa::RRzzzzzzzzzzzznnaazzzzzzzzzzzzzznn{{zz66::zzzzaaZZzzzzzznnnnnn??zzzzzzaa??FFzzzz??..??aazzzzzz{{aazzzzzzzz{{nnnn{{zzzzzzzzzzzzzzzzzzzzzz",
"{{{{zz{{zzaaaa??aaAAOO{{zzzzzzzz66AA{{{{{{zzzzzz{{{{{{{{zzzzzzzzzz{{{{{{zzzzzz::##zzzz{{zz::II{{{{{{{{{{{{zzzzzzzzzzFFJJWWzzzzzzzzzz{{{{aazzzzzz{{zzzzzz{{{{GG::aazzzzBB....zz{{nnnnaaaazzzzzzzz??aazz{{OOaa..OOnn{{zzzzaaaazzzz{{nnnn{{zzzzzzzzzzzzzzzzzzzzaaaa",
"{{{{zz{{zzaaaa??aaAAOO{{zzzzzzzz66AA{{{{{{zzzzzz{{{{{{{{zzzzzzzzzz{{{{{{zzzzzz::##zzzz{{zz::II{{{{{{{{{{{{zzzzzzzzzzFFJJWWzzzzzzzzzz{{{{aazzzzzz{{zzzzzz{{{{GG::aazzzzBB....zz{{nnnnaaaazzzzzzzz??aazz{{OOaa..OOnn{{zzzzaaaazzzz{{nnnn{{zzzzzzzzzzzzzzzzzzzzaaaa",
"{{zzzzzzzzaazzzzzzzznnnnzzzzzzzz$$??RR{{{{{{zzzz{{zzzzzzzzzzzzzzzzzz{{{{zzzzaa$$::zz{{{{HH66zzaa{{{{{{{{{{{{zzzzzzzz{{OOnn::zzzzzz{{{{{{zzzzzz{{{{zzzzzz{{nnKK88nnzzzzzz??..WW{{{{{{zzaazzzzzzzzzz{{{{{{{{zzAABBnnnn{{zzaazzzz{{{{zzzzzzzzzzzzzz{{{{{{{{{{{{nnzz",
"{{zzzzzzzzaazzzzzzzznnnnzzzzzzzz$$??RR{{{{{{zzzz{{zzzzzzzzzzzzzzzzzz{{{{zzzzaa$$::zz{{{{HH66zzaa{{{{{{{{{{{{zzzzzzzz{{OOnn::zzzzzz{{{{{{zzzzzz{{{{zzzzzz{{nnKK88nnzzzzzz??..WW{{{{{{zzaazzzzzzzzzz{{{{{{{{zzAABBnnnn{{zzaazzzz{{{{zzzzzzzzzzzzzz{{{{{{{{{{{{nnzz",
"zzzzzzzzzzzzzzzzzzzzzz{{zzzzzz??zzCCaazz{{{{zzzzzzzzzzzzzzzzzzzzzzzz{{{{zzzzaa77::{{{{{{LLEEzznnzzzzzz{{{{{{zzzz{{{{{{nnnnaazz{{JJJJJJCCWWzz{{{{{{zzzzzzzznnnn@@aa{{zzzz????IInnaa{{zzzzzzzzzzzz{{{{{{zzzzzzaaaaaann{{{{zzzzzzzzzzzzzzzzzzzzzzzz{{{{{{{{{{{{zzzz",
"zzzzzzzzzzzzzzzzzzzzzz{{zzzzzz??zzCCaazz{{{{zzzzzzzzzzzzzzzzzzzzzzzz{{{{zzzzaa77::{{{{{{LLEEzznnzzzzzz{{{{{{zzzz{{{{{{nnnnaazz{{JJJJJJCCWWzz{{{{{{zzzzzzzznnnn@@aa{{zzzz????IInnaa{{zzzzzzzzzzzz{{{{{{zzzzzzaaaaaann{{{{zzzzzzzzzzzzzzzzzzzzzzzz{{{{{{{{{{{{zzzz",
"zzzzzzzzzzzzzzzzzzzz{{{{{{zzzz::%%BBaazzzzzzzzzzzzzz{{zzzzzzzzzzzzzzzz{{zzzznnJJnn{{{{{{aaaaNNaazzzzzzzzzzzzzzzz{{{{{{nnaaaazzMMFFJJJJzzzzaa==??MM11??zzzzaannaaaannzzzz??aaaaaaaazzzzzzzzzzzzzz{{zz{{zzzzzzaaaazzJJ{{{{zzzzzzzzzzzzzzzzzzzzzzaaaazz{{zzzzzzzzzz",
"zzzzzzzzzzzzzzzzzzzz{{{{{{zzzz::%%BBaazzzzzzzzzzzzzz{{zzzzzzzzzzzzzzzz{{zzzznnJJnn{{{{{{aaaaNNaazzzzzzzzzzzzzzzz{{{{{{nnaaaazzMMFFJJJJzzzzaa==??MM11??zzzzaannaaaannzzzz??aaaaaaaazzzzzzzzzzzzzz{{zz{{zzzzzzaaaazzJJ{{{{zzzzzzzzzzzzzzzzzzzzzzaaaazz{{zzzzzzzzzz",
"{{{{zzzzzzzzzzzzzzzz{{{{{{zzzz,,??aazzzzzzaa44aazzzz{{zzaazz{{{{{{zzzz{{zz{{nn{{{{{{{{zzzzzzzzzzzzzz{{zzzzzzzzzzzzzz{{{{WWzzzznnnn{{zzzzzz::3377AAaazzzzzzaa{{aaaaaazzzzzzaazzzznnnnzzzzzzzzzzzz{{zz{{zzzzzzzzzzzz{{{{zz{{??aaFFHH{{zzzzzzzzzzzzaaaa??zzzzzzzzzz",
"{{{{zzzzzzzzzzzzzzzz{{{{{{zzzz,,??aazzzzzzaa44aazzzz{{zzaazz{{{{{{zzzz{{zz{{nn{{{{{{{{zzzzzzzzzzzzzz{{zzzzzzzzzzzzzz{{{{WWzzzznnnn{{zzzzzz::3377AAaazzzzzzaa{{aaaaaazzzzzzaazzzznnnnzzzzzzzzzzzz{{zz{{zzzzzzzzzzzz{{{{zz{{??aaFFHH{{zzzzzzzzzzzzaaaa??zzzzzzzzzz",
"{{zzzzzzzzzzzzzzzz??<<OOzzzznn??aazzzzaaaaaa))zzzz{{{{aaaazzzzzzMMMM::BBzzzzzzzz{{{{zzzzzzzzzzzzzzaa{{zzzzzzaaaaaaaaJJRRzzzzzznnzzzzzzzzaa????aazzzzzzzzzzzzzzzzzzzzzzzzzzzzzzzz{{{{{{33aaaaaaaazzzzzzzzzzzzzzzzzz{{zzzzzzzznnnnjjnn{{{{zzzzzzzzzzaa??aazzzzzzaa",
"{{zzzzzzzzzzzzzzzz??<<OOzzzznn??aazzzzaaaaaa))zzzz{{{{aaaazzzzzzMMMM::BBzzzzzzzz{{{{zzzzzzzzzzzzzzaa{{zzzzzzaaaaaaaaJJRRzzzzzznnzzzzzzzzaa????aazzzzzzzzzzzzzzzzzzzzzzzzzzzzzzzz{{{{{{33aaaaaaaazzzzzzzzzzzzzzzzzz{{zzzzzzzznnnnjjnn{{{{zzzzzzzzzzaa??aazzzzzzaa",
"{{zzzzaa??zzzzzzzzzz??..zzzznnnn{{{{zzaa``::{{{{{{{{{{aaaazz{{{{{{{{::::BBzzzzzz{{zzzzzzzzzzaa3333nnnnzzzzaaaaaannaa88%%33==zzzzzzzzzzzzaa{{{{{{zzzzzzzzzzzzzzzz????33LLzzzzzz{{{{zz??BBFFEEaaaaaazzaaaaaazzzzzzzzaazzzzzzzzzzaann{{nn{{{{zzzzzz{{{{aa??aazzzz{{",
"{{zzzzaa??zzzzzzzzzz??..zzzznnnn{{{{zzaa``::{{{{{{{{{{aaaazz{{{{{{{{::::BBzzzzzz{{zzzzzzzzzzaa3333nnnnzzzzaaaaaannaa88%%33==zzzzzzzzzzzzaa{{{{{{zzzzzzzzzzzzzzzz????33LLzzzzzz{{{{zz??BBFFEEaaaaaazzaaaaaazzzzzzzzaazzzzzzzzzzaann{{nn{{{{zzzzzz{{{{aa??aazzzz{{",
"zzzzzzzz??????zzzzzzaaaaaazzzz{{{{{{{{aaAAzz{{{{{{{{zzzzaazz{{{{{{{{{{EEaazzzzzzzzaazzzz{{zz::SSzz{{{{zzzzzzaa{{{{zzzzzzzzzzzzaazzzzzzzzaa{{{{{{{{zzzzzzzzzzzz::aaQQ3377::BB{{{{{{zzzzBBFFEEEEaazzzzzzaaaannnn{{zzaazzzzzzzzzzaaaa{{nn{{{{zzzz{{{{{{aa??aazzzzzz",
"zzzzzzzz??????zzzzzzaaaaaazzzz{{{{{{{{aaAAzz{{{{{{{{zzzzaazz{{{{{{{{{{EEaazzzzzzzzaazzzz{{zz::SSzz{{{{zzzzzzaa{{{{zzzzzzzzzzzzaazzzzzzzzaa{{{{{{{{zzzzzzzzzzzz::aaQQ3377::BB{{{{{{zzzzBBFFEEEEaazzzzzzaaaannnn{{zzaazzzzzzzzzzaaaa{{nn{{{{zzzz{{{{{{aa??aazzzzzz",
"aazzzzzz{{GGaaaazzzzaaaaaazzzzzzzz{{{{zzzz{{zzzzzz{{zzzzaa{{{{zzzz{{{{zzaazzzzzzaaaaaa{{{{aa77jj{{{{{{zz{{{{{{{{{{zzzzzzzzaa::aazz{{{{zz{{{{{{{{{{{{zzzzzzzzzz::FFOO<<11BBBB{{{{{{zzzzzz{{{{{{nnaazzzzzznn{{nn{{zzzzzzzzzzzzzzzzzzzz{{AAAAzzzzzz{{{{zzzzzzzzzzzz",
"aazzzzzz{{GGaaaazzzzaaaaaazzzzzzzz{{{{zzzz{{zzzzzz{{zzzzaa{{{{zzzz{{{{zzaazzzzzzaaaaaa{{{{aa77jj{{{{{{zz{{{{{{{{{{zzzzzzzzaa::aazz{{{{zz{{{{{{{{{{{{zzzzzzzzzz::FFOO<<11BBBB{{{{{{zzzzzz{{{{{{nnaazzzzzznn{{nn{{zzzzzzzzzzzzzzzzzzzz{{AAAAzzzzzz{{{{zzzzzzzzzzzz",
"aaaaaazz{{PPPPaazzzzaaaaaazzzzzzzzzz{{zzzzzzFFSSzzzzzzzzzzzzzzzzzzzzzzzzzzzzzzaann{{{{{{{{aa22{{{{{{{{zz{{{{{{{{zzzzzz{{{{BB..aa{{{{{{zz{{zzzz{{{{{{zzzz{{{{aaaazz{{{{zzzzzzaaCCEEFFzzzzzz{{{{{{zzzzzzzz{{{{{{{{zzzzzzzzzzzzzzzzzzzzzzzzAAaaaazz{{{{zzzzzzzzzzaa",
"aaaaaazz{{PPPPaazzzzaaaaaazzzzzzzzzz{{zzzzzzFFSSzzzzzzzzzzzzzzzzzzzzzzzzzzzzzzaann{{{{{{{{aa22{{{{{{{{zz{{{{{{{{zzzzzz{{{{BB..aa{{{{{{zz{{zzzz{{{{{{zzzz{{{{aaaazz{{{{zzzzzzaaCCEEFFzzzzzz{{{{{{zzzzzzzz{{{{{{{{zzzzzzzzzzzzzzzzzzzzzzzzAAaaaazz{{{{zzzzzzzzzzaa",
"zzzzzzzzzz{{{{{{zzzzaazzzzzzzzaaBBBB::zzzzzzzz??WWzzzzzzzzFF**PPzzzzzzzzzzzz{{nnnn{{{{{{{{aa''zz{{{{zzzzzzOO2222aazzzz{{{{==,,aabb{{{{zzzzaaHH::aa{{zzzzzz{{{{zzzzzzzzzzzzzzBB//??BBzzzzzzzz{{{{{{zzzzzz{{{{{{zzzz??IIJJzzzzzzzzzzzzzzzzzzaaaaaaaa{{zzzzzzzzaaaa",
"zzzzzzzzzz{{{{{{zzzzaazzzzzzzzaaBBBB::zzzzzzzz??WWzzzzzzzzFF**PPzzzzzzzzzzzz{{nnnn{{{{{{{{aa''zz{{{{zzzzzzOO2222aazzzz{{{{==,,aabb{{{{zzzzaaHH::aa{{zzzzzz{{{{zzzzzzzzzzzzzzBB//??BBzzzzzzzz{{{{{{zzzzzz{{{{{{zzzz??IIJJzzzzzzzzzzzzzzzzzzaaaaaaaa{{zzzzzzzzaaaa",
"zzzzzzzzzzzz{{{{{{zzzzzzzzzzaaaaaaaa..BBzzzzzz????zzzzaaaa??TTzzzz{{zzzzzzzzzzaa{{{{{{{{zzaa''{{{{{{zzzzzzOO88////nnnn{{{{zz,,::aazz{{{{zzzz??//??nnzzzzzz{{{{{{zzzzzzzzzz{{RR--aaAAzzzzzzzz{{{{{{zzzzzz{{{{{{zz==33AAEEzzzzzzzzzzzzzzzzzzzzaaaaaannzzzzzzaaaaaa",
"zzzzzzzzzzzz{{{{{{zzzzzzzzzzaaaaaaaa..BBzzzzzz????zzzzaaaa??TTzzzz{{zzzzzzzzzzaa{{{{{{{{zzaa''{{{{{{zzzzzzOO88////nnnn{{{{zz,,::aazz{{{{zzzz??//??nnzzzzzz{{{{{{zzzzzzzzzz{{RR--aaAAzzzzzzzz{{{{{{zzzzzz{{{{{{zz==33AAEEzzzzzzzzzzzzzzzzzzzzaaaaaannzzzzzzaaaaaa",
"zzzzzzaazzzzzz{{{{zzzzzz{{{{{{{{zzzzPP>>BBzzzzzzzzzzzzaann??zzzzzzzz{{{{nnzzzzzz{{{{{{zzzzzzzzzzzzzzzzzzzzzzzz;;bbOOnnnnzzzzzzaaaazz{{{{zzzzzzBBaa????zzzz{{{{{{zzzz??OOMM{{{{??aa??zzzzzz{{{{zz{{zzzzzz{{zz{{aa????zzzzzzzz{{{{{{zzzz{{{{zzzzaazzaazzzzzzzzaaaa",
"zzzzzzaazzzzzz{{{{zzzzzz{{{{{{{{zzzzPP>>BBzzzzzzzzzzzzaann??zzzzzzzz{{{{nnzzzzzz{{{{{{zzzzzzzzzzzzzzzzzzzzzzzz;;bbOOnnnnzzzzzzaaaazz{{{{zzzzzzBBaa????zzzz{{{{{{zzzz??OOMM{{{{??aa??zzzzzz{{{{zz{{zzzzzz{{zz{{aa????zzzzzzzz{{{{{{zzzz{{{{zzzzaazzaazzzzzzzzaaaa",
"zzzzzzaaaaaazz{{{{{{zzOO{{OOzzzzzzzzzzzz=={{{{{{zzzzzzaann{{{{zzzznnnn{{nn{{{{zzzz{{zzzzzz{{zzzzzzzzzzzzzzzzzzzz==bb{{nnzzzzzz{{nnnn{{zzzzzzzz??77WWaaaazz{{{{{{BB====MM{{{{zz??aaaazzzzaaRRaazzzzzzzzzz{{zznnaaaaaazzzzzznnOO]]^^????{{{{{{zzaazzzzzzzzzzzzzz{{",
"zzzzzzaaaaaazz{{{{{{zzOO{{OOzzzzzzzzzzzz=={{{{{{zzzzzzaann{{{{zzzznnnn{{nn{{{{zzzz{{zzzzzz{{zzzzzzzzzzzzzzzzzzzz==bb{{nnzzzzzz{{nnnn{{zzzzzzzz??77WWaaaazz{{{{{{BB====MM{{{{zz??aaaazzzzaaRRaazzzzzzzzzz{{zznnaaaaaazzzzzznnOO]]^^????{{{{{{zzaazzzzzzzzzzzzzz{{",
"zzzzzzzzaaPP??{{zzzzzzmmTTKK{{zzzzzzzzzzzz{{{{{{{{zzzzzzzz{{{{{{zznnzznnnn{{{{{{::zzzzzz{{{{zzzzzzzzzzzzzzzzzzzz{{OO{{zzzz{{{{{{{{{{zzzz{{{{{{zz66AAaaaazz{{zzOOBB::nn{{{{zzzzaaaaaazzzzzzCCaaaazzzzzzzzzzaaaazzaazzzzzz{{{{{{,,AALLaaaazzzzzzzzzzzzzzzzzz{{{{{{",
"zzzzzzzzaaPP??{{zzzzzzmmTTKK{{zzzzzzzzzzzz{{{{{{{{zzzzzzzz{{{{{{zznnzznnnn{{{{{{::zzzzzz{{{{zzzzzzzzzzzzzzzzzzzz{{OO{{zzzz{{{{{{{{{{zzzz{{{{{{zz66AAaaaazz{{zzOOBB::nn{{{{zzzzaaaaaazzzzzzCCaaaazzzzzzzzzzaaaazzaazzzzzz{{{{{{,,AALLaaaazzzzzzzzzzzzzzzzzz{{{{{{",
"zzzzzzzznnMM????zzzz{{{{PP77::zzzzzzzzzz{{{{{{{{{{zzzzzzzz{{nnnnEEaaaazzzzzzzzzz44::aaaa{{{{zzzzzzzzzzzzzzzzzzzzzzzzzzzz{{{{{{{{{{zzzz{{{{{{{{{{SSaaaaaazz{{zzaaaannnn{{{{zzaaaazzzzzzzzzzzzLLaaaazzzzzzzzaazzzzzzzzzz{{{{{{zzzz??AAaaaaaazzzzzzzz??AAaazz{{{{{{",
"zzzzzzzznnMM????zzzz{{{{PP77::zzzzzzzzzz{{{{{{{{{{zzzzzzzz{{nnnnEEaaaazzzzzzzzzz44::aaaa{{{{zzzzzzzzzzzzzzzzzzzzzzzzzzzz{{{{{{{{{{zzzz{{{{{{{{{{SSaaaaaazz{{zzaaaannnn{{{{zzaaaazzzzzzzzzzzzLLaaaazzzzzzzzaazzzzzzzzzz{{{{{{zzzz??AAaaaaaazzzzzzzz??AAaazz{{{{{{",
"zz{{{{{{nn{{{{zzzzzzzz{{zzCC11aazzzzzzzzzzzz{{{{{{{{zzzzzz{{{{{{zzzzzzzzzzzzzzzzzz((nnnn{{zzzzzzzzzznnYYzzzzzzzzzzzzzzzz{{aaaazz{{zzzzzz{{{{{{{{zzzzaaaazzzzzzaaaannzz{{zzzzzzzzzzzzzzzzzzzzaaaaaazzzzzzzzzzzzzzzzzzzzzzzzzzzzzzzzaazzaaaazzzzaa==aaaazzzzzzzzzz",
"zz{{{{{{nn{{{{zzzzzzzz{{zzCC11aazzzzzzzzzzzz{{{{{{{{zzzzzz{{{{{{zzzzzzzzzzzzzzzzzz((nnnn{{zzzzzzzzzznnYYzzzzzzzzzzzzzzzz{{aaaazz{{zzzzzz{{{{{{{{zzzzaaaazzzzzzaaaannzz{{zzzzzzzzzzzzzzzzzzzzaaaaaazzzzzzzzzzzzzzzzzzzzzzzzzzzzzzzzaazzaaaazzzzaa==aaaazzzzzzzzzz",
"aa88zzzzzzzz{{{{zz{{zzzzzzzzPPaaaazzzzzzzzBB77zz{{{{zzzzzz{{{{{{zzzzzzzzzz{{{{zzzz44FFnn{{zzzzzz{{{{{{BBAABBzzzzzzzzzz{{{{zzaaaaaaaazzzzzzzz{{{{zzzzzzaazzzzzzzzzzaazzzzaaaazzzz{{{{{{{{{{aaaazzzzzzzzzzzzzz{{{{{{{{zzaa??&&EEaazz{{{{{{{{{{nnaaaaaazzzzzzaaaazz",
"aa88zzzzzzzz{{{{zz{{zzzzzzzzPPaaaazzzzzzzzBB77zz{{{{zzzzzz{{{{{{zzzzzzzzzz{{{{zzzz44FFnn{{zzzzzz{{{{{{BBAABBzzzzzzzzzz{{{{zzaaaaaaaazzzzzzzz{{{{zzzzzzaazzzzzzzzzzaazzzzaaaazzzz{{{{{{{{{{aaaazzzzzzzzzzzzzz{{{{{{{{zzaa??&&EEaazz{{{{{{{{{{nnaaaaaazzzzzzaaaazz",
"zz,,aazzzzzzzzzz{{{{{{zzzzzzzzzzzzzzzzzzzz==))::zz{{zzzzzz{{{{zzzzzz{{{{{{{{{{zz{{{{44nnzzzzPPCC{{{{zzAAzz]]AA{{{{{{{{{{{{zzzzaaaaaa{{{{zzzzzz{{zzzzzz{{{{{{zzzzzzzzzzzzaaaa{{{{{{{{{{{{zzzzzzzzzzzzzzzzzzzzzz{{{{JJJJ::&&zzzzzz{{{{{{{{{{{{aaaaaaaazzzzzzaaaaaa",
"zz,,aazzzzzzzzzz{{{{{{zzzzzzzzzzzzzzzzzzzz==))::zz{{zzzzzz{{{{zzzzzz{{{{{{{{{{zz{{{{44nnzzzzPPCC{{{{zzAAzz]]AA{{{{{{{{{{{{zzzzaaaaaa{{{{zzzzzz{{zzzzzz{{{{{{zzzzzzzzzzzzaaaa{{{{{{{{{{{{zzzzzzzzzzzzzzzzzzzzzz{{{{JJJJ::&&zzzzzz{{{{{{{{{{{{aaaaaaaazzzzzzaaaaaa",
"zzzzBBPPzzzzzzzz{{kkMM????zzzzzzzzzzzzzzzz::))::aazzzzzzzz{{{{zznn{{{{{{{{{{zzzzzz{{{{{{zzzz//zzzzzzzz;;{{::??zz{{{{{{nnzzzzzzzzaann{{{{zzaaaazzzzzzzz{{{{JJ{{{{zzzzzzzzaaaann{{{{{{zzzzzzzzzzzzzzzz{{{{{{zzzzzz{{nnJJ,,??zzzzzzaaBBQQ{{{{zzaaaaEEzzzzzzzzaaaann",
"zzzzBBPPzzzzzzzz{{kkMM????zzzzzzzzzzzzzzzz::))::aazzzzzzzz{{{{zznn{{{{{{{{{{zzzzzz{{{{{{zzzz//zzzzzzzz;;{{::??zz{{{{{{nnzzzzzzzzaann{{{{zzaaaazzzzzzzz{{{{JJ{{{{zzzzzzzzaaaann{{{{{{zzzzzzzzzzzzzzzz{{{{{{zzzzzz{{nnJJ,,??zzzzzzaaBBQQ{{{{zzaaaaEEzzzzzzzzaaaann",
"zzzz??aazzzzzzzzaaffbbaazzzzzzzzzzzzzzzzzzzzzzaaaazzzzzzzzzzzzzzBB??JJ{{{{zzzzzzzz{{{{{{zz{{<<zzzzzzzzOO{{CCaaaa{{{{nnaaaazzzzzzaa{{{{{{aaaazzzzzzzzzzzz{{nn{{{{{{zzzzzzaaaannnnnn{{zzzzzzzzzzzz{{;;__{{zzzzzzzznnnnnn::zzzzzzzzaaOOOOaazzzzzzaazzzzzzzzzzzzaaaa",
"zzzz??aazzzzzzzzaaffbbaazzzzzzzzzzzzzzzzzzzzzzaaaazzzzzzzzzzzzzzBB??JJ{{{{zzzzzzzz{{{{{{zz{{<<zzzzzzzzOO{{CCaaaa{{{{nnaaaazzzzzzaa{{{{{{aaaazzzzzzzzzzzz{{nn{{{{{{zzzzzzaaaannnnnn{{zzzzzzzzzzzz{{;;__{{zzzzzzzznnnnnn::zzzzzzzzaaOOOOaazzzzzzaazzzzzzzzzzzzaaaa",
"{{BB>>aaaazzzzzzaa{{RRzzzzzzzzzzzzzzzzzzzzzz{{nnnnzzzzzzWWzzzzzzzz??OOOOzzzzzzzzzzzzzzzz{{{{OO{{zzzz{{{{{{{{zzzzzzzzzzaaaazzzzzzzz{{{{zzaaaazzzzzz{{zz::77JJ{{{{{{zzzzzzzzaa{{{{{{{{zzzzaaaazz{{{{OO22aazzzzzzzzaa{{nnaazzzzzzzzzzzz..??aaaazzzz{{{{zzzzzznnnn{{",
"{{BB>>aaaazzzzzzaa{{RRzzzzzzzzzzzzzzzzzzzzzz{{nnnnzzzzzzWWzzzzzzzz??OOOOzzzzzzzzzzzzzzzz{{{{OO{{zzzz{{{{{{{{zzzzzzzzzzaaaazzzzzzzz{{{{zzaaaazzzzzz{{zz::77JJ{{{{{{zzzzzzzzaa{{{{{{{{zzzzaaaazz{{{{OO22aazzzzzzzzaa{{nnaazzzzzzzzzzzz..??aaaazzzz{{{{zzzzzznnnn{{",
"{{OO==aaaazzzzzzaa{{zzzzzzzz//<<PPzzzzzzzzzzzznnnn{{{{{{PPEEzzzzzz{{OOOOLL{{{{{{zzzzzzzz{{{{nnnn{{zz{{{{{{{{zzzzzz{{{{nnaazzzzzz{{{{{{zzzzaazzzznnFF7777::zz{{{{{{{{zzzzzzzzzzzz{{aaaaaaaaFF{{{{{{{{77,,aazzzzzzaazzzzaazzzzzzzzzzzzAA..aaaaaa{{{{{{zzzzzzzzaa{{",
"{{OO==aaaazzzzzzaa{{zzzzzzzz//<<PPzzzzzzzzzzzznnnn{{{{{{PPEEzzzzzz{{OOOOLL{{{{{{zzzzzzzz{{{{nnnn{{zz{{{{{{{{zzzzzz{{{{nnaazzzzzz{{{{{{zzzzaazzzznnFF7777::zz{{{{{{{{zzzzzzzzzzzz{{aaaaaaaaFF{{{{{{{{77,,aazzzzzzaazzzzaazzzzzzzzzzzzAA..aaaaaa{{{{{{zzzzzzzzaa{{",
"{{{{aazznn{{zzzzzzzzzzzzzzzzzzAA<<OOzzzzzzzzzznn{{{{{{{{PPaazz{{zz{{aaaaaannnn{{{{zzzzzzzzzz{{{{{{zzzzzz{{{{{{zz{{{{{{nnaazzzzzz{{{{zzzzzzzzzz{{{{FF77aaaa{{zzzzaaaaaaaazzzzzzzzaaaaaaaa..zz{{{{{{{{zz??LLaazzzzzzzzzzzz{{{{{{zzzzzzzzaazzzz{{{{{{44nn==zzzzzzzz",
"{{{{aazznn{{zzzzzzzzzzzzzzzzzzAA<<OOzzzzzzzzzznn{{{{{{{{PPaazz{{zz{{aaaaaannnn{{{{zzzzzzzzzz{{{{{{zzzzzz{{{{{{zz{{{{{{nnaazzzzzz{{{{zzzzzzzzzz{{{{FF77aaaa{{zzzzaaaaaaaazzzzzzzzaaaaaaaa..zz{{{{{{{{zz??LLaazzzzzzzzzzzz{{{{{{zzzzzzzzaazzzz{{{{{{44nn==zzzzzzzz",
"zz{{zzzz{{{{zzzzzzzzzzzzzzzzzzzzOOTTnnzzzzzzzzzzzzzzzzzzaaaazz{{{{zzzzaaaannnn{{{{{{zzzzzzzzzzzz{{zzzzzzzzzz{{zzzz{{{{nnnnzzzzzzzznnnn??zzzz{{nnnnnnaazzzz{{zzaaaaJJCCaaaazzzzzzzzaaaaAA..zz{{{{{{zzzzaaaaaazzzzzzzzzz??..{{{{zzzzzzzzzzzzzzzzzznn88nn::aazzzzzz",
"zz{{zzzz{{{{zzzzzzzzzzzzzzzzzzzzOOTTnnzzzzzzzzzzzzzzzzzzaaaazz{{{{zzzzaaaannnn{{{{{{zzzzzzzzzzzz{{zzzzzzzzzz{{zzzz{{{{nnnnzzzzzzzznnnn??zzzz{{nnnnnnaazzzz{{zzaaaaJJCCaaaazzzzzzzzaaaaAA..zz{{{{{{zzzzaaaaaazzzzzzzzzz??..{{{{zzzzzzzzzzzzzzzzzznn88nn::aazzzzzz",
"zzzzzzzz{{{{zzzzzz{{{{{{zzzzzzzzzznnnn{{zzzzzzzzzzzzzzzzzzzz{{{{{{zzzzaazzzzzzzzzz{{aaaaaa::::7777zzzzzzzzzzzzzz{{{{{{nnnnzzaaAA**8888,,zzzz{{nnnnaazzzzzzzzzzzzBB::%%aaaaaazzzzzzaaAAzzzzzzzzzzzzzzzzaaaazzzzzzzzzzzzzzOO<<nn??MM{{{{zzzzzzzzzznn88JJEE??aazzzz",
"zzzzzzzz{{{{zzzzzz{{{{{{zzzzzzzzzznnnn{{zzzzzzzzzzzzzzzzzzzz{{{{{{zzzzaazzzzzzzzzz{{aaaaaa::::7777zzzzzzzzzzzzzz{{{{{{nnnnzzaaAA**8888,,zzzz{{nnnnaazzzzzzzzzzzzBB::%%aaaaaazzzzzzaaAAzzzzzzzzzzzzzzzzaaaazzzzzzzzzzzzzzOO<<nn??MM{{{{zzzzzzzzzznn88JJEE??aazzzz",
"zzzzzzaaaa{{zzzz{{{{zzzzzzzzzzzzzzzzzz{{zzzzzzzzzz{{{{{{zzzz{{{{{{zzzzzzzzzzzzzzzzaaaaaaaa**''))33zzzzzzzzzzzzzzzzzzzznn{{aaaaaaaaJJKKOOAAzz{{{{zzzzzzzzzzzzzzzzAABBzzzzaaaazz{{{{{{zzzzzzzzzzzzzzzzzzzzzzzzzzzzzzzzzz{{{{{{aaaaOOnnaazzzzzzzzzzzz{{JJnnaaaazzzz",
"zzzzzzaaaa{{zzzz{{{{zzzzzzzzzzzzzzzzzz{{zzzzzzzzzz{{{{{{zzzz{{{{{{zzzzzzzzzzzzzzzzaaaaaaaa**''))33zzzzzzzzzzzzzzzzzzzznn{{aaaaaaaaJJKKOOAAzz{{{{zzzzzzzzzzzzzzzzAABBzzzzaaaazz{{{{{{zzzzzzzzzzzzzzzzzzzzzzzzzzzzzzzzzz{{{{{{aaaaOOnnaazzzzzzzzzzzz{{JJnnaaaazzzz",
"zzzzzzaaaaOOnnTT{{zzzzzz]]zzzzzzzzzzzzzzzzzzzzaa{{{{{{zzzzzz{{{{nnSSzzzzzzzz{{{{{{aaaaaazz{{zzzzzzzzzzzzzzzzzz????FFzzaa{{zzaaaaaazz{{{{zzzzzzzzzzzzzz????zzzz{{{{{{{{zzaazzzzzz{{{{{{{{zzzzzzzz{{zzzzzzzzzz{{{{zzzz{{{{{{zzzzaannnnaazzzzzz77aazzzz{{aaaaaann{{",
"zzzzzzaaaaOOnnTT{{zzzzzz]]zzzzzzzzzzzzzzzzzzzzaa{{{{{{zzzzzz{{{{nnSSzzzzzzzz{{{{{{aaaaaazz{{zzzzzzzzzzzzzzzzzz????FFzzaa{{zzaaaaaazz{{{{zzzzzzzzzzzzzz????zzzz{{{{{{{{zzaazzzzzz{{{{{{{{zzzzzzzz{{zzzzzzzzzz{{{{zzzz{{{{{{zzzzaannnnaazzzzzz77aazzzz{{aaaaaann{{",
"zzzzzzzzaaaaaaaazzzzzzzz331133zzzzzzzzzzzzzzaannnn{{zzzzzzzznnRRRR''EESSzzzzzz{{{{zzzzzzzzzz{{zzzzzzzz{{zzzzAA??FFFFzzzz{{zzzzzzzzzz{{{{zzzzzzzzzzzz{{{{//??BB{{{{{{{{{{{{zzzzzzzz{{{{{{{{zzzz??{{{{zzzzzz{{{{{{zzzzzzzzzzzzzzzznnnnzzzzzzFFWWzzzzzzzzzzaazz{{{{",
"zzzzzzzzaaaaaaaazzzzzzzz331133zzzzzzzzzzzzzzaannnn{{zzzzzzzznnRRRR''EESSzzzzzz{{{{zzzzzzzzzz{{zzzzzzzz{{zzzzAA??FFFFzzzz{{zzzzzzzzzz{{{{zzzzzzzzzzzz{{{{//??BB{{{{{{{{{{{{zzzzzzzz{{{{{{{{zzzz??{{{{zzzzzz{{{{{{zzzzzzzzzzzzzzzznnnnzzzzzzFFWWzzzzzzzzzzaazz{{{{",
"zzzzzzzzzzaazzzzzzzzzzPP==PPaazzzzzzzzzzzzzz{{{{{{{{zzzzzzbbGG88::zzzzzzzzBB<<OO{{{{zzzzzz66CC{{{{{{{{zzzzPPTTUUSSaaaazzaaaaaazzzzzz{{{{zzzzzzaazz{{{{nnOO//??AAzz{{{{{{{{{{zzzzEEzz{{zz{{zzzzCC{{zzzzzz{{{{{{zz77aazzzzzzzzzzzzzzzzzzzz::BB??zzzzzzzzzzzzzz{{zz",
"zzzzzzzzzzaazzzzzzzzzzPP==PPaazzzzzzzzzzzzzz{{{{{{{{zzzzzzbbGG88::zzzzzzzzBB<<OO{{{{zzzzzz66CC{{{{{{{{zzzzPPTTUUSSaaaazzaaaaaazzzzzz{{{{zzzzzzaazz{{{{nnOO//??AAzz{{{{{{{{{{zzzzEEzz{{zz{{zzzzCC{{zzzzzz{{{{{{zz77aazzzzzzzzzzzzzzzzzzzz::BB??zzzzzzzzzzzzzz{{zz",
"zzaa??FFzzzzzzzzzzzzaa==,,CCzzzzzzzzzzzzzzzz{{zzzzzzzzzzPPOOzznnzzzzzzzzzz{{88nnzzzzzzzzzzzznnTTnn{{{{zz..33aann{{{{zzzzzzaaaaaazz{{{{{{zzzzzzFFzz{{{{nnnnaa//''aazz{{zz{{{{{{??%%zzzzzzzzzz!!MM{{{{zzzznnzzzzzz//aaaaaazzzzzzzzzzzzzz77CCJJzzzzzzzzzzzzzzzzzzaa",
"zzaa??FFzzzzzzzzzzzzaa==,,CCzzzzzzzzzzzzzzzz{{zzzzzzzzzzPPOOzznnzzzzzzzzzz{{88nnzzzzzzzzzzzznnTTnn{{{{zz..33aann{{{{zzzzzzaaaaaazz{{{{{{zzzzzzFFzz{{{{nnnnaa//''aazz{{zz{{{{{{??%%zzzzzzzzzz!!MM{{{{zzzznnzzzzzz//aaaaaazzzzzzzzzzzzzz77CCJJzzzzzzzzzzzzzzzzzzaa",
"{{{{nnnn??zzzzzz{{nnnn{{zzzz{{{{{{{{nnaa??????BBFFzzzzzzaazzzzzzzzzzzzzzzz{{22nnzzzzzzzzzzzznnnnbbaazzzz=={{{{{{{{{{zzzzzz{{nnnn{{{{{{{{zzzz??TTzzzz{{{{nnnnaaBBaaaa{{{{zzzzaa$$66zzzzzzzzaa''QQzzzzzzaaaazzzzzzBB))::aaaazzzzzzzzzzzz77aannzzzzzzzzzzzzzzaaaaaa",
"{{{{nnnn??zzzzzz{{nnnn{{zzzz{{{{{{{{nnaa??????BBFFzzzzzzaazzzzzzzzzzzzzzzz{{22nnzzzzzzzzzzzznnnnbbaazzzz=={{{{{{{{{{zzzzzz{{nnnn{{{{{{{{zzzz??TTzzzz{{{{nnnnaaBBaaaa{{{{zzzzaa$$66zzzzzzzzaa''QQzzzzzzaaaazzzzzzBB))::aaaazzzzzzzzzzzz77aannzzzzzzzzzzzzzzaaaaaa",
"{{{{{{aa??aazz{{{{{{zzzzzzzzzzzz{{{{nnnnOO??::HHzzzz{{{{zzzzzzzzzzzzzzzzzzzzzzaazzzz{{zzzzzzzzzzaa]]zzzz{{{{{{{{{{{{{{zzzzzzaann{{{{{{zzzzJJPPYYzzzzzzaa{{{{zzaaaaaazzzzaaaa??,,CCzzzzaannnn..zzzzzzaaaaaazzzzzzzzaaAAAAzzaazzzzzzzzzzaa{{nnzzzzzzzzzzzzaaaaaazz",
"{{{{{{aa??aazz{{{{{{zzzzzzzzzzzz{{{{nnnnOO??::HHzzzz{{{{zzzzzzzzzzzzzzzzzzzzzzaazzzz{{zzzzzzzzzzaa]]zzzz{{{{{{{{{{{{{{zzzzzzaann{{{{{{zzzzJJPPYYzzzzzzaa{{{{zzaaaaaazzzzaaaa??,,CCzzzzaannnn..zzzzzzaaaaaazzzzzzzzaaAAAAzzaazzzzzzzzzzaa{{nnzzzzzzzzzzzzaaaaaazz",
"{{{{zzaaaaAA{{{{{{{{zzzzzzzzzzzzzz{{{{zznnzzzzzzzzzz{{{{{{zzzzzzzzzzzzzzzzzz::aaaazzzzzzzzzzzzzzzzzzzzzz{{zzaazz{{{{{{zzzzzzzzaazzzzaaaannJJnnnn{{zzzzzzzz{{zzzzzzzzzzzzaaaaaaaazzzzzznn{{nnnnzzzzzzzzzzaazzzzzzzzzzaazzzzaazzzzzzzzzzzz{{{{zzzzzz{{zzzzaazzaazz",
"{{{{zzaaaaAA{{{{{{{{zzzzzzzzzzzzzz{{{{zznnzzzzzzzzzz{{{{{{zzzzzzzzzzzzzzzzzz::aaaazzzzzzzzzzzzzzzzzzzzzz{{zzaazz{{{{{{zzzzzzzzaazzzzaaaannJJnnnn{{zzzzzzzz{{zzzzzzzzzzzzaaaaaaaazzzzzznn{{nnnnzzzzzzzzzzaazzzzzzzzzzaazzzzaazzzzzzzzzzzz{{{{zzzzzz{{zzzzaazzaazz",
"{{zzzzaaaazznnzzzzzzzzaazzzzzzzzzzzz{{zzzzzzzzzzzzzzzzPP]]XXzzzzzzzzzzzzzz{{JJaaaazzzzzzzzzzzzzzzzzzzzzzzzzz??zzzz{{nnaaaazzzzaazzaannnnnnJJnn{{{{{{zzzzzz{{::zzzzzzzzzzzzzzaaaazzzzzznnaaaazzzzzzzzzzzzzz{{{{zzzzzzaazz{{{{{{{{{{{{zz{{nnaazzzzzz{{{{zzaazzaazz",
"{{zzzzaaaazznnzzzzzzzzaazzzzzzzzzzzz{{zzzzzzzzzzzzzzzzPP]]XXzzzzzzzzzzzzzz{{JJaaaazzzzzzzzzzzzzzzzzzzzzzzzzz??zzzz{{nnaaaazzzzaazzaannnnnnJJnn{{{{{{zzzzzz{{::zzzzzzzzzzzzzzaaaazzzzzznnaaaazzzzzzzzzzzzzz{{{{zzzzzzaazz{{{{{{{{{{{{zz{{nnaazzzzzz{{{{zzaazzaazz",
"zzzzzzaazzzzzzzzEE//BBTTBBaazzzzzzzzzzzzzzzzzzzzzzzzAATTnnzz{{zzzzzzzzzzzz{{nnaazzzz]]{{{{{{zz{{zzzzzzzzzzaa??zzzzzzzzzzaaaazzzzzzzz{{{{aaaazzzz{{{{zzzzzzzz??zzzzzzzz{{{{{{YYaazzzzzzaazzzzzzzzzzzzzzzzzz{{{{{{zzzzzzzzzzzz{{{{{{{{zzzzaaEEaazzzz{{{{{{{{zzzzzz",
"zzzzzzaazzzzzzzzEE//BBTTBBaazzzzzzzzzzzzzzzzzzzzzzzzAATTnnzz{{zzzzzzzzzzzz{{nnaazzzz]]{{{{{{zz{{zzzzzzzzzzaa??zzzzzzzzzzaaaazzzzzzzz{{{{aaaazzzz{{{{zzzzzzzz??zzzzzzzz{{{{{{YYaazzzzzzaazzzzzzzzzzzzzzzzzz{{{{{{zzzzzzzzzzzz{{{{{{{{zzzzaaEEaazzzz{{{{{{{{zzzzzz",
"zzzzzzzzzzzzzzzzzzzz,,BBAAaaaazzzzzzNN66zzzzzz{{zz//aaaannzzzzzzzzzz{{{{{{{{{{zzzzzzOOnnaaaazz{{{{zzaa::aa::PPzzzzzznnaaaannnnzzzzzz{{{{aazzzzzzzzzzzzzzzz????zzzzzz{{{{OO{{aazzzzzzzzzzzzzzzzzzzz??<<]]zzzzzz{{zzzzzzzzzzzzzz{{{{zzzzLLBBzzzzzzzzzz{{{{{{zzzzzz",
"zzzzzzzzzzzzzzzzzzzz,,BBAAaaaazzzzzzNN66zzzzzz{{zz//aaaannzzzzzzzzzz{{{{{{{{{{zzzzzzOOnnaaaazz{{{{zzaa::aa::PPzzzzzznnaaaannnnzzzzzz{{{{aazzzzzzzzzzzzzzzz????zzzzzz{{{{OO{{aazzzzzzzzzzzzzzzzzzzz??<<]]zzzzzz{{zzzzzzzzzzzzzz{{{{zzzzLLBBzzzzzzzzzz{{{{{{zzzzzz",
"aaaazzzzzzzzzzzzzzzz{{OOnnTTaazzzzNNNN11zz{{{{{{{{zzaazzzzzzzzzzzzzz{{{{{{{{{{zzzzzz{{??NNaann{{{{{{aa::::aazzzzzzzznnaaaannaazzzzzz{{{{zzzzzzzz==zzzzzzzz??JJzzzz{{{{XXOOzzzzzzzzzzzzzzzzzzzzzzzz,,55KKaazzzzzz{{zzzzzzzzaazzzzzzzzaaAAAAzzzzzzzzzz{{{{{{{{zzzz",
"aaaazzzzzzzzzzzzzzzz{{OOnnTTaazzzzNNNN11zz{{{{{{{{zzaazzzzzzzzzzzzzz{{{{{{{{{{zzzzzz{{??NNaann{{{{{{aa::::aazzzzzzzznnaaaannaazzzzzz{{{{zzzzzzzz==zzzzzzzz??JJzzzz{{{{XXOOzzzzzzzzzzzzzzzzzzzzzzzz,,55KKaazzzzzz{{zzzzzzzzaazzzzzzzzaaAAAAzzzzzzzzzz{{{{{{{{zzzz",
"nnnn{{{{{{{{{{zzzzzzzzzzOO{{zzzzzzzzff22{{{{{{{{zzzzzzzzzzzzzzzzaaBBzz{{{{{{zzzz{{zzzzzzzzaann{{{{nn{{zzzzaa{{zz{{nnnnzzzznnaazzzz{{{{{{zzzzzz>>==zzzznnnn??FFzzaaJJJJOORR{{zzzzzzzzzzzzzzaaaazzaa''CCMMaaaazzzzzz{{{{{{zzaaaazzzzzzaaBBaazzzzzzAA##**nn{{{{{{zz",
"nnnn{{{{{{{{{{zzzzzzzzzzOO{{zzzzzzzzff22{{{{{{{{zzzzzzzzzzzzzzzzaaBBzz{{{{{{zzzz{{zzzzzzzzaann{{{{nn{{zzzzaa{{zz{{nnnnzzzznnaazzzz{{{{{{zzzzzz>>==zzzznnnn??FFzzaaJJJJOORR{{zzzzzzzzzzzzzzaaaazzaa''CCMMaaaazzzzzz{{{{{{zzaaaazzzzzzaaBBaazzzzzzAA##**nn{{{{{{zz",
"nnaa{{{{{{{{{{{{zzzzzzzz{{{{{{zzzzzzAA%%{{{{{{zzzzzzzzzzzzzzzzzzTTAAOO{{{{zzzzzz{{{{zzzzzzzzaazzzz{{{{zzzzzz{{{{{{{{{{zzzzzzzzzz{{{{{{{{aaaaAA--LLzzaannnnaaaazzaaJJJJ??zz{{zzaaEEzzzz{{nnnnaazzaazz{{..??aazzzzaaBB{{{{zzaaaazzzzzzzzaazzzzzzzzzz**::jj{{{{{{zz",
"nnaa{{{{{{{{{{{{zzzzzzzz{{{{{{zzzzzzAA%%{{{{{{zzzzzzzzzzzzzzzzzzTTAAOO{{{{zzzzzz{{{{zzzzzzzzaazzzz{{{{zzzzzz{{{{{{{{{{zzzzzzzzzz{{{{{{{{aaaaAA--LLzzaannnnaaaazzaaJJJJ??zz{{zzaaEEzzzz{{nnnnaazzaazz{{..??aazzzzaaBB{{{{zzaaaazzzzzzzzaazzzzzzzzzz**::jj{{{{{{zz",
"nn{{{{{{zzzzzzzzzzzzzzzz{{{{{{{{zzzzzz??zzzzzzzzzzzzzz{{{{{{zzzzzzSS77AAzzzzzzzz{{{{zzzzzzzzzzzzzzzz{{zzzzzzzz{{{{{{zzzzzzzzzzzzzz{{aaLL]]aaaa,,SSzzzzzznnnnzzzzzzaaOOaazzzzzzAA??{{{{{{nnaaaazzzzzzzzzzzzaazzzzzzBBLL{{{{zzzzzzzzzzzzzzzzzzzzzzzzzz//PPnn{{{{zz",
"nn{{{{{{zzzzzzzzzzzzzzzz{{{{{{{{zzzzzz??zzzzzzzzzzzzzz{{{{{{zzzzzzSS77AAzzzzzzzz{{{{zzzzzzzzzzzzzzzz{{zzzzzzzz{{{{{{zzzzzzzzzzzzzz{{aaLL]]aaaa,,SSzzzzzznnnnzzzzzzaaOOaazzzzzzAA??{{{{{{nnaaaazzzzzzzzzzzzaazzzzzzBBLL{{{{zzzzzzzzzzzzzzzzzzzzzzzzzz//PPnn{{{{zz",
"nn{{zzzzzzzzzzzzzzzzzzzz{{{{{{zzzzzzzzaazzzzzzzzzzzz33NNzz{{{{zzzzzzIIaaBBzzzzzz{{{{zzzzzzzzzzzzzzzzzzzzzzzzzz{{zzzzzzzzzzaazzzzzzzzzzzzaaaaKKMMzzzzzzaaaaaazzzzzzaaaazzzzLL::==??{{{{{{{{zzaaaazzzzzzzzzzaazzzzzzAACCnnzzzzzzzzzz::aazzzzzzzzzzzzzz3377aazzzzzz",
"nn{{zzzzzzzzzzzzzzzzzzzz{{{{{{zzzzzzzzaazzzzzzzzzzzz33NNzz{{{{zzzzzzIIaaBBzzzzzz{{{{zzzzzzzzzzzzzzzzzzzzzzzzzz{{zzzzzzzzzzaazzzzzzzzzzzzaaaaKKMMzzzzzzaaaaaazzzzzzaaaazzzzLL::==??{{{{{{{{zzaaaazzzzzzzzzzaazzzzzzAACCnnzzzzzzzzzz::aazzzzzzzzzzzzzz3377aazzzzzz",
"nnzzzzzzzzzzzzzzaaaaaazzzznnaazzzzzzzzzzzzzzzzzzzzzzIIaazz{{{{zzzzzzzzaaaazzzzzzDDFFnnFFzzzzzzzzzzzzzzzzzzzzzzzzCCzzzzzzzzzz]]aaaazzzzzzaaaa??{{{{{{zzzzzzzzzzzzzzzzzzaaaaCC::??zz{{{{{{zzzzaann{{zzzzzzzzzzzzzzzzAA??aazzzzzz//aaaann{{{{zzzzzzzzaaOOzzaazzzzzz",
"nnzzzzzzzzzzzzzzaaaaaazzzznnaazzzzzzzzzzzzzzzzzzzzzzIIaazz{{{{zzzzzzzzaaaazzzzzzDDFFnnFFzzzzzzzzzzzzzzzzzzzzzzzzCCzzzzzzzzzz]]aaaazzzzzzaaaa??{{{{{{zzzzzzzzzzzzzzzzzzaaaaCC::??zz{{{{{{zzzzaann{{zzzzzzzzzzzzzzzzAA??aazzzzzz//aaaann{{{{zzzzzzzzaaOOzzaazzzzzz",
"aazzzzzzzzzzzznnnnnnnnzzzzaaaann{{{{{{{{{{zzzzzzzzFFaaaa{{{{{{zzzzzzzzaaaaaazz33nnAA{{zzzzzzzzzzzzBB//BBzzzzzzzzaaCCBBzzzz44IIaaaaaaaazzzzaazzzz{{nn{{{{zzzzzzzz{{zzzzzzzz::aaaazz{{zznnaaaaaazz{{{{{{zzzzzzzzzzzzaa??aazzzzzz??aann{{{{zzzzzz{{{{nn{{{{{{{{zzzz",
"aazzzzzzzzzzzznnnnnnnnzzzzaaaann{{{{{{{{{{zzzzzzzzFFaaaa{{{{{{zzzzzzzzaaaaaazz33nnAA{{zzzzzzzzzzzzBB//BBzzzzzzzzaaCCBBzzzz44IIaaaaaaaazzzzaazzzz{{nn{{{{zzzzzzzz{{zzzzzzzz::aaaazz{{zznnaaaaaazz{{{{{{zzzzzzzzzzzzaa??aazzzzzz??aann{{{{zzzzzz{{{{nn{{{{{{{{zzzz",
"zzzzzzzzzzzznnnnnn{{{{{{{{zzzz{{{{{{{{{{{{{{zzaaaaEEFFzzzzzzzzzzzz{{{{nnzzzzzz??BB//``zzzzzzzzzzzzAA..HHaazzzzzzzzaaaaBBzzOO{{nnaaaaaannzzzzzzzznnnn{{{{zzzzzzzz{{{{{{zzaaaaaazzzzaaaaaaaaaazzzznnnnnnzzzzzzzzzzzzaazzaazzzz??aaaa{{{{{{zzzz{{{{{{{{{{{{{{zz{{{{",
"zzzzzzzzzzzznnnnnn{{{{{{{{zzzz{{{{{{{{{{{{{{zzaaaaEEFFzzzzzzzzzzzz{{{{nnzzzzzz??BB//``zzzzzzzzzzzzAA..HHaazzzzzzzzaaaaBBzzOO{{nnaaaaaannzzzzzzzznnnn{{{{zzzzzzzz{{{{{{zzaaaaaazzzzaaaaaaaaaazzzznnnnnnzzzzzzzzzzzzaazzaazzzz??aaaa{{{{{{zzzz{{{{{{{{{{{{{{zz{{{{",
"{{zzzzzzzzaannnn{{zzzz{{{{zzzz{{{{zzzzzz{{{{zzaaaaaaaazzzzzzzzzznnnn{{{{{{zzaa????zzzzzzzzzzzz{{aa??aaaaaazzzzzzzzaaaaaa{{{{{{{{zzzzzz{{{{zzzzzznnaa{{zzzzzzzzzzzzzzzzzzzzzzzzzzaaaaaaaaaazzzzaaaannnnnnzzzzzzzz{{nn{{zzzzaaaaaaaa{{{{zzzzzz{{{{{{{{zzzzzzzz{{{{",
"{{zzzzzzzzaannnn{{zzzz{{{{zzzz{{{{zzzzzz{{{{zzaaaaaaaazzzzzzzzzznnnn{{{{{{zzaa????zzzzzzzzzzzz{{aa??aaaaaazzzzzzzzaaaaaa{{{{{{{{zzzzzz{{{{zzzzzznnaa{{zzzzzzzzzzzzzzzzzzzzzzzzzzaaaaaaaaaazzzzaaaannnnnnzzzzzzzz{{nn{{zzzzaaaaaaaa{{{{zzzzzz{{{{{{{{zzzzzzzz{{{{",
"{{zzzzzzzzzzzz{{zzzzzzzzzzzzzzzzzzzzzzzz{{zzzz{{{{{{{{{{zzaaaaaannaaaazz{{{{zzaazzzzzzzzzzzzzz{{{{{{__aaaaaazzzzzzaaaann{{{{{{zzzzzzzz{{{{{{aaaaaazzzzzzzzzzaaaazzzzzzzzzz{{{{zzaazzzzzzaazzzzzzaannaannzzzzzzzzzz{{{{{{zzaazzaazz{{zzzzzzzzzz{{{{zzzzzzzzzzzz{{",
"{{zzzzzzzzzzzz{{zzzzzzzzzzzzzzzzzzzzzzzz{{zzzz{{{{{{{{{{zzaaaaaannaaaazz{{{{zzaazzzzzzzzzzzzzz{{{{{{__aaaaaazzzzzzaaaann{{{{{{zzzzzzzz{{{{{{aaaaaazzzzzzzzzzaaaazzzzzzzzzz{{{{zzaazzzzzzaazzzzzzaannaannzzzzzzzzzz{{{{{{zzaazzaazz{{zzzzzzzzzz{{{{zzzzzzzzzzzz{{"
};
