/* XPM */
static char *rabbitRight[] = {
/* columns rows colors chars-per-pixel */
"43 54 217 2 ",
"   c 0",
".  c #17010A",
"X  c #1B0613",
"o  c #280306",
"O  c #3A0103",
"+  c #340A0B",
"@  c #3D090D",
"#  c #380206",
"$  c #250C17",
"%  c #3D0E12",
"&  c #350B16",
"*  c #2C141B",
"=  c #2A131A",
"-  c #3B1215",
";  c #3B161A",
":  c #38171B",
">  c #381A22",
",  c #2E1820",
"<  c #3D242A",
"1  c #43040A",
"2  c #580000",
"3  c #440E14",
"4  c #480F17",
"5  c #520D1C",
"6  c #421619",
"7  c #431B1D",
"8  c #491C1E",
"9  c #471317",
"0  c #59181C",
"q  c #451E20",
"w  c #491F21",
"e  c #441A2B",
"r  c #551723",
"t  c #5D1E30",
"y  c #462325",
"u  c #4B2425",
"i  c #452529",
"p  c #4B2628",
"a  c #4D2A2C",
"s  c #452B2D",
"d  c #532326",
"f  c #522B2D",
"g  c #58292B",
"h  c #4C2C32",
"j  c #482B32",
"k  c #542E30",
"l  c #5A2E32",
"z  c #592332",
"x  c #4C3133",
"c  c #4D3438",
"v  c #543234",
"b  c #5B3334",
"n  c #553639",
"m  c #5C3639",
"M  c #533A3B",
"N  c #5A3A3B",
"B  c #792422",
"V  c #67273A",
"C  c #633C3D",
"Z  c #663739",
"A  c #71283D",
"S  c #65403E",
"D  c #5C3F44",
"F  c #6D2742",
"G  c #722942",
"H  c #693E41",
"J  c #643F41",
"K  c #7F3144",
"L  c #584245",
"P  c #634343",
"I  c #6C4244",
"U  c #6C4B4B",
"Y  c #684A4A",
"T  c #734B4D",
"R  c #724749",
"E  c #6F4E50",
"W  c #664F56",
"Q  c #754E51",
"!  c #695555",
"~  c #745354",
"^  c #715A5B",
"/  c #7D5C5C",
"(  c #7B5254",
")  c #7D605D",
"_  c #785E61",
"`  c #7B6465",
"'  c #8A333C",
"]  c #883021",
"[  c #B53B27",
"{  c #974433",
"}  c #AC4935",
"|  c #C8513A",
" . c #D95536",
".. c #EB643E",
"X. c #E3603F",
"o. c #883341",
"O. c #9C3D41",
"+. c #A03F43",
"@. c #835B57",
"#. c #924A48",
"$. c #B74E45",
"%. c #A04043",
"&. c #82625C",
"*. c #916259",
"=. c #B46453",
"-. c #A76254",
";. c #845F60",
":. c #8A6464",
">. c #8C6C6D",
",. c #866969",
"<. c #92696A",
"1. c #8A736C",
"2. c #98756F",
"3. c #8D7575",
"4. c #877876",
"5. c #957675",
"6. c #9D7374",
"7. c #937B7B",
"8. c #9C7C7D",
"9. c #A57B7D",
"0. c #A2787A",
"q. c #C75443",
"w. c #DE5E40",
"e. c #D1694E",
"r. c #E56241",
"t. c #E66D4C",
"y. c #CA7A69",
"u. c #E87E62",
"i. c #98827D",
"p. c #A2867D",
"a. c #D18876",
"s. c #E88368",
"d. c #E78167",
"f. c #EA8C76",
"g. c #E9947C",
"h. c #9A7E80",
"j. c #A77E80",
"k. c #A97E81",
"l. c #9C8383",
"z. c #9C8988",
"x. c #8B8284",
"c. c #A28482",
"v. c #AB8284",
"b. c #A58B8A",
"n. c #AD8B8B",
"m. c #AD8789",
"M. c #B28C8C",
"N. c #AA918B",
"B. c #AB9392",
"V. c #A99795",
"C. c #B59393",
"Z. c #BA9696",
"A. c #B49C9B",
"S. c #BC9D9B",
"D. c #B99B95",
"F. c #B29290",
"G. c #B3A39B",
"H. c #BCAAA6",
"J. c #B8A7A5",
"K. c #BEB4B2",
"L. c #C19D96",
"P. c #DA998D",
"I. c #E79983",
"U. c #C2A09E",
"Y. c #DFA695",
"T. c #EEA38E",
"R. c #EAA899",
"E. c #F0A18D",
"W. c #C4A4A2",
"Q. c #C4ADAC",
"!. c #CAADAB",
"~. c #C5A8A5",
"^. c #C4B0AE",
"/. c #CBB1AF",
"(. c #CCB5B4",
"). c #C6B8B2",
"_. c #CAB9B6",
"`. c #D2BEBB",
"'. c #D3B9B6",
"]. c #DDB2A7",
"[. c #EEB6A5",
"{. c #F1BDAF",
"}. c #CDC2BD",
"|. c #CAC1B8",
" X c #D4C3BD",
".X c #F2C7BA",
"XX c #EBC5BB",
"oX c #D4C5C3",
"OX c #DBC6C3",
"+X c #D6CAC5",
"@X c #D9CBC7",
"#X c #DBCDCA",
"$X c #D6CBC9",
"%X c #DCD1CD",
"&X c #D7D0C9",
"*X c #E4CCC8",
"=X c #F5CEC2",
"-X c #E2D1CD",
";X c #EED1CA",
":X c #F3D2CA",
">X c #F6D0C4",
",X c #E3D5D3",
"<X c #E6DBD5",
"1X c #E5DCD9",
"2X c #EADDDA",
"3X c #E8DBD7",
"4X c #F2DBD5",
"5X c #F6DED8",
"6X c #ECE2DE",
"7X c #E6E1DA",
"8X c #F4E2DE",
"9X c #EEE4E2",
"0X c #F1E6E3",
"qX c #F2E9E7",
"wX c #F3EBE8",
"eX c #F8EAE7",
"rX c #F6F6F1",
/* pixels */
"                                      # 3.P.#.V l B.2XY I           b C Z Z g R <.    ",
"                                      6 c.g.$.A z >.,XJ.p Y       N k :.6.6.6.( (     ",
"                                    - a *Xf.q.G V l B.wXA.l     C b ,.j.v.v.v.c.C     ",
"                                    % N 2Xg.q.o.G t E _.1XB.Q   q I 9.k.v.v.M.Z.:.b   ",
"                                    # Y 9X:Xu.q.' A z ,.%X,X/ R b R k.k.k.M.S.U.M.P   ",
"                                    % ~ 9X8Xs.r.$.K V r i.0X).Y 1 ( j.k.v.!.'.(.S.a @ ",
"                                    @ C 9X8Xs...r.%.V 5 3.0X2X/ @ R k.m.Z.(.,X6X/.a % ",
"                                    # E 9X5Xs...r.O.F 5 3.6X2X8.9 R k.C.U.`.9XwX(.y # ",
"                                    % J 1X5Xs...r.O.G r 7.6X3Xb.H R j.C.!.,XwXwX(.p # ",
"                                    - l _.4Xs...r.+.F r 7.0XOX5.b R v.C./.2XwX2X7.g   ",
"                                    - g (.5Xd...w.o.F 5 >.,X XC.7 I M.U.`.6XwXOXN l   ",
"                                    6 q B.,Xy.| q.o.F r ~ ~.'.Z.7 b b.W.OX6X%XW.a #   ",
"                                      p p B.!.k.' V V r R M.~.Z.g C M.W.`.-X(.9.g     ",
"                                        6 p z.~._ V r 9 I v.W./ C l b ~ b.~.S.@.g     ",
"                                          p p ` J.b.R 3 b :.Y P g 6 g l v v v p       ",
"                                              p Y 9.<.Z 8 R :.R P ~.#X_.7.5 6         ",
"                                          @.R d # w q p @ 4 r Q ~.wXwXwX3XB.6 v       ",
"                                        C g Z c.>.I Z ;.A.H.~.`.2XwXwXwXwX,Xl.p       ",
"                                  @ g m p m ~.6X*XS.C.`.wXwXwXwXwXwXwXwXwXwX^.C       ",
"                                  ;.m g l `.wXwX6X`.*XwXwXwXwXwXwXwXwXwXwXwX9XA.U     ",
"                                  C.b 3 B.0XwXwX0X].Y.=X=X:X0XwXwXwXwXwXwXwXwX%X~     ",
"                                  H C l.2XwXwXwX,X#.e.I.[.T..X4X0XwXwXwXwXwXwX0X3.N   ",
"                                  p 3 +XwXwXwXwX*X{ ] #.<.=.g.{.;X0XwXwXwXwXwXwX,Xy % ",
"                                  w 3 oXwXwXwXwX:Xe.B @ o 1 -.I.R.8XwXwXwXwXwXwX,X7 @ ",
"                          m g a 7 v 8 oXwXwXwXwX:Xt.} 4 # : Z } T.0XwXwXwXwXwXwXoXv @ ",
"                      g a q p P Y b d +XwXwXwXwX:Xt.| 9 > n ,.{ P.0XwXwXwXwXwXwXJ.N   ",
"                    k 7 L oX9XwXwXd C oX0XwXwXwX:Xt. .8 L c P ] P.8XwXwXwXwXwXwX7.q   ",
"                7 k 8 S.2X9X0XwXwXZ l C.-X0XwXwX4Xu. .B s * # { R.0XwXwXwXwXwX_.^ v   ",
"                v J b.3X2X9X9XwXwXN.Y E A.,XwXwX0X[.t.[ 2 1 2 =..XwXwXwXwXwXwX7.h ^   ",
"            p v Y j.C.`.2X0X0X0XwX^.Y R c.`.9XwXwX8X{.I.a.a.e.y.;XwXwXwXwXwX9XM M !   ",
"          g v v 6.0.v.v.#XwX0X0XwX,Xb.H 8.!.-XwXwXwX0X5X=XE.T.XX0XwXwXwXwXwX0XL M     ",
"          v c 6.6.9.9.9.Z.2X9X0XwXwX_.Y R C.2XwXwXwXwXwXwX8X8XwXwXwXwXwXwXwX1Xy a     ",
"        g g 6.9.v.v.k.k.Z.,X2XwXwXwX9Xh.8 R l.oXwXwXwX9X! _ $XwXwX2X%XwXwX$Xz.a a M   ",
"        g :.M.M.v.v.v.k.F.,X6XwXwXwXwX+X>.d 6 8.oX0X$X` n (.2XwXK.H.,.*X5Xc.P P y y c ",
"        p m.b.M.v.j.j.9.k.-X0XwXwXwXwXwX X5.b 8 Y l.v Y ` B.oXwXwXoX>.a.I.*.~ E ^     ",
"        % C.v.b.9.9.9.j.S.-X0XwXwXwXwXwX0X`.<.g d % 6 / J.}.9XwXwX,XB.0 @.5.,.~ v s c ",
"      7 a C.v.b.9.9.9.v.~.-X3X2XwXwXwXwXwXwXwXwXwXJ.` h h e e > & & * a $ ,           ",
"      g y 9.v.9.0.9.v.v.L.0X1X8 ,.wXwXwXwXwXwXwXwXwX3X`.B.l.7._ ~ E L h -             ",
"  w a q * 6.9.9.0.9.S.M.2XwXwX}.b m 9XwXwXwXwXwXwXwXwXwX0X3X+X+X).H.i.g +             ",
"y a _ p c 6.9.9.9.v.L.OXwXwXwXwXwXz.+ 7XwXwXwXwXwXwXwXwXwXwXwX3X3X%X7.a X             ",
"p : 9X%Xy <.0.9.M.M.3XwXwXwXwXwXwXwXP h H.wXwXwXwXwXwXwXwXwXwXwXwX%Xy o               ",
"p : oXwXP a 6.S.W.6XwXwXwXwXwXwXwXwX6Xn ^ wXwXwXwXwXwXwXwXwXwXwXl.D i                 ",
"p : }.wX}.a m N.9XwXwXwXwXwXwXwXwXwX6X! 4.9XwXwXwXwXwXwXwX6X_.b v i .                 ",
"i i ` 9X9XL h ).wXwXwXwXwXwXwXwXwX6Xi.7 +XwXwXwXwXwXwX7.H.).a v h p : .               ",
"  v v }.#Xv a oXwXwXwXwXwXwXwXwXwX0XG.a H.wXwXwXwXwX6X; p v q - W V.P -               ",
"  + p v ,.P v _ wXwXwXwX0XwXwXwXwX1XD : g oXwXwXwXwXwXP a v h E b.+X XN p             ",
"      i a g p 7 7.,X6X#X).+X,X+Xz.M c : < g Y ,XwXwXwXwX,.* k 5.c.D.<X~ a             ",
"        = $ q p b :.<.~ m v v v v L |.7Xx.- v ) wXwXwXwX9X4.7 v Y p.b.3.>             ",
"              : k v g @.&.&.) 1.+XrX}.N.1X4.+ g 1.9XwXwXwXwXc a a p a a               ",
"                * y p a v S / 2.G.|.7XG.B.4.o * a Y H.wXwX}.s <                       ",
"                      - i a a 7 i M 4.^ h h $     s c D N v *                         ",
"                                X = $ o $                                             ",
"                                                                                      ",
"                                                                                      "
};
