/* XPM */
static const char *Rock[] = {
/* columns rows colors chars-per-pixel */
"32 32 61 1 ",
"  c gray14",
". c #272727",
"X c #282828",
"o c #2A2A2A",
"O c #2C2C2C",
"+ c #2D2D2D",
"@ c gray18",
"# c #2F2F2F",
"$ c #313131",
"% c #323232",
"& c gray20",
"* c #343434",
"= c #353535",
"- c gray21",
"; c #373737",
": c gray22",
"> c #393939",
", c #3A3A3A",
"< c gray23",
"1 c #3C3C3C",
"2 c gray24",
"3 c #3E3E3E",
"4 c #3F3F3F",
"5 c gray25",
"6 c #414141",
"7 c gray26",
"8 c #434343",
"9 c #444444",
"0 c gray27",
"q c #464646",
"w c gray28",
"e c #484848",
"r c #494949",
"t c gray29",
"y c #4B4B4B",
"u c #4C4C4C",
"i c gray30",
"p c #4E4E4E",
"a c gray31",
"s c #505050",
"d c #515151",
"f c gray32",
"g c #535353",
"h c gray33",
"j c #555555",
"k c #565656",
"l c gray34",
"z c #585858",
"x c gray35",
"c c #5A5A5A",
"v c #5B5B5B",
"b c gray36",
"n c #5D5D5D",
"m c gray37",
"M c #5F5F5F",
"N c #606060",
"B c gray38",
"V c #626262",
"C c gray39",
"Z c #646464",
"A c #656565",
/* pixels */
"hghaa1X8$e8maaagggg118ggaagaggZa",
"ahhaaeeqagggBvgggge18agahgavgggh",
"hZgaeeegggggmBvghqe81gghhhhvhhga",
"ZZaqeghvhgvhhBvmmqg1gghhvmvmmmmZ",
"ahqaagvvgmhBvZZBZZhqggvhhmmBmmmZ",
"11aegvhmmmBmBZZZZZahqhmvahmBmmmg",
"=e1gahmmmmBBBZZZZZggvamgaamBmmmg",
"q1qgaamgmmmBBZZZBmhhqhvgaahmBmmv",
"e18eaammgmmBBBZZZmgvqghgaagmBmmh",
"e1>eaaagghhmBhvvZvvq1ahvaaaamvvg",
"e>>qaaahgghahhhghggv=agmgaaahvvg",
"a8=qqaaaaaaggggghahe#qamvaaagmvv",
"h81=aaaaaaaagaagaaag=>ghBgaagvmv",
"vq8 aaaaaaaaaeagggggq=egmvggggmv",
"vq8#=aaaqaaaeeahgeggh11avBhgggvm",
"ve>q>qe$qeaaeevg88=qe>eeggvggghm",
"vg>e1q88 eeaeeg81>e$8>1qeggggghv",
"hg8eeeq$$aaaaee=8q$8#==q8ggaaagm",
"vh8eeage8qaeeq>=>>##1181==aaaagv",
"mh8eeagaaq8eq8$18>X##eeq8=>aaaah",
"vqaeeeeee1qqeee188q=eeegg1>8=agg",
"vaeaeqee8q88qagqqe8qeeagg>8eeeeh",
"ghgqeeeee8e>qhhavgq8eaheaaagagq8",
"1ga1q1qe8eaagmmBmvaqeaggaaaBgve8",
"qq>118e1eeavgBBBBmhaevvavahhBhhg",
"egegg>18eevBvhBBBmmmahmggavhmBBh",
"Bgvhg8==eeBBBaBBBBmmvhvghgmmmBBB",
"BBBhghq$qeBBBhBBBBmvveeammmBmmBB",
"BBBBhme==evBBBBBmmvmgeeeamvmmmBB",
"BBBBhBg=>egBBBBmmvmmeqeevhggvmmB",
"BBagmg88#ehvggBmmvvhgeeqghgghgmB",
"Baha1eq$#>ggahhvggvgq>>gggaghaBh"
};
