/* XPM */
static char * stone_xpm[] = {
"512 512 3531 2",
"  	c #A0A29F",
". 	c #9FA19E",
"+ 	c #999B99",
"@ 	c #959794",
"# 	c #8D8F8C",
"$ 	c #7F817E",
"% 	c #828480",
"& 	c #969894",
"* 	c #999A96",
"= 	c #9D9E9A",
"- 	c #999995",
"; 	c #90918D",
"> 	c #949490",
", 	c #9C9D99",
"' 	c #999894",
") 	c #92918E",
"! 	c #93928F",
"~ 	c #8E8D8A",
"{ 	c #94938F",
"] 	c #8F8E8B",
"^ 	c #878683",
"/ 	c #8C8B88",
"( 	c #8D8C89",
"_ 	c #969592",
": 	c #979693",
"< 	c #969793",
"[ 	c #989994",
"} 	c #9A9B97",
"| 	c #92938F",
"1 	c #91928E",
"2 	c #8E8F8B",
"3 	c #9B9C98",
"4 	c #959692",
"5 	c #888985",
"6 	c #858682",
"7 	c #8F8F8D",
"8 	c #929290",
"9 	c #949493",
"0 	c #939391",
"a 	c #90908F",
"b 	c #91918F",
"c 	c #8E8E8C",
"d 	c #828281",
"e 	c #757574",
"f 	c #878786",
"g 	c #9A9A99",
"h 	c #8F8F8E",
"i 	c #868684",
"j 	c #888886",
"k 	c #82837F",
"l 	c #8B8B87",
"m 	c #8F908B",
"n 	c #8F8F8B",
"o 	c #93948F",
"p 	c #9A9B96",
"q 	c #90918C",
"r 	c #878883",
"s 	c #949590",
"t 	c #959691",
"u 	c #999994",
"v 	c #969792",
"w 	c #8E8F8A",
"x 	c #888984",
"y 	c #858681",
"z 	c #949591",
"A 	c #8D8E8A",
"B 	c #8C8D88",
"C 	c #8B8B86",
"D 	c #94948F",
"E 	c #868781",
"F 	c #898A83",
"G 	c #91928D",
"H 	c #9D9D9B",
"I 	c #A1A19F",
"J 	c #A6A6A6",
"K 	c #A0A0A0",
"L 	c #9E9EA0",
"M 	c #A2A2A3",
"N 	c #9D9D9D",
"O 	c #989793",
"P 	c #9D9E99",
"Q 	c #979893",
"R 	c #82837E",
"S 	c #8A8B86",
"T 	c #8B8C87",
"U 	c #949690",
"V 	c #969993",
"W 	c #8C8F89",
"X 	c #898B86",
"Y 	c #8E908B",
"Z 	c #898A86",
"` 	c #898987",
" .	c #8B8B89",
"..	c #828280",
"+.	c #81817F",
"@.	c #8D8D8B",
"#.	c #8C8C8B",
"$.	c #979795",
"%.	c #8A8A88",
"&.	c #8F908C",
"*.	c #8B8C88",
"=.	c #7C7D79",
"-.	c #868783",
";.	c #82827E",
">.	c #969694",
",.	c #848482",
"'.	c #7D7D7C",
").	c #7C7C7A",
"!.	c #959594",
"~.	c #92938E",
"{.	c #898A85",
"].	c #999A95",
"^.	c #9C9D98",
"/.	c #979894",
"(.	c #9E9D9A",
"_.	c #989795",
":.	c #9A9998",
"<.	c #9C9A9B",
"[.	c #939290",
"}.	c #A1A29D",
"|.	c #9FA09C",
"1.	c #9D9D99",
"2.	c #8C8D89",
"3.	c #A9AAA6",
"4.	c #777874",
"5.	c #6B6A66",
"6.	c #6B6B66",
"7.	c #7B7A76",
"8.	c #898884",
"9.	c #91908C",
"0.	c #959491",
"a.	c #908F8C",
"b.	c #928F8C",
"c.	c #94908E",
"d.	c #918E8B",
"e.	c #8C8986",
"f.	c #888582",
"g.	c #868280",
"h.	c #848382",
"i.	c #888786",
"j.	c #898886",
"k.	c #8B8B8A",
"l.	c #8D8E89",
"m.	c #7F807B",
"n.	c #7E7F7A",
"o.	c #868682",
"p.	c #868485",
"q.	c #817F82",
"r.	c #848285",
"s.	c #817F80",
"t.	c #7B797A",
"u.	c #989794",
"v.	c #959490",
"w.	c #92918D",
"x.	c #96968F",
"y.	c #9A9A94",
"z.	c #95958D",
"A.	c #8B8B82",
"B.	c #797970",
"C.	c #62625B",
"D.	c #797A76",
"E.	c #A3A49F",
"F.	c #95928F",
"G.	c #6B6765",
"H.	c #565350",
"I.	c #7E7B79",
"J.	c #969390",
"K.	c #AFACAA",
"L.	c #A6A2A0",
"M.	c #989492",
"N.	c #8F8B89",
"O.	c #9D9A98",
"P.	c #B4B0AE",
"Q.	c #AEABA8",
"R.	c #A2A29E",
"S.	c #808080",
"T.	c #7D7D7B",
"U.	c #878884",
"V.	c #A4A4A4",
"W.	c #A7A7A6",
"X.	c #7F7E7B",
"Y.	c #7B7A77",
"Z.	c #9B9A97",
"`.	c #888784",
" +	c #868480",
".+	c #8F8C88",
"++	c #888682",
"@+	c #8E8B87",
"#+	c #8E8B86",
"$+	c #8A8782",
"%+	c #8B8882",
"&+	c #87857F",
"*+	c #83817B",
"=+	c #93908B",
"-+	c #AAA9A5",
";+	c #A5A4A0",
">+	c #9F9E9A",
",+	c #A2A19D",
"'+	c #91908D",
")+	c #999998",
"!+	c #9C9B98",
"~+	c #A8A7A4",
"{+	c #ABABA7",
"]+	c #9E9F9B",
"^+	c #A6A7A2",
"/+	c #A8A9A4",
"(+	c #9E9F9A",
"_+	c #9E9D99",
":+	c #A09F9B",
"<+	c #A19E9A",
"[+	c #9C9995",
"}+	c #9F9E9B",
"|+	c #9C9B99",
"1+	c #9F9E9D",
"2+	c #94918F",
"3+	c #9E9C98",
"4+	c #96928F",
"5+	c #9C9894",
"6+	c #A29E99",
"7+	c #97938E",
"8+	c #9C9593",
"9+	c #948E8B",
"0+	c #918B86",
"a+	c #958F8B",
"b+	c #96908A",
"c+	c #9D9790",
"d+	c #9F9993",
"e+	c #9E9B94",
"f+	c #99968F",
"g+	c #9A9890",
"h+	c #999791",
"i+	c #95958F",
"j+	c #A09F9C",
"k+	c #A1A09D",
"l+	c #979692",
"m+	c #9A9996",
"n+	c #93928E",
"o+	c #9C9B97",
"p+	c #8F8E8A",
"q+	c #A29F9B",
"r+	c #9F9D99",
"s+	c #979490",
"t+	c #94918D",
"u+	c #94928E",
"v+	c #919390",
"w+	c #90928F",
"x+	c #8A8B89",
"y+	c #828381",
"z+	c #7F817D",
"A+	c #979994",
"B+	c #8B8A86",
"C+	c #7B7C78",
"D+	c #737371",
"E+	c #868685",
"F+	c #A2A29D",
"G+	c #9B9C97",
"H+	c #92938C",
"I+	c #94948E",
"J+	c #9E9E9D",
"K+	c #A2A2A1",
"L+	c #9B9B99",
"M+	c #9A9A9A",
"N+	c #9B9B9B",
"O+	c #A3A3A2",
"P+	c #83847F",
"Q+	c #868782",
"R+	c #878A84",
"S+	c #858782",
"T+	c #838680",
"U+	c #888B85",
"V+	c #8D8F8A",
"W+	c #90938D",
"X+	c #949791",
"Y+	c #92948F",
"Z+	c #787876",
"`+	c #7F7F7D",
" @	c #838382",
".@	c #989896",
"+@	c #949492",
"@@	c #81827D",
"#@	c #A0A19C",
"$@	c #908F8B",
"%@	c #8D8C88",
"&@	c #959493",
"*@	c #999997",
"=@	c #969495",
"-@	c #656661",
";@	c #666662",
">@	c #74736F",
",@	c #757470",
"'@	c #807F7B",
")@	c #8C8A86",
"!@	c #908C89",
"~@	c #8E8A87",
"{@	c #8B8785",
"]@	c #898683",
"^@	c #858481",
"/@	c #858482",
"(@	c #8C8B8A",
"_@	c #80817D",
":@	c #848580",
"<@	c #ABACA8",
"[@	c #BABBB7",
"}@	c #A0A19D",
"|@	c #838480",
"1@	c #848581",
"2@	c #7E7E7D",
"3@	c #848283",
"4@	c #838282",
"5@	c #828182",
"6@	c #888687",
"7@	c #969594",
"8@	c #9B9A96",
"9@	c #989891",
"0@	c #A2A29C",
"a@	c #8C8C84",
"b@	c #92928B",
"c@	c #807D79",
"d@	c #7D7B77",
"e@	c #96948F",
"f@	c #9D9B97",
"g@	c #999692",
"h@	c #95938F",
"i@	c #ADABA6",
"j@	c #C2BFBB",
"k@	c #B1AFAB",
"l@	c #8F908E",
"m@	c #989997",
"n@	c #908F8E",
"o@	c #9E9D9C",
"p@	c #7E7D7A",
"q@	c #8C8B87",
"r@	c #82817D",
"s@	c #878682",
"t@	c #8B8884",
"u@	c #918F8B",
"v@	c #A19E99",
"w@	c #9C9994",
"x@	c #A6A39D",
"y@	c #D4D1CB",
"z@	c #B3B0AC",
"A@	c #908E8A",
"B@	c #969591",
"C@	c #898885",
"D@	c #7D7D79",
"E@	c #8F918D",
"F@	c #9B9D99",
"G@	c #83827F",
"H@	c #868582",
"I@	c #9A9995",
"J@	c #999793",
"K@	c #9A9794",
"L@	c #989490",
"M@	c #9A9691",
"N@	c #9D9893",
"O@	c #948F8C",
"P@	c #95918C",
"Q@	c #96928D",
"R@	c #96938B",
"S@	c #99958E",
"T@	c #9B9890",
"U@	c #98948D",
"V@	c #9C9991",
"W@	c #9B9991",
"X@	c #999690",
"Y@	c #8E8D8B",
"Z@	c #989591",
"`@	c #979996",
" #	c #8F918F",
".#	c #A2A39F",
"+#	c #9C9C9A",
"@#	c #A6A6A5",
"##	c #B1B1AF",
"$#	c #B2B3AF",
"%#	c #C3C4BF",
"&#	c #B0B1AC",
"*#	c #AAABA6",
"=#	c #A7A8A3",
"-#	c #A6A6A2",
";#	c #A2A39E",
">#	c #A5A6A1",
",#	c #A3A4A0",
"'#	c #A7A8A4",
")#	c #7D7E7A",
"!#	c #A4A5A0",
"~#	c #9C9D96",
"{#	c #999A94",
"]#	c #8F8F8F",
"^#	c #8A8A8A",
"/#	c #82827D",
"(#	c #7C7D78",
"_#	c #80817C",
":#	c #82847E",
"<#	c #8B8D87",
"[#	c #8F928C",
"}#	c #8F918B",
"|#	c #80807E",
"1#	c #858583",
"2#	c #797975",
"3#	c #8A8986",
"4#	c #91908F",
"5#	c #979596",
"6#	c #949391",
"7#	c #73746F",
"8#	c #6B6C67",
"9#	c #81807C",
"0#	c #888783",
"a#	c #8A8985",
"b#	c #8C8886",
"c#	c #878381",
"d#	c #8B8886",
"e#	c #7F807C",
"f#	c #929091",
"g#	c #868586",
"h#	c #8D8C8B",
"i#	c #999992",
"j#	c #9B9B94",
"k#	c #9C9C95",
"l#	c #A9A9A1",
"m#	c #A8A8A2",
"n#	c #9A9894",
"o#	c #A09D99",
"p#	c #A8A6A2",
"q#	c #A5A29E",
"r#	c #A4A29D",
"s#	c #A6A4A0",
"t#	c #9D9A96",
"u#	c #8B8D8B",
"v#	c #989995",
"w#	c #92918F",
"x#	c #93908C",
"y#	c #9B9994",
"z#	c #918F89",
"A#	c #B2AFAA",
"B#	c #C5C2BD",
"C#	c #83817D",
"D#	c #8D8F8B",
"E#	c #91938F",
"F#	c #959793",
"G#	c #848380",
"H#	c #7D7C79",
"I#	c #81807D",
"J#	c #7D7C78",
"K#	c #85827E",
"L#	c #999694",
"M#	c #99948F",
"N#	c #948E89",
"O#	c #98928D",
"P#	c #9B9794",
"Q#	c #999590",
"R#	c #9C9893",
"S#	c #9A978F",
"T#	c #928F88",
"U#	c #97948D",
"V#	c #9B9B93",
"W#	c #999993",
"X#	c #91928B",
"Y#	c #939490",
"Z#	c #8B8A88",
"`#	c #A7A9A6",
" $	c #929491",
".$	c #A5A6A4",
"+$	c #A9ABA6",
"@$	c #A1A29E",
"#$	c #A7A6A3",
"$$	c #ABAAA6",
"%$	c #B0AFAC",
"&$	c #AFAEAB",
"*$	c #ACABA8",
"=$	c #A3A29F",
"-$	c #A6A5A2",
";$	c #A6A7A3",
">$	c #A8A9A5",
",$	c #A5A6A2",
"'$	c #9FA09B",
")$	c #ABACA7",
"!$	c #757672",
"~$	c #747571",
"{$	c #7D7E79",
"]$	c #7A7B76",
"^$	c #797974",
"/$	c #686964",
"($	c #52534E",
"_$	c #8E8D89",
":$	c #949394",
"<$	c #777873",
"[$	c #A9A8A4",
"}$	c #999390",
"|$	c #928E8B",
"1$	c #8F8D89",
"2$	c #928F8B",
"3$	c #7A7B77",
"4$	c #878685",
"5$	c #8F8E8C",
"6$	c #979790",
"7$	c #A2A09C",
"8$	c #8C8E8A",
"9$	c #999B97",
"0$	c #878882",
"a$	c #8D8E87",
"b$	c #9FA099",
"c$	c #84837F",
"d$	c #938F8B",
"e$	c #A6A29E",
"f$	c #A3A19D",
"g$	c #8D8B86",
"h$	c #8A8783",
"i$	c #868581",
"j$	c #7E7D79",
"k$	c #878581",
"l$	c #8B8985",
"m$	c #9D9994",
"n$	c #A6A29D",
"o$	c #9E9992",
"p$	c #A49E99",
"q$	c #A5A19D",
"r$	c #94928C",
"s$	c #9D9A94",
"t$	c #99978F",
"u$	c #9C9992",
"v$	c #98958E",
"w$	c #95938B",
"x$	c #96968E",
"y$	c #94948D",
"z$	c #8F908A",
"A$	c #959892",
"B$	c #A8AAA6",
"C$	c #A6A8A4",
"D$	c #A5A4A1",
"E$	c #AAA9A6",
"F$	c #969790",
"G$	c #989992",
"H$	c #9B9D9A",
"I$	c #9D9F9B",
"J$	c #9A9C99",
"K$	c #85867F",
"L$	c #7B7C77",
"M$	c #767772",
"N$	c #4D4E49",
"O$	c #494A45",
"P$	c #72736E",
"Q$	c #959494",
"R$	c #858480",
"S$	c #95918E",
"T$	c #98918F",
"U$	c #767773",
"V$	c #7E7F7B",
"W$	c #9F9F9D",
"X$	c #A0A099",
"Y$	c #8D8D86",
"Z$	c #8B8C86",
"`$	c #8C8D86",
" %	c #8F8F89",
".%	c #9A9B94",
"+%	c #86837F",
"@%	c #817E7A",
"#%	c #999491",
"$%	c #8A8B87",
"%%	c #90928E",
"&%	c #A5A19C",
"*%	c #A29C95",
"=%	c #9D9992",
"-%	c #8F8D87",
";%	c #9D9B94",
">%	c #94948B",
",%	c #95968F",
"'%	c #989A93",
")%	c #939791",
"!%	c #949893",
"~%	c #90908A",
"{%	c #A0A29D",
"]%	c #9FA19D",
"^%	c #A4A6A2",
"/%	c #A4A3A0",
"(%	c #9D9D97",
"_%	c #979891",
":%	c #93948D",
"<%	c #7F7F7F",
"[%	c #8B8B8B",
"}%	c #8D8F8E",
"|%	c #919392",
"1%	c #949695",
"2%	c #979998",
"3%	c #949694",
"4%	c #929493",
"5%	c #90918B",
"6%	c #8B8B85",
"7%	c #959595",
"8%	c #8F8E8F",
"9%	c #999896",
"0%	c #747470",
"a%	c #757671",
"b%	c #938D88",
"c%	c #8B8682",
"d%	c #8F8B86",
"e%	c #989898",
"f%	c #999999",
"g%	c #8C8C8C",
"h%	c #8A8987",
"i%	c #8F8F88",
"j%	c #8A8A83",
"k%	c #85827D",
"l%	c #8F8C86",
"m%	c #86837D",
"n%	c #898681",
"o%	c #908E88",
"p%	c #98958F",
"q%	c #868A85",
"r%	c #80827D",
"s%	c #868882",
"t%	c #8C8F87",
"u%	c #898B84",
"v%	c #93958E",
"w%	c #9B9C95",
"x%	c #82827C",
"y%	c #6A6B64",
"z%	c #787773",
"A%	c #AFACA8",
"B%	c #9B9792",
"C%	c #98948F",
"D%	c #908C87",
"E%	c #928E89",
"F%	c #948F8B",
"G%	c #96948E",
"H%	c #888680",
"I%	c #84827D",
"J%	c #898982",
"K%	c #8E8E87",
"L%	c #93958F",
"M%	c #929690",
"N%	c #91948E",
"O%	c #94918A",
"P%	c #999990",
"Q%	c #979992",
"R%	c #959994",
"S%	c #939792",
"T%	c #71706D",
"U%	c #969895",
"V%	c #807F7C",
"W%	c #757471",
"X%	c #70706C",
"Y%	c #8E8F88",
"Z%	c #94958F",
"`%	c #777775",
" &	c #838383",
".&	c #868686",
"+&	c #979797",
"@&	c #949594",
"#&	c #8F908F",
"$&	c #959796",
"%&	c #898B8A",
"&&	c #939494",
"*&	c #969897",
"=&	c #8B898A",
"-&	c #646560",
";&	c #797A75",
">&	c #97938F",
",&	c #918D8A",
"'&	c #938F8A",
")&	c #93938C",
"!&	c #8B8983",
"~&	c #8D8B85",
"{&	c #94918B",
"]&	c #86847E",
"^&	c #8A8C86",
"/&	c #94908D",
"(&	c #7D7A78",
"_&	c #6E6B67",
":&	c #696662",
"<&	c #83827E",
"[&	c #91958F",
"}&	c #70716C",
"|&	c #8C8883",
"1&	c #8F8C85",
"2&	c #939089",
"3&	c #918F87",
"4&	c #969A95",
"5&	c #979B96",
"6&	c #9D9997",
"7&	c #9D9E9C",
"8&	c #999A98",
"9&	c #9A9C98",
"0&	c #A2A4A0",
"a&	c #9A9D97",
"b&	c #989A94",
"c&	c #767973",
"d&	c #A8A9A2",
"e&	c #737474",
"f&	c #79797B",
"g&	c #8C8D8F",
"h&	c #949496",
"i&	c #929394",
"j&	c #99999B",
"k&	c #807F7D",
"l&	c #7B7A79",
"m&	c #8B8D89",
"n&	c #A2A39D",
"o&	c #97998F",
"p&	c #8E8E8E",
"q&	c #9B9A99",
"r&	c #91918B",
"s&	c #8A8B84",
"t&	c #747473",
"u&	c #9B9993",
"v&	c #A09D98",
"w&	c #9A9892",
"x&	c #8E8B88",
"y&	c #878380",
"z&	c #888481",
"A&	c #86827F",
"B&	c #999593",
"C&	c #938F8D",
"D&	c #908C8A",
"E&	c #918D8B",
"F&	c #8D8986",
"G&	c #827D7D",
"H&	c #787474",
"I&	c #706C6B",
"J&	c #504D4C",
"K&	c #6C6966",
"L&	c #929691",
"M&	c #888882",
"N&	c #888888",
"O&	c #8E8F8D",
"P&	c #97948F",
"Q&	c #9D9C99",
"R&	c #9C9D9B",
"S&	c #848681",
"T&	c #8B8E88",
"U&	c #868983",
"V&	c #7F827C",
"W&	c #9D9E98",
"X&	c #A5A69F",
"Y&	c #888982",
"Z&	c #707271",
"`&	c #757678",
" *	c #868688",
".*	c #8F9092",
"+*	c #949494",
"@*	c #909090",
"#*	c #919191",
"$*	c #838581",
"%*	c #7F8079",
"&*	c #989990",
"**	c #96988F",
"=*	c #8D8D8D",
"-*	c #939393",
";*	c #868680",
">*	c #6E6F6B",
",*	c #60605E",
"'*	c #9E9C96",
")*	c #9D9C98",
"!*	c #979491",
"~*	c #938F8C",
"{*	c #989491",
"]*	c #95918F",
"^*	c #898582",
"/*	c #8F8984",
"(*	c #86827D",
"_*	c #85817D",
":*	c #817D79",
"<*	c #7E7C78",
"[*	c #7D7D7D",
"}*	c #72736F",
"|*	c #767674",
"1*	c #8C8C86",
"2*	c #9A9796",
"3*	c #989494",
"4*	c #969392",
"5*	c #908D8C",
"6*	c #8D8888",
"7*	c #8F8A8A",
"8*	c #999494",
"9*	c #989393",
"0*	c #928D8D",
"a*	c #7E7B7C",
"b*	c #474445",
"c*	c #676463",
"d*	c #A09D9C",
"e*	c #8B8F8A",
"f*	c #7A7A74",
"g*	c #7D7D77",
"h*	c #969696",
"i*	c #828282",
"j*	c #9D9C9A",
"k*	c #9EA09D",
"l*	c #82857F",
"m*	c #A4A59E",
"n*	c #A1A29B",
"o*	c #A6A7A1",
"p*	c #656662",
"q*	c #797978",
"r*	c #979694",
"s*	c #868884",
"t*	c #AFAFAB",
"u*	c #6F706B",
"v*	c #6D6D6B",
"w*	c #696A66",
"x*	c #918D88",
"y*	c #898580",
"z*	c #8C8885",
"A*	c #8B8683",
"B*	c #797977",
"C*	c #747371",
"D*	c #7B7B79",
"E*	c #747472",
"F*	c #7A7A79",
"G*	c #86867F",
"H*	c #908D8B",
"I*	c #A8A4A2",
"J*	c #979493",
"K*	c #8B8887",
"L*	c #9D9999",
"M*	c #ACA9A8",
"N*	c #A2A2A0",
"O*	c #8C8E8B",
"P*	c #888A87",
"Q*	c #828482",
"R*	c #818280",
"S*	c #868785",
"T*	c #73736C",
"U*	c #797874",
"V*	c #898989",
"W*	c #878787",
"X*	c #9D9D9C",
"Y*	c #858684",
"Z*	c #696865",
"`*	c #777673",
" =	c #9D9F9D",
".=	c #A0A19A",
"+=	c #A3A49D",
"@=	c #999B95",
"#=	c #ADAEA9",
"$=	c #A4A5A1",
"%=	c #929292",
"&=	c #6B6C68",
"*=	c #575854",
"==	c #787571",
"-=	c #8D8984",
";=	c #8B8782",
">=	c #8E8A85",
",=	c #8F8B88",
"'=	c #70706E",
")=	c #878781",
"!=	c #8F8C8A",
"~=	c #888482",
"{=	c #979390",
"]=	c #9A9694",
"^=	c #959291",
"/=	c #868886",
"(=	c #7E807D",
"_=	c #7C7B77",
":=	c #767572",
"<=	c #848683",
"[=	c #A0A09E",
"}=	c #999C96",
"|=	c #6D6E6A",
"1=	c #62625E",
"2=	c #827F7D",
"3=	c #7A7774",
"4=	c #74706E",
"5=	c #807D7A",
"6=	c #8C8A84",
"7=	c #94908B",
"8=	c #898682",
"9=	c #7A7975",
"0=	c #7C7B78",
"a=	c #70716D",
"b=	c #686965",
"c=	c #8E8A86",
"d=	c #8F8B87",
"e=	c #86827E",
"f=	c #8D8A87",
"g=	c #7D7E7D",
"h=	c #84867F",
"i=	c #9E9E9E",
"j=	c #717170",
"k=	c #8B8881",
"l=	c #908E86",
"m=	c #8A8682",
"n=	c #8B8784",
"o=	c #8B8D8C",
"p=	c #9F9F9F",
"q=	c #9C9C9C",
"r=	c #9D9F99",
"s=	c #84857E",
"t=	c #8B8D84",
"u=	c #92948B",
"v=	c #8F9188",
"w=	c #787878",
"x=	c #727270",
"y=	c #83837D",
"z=	c #8F8F87",
"A=	c #93938B",
"B=	c #888A86",
"C=	c #7D7F7B",
"D=	c #8B8E86",
"E=	c #90938B",
"F=	c #969991",
"G=	c #848682",
"H=	c #7E807C",
"I=	c #827F7B",
"J=	c #827D7A",
"K=	c #827E7B",
"L=	c #81807E",
"M=	c #84817E",
"N=	c #AAA9A7",
"O=	c #A09F9D",
"P=	c #AEADAB",
"Q=	c #A09E9F",
"R=	c #A1A09C",
"S=	c #9C9E99",
"T=	c #9E9E98",
"U=	c #8F9087",
"V=	c #9B9D94",
"W=	c #84847C",
"X=	c #828279",
"Y=	c #87877F",
"Z=	c #898981",
"`=	c #88887E",
" -	c #8E8E86",
".-	c #94978F",
"+-	c #9B9D96",
"@-	c #A19D99",
"#-	c #898685",
"$-	c #848484",
"%-	c #8E8F86",
"&-	c #9D9E95",
"*-	c #94968D",
"=-	c #95978E",
"--	c #818181",
";-	c #7F7F79",
">-	c #86867E",
",-	c #74746C",
"'-	c #67675F",
")-	c #73736B",
"!-	c #75756B",
"~-	c #787870",
"{-	c #81817A",
"]-	c #949692",
"^-	c #9A9693",
"/-	c #928F8A",
"(-	c #95938D",
"_-	c #868381",
":-	c #938F8F",
"<-	c #8C8B8B",
"[-	c #9C9998",
"}-	c #8E8C8D",
"|-	c #868583",
"1-	c #93948B",
"2-	c #8A8A8B",
"3-	c #706F6B",
"4-	c #6F6E6A",
"5-	c #ABABA2",
"6-	c #8F8F86",
"7-	c #787974",
"8-	c #636460",
"9-	c #6A6B66",
"0-	c #A29D9A",
"a-	c #AAA6A2",
"b-	c #A6A29F",
"c-	c #85827F",
"d-	c #A09D9A",
"e-	c #918E8D",
"f-	c #939192",
"g-	c #8F8D8E",
"h-	c #787775",
"i-	c #9C9996",
"j-	c #9F9C99",
"k-	c #A1A09E",
"l-	c #777674",
"m-	c #9E9D9D",
"n-	c #AEAFAA",
"o-	c #ABABA6",
"p-	c #82817F",
"q-	c #6D6E69",
"r-	c #5E5F5A",
"s-	c #737470",
"t-	c #747570",
"u-	c #9D9995",
"v-	c #8E8B8A",
"w-	c #94908F",
"x-	c #A4A39F",
"y-	c #9B999A",
"z-	c #ABABA9",
"A-	c #ADACAB",
"B-	c #B2B1AF",
"C-	c #7C7B79",
"D-	c #929294",
"E-	c #62625D",
"F-	c #9E9A97",
"G-	c #999594",
"H-	c #A29E9C",
"I-	c #A3A09D",
"J-	c #A5A29F",
"K-	c #918F90",
"L-	c #949293",
"M-	c #B5B5B4",
"N-	c #C0BFBD",
"O-	c #6F6E6C",
"P-	c #7F7E7D",
"Q-	c #91938A",
"R-	c #8C8E85",
"S-	c #70706F",
"T-	c #6F6F6D",
"U-	c #939492",
"V-	c #858585",
"W-	c #999B92",
"X-	c #81827E",
"Y-	c #777974",
"Z-	c #747672",
"`-	c #727470",
" ;	c #666963",
".;	c #686B65",
"+;	c #61625D",
"@;	c #A19D9B",
"#;	c #999592",
"$;	c #999492",
"%;	c #9C9895",
"&;	c #9F9B99",
"*;	c #9D9D96",
"=;	c #9F9F99",
"-;	c #949395",
";;	c #959496",
">;	c #99999A",
",;	c #909289",
"';	c #8D8F86",
");	c #82847B",
"!;	c #818279",
"~;	c #8B8C8A",
"{;	c #6D6C68",
"];	c #71726D",
"^;	c #A2A29B",
"/;	c #9D9F96",
"(;	c #A0A299",
"_;	c #94958C",
":;	c #767874",
"<;	c #7D7F79",
"[;	c #5C5D58",
"};	c #6C6D69",
"|;	c #ABA8A6",
"1;	c #A39F9D",
"2;	c #8A8683",
"3;	c #948F8D",
"4;	c #A19D9A",
"5;	c #A4A09D",
"6;	c #9D9B95",
"7;	c #838281",
"8;	c #8E8C8F",
"9;	c #8F8E90",
"0;	c #8F8F91",
"a;	c #949495",
"b;	c #909092",
"c;	c #94968F",
"d;	c #84847D",
"e;	c #A2A19F",
"f;	c #86887F",
"g;	c #86877E",
"h;	c #81837D",
"i;	c #797979",
"j;	c #757575",
"k;	c #717171",
"l;	c #898B88",
"m;	c #A2A299",
"n;	c #A2A29A",
"o;	c #A1A299",
"p;	c #9FA198",
"q;	c #9C9D93",
"r;	c #9B9D92",
"s;	c #999A8F",
"t;	c #98998F",
"u;	c #82857D",
"v;	c #868881",
"w;	c #8F918A",
"x;	c #8B8B84",
"y;	c #797B79",
"z;	c #888C87",
"A;	c #878985",
"B;	c #666762",
"C;	c #8F8B8B",
"D;	c #999695",
"E;	c #959090",
"F;	c #8B8686",
"G;	c #A8A4A1",
"H;	c #999899",
"I;	c #9D9D94",
"J;	c #97978F",
"K;	c #8D8B8C",
"L;	c #8B8A8B",
"M;	c #908F91",
"N;	c #908F94",
"O;	c #8A898D",
"P;	c #919193",
"Q;	c #9F9FA1",
"R;	c #878A82",
"S;	c #8A8C85",
"T;	c #A3A39D",
"U;	c #777777",
"V;	c #737373",
"W;	c #7A7A7A",
"X;	c #767676",
"Y;	c #858586",
"Z;	c #707070",
"`;	c #7F7E7A",
" >	c #74746E",
".>	c #94948C",
"+>	c #7C7D76",
"@>	c #777871",
"#>	c #8F928B",
"$>	c #83847D",
"%>	c #888A89",
"&>	c #878988",
"*>	c #818282",
"=>	c #797A78",
"->	c #7A7C79",
";>	c #878483",
">>	c #858281",
",>	c #8A8585",
"'>	c #A39F9C",
")>	c #82837D",
"!>	c #8E8E8F",
"~>	c #8D8D8F",
"{>	c #8B8B8D",
"]>	c #A5A29D",
"^>	c #9F9D97",
"/>	c #94928B",
"(>	c #7E7E7E",
"_>	c #9A9A9C",
":>	c #919094",
"<>	c #9C9C9D",
"[>	c #A2A2A4",
"}>	c #7A7976",
"|>	c #767574",
"1>	c #7C7976",
"2>	c #84827C",
"3>	c #7D7A74",
"4>	c #7C7975",
"5>	c #797573",
"6>	c #686564",
"7>	c #797576",
"8>	c #807B7D",
"9>	c #7E7B7A",
"0>	c #767173",
"a>	c #73706F",
"b>	c #7A7776",
"c>	c #848180",
"d>	c #909088",
"e>	c #9F9C9B",
"f>	c #7D7D76",
"g>	c #7B7B74",
"h>	c #8A8889",
"i>	c #908F8F",
"j>	c #878686",
"k>	c #9F9D95",
"l>	c #8F8D86",
"m>	c #9F9C94",
"n>	c #A3A099",
"o>	c #ACA9A2",
"p>	c #A4A29A",
"q>	c #96948B",
"r>	c #86837C",
"s>	c #A2A09A",
"t>	c #9B9895",
"u>	c #A5A2A1",
"v>	c #9E9B99",
"w>	c #52534F",
"x>	c #88888A",
"y>	c #9D9D9E",
"z>	c #89898B",
"A>	c #969497",
"B>	c #737270",
"C>	c #8A8686",
"D>	c #868382",
"E>	c #827F7E",
"F>	c #767370",
"G>	c #7E7A78",
"H>	c #A09C99",
"I>	c #6D6964",
"J>	c #706D66",
"K>	c #97948C",
"L>	c #938F88",
"M>	c #837F7A",
"N>	c #6F6B66",
"O>	c #66625F",
"P>	c #6A6662",
"Q>	c #777370",
"R>	c #888383",
"S>	c #797475",
"T>	c #7D797A",
"U>	c #827D7E",
"V>	c #696466",
"W>	c #6B6667",
"X>	c #6B6768",
"Y>	c #706D6E",
"Z>	c #7E7D7D",
"`>	c #747474",
" ,	c #999991",
".,	c #919189",
"+,	c #9D9996",
"@,	c #9B9897",
"#,	c #85857E",
"$,	c #A19D96",
"%,	c #A29E95",
"&,	c #9A978E",
"*,	c #949089",
"=,	c #A7A49D",
"-,	c #AEABA3",
";,	c #A3A199",
">,	c #9E9E96",
",,	c #99998F",
"',	c #92928A",
"),	c #A9A9A7",
"!,	c #6B6B69",
"~,	c #757473",
"{,	c #747370",
"],	c #83807D",
"^,	c #AAA7A3",
"/,	c #A6A39F",
"(,	c #787570",
"_,	c #716F69",
":,	c #817D7B",
"<,	c #938E8E",
"[,	c #837E7E",
"},	c #817C7C",
"|,	c #8B8786",
"1,	c #868282",
"2,	c #6C6C6B",
"3,	c #6E6E6C",
"4,	c #9E9B9A",
"5,	c #9F9B96",
"6,	c #9D9A91",
"7,	c #98948B",
"8,	c #918E86",
"9,	c #A3A19B",
"0,	c #9A9A92",
"a,	c #9D9D95",
"b,	c #949593",
"c,	c #8F8D8F",
"d,	c #686766",
"e,	c #706D6B",
"f,	c #7B7875",
"g,	c #A7A5A1",
"h,	c #ABA8A4",
"i,	c #969191",
"j,	c #7A7575",
"k,	c #757070",
"l,	c #A19D9D",
"m,	c #928F8E",
"n,	c #949190",
"o,	c #989697",
"p,	c #999798",
"q,	c #A29E97",
"r,	c #A09D94",
"s,	c #878980",
"t,	c #8B8C83",
"u,	c #868687",
"v,	c #878789",
"w,	c #8B8B8C",
"x,	c #838385",
"y,	c #B5B6B2",
"z,	c #70706B",
"A,	c #63625E",
"B,	c #7A7978",
"C,	c #71726E",
"D,	c #6F6E6B",
"E,	c #ACAAA4",
"F,	c #A29F99",
"G,	c #A9A6A3",
"H,	c #8C8988",
"I,	c #A29D9B",
"J,	c #A5A29B",
"K,	c #7C7C7C",
"L,	c #777779",
"M,	c #818182",
"N,	c #595A55",
"O,	c #A6A6A4",
"P,	c #C9C8C6",
"Q,	c #C2C2C0",
"R,	c #7F7D77",
"S,	c #A29F9D",
"T,	c #878482",
"U,	c #7F7D79",
"V,	c #A09D96",
"W,	c #989A91",
"X,	c #999B94",
"Y,	c #7B7B7B",
"Z,	c #7D7D7E",
"`,	c #7F7F81",
" '	c #7C7C7D",
".'	c #787879",
"+'	c #7D7D7F",
"@'	c #8F8F90",
"#'	c #62635E",
"$'	c #AEAFAB",
"%'	c #A3A29E",
"&'	c #6B6B67",
"*'	c #AFAFAF",
"='	c #767670",
"-'	c #72716D",
";'	c #676662",
">'	c #73726F",
",'	c #6C6B68",
"''	c #73726E",
")'	c #B8B5B3",
"!'	c #6E6D6A",
"~'	c #787774",
"{'	c #86867D",
"]'	c #777770",
"^'	c #575652",
"/'	c #A3A2A1",
"('	c #A09C97",
"_'	c #9E9E94",
":'	c #98988F",
"<'	c #7E7E80",
"['	c #7B7B7D",
"}'	c #848486",
"|'	c #696A65",
"1'	c #6F6F6F",
"2'	c #696864",
"3'	c #666562",
"4'	c #777672",
"5'	c #6C6B67",
"6'	c #A7A7A1",
"7'	c #ABABA4",
"8'	c #B4B0AF",
"9'	c #D3CFCD",
"0'	c #BDB9B7",
"a'	c #ADACA9",
"b'	c #A1A19A",
"c'	c #A8A6A0",
"d'	c #9E9A95",
"e'	c #A19D98",
"f'	c #51504C",
"g'	c #53524E",
"h'	c #9A9A90",
"i'	c #919187",
"j'	c #9A9D95",
"k'	c #91948C",
"l'	c #8E9089",
"m'	c #808082",
"n'	c #9DA09A",
"o'	c #9EA19B",
"p'	c #B6B7B3",
"q'	c #A2A2A2",
"r'	c #AFADA7",
"s'	c #B9B9B3",
"t'	c #AFAFA9",
"u'	c #B4B2B3",
"v'	c #AFAFAD",
"w'	c #BDBCBA",
"x'	c #A3A39B",
"y'	c #B2B1AD",
"z'	c #B7B6B2",
"A'	c #ACABAA",
"B'	c #B8B8B4",
"C'	c #9E9F99",
"D'	c #A39F9A",
"E'	c #4D4C48",
"F'	c #54534F",
"G'	c #96968C",
"H'	c #7E7E78",
"I'	c #9C9E97",
"J'	c #959890",
"K'	c #828284",
"L'	c #808079",
"M'	c #6A6966",
"N'	c #A8A6A7",
"O'	c #B4B3AF",
"P'	c #909086",
"Q'	c #A2A0A1",
"R'	c #A6A4A5",
"S'	c #9A9999",
"T'	c #A8A8A6",
"U'	c #B0B1AD",
"V'	c #BDBCB8",
"W'	c #6A6763",
"X'	c #61605C",
"Y'	c #8D8D85",
"Z'	c #9B9D98",
"`'	c #92948D",
" )	c #888A7F",
".)	c #888A81",
"+)	c #939394",
"@)	c #A6A5A6",
"#)	c #9D9B9C",
"$)	c #9EA09C",
"%)	c #B4B2AE",
"&)	c #72716E",
"*)	c #666665",
"=)	c #666664",
"-)	c #A7A6A2",
";)	c #A4A19E",
">)	c #85867C",
",)	c #83857A",
"')	c #959597",
"))	c #999C94",
"!)	c #827F79",
"~)	c #A6A3A1",
"{)	c #ACA9A6",
"])	c #7E7D7C",
"^)	c #93948A",
"/)	c #8E8F84",
"()	c #8E8F85",
"_)	c #9DA099",
":)	c #797773",
"<)	c #AAAAA8",
"[)	c #ADAAA7",
"})	c #C1BDBB",
"|)	c #B4B1AD",
"1)	c #B7B4B0",
"2)	c #A9A6A2",
"3)	c #B8B7B4",
"4)	c #727170",
"5)	c #A3A3A3",
"6)	c #A9A9AB",
"7)	c #A6A6A8",
"8)	c #A5A5A6",
"9)	c #AAAAA3",
"0)	c #A8A7A3",
"a)	c #9B9D91",
"b)	c #9EA095",
"c)	c #8C8C8E",
"d)	c #999B9A",
"e)	c #A4A29C",
"f)	c #A9A5A0",
"g)	c #ACACAB",
"h)	c #A4A4A2",
"i)	c #918C8C",
"j)	c #BEBCB8",
"k)	c #B6B4AF",
"l)	c #B2AFAB",
"m)	c #BCB9B5",
"n)	c #C8C7C4",
"o)	c #C2C2BE",
"p)	c #C3C2C1",
"q)	c #AFAEAC",
"r)	c #61605E",
"s)	c #A8A8A8",
"t)	c #A1A1A2",
"u)	c #ABABAD",
"v)	c #AAA9AD",
"w)	c #A2A2A6",
"x)	c #99999D",
"y)	c #B8B8B0",
"z)	c #928F87",
"A)	c #9EA097",
"B)	c #9FA196",
"C)	c #A2A399",
"D)	c #A7A99E",
"E)	c #A7A8A2",
"F)	c #A6A7A5",
"G)	c #A19C9C",
"H)	c #B2AFAC",
"I)	c #B4B1AF",
"J)	c #B9B8B5",
"K)	c #B2B1AE",
"L)	c #676665",
"M)	c #77767A",
"N)	c #78777B",
"O)	c #7F7E82",
"P)	c #A8A8A0",
"Q)	c #AFAFA7",
"R)	c #A19FA0",
"S)	c #8F8C8B",
"T)	c #96948C",
"U)	c #8F948F",
"V)	c #8F938E",
"W)	c #8A8E89",
"X)	c #8C908B",
"Y)	c #A7A4A2",
"Z)	c #7D7C7A",
"`)	c #ABA9A5",
" !	c #A6A49E",
".!	c #A5A59E",
"+!	c #A6A6A0",
"@!	c #938F90",
"#!	c #898686",
"$!	c #8C898A",
"%!	c #959293",
"&!	c #9B9899",
"*!	c #979494",
"=!	c #8B8F8B",
"-!	c #818580",
";!	c #AAA7A2",
">!	c #ABA8A2",
",!	c #918E8F",
"'!	c #939389",
")!	c #8F8F85",
"!!	c #8A8A82",
"~!	c #686962",
"{!	c #828681",
"]!	c #80847F",
"^!	c #7A7E79",
"/!	c #A4A3A2",
"(!	c #565554",
"_!	c #585755",
":!	c #9F9F97",
"<!	c #6F7069",
"[!	c #757670",
"}!	c #797B77",
"|!	c #7E827D",
"1!	c #878B86",
"2!	c #848883",
"3!	c #626260",
"4!	c #5B5A59",
"5!	c #787970",
"6!	c #74756F",
"7!	c #7E7F79",
"8!	c #878986",
"9!	c #ADACA8",
"0!	c #85867D",
"a!	c #767770",
"b!	c #797973",
"c!	c #80817A",
"d!	c #6E6F6A",
"e!	c #A7A6A5",
"f!	c #A7A9A5",
"g!	c #797876",
"h!	c #AFAEAA",
"i!	c #74766D",
"j!	c #7E8077",
"k!	c #81827B",
"l!	c #7B7C75",
"m!	c #9B9B9D",
"n!	c #A9AAA5",
"o!	c #72736C",
"p!	c #787972",
"q!	c #676863",
"r!	c #A9AAA3",
"s!	c #A5A5A3",
"t!	c #A9ABA8",
"u!	c #AAABA9",
"v!	c #50504B",
"w!	c #A6A5A1",
"x!	c #AFB0AB",
"y!	c #ACADA8",
"z!	c #767571",
"A!	c #858384",
"B!	c #898788",
"C!	c #BEBFBB",
"D!	c #C0C1BD",
"E!	c #B9BAB5",
"F!	c #B5B6B1",
"G!	c #B7B8B3",
"H!	c #B4B5B1",
"I!	c #ADADAB",
"J!	c #BABAB8",
"K!	c #A4A6A3",
"L!	c #ADAFAC",
"M!	c #A8AAA7",
"N!	c #ABADA9",
"O!	c #A29D99",
"P!	c #A3A5A1",
"Q!	c #696967",
"R!	c #434342",
"S!	c #565752",
"T!	c #A2A59F",
"U!	c #A6A8A2",
"V!	c #AAACA6",
"W!	c #A7AAA4",
"X!	c #A2A49E",
"Y!	c #B2B2B4",
"Z!	c #B4B4B5",
"`!	c #B1B1B3",
" ~	c #AFAFB1",
".~	c #B0B0B0",
"+~	c #A9A8A5",
"@~	c #AEADAA",
"#~	c #5F5F5D",
"$~	c #30302E",
"%~	c #5C5C5A",
"&~	c #8D8B8E",
"*~	c #918F92",
"=~	c #828283",
"-~	c #979799",
";~	c #989899",
">~	c #71706C",
",~	c #7A7874",
"'~	c #A1A39C",
")~	c #A5A7A2",
"!~	c #8A8B8B",
"~~	c #868786",
"{~	c #75756F",
"]~	c #949995",
"^~	c #8E928F",
"/~	c #898D87",
"(~	c #868B85",
"_~	c #A6A3A4",
":~	c #9A9798",
"<~	c #7C7D7B",
"[~	c #838582",
"}~	c #828081",
"|~	c #9A9595",
"1~	c #838782",
"2~	c #8A8E8B",
"3~	c #878D87",
"4~	c #838982",
"5~	c #888C86",
"6~	c #8D918B",
"7~	c #9D9F98",
"8~	c #A9A6A6",
"9~	c #A4A1A2",
"0~	c #9F9C9D",
"a~	c #9D9A9B",
"b~	c #A29E9F",
"c~	c #A4A6A1",
"d~	c #A6A9A3",
"e~	c #636362",
"f~	c #686866",
"g~	c #676966",
"h~	c #80827F",
"i~	c #A49F9F",
"j~	c #7D7E78",
"k~	c #919592",
"l~	c #969A97",
"m~	c #939794",
"n~	c #8E928D",
"o~	c #919590",
"p~	c #A3A0A1",
"q~	c #9C9799",
"r~	c #A19D9E",
"s~	c #8B8684",
"t~	c #767875",
"u~	c #A09B9B",
"v~	c #8F9490",
"w~	c #929693",
"x~	c #90948F",
"y~	c #898D88",
"z~	c #878B88",
"A~	c #888C89",
"B~	c #949192",
"C~	c #969394",
"D~	c #A39EA0",
"E~	c #9D9899",
"F~	c #9D999A",
"G~	c #999A91",
"H~	c #B2B3AE",
"I~	c #7D7F7D",
"J~	c #9F9A9A",
"K~	c #A29F9E",
"L~	c #909291",
"M~	c #8C8F8F",
"N~	c #8D918E",
"O~	c #8B8F8E",
"P~	c #888584",
"Q~	c #979292",
"R~	c #9E9999",
"S~	c #A6A2A2",
"T~	c #A7A4A3",
"U~	c #A29E9D",
"V~	c #A4A49D",
"W~	c #787977",
"X~	c #9F9D9E",
"Y~	c #9D9C9D",
"Z~	c #9B9696",
"`~	c #7C7C75",
" {	c #8F9392",
".{	c #959998",
"+{	c #838686",
"@{	c #A29D9D",
"#{	c #9D9A99",
"${	c #777976",
"%{	c #7B7D7A",
"&{	c #828483",
"*{	c #969799",
"={	c #939495",
"-{	c #858687",
";{	c #838584",
">{	c #777978",
",{	c #A3A09F",
"'{	c #9E9A98",
"){	c #B0AFAB",
"!{	c #ACABA7",
"~{	c #BDBDB8",
"{{	c #82827B",
"]{	c #7A7C7B",
"^{	c #8E8F8F",
"/{	c #898A8B",
"({	c #828385",
"_{	c #828382",
":{	c #B1B2AD",
"<{	c #A8A5A4",
"[{	c #A9A5A2",
"}{	c #A1A1A1",
"|{	c #9A9C9B",
"1{	c #868982",
"2{	c #8B8D86",
"3{	c #BCBBB7",
"4{	c #B8B7B3",
"5{	c #807D78",
"6{	c #79797A",
"7{	c #A8A5A2",
"8{	c #999A99",
"9{	c #61615F",
"0{	c #9C9999",
"a{	c #ACAAA6",
"b{	c #B9B6B4",
"c{	c #B5B2AF",
"d{	c #ABA7A5",
"e{	c #8F9190",
"f{	c #989999",
"g{	c #8B8C8B",
"h{	c #6E6F68",
"i{	c #7D7E7C",
"j{	c #A4A199",
"k{	c #9D9A93",
"l{	c #A09D95",
"m{	c #ADA9A6",
"n{	c #ACA8A5",
"o{	c #7A7C78",
"p{	c #AEADA9",
"q{	c #B1B0AC",
"r{	c #6F6F70",
"s{	c #707072",
"t{	c #747573",
"u{	c #B2B2B0",
"v{	c #67655F",
"w{	c #74706B",
"x{	c #AAA6A4",
"y{	c #ABA9A3",
"z{	c #B0AEA8",
"A{	c #BBBAB7",
"B{	c #8A8684",
"C{	c #909193",
"D{	c #939296",
"E{	c #727175",
"F{	c #69686C",
"G{	c #7A7A7C",
"H{	c #727471",
"I{	c #707270",
"J{	c #444442",
"K{	c #85857D",
"L{	c #949087",
"M{	c #7D7974",
"N{	c #A7A39E",
"O{	c #A9A6A1",
"P{	c #6B6D69",
"Q{	c #BFBEBA",
"R{	c #C8C7C3",
"S{	c #858488",
"T{	c #7B7A7E",
"U{	c #7E7D82",
"V{	c #807F83",
"W{	c #938F86",
"X{	c #70726E",
"Y{	c #71736F",
"Z{	c #9EA199",
"`{	c #A5A19E",
" ]	c #A7A3A1",
".]	c #9F9B98",
"+]	c #A6A5A3",
"@]	c #8A8B8C",
"#]	c #87888B",
"$]	c #8B8C8E",
"%]	c #7A7B74",
"&]	c #868589",
"*]	c #79787C",
"=]	c #9D9D93",
"-]	c #A1A197",
";]	c #949188",
">]	c #959289",
",]	c #BAB6B1",
"']	c #B2AEA9",
")]	c #B3B3AC",
"!]	c #7D7B75",
"~]	c #6A6A63",
"{]	c #92978F",
"]]	c #989D94",
"^]	c #9DA29A",
"/]	c #9DA299",
"(]	c #A2A6A0",
"_]	c #989495",
":]	c #A7A2A2",
"<]	c #A6A1A1",
"[]	c #A8A3A3",
"}]	c #7A7673",
"|]	c #736F6B",
"1]	c #76726D",
"2]	c #827E79",
"3]	c #8E8B83",
"4]	c #A5A4A2",
"5]	c #A4A2A3",
"6]	c #A3A2A2",
"7]	c #87868B",
"8]	c #89888C",
"9]	c #828286",
"0]	c #6D6F6C",
"a]	c #6F706E",
"b]	c #A1A199",
"c]	c #9C9C94",
"d]	c #95948A",
"e]	c #B2B2AB",
"f]	c #A1A39D",
"g]	c #AAA5A5",
"h]	c #A6A39C",
"i]	c #ADADA6",
"j]	c #A6A69F",
"k]	c #949288",
"l]	c #87877D",
"m]	c #87867C",
"n]	c #939187",
"o]	c #9E9C94",
"p]	c #A19E97",
"q]	c #C3BFBC",
"r]	c #C0BCB8",
"s]	c #AFB0AC",
"t]	c #B0AEAA",
"u]	c #B5B3AF",
"v]	c #969698",
"w]	c #8D8F88",
"x]	c #8C8C82",
"y]	c #99978D",
"z]	c #97958B",
"A]	c #A29F98",
"B]	c #A7A3A0",
"C]	c #B7B3AF",
"D]	c #B8B4B1",
"E]	c #A2A3A1",
"F]	c #95928B",
"G]	c #6B6B6A",
"H]	c #AFABA9",
"I]	c #888B83",
"J]	c #7F827A",
"K]	c #74766F",
"L]	c #8A8B82",
"M]	c #8E8B84",
"N]	c #7A7979",
"O]	c #64655E",
"P]	c #ABAAA8",
"Q]	c #828082",
"R]	c #73746D",
"S]	c #AEABA7",
"T]	c #BAB9B5",
"U]	c #AEAFA8",
"V]	c #B1B0AD",
"W]	c #B5B4B0",
"X]	c #A9A8A6",
"Y]	c #807E81",
"Z]	c #A0A098",
"`]	c #B9B8B4",
" ^	c #BDBDB7",
".^	c #BEC0B7",
"+^	c #ADAEA7",
"@^	c #ABABAB",
"#^	c #B9BAB4",
"$^	c #AAABA2",
"%^	c #ACACAE",
"&^	c #B4B4B4",
"*^	c #AFABAB",
"=^	c #8B898B",
"-^	c #ADAEAA",
";^	c #AAAAAA",
">^	c #BFBFC1",
",^	c #B3B3B3",
"'^	c #B4B1B0",
")^	c #AEAEAC",
"!^	c #B4B4B0",
"~^	c #8D8B82",
"{^	c #908F85",
"]^	c #AEAEAE",
"^^	c #BDBDBD",
"/^	c #C6C6C6",
"(^	c #C2BFBE",
"_^	c #7F7C7B",
":^	c #95958B",
"<^	c #939488",
"[^	c #8F8E84",
"}^	c #929086",
"|^	c #B4B4B3",
"1^	c #BDBDBB",
"2^	c #BBBBB9",
"3^	c #BCBCBA",
"4^	c #AAA6A6",
"5^	c #AEABAA",
"6^	c #AFAFAE",
"7^	c #B5B4B4",
"8^	c #B4B3B1",
"9^	c #B6B7B2",
"0^	c #8A887E",
"a^	c #8C8A82",
"b^	c #BFBFBD",
"c^	c #A9A6A5",
"d^	c #B3AFAF",
"e^	c #B0AFAE",
"f^	c #B7B6B4",
"g^	c #BFBEBB",
"h^	c #ABACA3",
"i^	c #84867D",
"j^	c #98988E",
"k^	c #9C9C92",
"l^	c #757872",
"m^	c #949091",
"n^	c #999596",
"o^	c #B9B8B7",
"p^	c #C1C0BD",
"q^	c #929288",
"r^	c #7A7D77",
"s^	c #B8B8B6",
"t^	c #B5B4B3",
"u^	c #AFACA6",
"v^	c #7D8079",
"w^	c #8B8D82",
"x^	c #83857C",
"y^	c #84807D",
"z^	c #6B6E66",
"A^	c #8F8B8C",
"B^	c #9B9D9C",
"C^	c #848685",
"D^	c #858686",
"E^	c #7B7D79",
"F^	c #999D98",
"G^	c #88898B",
"H^	c #8D8E8F",
"I^	c #939993",
"J^	c #8D918C",
"K^	c #868B86",
"L^	c #BCBDB8",
"M^	c #A4A1A0",
"N^	c #B2AFAE",
"O^	c #8C8E8D",
"P^	c #595955",
"Q^	c #ABA7A6",
"R^	c #A2A4A2",
"S^	c #555652",
"T^	c #5F605C",
"U^	c #ABACAA",
"V^	c #817E77",
"W^	c #89867F",
"X^	c #B3B2B0",
"Y^	c #A6A8A6",
"Z^	c #C5C4C1",
"`^	c #A8A7A6",
" /	c #74746D",
"./	c #9A9C93",
"+/	c #B3B2AF",
"@/	c #9C9D94",
"#/	c #B6B5B2",
"$/	c #BEBBBA",
"%/	c #B7B4B3",
"&/	c #BCBBB9",
"*/	c #CAC9C6",
"=/	c #C1C0BC",
"-/	c #BDBAB9",
";/	c #B6B3B0",
">/	c #D4D3CF",
",/	c #C9C8C5",
"'/	c #BFBCB9",
")/	c #BBB8B7",
"!/	c #B0ADAC",
"~/	c #B8B5B4",
"{/	c #B6B5B4",
"]/	c #B1B0AF",
"^/	c #B0ADAB",
"//	c #B5B2B1",
"(/	c #AAA6A7",
"_/	c #B6B3B2",
":/	c #B7B8B4",
"</	c #BAB7B6",
"[/	c #BCB8B8",
"}/	c #797A79",
"|/	c #B5B4B1",
"1/	c #C0BFBC",
"2/	c #848387",
"3/	c #7F8180",
"4/	c #7D7F7E",
"5/	c #ACADA9",
"6/	c #C3C1BD",
"7/	c #BFBDB8",
"8/	c #C5C4C0",
"9/	c #ACACA6",
"0/	c #BBB8B4",
"a/	c #B8B6B2",
"b/	c #B8B5B1",
"c/	c #C2C0BC",
"d/	c #9FA29C",
"e/	c #656563",
"f/	c #CBC8C4",
"g/	c #B2B3AC",
"h/	c #AFB0AA",
"i/	c #7B7774",
"j/	c #ABA6A3",
"k/	c #BDBBB7",
"l/	c #B4B4AF",
"m/	c #AAABA4",
"n/	c #BDB8B5",
"o/	c #B4AFAC",
"p/	c #C4C2BD",
"q/	c #A7A59F",
"r/	c #B3B0AB",
"s/	c #A29E9B",
"t/	c #A39D9A",
"u/	c #928B89",
"v/	c #B4B0AD",
"w/	c #89878A",
"x/	c #7E7D7F",
"y/	c #AFAFA8",
"z/	c #AEABA6",
"A/	c #A8A49F",
"B/	c #BEBDBA",
"C/	c #948D8B",
"D/	c #A49D9B",
"E/	c #C8C4C1",
"F/	c #CFCBC8",
"G/	c #7D7C7D",
"H/	c #B5B1AE",
"I/	c #B6AFAD",
"J/	c #AEA7A5",
"K/	c #CBC6C3",
"L/	c #77746F",
"M/	c #B0ACA9",
"N/	c #B0AAA7",
"O/	c #B1ADAA",
"P/	c #747874",
"Q/	c #797D7A",
"R/	c #808481",
"S/	c #A9A9A2",
"T/	c #757774",
"U/	c #707470",
"V/	c #7D817D",
"W/	c #82807A",
"X/	c #B6B4AE",
"Y/	c #7B7D7C",
"Z/	c #797C7B",
"`/	c #7C807D",
" (	c #B6B5B1",
".(	c #7E827F",
"+(	c #7A7E7B",
"@(	c #8A8681",
"#(	c #B8B9B5",
"$(	c #B3B2AE",
"%(	c #868A89",
"&(	c #848786",
"*(	c #808382",
"=(	c #9C9594",
"-(	c #999290",
";(	c #8F9291",
">(	c #898D8A",
",(	c #797570",
"'(	c #817D78",
")(	c #948E8C",
"!(	c #8B8482",
"~(	c #686A66",
"{(	c #8B8A8C",
"](	c #8A888B",
"^(	c #949294",
"/(	c #99989A",
"((	c #737472",
"_(	c #62635F",
":(	c #7D7A76",
"<(	c #807E7F",
"[(	c #939194",
"}(	c #989699",
"|(	c #A29B99",
"1(	c #9D9694",
"2(	c #9A9491",
"3(	c #A5A29A",
"4(	c #99968D",
"5(	c #6C6E6B",
"6(	c #9B9492",
"7(	c #8E8785",
"8(	c #968F8D",
"9(	c #7B7974",
"0(	c #C4C3C2",
"a(	c #B7B6B3",
"b(	c #918E85",
"c(	c #717372",
"d(	c #BEBDBC",
"e(	c #CCCBC8",
"f(	c #C7C6C3",
"g(	c #A19D94",
"h(	c #6F7070",
"i(	c #AAA8A9",
"j(	c #BDBCBD",
"k(	c #C2C1BD",
"l(	c #CBCAC6",
"m(	c #BAB9B6",
"n(	c #A8A69E",
"o(	c #A8A59C",
"p(	c #ADABA3",
"q(	c #7E807F",
"r(	c #797670",
"s(	c #7A7872",
"t(	c #A2A1A2",
"u(	c #A7A6A6",
"v(	c #99958C",
"w(	c #8D8B83",
"x(	c #7C7D7D",
"y(	c #797B7A",
"z(	c #ABA9AA",
"A(	c #9C998F",
"B(	c #82807C",
"C(	c #797972",
"D(	c #888880",
"E(	c #B7B4AF",
"F(	c #797B74",
"G(	c #8B8B83",
"H(	c #BDBDB9",
"I(	c #868887",
"J(	c #858780",
"K(	c #787A73",
"L(	c #8F8986",
"M(	c #BFC0BC",
"N(	c #8D8A82",
"O(	c #A49E98",
"P(	c #A59F99",
"Q(	c #A2A099",
"R(	c #6C6D68",
"S(	c #94948A",
"T(	c #938C8A",
"U(	c #918B88",
"V(	c #838179",
"W(	c #9D9891",
"X(	c #97918B",
"Y(	c #948F86",
"Z(	c #98928B",
"`(	c #A4A09B",
" _	c #A69F9D",
"._	c #A6A09D",
"+_	c #A6A09E",
"@_	c #958F8C",
"#_	c #8B8582",
"$_	c #867F7D",
"%_	c #787871",
"&_	c #908B84",
"*_	c #8E8880",
"=_	c #9F9996",
"-_	c #A59E9D",
";_	c #8E8F90",
">_	c #8E9087",
",_	c #97978D",
"'_	c #8D8684",
")_	c #87817E",
"!_	c #908A87",
"~_	c #898B82",
"{_	c #B3AFAD",
"]_	c #BAB7B4",
"^_	c #868486",
"/_	c #999799",
"(_	c #7D7A73",
"__	c #7F7D75",
":_	c #948F88",
"<_	c #928C86",
"[_	c #8F8780",
"}_	c #8F8982",
"|_	c #7B7772",
"1_	c #A19B96",
"2_	c #A09A95",
"3_	c #A29C99",
"4_	c #8C8683",
"5_	c #7C7C74",
"6_	c #82827A",
"7_	c #948E87",
"8_	c #918B85",
"9_	c #9C9691",
"0_	c #9E9895",
"a_	c #9F9997",
"b_	c #9F9994",
"c_	c #898280",
"d_	c #878282",
"e_	c #948F8A",
"f_	c #9B9590",
"g_	c #9A9290",
"h_	c #9C9492",
"i_	c #8C8787",
"j_	c #898484",
"k_	c #B0B0AA",
"l_	c #9A938F",
"m_	c #9D9794",
"n_	c #686868",
"o_	c #948F8F",
"p_	c #9D9898",
"q_	c #BAB9B8",
"r_	c #9E9994",
"s_	c #827E7C",
"t_	c #9A948E",
"u_	c #7F7D7E",
"v_	c #979189",
"w_	c #96938A",
"x_	c #ACA8A3",
"y_	c #918E84",
"z_	c #898281",
"A_	c #AFADA9",
"B_	c #9C968E",
"C_	c #99968C",
"D_	c #99958B",
"E_	c #98968B",
"F_	c #646561",
"G_	c #8B8B81",
"H_	c #8E8786",
"I_	c #969389",
"J_	c #959489",
"K_	c #8D8D83",
"L_	c #8E8E84",
"M_	c #83837B",
"N_	c #8D8685",
"O_	c #7C7974",
"P_	c #75736F",
"Q_	c #97948B",
"R_	c #949187",
"S_	c #8F8E83",
"T_	c #7E7C74",
"U_	c #8A8381",
"V_	c #7F7976",
"W_	c #949389",
"X_	c #7D7E75",
"Y_	c #808279",
"Z_	c #6C6863",
"`_	c #828683",
" :	c #74726C",
".:	c #827D79",
"+:	c #B1B2AB",
"@:	c #858887",
"#:	c #8B8780",
"$:	c #89867E",
"%:	c #8A867F",
"&:	c #86827B",
"*:	c #88827C",
"=:	c #72706B",
"-:	c #74716D",
";:	c #858986",
">:	c #909491",
",:	c #87847D",
"':	c #908D86",
"):	c #6C6A66",
"!:	c #ACADA6",
"~:	c #8B8982",
"{:	c #75736D",
"]:	c #797B75",
"^:	c #AFABA7",
"/:	c #A6A79E",
"(:	c #65625E",
"_:	c #706E6A",
"::	c #B8B4B2",
"<:	c #707067",
"[:	c #6F6C68",
"}:	c #B9B5B0",
"|:	c #7F7B78",
"1:	c #818179",
"2:	c #828079",
"3:	c #86847D",
"4:	c #AAA6A1",
"5:	c #ABA7A4",
"6:	c #76726F",
"7:	c #7E817B",
"8:	c #696969",
"9:	c #82837A",
"0:	c #817F75",
"a:	c #858379",
"b:	c #918F86",
"c:	c #7F7C74",
"d:	c #AFABA4",
"e:	c #A9A69E",
"f:	c #88847F",
"g:	c #84827A",
"h:	c #8B8A80",
"i:	c #848179",
"j:	c #B3AFAA",
"k:	c #AFABA6",
"l:	c #B7B7B7",
"m:	c #8A8780",
"n:	c #8E8B82",
"o:	c #928F86",
"p:	c #8F8B82",
"q:	c #8C8980",
"r:	c #87857D",
"s:	c #84807B",
"t:	c #ABA7A0",
"u:	c #B6B2AD",
"v:	c #474843",
"w:	c #5C5B57",
"x:	c #B0ADA6",
"y:	c #B1AEA6",
"z:	c #ABA7A2",
"A:	c #BDB8B4",
"B:	c #837F7C",
"C:	c #7F7C79",
"D:	c #807A74",
"E:	c #938D86",
"F:	c #686763",
"G:	c #686764",
"H:	c #B4B0AB",
"I:	c #BDB9B4",
"J:	c #ADA9A4",
"K:	c #87837E",
"L:	c #9D9D9F",
"M:	c #A0A0A2",
"N:	c #4B4C47",
"O:	c #63645F",
"P:	c #6E6D69",
"Q:	c #99938E",
"R:	c #8E8883",
"S:	c #7B7973",
"T:	c #C1BEB8",
"U:	c #CFCDC7",
"V:	c #C9C6C2",
"W:	c #777470",
"X:	c #474742",
"Y:	c #4A4B46",
"Z:	c #9A948F",
"`:	c #89837E",
" <	c #85817C",
".<	c #7C7873",
"+<	c #817E79",
"@<	c #C6C3BF",
"#<	c #8C8982",
"$<	c #797A74",
"%<	c #5C5D59",
"&<	c #41423D",
"*<	c #97918C",
"=<	c #908B8B",
"-<	c #8D8A89",
";<	c #938D85",
"><	c #676864",
",<	c #3A3B37",
"'<	c #8D8781",
")<	c #535450",
"!<	c #99928F",
"~<	c #929195",
"{<	c #949397",
"]<	c #96908B",
"^<	c #83867D",
"/<	c #8F8B84",
"(<	c #9D9493",
"_<	c #A29998",
":<	c #958F89",
"<<	c #99918F",
"[<	c #B4ADAB",
"}<	c #A9A2A0",
"|<	c #9C968F",
"1<	c #A4A49C",
"2<	c #97908E",
"3<	c #B3ABA9",
"4<	c #ADA5A3",
"5<	c #B1ABA8",
"6<	c #ABA3A2",
"7<	c #A29A99",
"8<	c #908B86",
"9<	c #7A7C73",
"0<	c #73746B",
"a<	c #AFABA8",
"b<	c #B3ACAA",
"c<	c #958D8B",
"d<	c #676663",
"e<	c #B9B7B3",
"f<	c #A09896",
"g<	c #A49C9A",
"h<	c #7E7E76",
"i<	c #817D76",
"j<	c #A09997",
"k<	c #9D9594",
"l<	c #7F7B76",
"m<	c #5D5D59",
"n<	c #5D5E59",
"o<	c #B5B2AB",
"p<	c #978F8D",
"q<	c #AAA69F",
"r<	c #AFACA5",
"s<	c #747070",
"t<	c #B9BAB6",
"u<	c #85827B",
"v<	c #7C7971",
"w<	c #686461",
"x<	c #7D7976",
"y<	c #7C7874",
"z<	c #C6C2BE",
"A<	c #CAC7C3",
"B<	c #CDCBC6",
"C<	c #797672",
"D<	c #716F6B",
"E<	c #6B6965",
"F<	c #686662",
"G<	c #B1AFA9",
"H<	c #88867E",
"I<	c #7C7972",
"J<	c #827F78",
"K<	c #AEAAA6",
"L<	c #928C87",
"M<	c #706F6D",
"N<	c #B9B5B2",
"O<	c #74706D",
"P<	c #808078",
"Q<	c #B3B4AF",
"R<	c #7D7774",
"S<	c #807C77",
"T<	c #B6B2AF",
"U<	c #77736E",
"V<	c #ADABA5",
"W<	c #AAA6A3",
"X<	c #B2AEAB",
"Y<	c #585550",
"Z<	c #615E59",
"`<	c #66645E",
" [	c #797771",
".[	c #B1ADA8",
"+[	c #B4AFAB",
"@[	c #B2AFA7",
"#[	c #7E7C76",
"$[	c #C2BEB9",
"%[	c #ABA8A1",
"&[	c #968F8E",
"*[	c #97908F",
"=[	c #9E9896",
"-[	c #868789",
";[	c #8C8682",
">[	c #73706C",
",[	c #797470",
"'[	c #ABA6A2",
")[	c #B3AFAB",
"![	c #BEBBB8",
"~[	c #C9C5C2",
"{[	c #CCC8C5",
"][	c #CBC6C2",
"^[	c #C2C0BA",
"/[	c #919294",
"([	c #949597",
"_[	c #7E7A77",
":[	c #74716F",
"<[	c #7A7671",
"[[	c #C3C0BD",
"}[	c #C2BDBA",
"|[	c #B0ACA7",
"1[	c #A09897",
"2[	c #8A8B7F",
"3[	c #8E8882",
"4[	c #706D67",
"5[	c #99938C",
"6[	c #ACA8A6",
"7[	c #9D9494",
"8[	c #958F8D",
"9[	c #86877D",
"0[	c #797B70",
"a[	c #8C8E83",
"b[	c #85817E",
"c[	c #8D8782",
"d[	c #88827D",
"e[	c #87827D",
"f[	c #B7B0AE",
"g[	c #AAA3A1",
"h[	c #A9A39E",
"i[	c #A39D99",
"j[	c #A29C97",
"k[	c #8D8A8B",
"l[	c #7F8178",
"m[	c #86887D",
"n[	c #8A8B81",
"o[	c #86807D",
"p[	c #9D9792",
"q[	c #A6A19C",
"r[	c #A8A29D",
"s[	c #7D7F76",
"t[	c #A19A98",
"u[	c #A6A09B",
"v[	c #686862",
"w[	c #A29D98",
"x[	c #ABA5A0",
"y[	c #808281",
"z[	c #807D7C",
"A[	c #88857D",
"B[	c #AEAAA5",
"C[	c #898B80",
"D[	c #7D7D74",
"E[	c #7D7D75",
"F[	c #9F9F95",
"G[	c #A5A59D",
"H[	c #99948D",
"I[	c #83807F",
"J[	c #84867B",
"K[	c #9E9D93",
"L[	c #9F9892",
"M[	c #B4B1AA",
"N[	c #807C79",
"O[	c #7B7D78",
"P[	c #818177",
"Q[	c #808076",
"R[	c #85857B",
"S[	c #89897F",
"T[	c #948C85",
"U[	c #958E88",
"V[	c #968F89",
"W[	c #928B85",
"X[	c #8C8680",
"Y[	c #A7A79F",
"Z[	c #97998E",
"`[	c #6A6B67",
" }	c #8A8A80",
".}	c #928B83",
"+}	c #8B847D",
"@}	c #908982",
"#}	c #948D86",
"$}	c #8B847E",
"%}	c #86817A",
"&}	c #8A847D",
"*}	c #8B857E",
"=}	c #ABA6A4",
"-}	c #898C8B",
";}	c #7F8282",
">}	c #686A67",
",}	c #88867D",
"'}	c #8C8B81",
")}	c #928D83",
"!}	c #8F8B81",
"~}	c #8E897F",
"{}	c #8C877D",
"]}	c #88827A",
"^}	c #827D74",
"/}	c #868078",
"(}	c #8D8A81",
"_}	c #99988E",
":}	c #B4B1AB",
"<}	c #A2A49B",
"[}	c #7B7C7D",
"}}	c #8A8D8E",
"|}	c #8C8F90",
"1}	c #8B9090",
"2}	c #868B8B",
"3}	c #818686",
"4}	c #7D8180",
"5}	c #8B897F",
"6}	c #8E8C82",
"7}	c #A6A299",
"8}	c #959086",
"9}	c #8F8B7F",
"0}	c #8B867D",
"a}	c #8F8A80",
"b}	c #8D8A80",
"c}	c #88857C",
"d}	c #868279",
"e}	c #706C6A",
"f}	c #6D6966",
"g}	c #7D7979",
"h}	c #4F4E4B",
"i}	c #9D9C92",
"j}	c #A4A69D",
"k}	c #A5A69D",
"l}	c #A2A39A",
"m}	c #878B8A",
"n}	c #8B8E8D",
"o}	c #7D8281",
"p}	c #7D807F",
"q}	c #656664",
"r}	c #8F8C82",
"s}	c #8B887E",
"t}	c #908D84",
"u}	c #8F8C83",
"v}	c #8F8A85",
"w}	c #7E7A75",
"x}	c #43423F",
"y}	c #4B4B47",
"z}	c #8A8D8C",
"A}	c #5D5E5C",
"B}	c #87847B",
"C}	c #86837A",
"D}	c #89867D",
"E}	c #848178",
"F}	c #7E7D73",
"G}	c #BEBAB8",
"H}	c #8C908D",
"I}	c #85827A",
"J}	c #79766F",
"K}	c #747476",
"L}	c #717173",
"M}	c #7D7B74",
"N}	c #A59F9A",
"O}	c #575350",
"P}	c #BFBBB8",
"Q}	c #B0B0AF",
"R}	c #4D4946",
"S}	c #64635F",
"T}	c #63615B",
"U}	c #686660",
"V}	c #A6A69D",
"W}	c #707069",
"X}	c #71716B",
"Y}	c #70716B",
"Z}	c #7F7F77",
"`}	c #A19A99",
" |	c #7D807A",
".|	c #78756E",
"+|	c #737069",
"@|	c #76746C",
"#|	c #7B7B71",
"$|	c #85867A",
"%|	c #666561",
"&|	c #A49D9C",
"*|	c #726E6B",
"=|	c #C6C6BF",
"-|	c #B5B3AD",
";|	c #BDBBB5",
">|	c #7D7C72",
",|	c #8D8E82",
"'|	c #928B8A",
")|	c #797471",
"!|	c #A9A69F",
"~|	c #BABBB6",
"{|	c #B5B5AF",
"]|	c #B8B6B0",
"^|	c #5E5F5B",
"/|	c #828278",
"(|	c #88897D",
"_|	c #938C8B",
":|	c #8F8886",
"<|	c #A6A49D",
"[|	c #B4B5B0",
"}|	c #AEAEA7",
"||	c #6E6C6D",
"1|	c #747273",
"2|	c #7D7977",
"3|	c #A6A39A",
"4|	c #9D9990",
"5|	c #6C6B6B",
"6|	c #908A88",
"7|	c #ACABA1",
"8|	c #A4A299",
"9|	c #A6A29B",
"0|	c #7D7975",
"a|	c #636363",
"b|	c #999391",
"c|	c #99948A",
"d|	c #ABA89F",
"e|	c #A5A299",
"f|	c #B6B3AB",
"g|	c #9EA09F",
"h|	c #9FA1A0",
"i|	c #484945",
"j|	c #5D5E5A",
"k|	c #6E6E67",
"l|	c #A19B93",
"m|	c #A29C94",
"n|	c #A29F96",
"o|	c #B1AEAB",
"p|	c #A1A2A0",
"q|	c #9D9F9E",
"r|	c #9D9E9D",
"s|	c #797C76",
"t|	c #666763",
"u|	c #767470",
"v|	c #A09A94",
"w|	c #AAA49D",
"x|	c #868988",
"y|	c #61625E",
"z|	c #949892",
"A|	c #8B8F86",
"B|	c #93958C",
"C|	c #948F91",
"D|	c #AAA49F",
"E|	c #A8A29C",
"F|	c #AAA49C",
"G|	c #A7A49B",
"H|	c #8E8B8B",
"I|	c #70706A",
"J|	c #938E8F",
"K|	c #A9A39D",
"L|	c #B0ABA4",
"M|	c #757577",
"N|	c #A8A89E",
"O|	c #80827B",
"P|	c #A5A0A0",
"Q|	c #9A9597",
"R|	c #A8A29F",
"S|	c #727272",
"T|	c #8B8B80",
"U|	c #8C8D82",
"V|	c #999697",
"W|	c #827C77",
"X|	c #7B756F",
"Y|	c #827D76",
"Z|	c #717370",
"`|	c #84847A",
" 1	c #86867B",
".1	c #7F7974",
"+1	c #79746D",
"@1	c #827C75",
"#1	c #A19B94",
"$1	c #9B958D",
"%1	c #948E86",
"&1	c #BCB8B3",
"*1	c #666765",
"=1	c #87888A",
"-1	c #848586",
";1	c #B4AFAD",
">1	c #7C7777",
",1	c #868181",
"'1	c #8F8A83",
")1	c #A59D99",
"!1	c #9D958F",
"~1	c #99918B",
"{1	c #968F87",
"]1	c #948E85",
"^1	c #9A948B",
"/1	c #9D988E",
"(1	c #9B968C",
"_1	c #70716F",
":1	c #706D69",
"<1	c #ABABA5",
"[1	c #7F8082",
"}1	c #A39C96",
"|1	c #A69E99",
"11	c #A69E97",
"21	c #A49D94",
"31	c #989188",
"41	c #948D82",
"51	c #908A7F",
"61	c #747674",
"71	c #797572",
"81	c #72726B",
"91	c #737570",
"01	c #6E6B68",
"a1	c #99918A",
"b1	c #9B958F",
"c1	c #A09991",
"d1	c #A7A099",
"e1	c #999289",
"f1	c #8E877E",
"g1	c #8D867C",
"h1	c #868075",
"i1	c #8B867C",
"j1	c #7B786F",
"k1	c #75726B",
"l1	c #6D6C69",
"m1	c #7C7D7E",
"n1	c #99938A",
"o1	c #958F86",
"p1	c #867F76",
"q1	c #817A70",
"r1	c #80796F",
"s1	c #797368",
"t1	c #827C73",
"u1	c #837E74",
"v1	c #747067",
"w1	c #736F6A",
"x1	c #757776",
"y1	c #626462",
"z1	c #646663",
"A1	c #838486",
"B1	c #676761",
"C1	c #787472",
"D1	c #BDB9B6",
"E1	c #918C81",
"F1	c #868276",
"G1	c #777266",
"H1	c #7A746B",
"I1	c #7E786F",
"J1	c #777268",
"K1	c #7F7971",
"L1	c #908B82",
"M1	c #6C6C66",
"N1	c #8B877D",
"O1	c #827D71",
"P1	c #797469",
"Q1	c #747064",
"R1	c #7A756B",
"S1	c #89837D",
"T1	c #9D988F",
"U1	c #98928A",
"V1	c #7A7870",
"W1	c #75716E",
"X1	c #88867A",
"Y1	c #797668",
"Z1	c #757366",
"`1	c #7A786B",
" 2	c #7D7970",
".2	c #837D75",
"+2	c #AFACAB",
"@2	c #626262",
"#2	c #646466",
"$2	c #6B6D6B",
"%2	c #9F9991",
"&2	c #818071",
"*2	c #7D7D6C",
"=2	c #848274",
"-2	c #888679",
";2	c #AEABAB",
">2	c #767678",
",2	c #6D6D6F",
"'2	c #6A6A6B",
")2	c #958E86",
"!2	c #8F8A82",
"~2	c #B7B5AB",
"{2	c #898879",
"]2	c #878978",
"^2	c #888779",
"/2	c #838275",
"(2	c #848279",
"_2	c #A19C9D",
":2	c #9E9B9C",
"<2	c #A29FA0",
"[2	c #A5A3A4",
"}2	c #707071",
"|2	c #8F938D",
"12	c #78726A",
"22	c #76706A",
"32	c #79746B",
"42	c #8F8F82",
"52	c #8C8D7E",
"62	c #8A8B7D",
"72	c #8E8F83",
"82	c #78746D",
"92	c #6B6762",
"02	c #929489",
"a2	c #94968B",
"b2	c #737374",
"c2	c #ABAEA6",
"d2	c #6C6A64",
"e2	c #696962",
"f2	c #6F6F68",
"g2	c #666660",
"h2	c #A7A7A7",
"i2	c #6A6A6A",
"j2	c #6E6E6E",
"k2	c #40413C",
"l2	c #6D6B65",
"m2	c #A5A5A5",
"n2	c #888B8B",
"o2	c #8D908F",
"p2	c #909493",
"q2	c #7C7E79",
"r2	c #818483",
"s2	c #828584",
"t2	c #929594",
"u2	c #8E9190",
"v2	c #60615D",
"w2	c #919494",
"x2	c #969999",
"y2	c #939695",
"z2	c #949796",
"A2	c #595854",
"B2	c #626261",
"C2	c #585753",
"D2	c #5A5955",
"E2	c #5F5E5A",
"F2	c #C8C5C2",
"G2	c #BBB8B5",
"H2	c #ABABAA",
"I2	c #747475",
"J2	c #6A6A68",
"K2	c #6E6E70",
"L2	c #B6B6B4",
"M2	c #686562",
"N2	c #63625F",
"O2	c #626663",
"P2	c #757976",
"Q2	c #818582",
"R2	c #666B67",
"S2	c #696D6A",
"T2	c #74726E",
"U2	c #7B807D",
"V2	c #868B87",
"W2	c #8E938F",
"X2	c #8C918E",
"Y2	c #747976",
"Z2	c #6F7470",
"`2	c #6B706D",
" 3	c #727673",
".3	c #8F8E92",
"+3	c #81837C",
"@3	c #636261",
"#3	c #545452",
"$3	c #8F938F",
"%3	c #646865",
"&3	c #878C89",
"*3	c #848986",
"=3	c #797D79",
"-3	c #787C79",
";3	c #737774",
">3	c #777B78",
",3	c #757773",
"'3	c #A3A5A2",
")3	c #868A86",
"!3	c #838784",
"~3	c #838885",
"{3	c #5D615D",
"]3	c #8B8F8C",
"^3	c #848885",
"/3	c #747975",
"(3	c #707471",
"_3	c #959996",
":3	c #747771",
"<3	c #828682",
"[3	c #7D827E",
"}3	c #9A9E9B",
"|3	c #B5B7B4",
"13	c #71736A",
"23	c #66665D",
"33	c #72726A",
"43	c #A7A79D",
"53	c #B2B2AA",
"63	c #7C7A7B",
"73	c #ABABA1",
"83	c #AFAEAF",
"93	c #ACAEAB",
"03	c #545450",
"a3	c #9C9D9D",
"b3	c #71706F",
"c3	c #959698",
"d3	c #ABACA6",
"e3	c #BBBCB8",
"f3	c #C1C2BD",
"g3	c #BBBCB7",
"h3	c #979A99",
"i3	c #B3B3B1",
"j3	c #858282",
"k3	c #898E8B",
"l3	c #828784",
"m3	c #838687",
"n3	c #7D8182",
"o3	c #7F8283",
"p3	c #828586",
"q3	c #98999A",
"r3	c #888689",
"s3	c #858A86",
"t3	c #878C8B",
"u3	c #8E9192",
"v3	c #7E8282",
"w3	c #9B9C9D",
"x3	c #8C8B8D",
"y3	c #828786",
"z3	c #868B8A",
"A3	c #7C7F7E",
"B3	c #9C9F9E",
"C3	c #858A88",
"D3	c #989B9A",
"E3	c #9EA2A1",
"F3	c #9A9D9D",
"G3	c #828685",
"H3	c #A0A3A2",
"I3	c #999C9B",
"J3	c #999D9C",
"K3	c #9DA09F",
"L3	c #9D9EA0",
"M3	c #A0A2A1",
"N3	c #949894",
"O3	c #9A9B9D",
"P3	c #969599",
"Q3	c #8B8F89",
"R3	c #989C96",
"S3	c #9A9E99",
"T3	c #9B9F99",
"U3	c #817D7D",
"V3	c #7B7F7C",
"W3	c #818084",
"X3	c #838286",
"Y3	c #99918D",
"Z3	c #98908C",
"`3	c #988F8E",
" 4	c #928A88",
".4	c #8F8786",
"+4	c #877F7D",
"@4	c #88827F",
"#4	c #8E8684",
"$4	c #746D6B",
"%4	c #827B79",
"&4	c #7E7875",
"*4	c #B9BBB7",
"=4	c #ADAFAB",
"-4	c #B4B5AF",
";4	c #8B918B",
">4	c #B3B4B0",
",4	c #B0B2AF",
"'4	c #BDBEBA",
")4	c #B3B4AD",
"!4	c #949A94",
"~4	c #9DA29D",
"{4	c #BCB8B6",
"]4	c #99938B",
"^4	c #A8A59D",
"/4	c #A8A29A",
"(4	c #595954",
"_4	c #8F9394",
":4	c #878279",
"<4	c #B1B2AE",
"[4	c #6A6B6B",
"}4	c #857F79",
"|4	c #ACA6A0",
"14	c #B4B0A9",
"24	c #B1B1AB",
"34	c #A7A59D",
"44	c #929093",
"54	c #B7B3AE",
"64	c #ABA6A1",
"74	c #ACA6A2",
"84	c #6F6C65",
"94	c #A3A6A0",
"04	c #A8ABA5",
"a4	c #979B95",
"b4	c #999D97",
"c4	c #807977",
"d4	c #A6A3A2",
"e4	c #6A6965",
"f4	c #5B5A56",
"g4	c #787471",
"h4	c #7C7875",
"i4	c #7F7B79",
"j4	c #A29C9A",
"k4	c #6F6B6C",
"l4	c #807B7B",
"m4	c #797472",
"n4	c #7A7674",
"o4	c #B7B7B0",
"p4	c #9C9797",
"q4	c #999496",
"r4	c #ABA5A3",
"s4	c #777576",
"t4	c #8B8681",
"u4	c #63605D",
"v4	c #5E5B59",
"w4	c #34302E",
"x4	c #696663",
"y4	c #837F7D",
"z4	c #8E8989",
"A4	c #858080",
"B4	c #ADADA5",
"C4	c #B0ABA6",
"D4	c #A7A29D",
"E4	c #9C9D91",
"F4	c #9FA094",
"G4	c #B2ACA7",
"H4	c #AEA8A3",
"I4	c #94958A",
"J4	c #99998E",
"K4	c #9B948F",
"L4	c #A59E9C",
"M4	c #66635D",
"N4	c #8F8884",
"O4	c #7E7E74",
"P4	c #ABAEA8",
"Q4	c #6B6B65",
"R4	c #474746",
"S4	c #8F9085",
"T4	c #909186",
"U4	c #827D78",
"V4	c #787A74",
"W4	c #6A6C66",
"X4	c #9A9C91",
"Y4	c #929488",
"Z4	c #8B8C81",
"`4	c #898B7F",
" 5	c #808277",
".5	c #78796F",
"+5	c #7A7C71",
"@5	c #74756C",
"#5	c #928F8F",
"$5	c #7B7B73",
"%5	c #8B8889",
"&5	c #8F8C8D",
"*5	c #908D8E",
"=5	c #585955",
"-5	c #8B8788",
";5	c #BAB8B4",
">5	c #2E302E",
",5	c #3F403C",
"'5	c #B7B4AD",
")5	c #797674",
"!5	c #B0AEA6",
"~5	c #C7C5BD",
"{5	c #C6C2B9",
"]5	c #BCB8AF",
"^5	c #CBC6BD",
"/5	c #C6C1B8",
"(5	c #A7A29B",
"_5	c #87807A",
":5	c #948D87",
"<5	c #918B83",
"[5	c #BBBBBB",
"}5	c #BEBEBD",
"|5	c #949994",
"15	c #A3A69E",
"25	c #9B998F",
"35	c #9F9C93",
"45	c #8C867E",
"55	c #BEBEBE",
"65	c #8B887F",
"75	c #A49E96",
"85	c #9A998F",
"95	c #C6C6C2",
"05	c #9A948C",
"a5	c #8B877E",
"b5	c #79786E",
"c5	c #979598",
"d5	c #6F6D63",
"e5	c #7A7A72",
"f5	c #BDBDBC",
"g5	c #908D83",
"h5	c #8F8B8E",
"i5	c #545550",
"j5	c #9C9B9F",
"k5	c #959288",
"l5	c #98968C",
"m5	c #8E8A8D",
"n5	c #9D9B91",
"o5	c #8C8B8F",
"p5	c #8B8A8E",
"q5	c #77776F",
"r5	c #82847D",
"s5	c #7C7E77",
"t5	c #868285",
"u5	c #8B878B",
"v5	c #858184",
"w5	c #918F94",
"x5	c #7B7D76",
"y5	c #5F5E5B",
"z5	c #605F5C",
"A5	c #7D7D81",
"B5	c #C0BFBB",
"C5	c #919388",
"D5	c #999B8F",
"E5	c #9EA094",
"F5	c #9D9F94",
"G5	c #9A9C90",
"H5	c #96988C",
"I5	c #938B87",
"J5	c #8F8783",
"K5	c #948D89",
"L5	c #938B8C",
"M5	c #6F6B67",
"N5	c #646662",
"O5	c #5A5C58",
"P5	c #9B9B91",
"Q5	c #626460",
"R5	c #6E706B",
"S5	c #797A71",
"T5	c #A6A69E",
"U5	c #8E928C",
"V5	c #969A94",
"W5	c #989D97",
"X5	c #A0A49E",
"Y5	c #A3A7A2",
"Z5	c #A5ABA4",
"`5	c #A7ABA6",
" 6	c #968E8C",
".6	c #A6A9A2",
"+6	c #9FA29A",
"@6	c #8B9088",
"#6	c #8F8D83",
"$6	c #807D76",
"%6	c #696661",
"&6	c #9E9990",
"*6	c #7A7770",
"=6	c #73706B",
"-6	c #C2C3BE",
";6	c #827E7D",
">6	c #B6B4AC",
",6	c #ADAAA2",
"'6	c #ABA59D",
")6	c #A9A39B",
"!6	c #858279",
"~6	c #8A867D",
"{6	c #A29D94",
"]6	c #9D978F",
"^6	c #A29D96",
"/6	c #AFAFA6",
"(6	c #676766",
"_6	c #61625B",
":6	c #585952",
"<6	c #AAAAA2",
"[6	c #827E77",
"}6	c #50514C",
"|6	c #2E2F2E",
"16	c #30312E",
"26	c #484944",
"36	c #6D6B66",
"46	c #3E3F3B",
"56	c #595A56",
"66	c #3A3B36",
"76	c #575853",
"86	c #2F302E",
"96	c #61605D",
"06	c #B5AFAB",
"a6	c #BAB4AF",
"b6	c #BDB8B3",
"c6	c #B3ADA8",
"d6	c #41403C",
"e6	c #C0BAB4",
"f6	c #B4AEA7",
"g6	c #AFAAA3",
"h6	c #716E6B",
"i6	c #60615C",
"j6	c #6C6E6A",
"k6	c #6C6F69",
"l6	c #70726C",
"m6	c #696B66",
"n6	c #5D5F5B",
"o6	c #4C4D49",
"p6	c #60625D",
"q6	c #636561",
"r6	c #A7A19E",
"s6	c #868A84",
"t6	c #565750",
"u6	c #666864",
"v6	c #787975",
"w6	c #807D75",
"x6	c #A5A399",
"y6	c #AAA69D",
"z6	c #848579",
"A6	c #767A77",
"B6	c #9F9D94",
"C6	c #A2A197",
"D6	c #86867C",
"E6	c #9B988F",
"F6	c #6D6F6B",
"G6	c #A2A096",
"H6	c #A6A49A",
"I6	c #A0A29B",
"J6	c #AAA7A0",
"K6	c #A09E94",
"L6	c #B6B6AF",
"M6	c #B3B3AB",
"N6	c #797778",
"O6	c #9C9A9D",
"P6	c #5E5D5A",
"Q6	c #6F6C66",
"R6	c #86857B",
"S6	c #868587",
"T6	c #99989C",
"U6	c #9A999B",
"V6	c #7F8380",
"W6	c #6E6B66",
"X6	c #8E8C90",
"Y6	c #9D9C9E",
"Z6	c #A9A9A9",
"`6	c #727374",
" 7	c #7F7D74",
".7	c #727274",
"+7	c #7E7F82",
"@7	c #858689",
"#7	c #999D9D",
"$7	c #959999",
"%7	c #8F9293",
"&7	c #909595",
"*7	c #949999",
"=7	c #888D8D",
"-7	c #878F8C",
";7	c #8A8F8D",
">7	c #77746D",
",7	c #716F67",
"'7	c #5F5D57",
")7	c #898A8D",
"!7	c #949899",
"~7	c #909594",
"{7	c #8B8F8F",
"]7	c #898E8C",
"^7	c #828985",
"/7	c #7A827F",
"(7	c #888D8B",
"_7	c #787979",
":7	c #34312E",
"<7	c #5A5852",
"[7	c #656462",
"}7	c #696F69",
"|7	c #6D726F",
"17	c #8B908D",
"27	c #8F8882",
"37	c #555450",
"47	c #797E78",
"57	c #2F2F2E",
"67	c #898E86",
"77	c #9B948E",
"87	c #68665E",
"97	c #787677",
"07	c #6B6861",
"a7	c #838284",
"b7	c #7C807B",
"c7	c #777B76",
"d7	c #7C7D74",
"e7	c #717169",
"f7	c #74746B",
"g7	c #75756D",
"h7	c #595950",
"i7	c #7B7E7D",
"j7	c #7A7D7D",
"k7	c #797971",
"l7	c #707068",
"m7	c #6B6B63",
"n7	c #6B6C66",
"o7	c #62635D",
"p7	c #6D6E67",
"q7	c #8D887E",
"r7	c #8C897F",
"s7	c #838077",
"t7	c #858984",
"u7	c #777471",
"v7	c #726F6C",
"w7	c #7B7971",
"x7	c #989389",
"y7	c #888379",
"z7	c #817C72",
"A7	c #ABA9A2",
"B7	c #777972",
"C7	c #787A71",
"D7	c #7D827C",
"E7	c #938E84",
"F7	c #868278",
"G7	c #868177",
"H7	c #81837A",
"I7	c #A2A59D",
"J7	c #868179",
"K7	c #838079",
"L7	c #8B8E85",
"M7	c #646464",
"N7	c #737172",
"O7	c #797879",
"P7	c #707173",
"Q7	c #818283",
"R7	c #B8BAB6",
"S7	c #7A797B",
"T7	c #7F7D80",
"U7	c #6F706C",
"V7	c #797B72",
"W7	c #A39D97",
"X7	c #8F8987",
"Y7	c #626059",
"Z7	c #7D7D73",
"`7	c #7D817C",
" 8	c #777879",
".8	c #AEAFB0",
"+8	c #7D8081",
"@8	c #636562",
"#8	c #6B6B6B",
"$8	c #7E847E",
"%8	c #78797A",
"&8	c #828686",
"*8	c #898E8E",
"=8	c #898C8D",
"-8	c #7E8281",
";8	c #A8AAA9",
">8	c #BCBDBE",
",8	c #A1A2A2",
"'8	c #ACAAA2",
")8	c #929891",
"!8	c #7F837D",
"~8	c #747670",
"{8	c #999D99",
"]8	c #5A5B57",
"^8	c #666866",
"/8	c #51524E",
"(8	c #7F837E",
"_8	c #666666",
":8	c #70736D",
"<8	c #72746F",
"[8	c #737772",
"}8	c #878688",
"|8	c #828183",
"18	c #343430",
"28	c #51524D",
"38	c #6C6B6A",
"48	c #83867E",
"58	c #646462",
"68	c #6E726F",
"78	c #393A35",
"88	c #818278",
"98	c #555651",
"08	c #827D7B",
"a8	c #7B7877",
"b8	c #7F7C7D",
"c8	c #837F82",
"d8	c #8A8687",
"e8	c #696768",
"f8	c #7D7B7C",
"g8	c #8C8F86",
"h8	c #6D6D66",
"i8	c #78746F",
"j8	c #857F7A",
"k8	c #7E7972",
"l8	c #726C67",
"m8	c #636660",
"n8	c #848987",
"o8	c #837D77",
"p8	c #676A64",
"q8	c #6E6A65",
"r8	c #848882",
"s8	c #6B6E68",
"t8	c #797D78",
"u8	c #716D6A",
"v8	c #6F7067",
"w8	c #6F716B",
"x8	c #888E88",
"y8	c #7D827D",
"z8	c #848A84",
"A8	c #656762",
"B8	c #606059",
"C8	c #63645D",
"D8	c #949993",
"E8	c #A4A69B",
"F8	c #A3A59C",
"G8	c #949287",
"H8	c #9D9E94",
"I8	c #9C9A90",
"J8	c #A4A69A",
"K8	c #7D7770",
"L8	c #86868A",
"M8	c #A7A9A0",
"N8	c #A3A59A",
"O8	c #94958B",
"P8	c #676965",
"Q8	c #66665F",
"R8	c #6D6C6B",
"S8	c #717570",
"T8	c #9FA39D",
"U8	c #A5A9A3",
"V8	c #525450",
"W8	c #ABA6A7",
"X8	c #797C74",
"Y8	c #9EA29D",
"Z8	c #A4A8A2",
"`8	c #B9BDB8",
" 9	c #AEB2AC",
".9	c #787C77",
"+9	c #545551",
"@9	c #948F93",
"#9	c #948F90",
"$9	c #B1B4AE",
"%9	c #ADAFAA",
"&9	c #6F736E",
"*9	c #747873",
"=9	c #5E625D",
"-9	c #7B7879",
";9	c #868182",
">9	c #7E8179",
",9	c #5E615B",
"'9	c #5F625C",
")9	c #6D706A",
"!9	c #7B7F7A",
"~9	c #767A75",
"{9	c #848182",
"]9	c #7A7D75",
"^9	c #656460",
"/9	c #797574",
"(9	c #464742",
"_9	c #585954",
":9	c #9DA1A0",
"<9	c #757978",
"[9	c #6D6A67",
"}9	c #747170",
"|9	c #807D7D",
"19	c #827E7F",
"29	c #797C7D",
"39	c #595959",
"49	c #5E5E5D",
"59	c #5F615D",
"69	c #838081",
"79	c #7A7B7D",
"89	c #666862",
"99	c #5E605C",
"09	c #6D6B6C",
"a9	c #7E7A7D",
"b9	c #848083",
"c9	c #908C91",
"d9	c #858386",
"e9	c #71726B",
"f9	c #6C6D66",
"g9	c #6B6C6A",
"h9	c #6A6E69",
"i9	c #7C807A",
"j9	c #62615F",
"k9	c #90938A",
"l9	c #5F605B",
"m9	c #575755",
"n9	c #595957",
"o9	c #676862",
"p9	c #62625C",
"q9	c #696A63",
"r9	c #8E8D91",
"s9	c #65665F",
"t9	c #60615A",
"u9	c #8B8C82",
"v9	c #6C6C6C",
"w9	c #656565",
"x9	c #6D6D6D",
"y9	c #7E7F81",
"z9	c #5D5D5C",
"A9	c #5D5D5B",
"B9	c #76786F",
"C9	c #74776E",
"D9	c #70726B",
"E9	c #7C7A7D",
"F9	c #696961",
"G9	c #76766E",
"H9	c #6C6E65",
"I9	c #72746B",
"J9	c #767970",
"K9	c #73756E",
"L9	c #808182",
"M9	c #747675",
"N9	c #525250",
"O9	c #79787A",
"P9	c #767877",
"Q9	c #747574",
"R9	c #62645E",
"S9	c #4E4F4B",
"T9	c #3F3F3D",
"U9	c #424041",
"V9	c #6E706F",
"W9	c #747374",
"X9	c #6B706B",
"Y9	c #80857D",
"Z9	c #817D7E",
"`9	c #5F5C5B",
" 0	c #514E4D",
".0	c #8A8E88",
"+0	c #767475",
"@0	c #5F5F5F",
"#0	c #666A65",
"$0	c #6B6F6B",
"%0	c #8B8F87",
"&0	c #90958D",
"*0	c #7A7778",
"=0	c #878485",
"-0	c #5E5B5A",
";0	c #3E3D3A",
">0	c #6E706D",
",0	c #6B6F6A",
"'0	c #616260",
")0	c #545553",
"!0	c #646360",
"~0	c #545350",
"{0	c #7D817B",
"]0	c #6D716C",
"^0	c #747974",
"/0	c #575956",
"(0	c #80847E",
"_0	c #5F615E",
":0	c #676B68",
"<0	c #6E726D",
"[0	c #686C67",
"}0	c #636762",
"|0	c #727671",
"10	c #5A5D57",
"20	c #565953",
"30	c #5D5F59",
"40	c #545652",
"50	c #71746E",
"60	c #666761",
"  . + @ # $ % & * = - ; > , = , ' ) ! > ~ { ] ^ / ) ( ~ { _ : ) < [ } < < | 1 2 1 , 3 4 5 6 1 } 7 8 9 0 a b a c d e f g h i j k l m n o p q r m s t u v w x r y n - - 1 | z | ; n A m B C D t w E F B n G s < < H I J K L L M N ) O P Q r R S n T C U V W X Y U Z n ` ` a b  .....+.f @.#.7 b c 8 a @.$.0 %.h @.` ` &.< [ < *.=.-.n A l Z ;.z n &.1 | 4 [ > o * >.0 0 ,.%.#.'.f ).j 0 9 0 >.!.; q ~.T {.q ].^.s Q s s t Q t D [ < l 4 /.o C [ u v Q (.(._.:.<.[.< * }.|./.* 1.< 2.1 /.z | /.3.4.5.6.7.8.C 9.0._ { l > _ ( ~ a.] b.c.d.e.f.g.h.i.j.i.` k.7 h c *.y F l.{.{.m.n.~.p G > A 6 5 o.,.p.q.r.s.t. .[.u.v.w.x.y.z.A.B.C.D.` !.0 | < n A &.n S /.1.P E.u F.G.H.I.J.K.L.M.d.M.N.O.P.Q.L.R.9 S.T.!.> o 2 S 5 -.U.A %.c V.W.X.Y.l Z.0.`. +.+++@+#+$+%+&+*+=+-+;+1.>+,+! '+! @.c #. .h c ).f c 8 h 8 h c @.a 9 )+[ - } } 3 z ( ~ ) !+~+{+}.4 4 ]+= = ]+> ; * P ^+/+1.(+p Q v D _+;+:+O _+:+' <+[+{ : }+}+|+1+: > 2+3+4+5+6+7+8+9+0+a+b+c+d+e+f+g+h+i+1.v z 3 u.u.' - { 0.}+j+k+(.v.n D l+' 1.: '+~ a.! ) ! > - !+m+0.0.' - ' q ~.n+' o+u v.p+O >+q+r+[+s+t+u+",
"v+w+x+y+z+6 &.A+o | 2.5 l 1 D o u.' 0.0.n ~ ~ ~ o.n ( B+~ '+) ~ &.A o o 2.=.C+k k 5 6 o.6 2.; n 8 h f ,.%.j ).D+T.E+#.j 7 k. .l [ s v (+F+G+D G l.w t q B T [ 1.; 4 < > 4 4 > o n /.t G P 1.P G+H+I+[ 1.^.].3 |.J+K+K+L+M+N+K O+n ~.~.T P+Q+B w R+S+T+U+V+W+X+Y+U.o.-.1 8 ` ` j '.Z+`+` 2 4 [ &.#.k.k.!.8 j %.,.+. @c $..@+@@.i Z 6 U.A 6 =.< - 2 o o 1 > z < } 1 ; n 1 2.2 5 -.o /.| | } 1 -.*.n t r @@B u #@(+].G G o t m x ~.1 Z Z 2 ~.T l.o $@%@`.B+&@*@=@+@[ ].P [ T l.t t C B l.B B {.m -@;@>@,@'@C v.! > ' ] 0.: ~ n ! ) )@!@~@{@e.]@g.f.`.^@/@(@9 9  ._@:@@@o s o.m <@[@}@2.A &.|@;.1@2@3@4@s.5@6@[.7@u.9.8@9@9@0@y.a@b@p o 1 ; > ; n /.2.1 s P p p Q q .+c@d@e@f@3+g@3+h@h@e@i@j@k@<+~+c x+l@m@&.1 B S m s 1 | n@ .o@(@p@j+) ] q@r@$@s@t@u+u@@+v@w@x@y@z@s+u@A@B@B@C@D@D@C@l o.l ) U.n '+: - ) 6 S 1 [ < - 1 A E@& F@4 / ^ G@G@H@C@~ ) ; > | z 3 o l /.p p 1.o D u [ u v P >+I@%@q@C C J@u+c.K@- a.n - u.'+e@f@L@M@N@a+4+O@P@Q@R@S@T@U@V@W@X@x.o+v > [ - Z.1.!+Z.Z.m+1.Z.!+> a.: u.0.Z.Y@(@a.: l+w.n+u I@O I@8@' ' 7@n m n 9.9.w.w.$@$@B@' s+Z@r+q+[+e@",
"`@w+ #v+Y+& F@, = 3 } = .#}.].o ( 0.m+1.!+u._ _ 1.- > > _ : '+`.z < /.| z > | l Z A Z S 4 } | U.j b 7 ` #.#.#.8 8 +#H +@g @###$#%#&#/+*#=#-##@s s o u P F+;#>##@1.1.= ,#'#}@A )#; } D ].!#(+u 1.~#{#^.#@(+Q < } >.>.+@8 9 ]#^#%.-.Q+/#(#_#T m S :#T+:#<#W+V+[#}#*.1 | ;  .#.0 @.%.%. .Z S o /.1 @.` ` 0 !.b h f |#i h $.*@9 #.1#C+2#k S |@5 o ; 1 - * 4 z 4 < - o z - 2.*.< A < < o &.&.z *.o.Z Q+r @@y x T s D B o.l.m B P+(#y |@U.1@Z D w Q+q $@l+a.3#4#*@5#6#; o t D n S {.T G s ^.Q q o.7#8#9#0#C $@C a#] > ) ~ ] ( ~ ~ ( F.O@O@b#c#{@d#d#d.l `.i  .a h f e#=.n D S S w n | &.n &.2 6 _@|@,.i.f#g#3@h#h#n m+D l+i#j#9@k#l#m#1.[ } [ * /.- [ 1 ; [ Q v P s v u+u+n#r+[+n#e@u@o#p#q#r#s#t#h@B@*.u#v+v#1.E.Q D ~.p n &.w#&@_.'+! _ ~ B+%@p+w.p+t+x#y#J@=+z#A#B#C#C#t+g@p+w.C@o.H@`.l C@^@^ e#@@{ a./ C@2.} /.> < /.n *.D#E#F#E@H@G#^@H@r@H#I#3#*.U.-.l < 4 l 1 m r @@n.r n G [ s ~.n+n J#9#8.a#K#t@c.L#! B+a.}+m+> e@[+M#M@N#O#P#L@Q#R#S#S#U@T#U#V#W#X#q [#Y#v#} !+1.- - ' '+0.) 0.> ! > { > - h#Z#~ _ u O l+u ' v.B@{ ] { +@`.o G n n 9.{ l+O { B@s+s+n#n#Z@L#",
"`# $ $.$+$@$, , .#'#.#}@!##@1.!##$$$%$&$*$$$~+-#=$1.R.-$R.R.}+0.1.]+;$'#,#* ]+;$>$-#R.z ]+,#>$,$}@R.}@, 3 }.'#{+R.}@1./.; 3 ,#.#-#[ n q Q p v m D G ~.Q [ (+}.'$R.1., 1.3 * , |.z z q G+u Q v D {#W#W#W#].u v D | o n n > h d ).)#@@@@@@o.2.2 A Y+& Y#& A+z z &.t )$>$z l n !.0 h .@z S o.x B q 1 k.` 7 b 0 $.+@c 0 9 8 b h j +.!$D@@@;.~$k n - - } * /.> 2 2 < ~.m q S :@{$R T o.T m w G P+]$^$n./#m.{.o B x B y R ~.w /$($6.D S 2@*.Z e#1@G+v 9._$! : 6#6#:$n@*.w n l.C {.r o.n ~.1.o o.@@<$m.C ,+[$I@n 8.] ' '+a.( B+'+) ] K@L@}$O@!@|$!@@+1$2$@+C@l n 2 6 D@)#A l 3$n < < &.9 h c 0 +@b @.,.4$6#h#Y@_.5$( ) O o+9@x.6$6$y.k#u U.n = |.| > z w t ].s ~.w l.S t+h@u+t+[+s+t+h@[+7$[+Z@g@t#o#w.U.8$A+9$A+A+T 0$a$b$E.q ^@;.n 0._ 9.I@$@c$8._${ %@n x#x#.+e@[+.+d$e$f$f$g@g$2$n#u@t@h$@+i$/#j$i$q@o.B+$@s P Q v q q *.8$2 2 E@8$l C@/ ! ) B+3#] A l &.A A 2 S *.Y <#o.T n T x Q+S l.q@a#c$0#a#%@k$l$.+)@^ B+> 1.k+(.f@o#m$n$o$p$q$n#r$s$t$u$v$U#w$x$y$z$~.A$A+* Q B@_+I@) ) a.) ) ! u.m+: _ : 0.4#4#) > l+l+6$x.i+i+n+n '+{ 6#'+3 p 9.{ l+l+_+8@n+n+t+e@e@A@u@K@",
"`#.   `#B$C$.#9$}@}.]+]+}.#@#@E.D$,+D$-$$$E$-#-$}+k+{+E$j+j+j+1.3 * }.;$.#> 4 |.[ z }.[ 3 , ,$|., '$= ].3 1., ^.* }.3 v o u o q o n q v ].^.G+v T {.x G o ^.G+u 1.[ - 3 - 4 - , 3 [ Q [ [ u ^.v ~#W#F$G$p ].[ [ 4 > 1 < /.1 -.1@|#_@|#6 %.Z  .1 H$I$J$& `@, J$&.~.v 1 n A 2.h c 1#S -.P+x E K$T 2 @.7 h #.c 9 !..@L+!.#.k.c %.i o.1@~$2#!$k 2 4 4 - 4 &.l U.S 1 [ G y Q L$D@F+].w @@:@T ~.{.C B Q+r l.~.G S P+R 7#M$_#7#N$O$P$t k.#.z &.S S o n D O Z.' [.6#Q$[.1 C B l.o.y T B G x o.y o.@@{.l.a#i$a#R$%@$@n n o.o.n _ u.> B+{@S$T$L@L@S$O@2$u@u@l$H@C@A *.@@U$V$2 1@V$z [ ; n !.9 +@*@W$!.%.c 4#Y@i. .4#n@' u.8@1.X$i#i#x.Y$i#< 1 &.2.6 o.z [ m p ].q w {.o s 2$)@.+x#s+x#t+x#1$.+@+s+n#3+f$n+-.D#E@[#A$U Z$`$ %.%l.y H#G#( > D %@q@n s@c$w._+$@R$h$@+2$.++%@%#%e$o#e@u+.+h@s+g$A@l$h$s@C C n+_$a#n v.m Q t l.x T $%&.%%D#E@&.l 3#( ! ) l 3#( 2 &.4 o *.2.n ; <#W C m S T ~.w o C C 9.w._$%@p+u@g$x#3+R.=$k+1.(.1.3+[+Q@&%*%=%<+e@-%w@t$;%f+f+>%z.,%'%A$)%!%F@o n+l+l+_ > '+n : ! - (.Z.Z.m+'+7 [.0.0.D v.i#y.x.~%$@D > ! 7 l , ^.$@{ v.n+I@D D a#K#@+g@s+t+L#",
"@ v+9$B$+${%]%^%1.3 #@#@].^.;##@!+k+k+(.- ^ a./%Z.{ ! a.{ ' ' (.- &.z |.}.o 4 }.> | .#} z 1 * - s (%].,%p G$q H+p _%].~#[ .%Q l.s q s [ s p }.P u Q u p v Q [ t 1., * n -.2.z > > | v D 1.p ].].~#,%:%F$_%:%s p [ t v (+u q :@e#|#+.<%d [%c }%w+|%# 1%J$2%3%4%l@t X#l.m 2.l @.E+U.Z -.{.q 5%Z$6%5 k.8 8 #.#.a b $..@8 h 7%7%[%1#;.;.3$D@;.l l 1@1@2.*.1@@@@@1@Z S Q G [ o.'$)$}.l.P$R t D C o x @@o.w m s D C G s ].q R (#l.p Q+!.)+[ < 4 o l.T ! ( ^@3#&@[.8%9%1 B ~.Q n S B C x 0%a%Q+n :@R S 9#o.o.7.%@8@a.: _ / { u.{ > ) N.#%a+a+b%c%d%#%P#A@g$s@o.o.o.:@R |@o i k..@.@#.0 +@8 *@.@e%f%]#g%5$h%a.{ '+~ ' : u u ,+' i%i%j%i%| [ 2.|@1@1 } 4 G t ~.{.C B r y k%$+-%-%z#l%-%-%m%n%l%o%-%p%w@{ X q%r%s%Y+t%u%v%`$w%x%y%z%n _ a.t q { %@C $@$@' $@/#g$.+2$@+3+A%B%C%B%D%E%M@B%F%-%G%l%H%k$@+h$I%x%J%K%b@a$H+m R T+Y L%A+A$Y+M%[#&.( ( n ] l / a.} } - < 2.1@-.U.Y N%Y+V q G o D [ n o.o.u v.n+O f@u+h@3+j+(.Z.0.u.0.J@e@C%m$o$U@Z@p+#+G%w$v$w$O%P%x$H+Q%A$R%S%!%w w.p+{ o+O ] C@a./ n ! ! _ ' { [.n@'+0.' u i#i#I+6$B@c$T%H#w#: 4 v 9.w.9.p+n+$@{ C  +)@e@e@u+L#",
"`@U%v#F@= = I$]%,$,$!#F+#@;#E.}.!+,+Z.=$D$;.V%n _ ^@W%X%Y.p@X.{ 4 } }@, [ z = ,$}@3 }@< > | > * G H+z$Y%z$Z%F$F$w%I+F$:%:%F$G$F ~.s D D u ^.P '$G+t Q t [ v u o } < 4 ; -.-.A &.l |@G [ (+].v v ,%Z%I+:%H+I+u P t t s t m D T e#`% &.&.&]#+&@&#&$&%&#&&&&&*&|%x+S x @@6 A n h #.S 1 > | D Q _%D Z %.h 7 k.c b 8 !.)+.@!.7%]#^#k. .)#k U.; | A l 5 &.> > | 2 &.[ D }.1.].^.}.F+p D [ '$1.F+[ u p #@o G w Q #@p E.}.G+B ~.[ .%(+T /.z 1.= 1.z v G n l H@j.7 (@=&[.1 v [ s D D m x {$-&(#m x y ;&w s@p+_$c$9.8@G#~ m+n _ m+> > a.B+>&,&S$'&&+$+t+x#u+p+C q@n $@B {.1@-.|#,.E+E+%.%.+@c .@)+.@$.]#+@5$B+{ u - 9.a.a#_${ o+O )&y.j#~%p+z U.A /.* > | %@{ %@o.o.q@o.R$!&~&z#l%~&z#{&#+]&++h@h@A@%@l$p+2 D#U+^&W V+N%<#C C (#L$o.'+B+] , t %@n B@l+u u l+%@+%@+h@h@3+s#y#s+/&u+|$O@!@!@t+@+++l$++++(&_&:&^$<&{ O G x @@5 Y+Y+}#<#W [&W+q %@~ 0.!+Z._ ! o < o > A @@1#A 2 Y 2 Y#z 1 -.| n 2.e#}&a#D v.C q@{ [+v.a.{ ) ^@I#D@C#K#=+c%|&D%e@p+@+!&%+1&2&3&>%y$ %[#}#4&5&R%l l.n ' ' w.( V%2#p@o./ ] n a.'+_ ! 0.m+u { )&9@~%6$v.0#r@C@! 0.w.o B@D w.9.n+B@9._$t@g$t+u+J.6&",
"J$. H$ # #+ 7&8&9&9$9&]%0&, 9&0&#@!#>#P ^.].q q u D r :@T x Q+G z > [ - [ 2 *.}.[ &.Z l < | | [ u G v T /#C Y L%W X+a&b&W <#X c&I+d&_%a$z$,%b&V }#V+W+X+V N%W+N%2.8 2 *.A /.4 o /#y l.v {#F$X# %v v s s s G m D G n G n n C m.=.e&f&g&h&i&j&2%#&2%4% $`@J$m@U%`@V$V$-.|#..1#c *@>.8 )++@@..@*@7 2@,.c @.k.a 9 H !.9 9 >.>.h 8 f k&l&h#+@9%_.+@7 7 .@F@v#Y#m&*.Y#/.* n &.2.1 p (+v [ n&.%`$`$(%^.l.n < * o v 1.1.F$`$F Y%H+o&~#.%v ].E.(+^.o 4 1 0 h L+f%p&]#]#]#+@o 4 | m q n @@D@(#:@G ; 5 =.k -.Z [ 5 5 Z | z l > q&9%7 h%h%(@> { 0.n s@_$i+ %r&:%a$s&w n Z l i E+e t&j E+0 j 6 ; > [ * 4 c * O { B@i#{ r&o.J%n%w@u&v&G%r$w&i#B+o.q@a#n+B@0.> d.d.J.x&e.d.f.y&c%|&d%d%z&A&k$ +C l l ~ ^ 1@j...@@V$1@6 1@o.1@e#;.)#|@5 A h %.k.] ^@s@D 6$i+i+I+x. %6%6%C B+( ! ! { x&a.L#B&B&J.C&K@D&{@E&F&G&H&I&J&K&~ ) n ~ U.,.U.X *.E#A+L&<#x M&%@$@u v.n 0#6 2 #. .1#E+N&0 a A f f j 7 %.i  .k.k.2.m o z$S R 2.) o o | ) ) %@%@%@$@u x#2$n#w.) ] _$n+I+b@b@9@' w 2.| `@8&O&O&&.z 3 < < o n r@B+n+n+9.9.u+u+A@g$A@A@u@2$2$y#s+1$l%P&s$J@u@q@a#n '+0.: > 0.'+n B+'+a._ Z.q&Q&",
"8&J$m@3%U%8&J$R&& * , ]%= F#A+@$F+>#-#P G+^.Q v '$G+p [ #@[ v t * , = [ | -.1@/.z o k |@n A 2 } v n G l.{$;&S&T&V+X ^&V+S+:#U&V&W&X&a$Y&,%{#X+V X+V+Y T&N%^&<#U+1 c ; Z Z n &.} D ].G+v Z%_%F$H+Q v G+^.D n w S n D D w x m.]$k Z&`& *.*h&2%$&$&@&*&@ 8&U%8&U%U%3$-.*@$.!.h 7 >.)++@+*@*]#+*#*.&T.|#1#,. .!.!.+@%. .h b 7 #. .'.i Z#q&6#h#w#L++#)+J+]%F@%%$*6 Y#| > z z A S t Q Q y 6%Y%%*s&:%n.3$n } , P u v (+_%I+:%F$W#&***_%}.1.v D v u [ [ h 0 @*.&=*7%-*+&+#8 &.Z B T Q ~.r l.Q+~.< l f 8 z [ , } [ n l z m+!+H |+_.6#&@*@!.8 > o m ~.Z% % %s&;*6%{.{$>*e#+@j e ,*`%7 !.@.2 /.Z 6 U.5 -.4 o+i+~%y$9@y$i%j%H%w&w&s$'*G%G%o%i$p+)*q@n C !*2+F.c.~*{*]*{@^*F&/*O#D%(*_*:*<* +^ G#Z#4$,...[*k.A !$;.=.C+}*|* @f f k.k.f  @S. @r@`.n+9.~%Y$K%J%)&1*6%6%B+B+B+'+7@+@w#+@+@&@2*3*4*5*6*7*8*9*7*0*a*b*c*d*:.*@+@h#c k.X 8$2 D#e*D#/#f*g*J%v.$@C 0#S n k.` .&[%]#h*#.c f c #*^#<%i*]#p&8 4 o q H+~.*.= 1 A } &.) > O D { v._$w.n+$@_ !+: > 1.>+6$y$O v.|@|@+@L++*.&u# $F#v#4 , = = ! u.I@' v.n+2$1$A@)@++l$e@Z@t+g@J@2$l%-%l%]&]&p%O )*Z.1.}+1.' ( 0%H#_ 1.|+q&j*1.",
"k*. R&J$7&8&& 9&I$= @$0&F@z & F@E.}.P o q ^.}.}.E.t Q s s ~.p t /.| | &.*.l 2.| A [ o o &.n A ; l.C o.y P+D@{$y U+R+X <#l*:#T&T&m*0@G$.%n*o*X&m*U L%V W+}#s%X T&D@p*3$o - 1 G u D D [ ^.G$5%:%~#G+G+].[ [ [ Q v [ D T C C y R ;.2@i*[%#*h*+*]#>.!.g >.$.1 } /./.4 3 }@/.o 2 n [ +@@.i j c a @.,.%.i ` #.b !.+@>.j q*+.8 c E+,.j 7 7 :.r*[.*@= - = 3 & z %%s*l*R+@@m.{.n S y ~.~.G r {.T {$Q+B P+;.; 3 3 } - p 1.u u t I+F$I+Z%w%t*}.~.m 4 } [ o b 8 8  .[%+*e%f%+@b | *.l l S G x w | < z 4 0 >.< z > z +@c 0 9 q&:.|+|+_.w#+@q&>.0 o z D q B r :@r C m S _@u*|@` `++.v*|* .S @@6 ;.w*>*D.5 n < ' B@$@%@p+a#{ D v.v.1$e@t+h$t@)@/#_$I@_$$@q@[+y#h@.+u+h@d$/&|$d$D%M#x*y*z*A* +@+C@H#B*C*D*`+T.*@/.D@D@!$D@k T.|*E*Z+D*2@T.Z+F*'.G#~ u { x.i%~%Y$I+6%J%G*C n+( B+| 4 : ! ) '+H*F.2+c.N.~@4+]*c.I*J*K*L*M*N*w# .n@k.@.O*P*Q*R*S*8$;&T*U*o.9.C 0#8.&.&.2.S f h 8 b E+a c >.7%V* &W*#*#*9 z 2.{.m t |.L+X*+@- 4 0.a.a.( C@`./#a#%@%@n r*'+~ O l+9.l+w.8.)#k b g +@`+Y*v+!.+@a >.z z - - u.0.: ' : { n ~ l '+' m+I@I@w.w.q@%@C r@i$O I@' { l+Z.u.'+H@Z*`*'+m+q&7@+@> ",
"R&k*H$+  =R&9&I$I$v#9$]%I$= = 9$D Q+{$M$m.[ F+'$P m G G _#_#m v > | S e#e#U.o |././.< < 4 /.; 2 m m B y C l.@@m.S&R+^&T&U+T&b&b&,%Z%.%.=(%+=n*W#W+Y W L%A+@=L%}#2 e#-.&.; 4 [ Q+D@B ].].F$F$_%F$p P p u ^.G+[ [ v o G ~.C C ~.Z c W*-*f%-*8 +@0 >.g !.+@2 < /.- - 3 } - 1.- | o b 7 ,.E+c h >.g )+!.)+)+9 c @.$.8 E+` k. @#.k.%.7 i.7 r*+@'+n S n | E#E@E@2 ^&U&o.@@{.q B P+y R o ~.n l.S n ~.z 1 *.2 2 1 * ]+s m ~.s [ ].F$,%{#E.;##=*#$=[ - > $.*@b  .p&=*[%%=!.c *.; n S _#{$C x n o A &.@.+@&.A U.Z k.c H .@*@n@(@w#+@n@Y@5$@.7 n &.; n C r r n G B U.Z Z < E+D*,.d |#d 1@3$3$&=*=&=2#l o n 8@l+9.p+9.9.' I@>+_$h$K#@%==@+x#B+C a#D ' v.g@h@1$g$2$h$F&L@|$D%D%-=;=>=,=)@k$I%;.I#T.k&E+D*'=D*3$0%U$|@5 D.F*B*d E+,...Z+'=B*2@p@`.n+n+W#r&i%i%y$1*1*)=8.p+/ n 1 2 ~ 3#] 0.b.C&!=d.^*~=N.|${=]=x&!*^=4*&@i.h#Y@ .c v+ $# /=R*(=z%0%_=0#n _$q@0#n 2.l Z E+#.k. @).@.7 +@=*[%+*+*+*0 @.S 2 D t t *@.@$.h 5 o.- 0.:=D@r@D@c$8.C o.j.j.;.H@n B+s@n+n+%@2.; 8 8 j t&<=l@7 @.@.h *.2._ ! ~ ( ! m+!+' '+n ! !+- - j+O q@' v.n+n B+9.n+)*w.s@%@! a.{ { : 1.(.: *@n@Z#n ",
"K+K+[=W$K+N*.#'#= 4 z } 1.= G+D x L$a%M$o.(+E.1.u G q w _#<$:@Q z 4 > 2.1@Z o 1 , 4 4 ; < 1 o.n {.C n x P+T l.y [#X T+U+W [#V X+I+:%F$W&b$.=I+F r%s%^&N%L%@=b&}=o 4 4 /.D t ~.m [ q B ~..%(%{#F$].[ G+^.[ Q Q o v D q ~.q s [ U.E+f c h b 0 b /.1 4 /.> n &.s ].u Q ~.v (+'$/.| -.A S l Z e#;.Z a a !.0 a b b !.g @.k.#.i h b !.! n : !+2.1@2 [ [ G+p s V+X S+V&Y&F z$W#s l.o.x < ; > > | o [ 9 0 `  @,.>.= , | A A 1 z ; G [ 1.v ^./+>#|.; z } !..@8 #.[%^#p&7%i k.k.#.*.5 x u*R n *.2.%.` f d @.b ..%.#.#.h 7 7 j.j.n@6#n@7 [.a !.9 n 2.A T x q l.A *.` E+7  .j ..d E+j f U.V$2#|=1=C+k Z n S 1 ; ) '+a._ 0.' n `.2=3=4=5=C&C&n 3#;.- _+8@9.%@%+z#l%6=l%$+]&!&7=y*t@2$.+8=I%9=0=G@1# .k.`+Z+Z+a=V$;.;._@b=)#-.+.d |#,. @2@....3$6 T B n w  %I+I+Z${.r o.o.U.&.B /#8.0#R$n+y#h@1$1$c=d=F&!@|$e=k$x#{@!=f=f={ { c k.@.h ^#<%g=y+H@V%r@`.^ ^ H@I#( 3#Z 5 -.Z Z @@|@o 7 @.E+j h %.f @.` U.; 4 s u +@8 7 c 1#1#4#j.X.X.r@X.;.H@l 3#h%5$w#> ! B+C l+u I@t q 1 ; l %.H N +*#*a b #.c 7@[.Y@(@'+_ 0.a.8 a +@L+*@/.* 2.*.4 } &.6 Z m C B@$@C n+l+D - 1.: 1.Q&' 1.> ] a.",
"+#>.9 *@*@>.- ]+|.3 } 3 3 } Q ~.S S G ~.t G+].u [ ~.B S s :@_#B 1 1.} 4 4 z o 1 2 n } o > &.S 2.G o T {.P+R B x Y V+U+W N%U V W+F$ %z$(%w%{#H+0$S+^&Y V+Y N%X+V *.| * > B t m t }.].o ~.F$w%w%{#Q q l.q o m C r n s ~.m G ~.n r |@1#` 5 %.Z o.*.&.2 2 n > 4 D m ^.Q l.q G o ; l Z -.V$;.l S l n 9 @.#.#.a 0 @. .b c k.j ` 9 *@[ u.' m+- U.1@q v ].[ [ D ^&S+S+h=x%;*`$H+w n l.u < > 1.= - 0 $.9 7 E++...9 9 ; S *.5 *.2.o.-.1 Q u [ Q p , 4 | /.!.+@h a -*N+i=+*q*` c E+5 &.S Q+Q+Q+5 ; @. .E+,.0 !.k.#.7 #.7 1#j.Y@7@:.+@Z#h%Y@a >.$.b 2 > Q D q r 5 2 h i j j=j=i 7 j j j 6 o.k )#4.U.; A B B [ 4 ! ~ `.~ ^ C@~ D@2=B&K.L.O.K@) ~ 3#! v.{ 9.$@n%6=p%h+o%k=k=l='&!&@+u+2$.+%@_$3#^ 1#+. @`  .@.1@|@!$>*4.3$;.=.).`+d j ` 1#f ` o.6 Q+m ~.n  %F$5%z${.R R o.5 6 @@m.o.s@R$%@A@++++8=A*y&m=n=e=z&++2$.+l$b.M.{ ) 7  .` #.]#]#o=k.h%^@o.C@H#Y.I#o.3#o.-.o.-.-.l S S o ` k.b b 7 @.j  .Z 2.z 1 T n 9 !.b ` f #.Y@6#B+! '+a.! ' 0.0.w#r*_.+@) a.a.n+O I@].Q } [ &.; p=q=+*+&)+H )+g r*_.7@6#{ { a.B+0 *@.@.@.@9 1 2 ; 2 - ; Z > G l.9.B@v.O ' ' Q&Z.' _ > _ !+Z.Q&B@",
"c j A z > z * } [ } G+G+1.^.p G+[ P ^+>#'$u D ].~.m G t >#Q x /#:@u }.F+1.Q [ Q C {.l.G D [ ].q l+O r T t q o s y C T&Y+A+@=r=a&F$)&I+.=G$G$~#5%G G Y V+W+A$L%V+T l.].v m [ s o ~.D t Q ].p [ s o B o.x C @@^$(#T w w l.G n x C ^ 3#C@0#l c$_=0#0#p+n %@B+w.D D W#X#r C Q+T G T Q+x l *.2 &.| * < 2 A n z /.; &.; > A 6 S &.o n Z w G p v 1.F+u q o G$I+0$s=F 6%Z$t=u=v=Y&F C G > 4 $.*@)++*%=h*` `+d 1#c i ,.2@E+c 8 ` q*Z+#..#} ; ; 4 o 1 z < 0 X*7 1# .1#).q*d T.e ).1@S {$Q u T 2.l 1#a b 7 M+e%h*]#+*]#f%[% &.&Y@+@7@6#w#4#0 8 +@8 A | t q | l S l  .f ^#w=x=%.> l |@k o.2 A 2 B l.D w S S A > [ > 2 n ) > ) { ! 1.=$j+J.B&_ { > ( q@B+q@p+G*y=x$>%A.z=z=A=~&g$@+q@q@p+! { | 2.*.6 f #. @|#4.>*X%_@D.4.!$)#k V$2@|#.. @ @E+B=C=$*E@X+T&D=E=t%F=[#U+G=6 X H=_#Q+c$R$$@w.8=<*@%I=J=K=z*c=y&c=~&%+u@A@2$.+( `.i. . .i.^##*+*0 L=M={@x&I#H@n > '+a.{ { s n D G+4 4 2.1 [ < h 0 o > /.* 4 ; ; | *@N+.@H X*H N=o@O=P=#$m+' ,+Z.{ _.Q=H 7@_.- - 1.! a.2 A z [ 1 z +*-*@*-*-*f%)+>.!.)+g $.+@+@6#[..@+#)+8 0 0 h 8 +@h /.[ - |.} > I@_+u v.D ' R=:+' > > ' Z.' 1.n+",
"Z E+n > &.4 } | o [ [ Q G+G+u p G+Q t v ].v n s C T t p t o q Q+B (+P ].].D s [ D n :@v u w w w n+p+Q+l.].Q G ~.G B R+L%b&Y+A$S=i+T=W#W&{#{#~#5%w l.s%}#X+{%X+<#x w t D v v ].[ o G m m G s ].P [ m n l.R L$y s m y y T D o S B `.;.8.n n 8.o.9.q@n o.<&c$l+O { :%a$x ~.B G s {.l.T &.&.| 4 1 o 1 4 - | 1 /.4 z ; > S |@*.l &.n @@S G (+u G+p l.T w H+X#5%F$,%Z$U=t=V=V=G$_%v G S 2.%.#.^#^#[%h*i +.k.0 )+k.E+d  .h b h c  .h L+/.6 < ,#|., ,#> 9 )+k.j c ` j #.k. @D*` *.-.w o =#^.2.A %.#.h h +&-*]##*e%=*]#]##*]#(@Z#(@4#+@&@@.E+%.2 l n ~.B | A n n j i V*.&a c l &.l U.2 n U.&.].G w S l.l.5 | * 3 1.4 { `.^ B+/ ] ( n N.C&~ / { ] 9.n q@%@x%;*W=X=Y=Z=`= -G%{ $@a#i$B+l ;.@@|@5 U. .#.,.1@e#C+Z z o.@@;.V$~$U$+.1#i 1#+.1#m&% -.$*S+S&.-+-F=Q%T&N%Y+X B=C=_#n _$C n 9.h@u+1$x#P#@->&!@O@z*#+=+1$x#@+ +r@I#Z#Y@w#6#:$-*]#(@#-{@N.C&/ - m+] / ] v.v.t {.B [ /.o &.> | > 0 .@[ > /./.1 < , z >.f%J+$..@0 :.*@_.[.Z.j+Q&_ 0.n 7 =@w#4#j*|+0.m+_ 0.5 e#*.l )#5 N&N&W*.&$-%=*@!.>.g g 9 4#[.9%|+X*>.a j k.+@h c %.8 &.o | &.4 A l+u B@l+B@B@8@I@_ Z.Z.' 0.~ _ B@",
"e#6 2.o - 3 [ 1 G [ D s s G Q G+p G+].G+^.v v '$Q D [ v D o m v v ].u u G w t o s Q l.#@1.q G l._$0#w.D ' 9.B G P s l.u D n Y+V i+k#j#9@W#6$ %Z$q l.n q q s A$W+H+H+z$z$:%I+Z%F$[ D m o o.{.S G+].t w :@{$R w t B D Q ~.v s m r %@9.n $@w.D 9.n+9.p+a#c$C p+{ l+F$X#B {.C o v m q C S l &.4 2.< - z * /.4 } } [ < /.o.@@U.&.; z n ~.[ [ s s G {.r T `$`$5%X#5%H+%-&-*-=-_%,%[ G A 2 k.[%g%V* *^#j #.h h 7 7 7 7 7 k.a 1#+. .j f ; 6 n 4 z < 3 &.%.!.7 c c h #.%.--+*a j 2.5 3 > o | 1@U.k.` [%]#%=[%i*p&%=%=N&=*b .@6#&@4#Y@n { S n o | 2 C T w t w 2.2 %.E+.&.& .Z 2.&.Z 6 5 U.{${.q D T {.o o A ; z - o 4 ; Z ^ ] _ _ n 3#C@B+j.h%- u.a.] ^$J#g*;->-,-'-)-!-~-{-c$s@n {.o.V$a=_@5 1@@@o.@@U.o.1@x r S k k -.|@D@D@_@o.+.d c c 6 -.% G=T+U+X+A$X+U V+Y+F#]-m&X B G $@s@s@w.y#n#h@l$/&,&A*#%@-^-/-l%(-X@h@g$_-H*B&B&:-Y@f#f#<-(@[-6&C&C&L#K@> ~ l / 9.' 8@p+o.%@0.( ~ _ ! o.H@] a.] '+/ - ' - a.)+>.L+g H +#+@|+a.( '+0.) 0.~ / [.&@+@&@:.9%+@&@r*w#h j S U.D.e#t.3@}-<-|-(@8 h a j j c 2.]+- 1 8 h 8 b 7 $.$.` +.%.o.;.Z n S S l+I@v.%@B@{ n+{ I@I@' _ : - : $@",
"/.| z 1.}@}@]+1.'$G+t G ~.q m t ].Q ~.D u [ u (+}.u [ ^.^.[ D [ F+!#'$Q T {.m B s v ~.#@u ].Q m ' w.B@{ O B@m l.Q u Q [ D t }=1.i+j#(%y.i#i+ %Z$m w n q q o L%W+ %H+:%z$ %:%,%Z%].u G n {.y L$Q+/#Q+{.S r T l.w s o m w C o ~.{.$@I@' n+p+n+w.n+u D { w.{ w.B@B@B s&C {.P+:@S l.Q+w 2.- } ; o - 3 [ - [ [ 4 * - }@1 5 2.&.; /.< < Q p u ~.q q w C {.;*Y&Y%Y%`$5%,%V=u=1-_%Z%t m /.!.+*+*-*g%2-@*!.!.a ` ` h 0 b #.a !...D* . .1#l S S 2.&.< 4 2 k.b $..@8 a ` 7 @*f%g q*3$Z &.1 | /.&.S @.k.%==*V*W*[%N&p&#*+*8 0 +@w#[.j.l '+~ &.; 1 m C o.r B q m 1 | 7 k.V*j @.2.*.; 6 D@-.@@(#T B w D ~.q l.< &.n A | < } > l ~ a.n ( 3#C@C@/@4$a.a.B+^@3-z%4-f* %A=>%l#5-6-<&'@n.B l.n &.l &.A n &.2 o.Z 6 n.;&@@P+7-8-9-D@-.- - A  @%.c i $*m&B=% U+U+S&^&U+V+X+L%Y#z E#2 m q _$q@q@B+.+g@2$K#!@^-P#0-a-b-X@w@G%v&f@8=c-2+d-K@e-e-f-g-4@h-d.i-2+N.j-6&3#a.( ' R=u l+O w.B@: ~ a.u.: ' Z.- 0.u.u.'+m+u._ ! H J+X*X*[=J+H k-Z.}+j+k+u.m+Q&!+j+k-H *@r*[.4#w#q&&@h j ,.&.[ @.l-8%m-=@[.+@0 @.k.k.#.a &.[ ; l k.` k.c 7 9 >.h j +@&.2 2.> &.~.o+' l+D )*1.:+:+I@o+m+m+(.k+Q&l+",
"1 z < o > = P m P+~.=#n-o-#@D u ^.].s D Q Q t [ F+p Q (+(+v v ].[ p p s r /#Q+y B :@:@v s t ].Q u O I@l+_+,+' %@t Q u v ^.}.(+p W#j#k#i#)&)&)&r&m G G q q n n G Z%F$5%:%(%W#:%{#{#:%S Q+q o x S n.o.B l.n B r R B q C Q+:@B q o q D n B x S B t G n n 2.A -.U.{.l.x /#L$(#:@o.D@D.)#_@| z A S n %.7 9 *@$.+@)+8 %.F*0 H )+a #./.Y+E#z Y+S 6 Q+r t D C P+o.C %@K%`$z$X#,%P P } /.+@g f%+*+*h*h&+*h *.Z 2.a +@!.$.>.b )+$.+*7%#*0 S n U.U.o.|@@@2 ; 1 z | c +@8 8 N +&7 Z+Z 2.C+o.< o o l 9 [=i==*[*<%+*+*$.+@!.+@&@) ] ) ( v.o+{ x C n q B E ;*Y&Q+B n *.j f N& .@.A S A 6 @@l.w n l.T l.{.{.n B *.4 | &., A @@*.o &./ 3#C@C@^ H@p-Z#( a.C@o.;.O 8@R=G+.%{#.%.=F$].1.- z o._@|@|@_@4.D@;.k @@o.2.~.Q+^$<$q-r-s-_@|@)#!$e#@@_@;.-.7 1#S Z P+R /#y <$t-{.~.[ /.9 o S ~.v.O I@9.@+Z@Z@u@O@L@#%#%u-d$X@'*e@3+t#s+3+o#M.C&b.e.5*v-:-w-!*c._-I.e.c.d#!='+0.}+m+!+,+!+j+R.0.o+x-8@I@R=_+' )*_ a.7@r*r*q&* = ]+|..#}.(.}+/%}+l+)*' l+I@O 1.- u._ &@&@:$f#y-Q$g%+.#.@#z-I A-B-j*C-..h#'+( n | &.n 2 A C U.h E+d f 7 +@o n 2.[ - - o } G+(+l+i#i#)&B@)*R=8@B@)*o+u !+m+: ' ",
"4 ; o 4 > 4 u t m s [ t v v G D v Q [ ].p u [ ].'$(+p (+G+~.t [ m n o t T R Q+B m C s l.n q Q u { D v.v.o+R=I@p+s o u s u [ [ 1.y.9@i#9@)&I+6$y$D v D G q T {.n Z%{#:%:%W&w%Z%.%:%a$B :@x l.w l.S B m S m C {.y x q D B l.S T w n q Q+_#m.x C n q s &.5 2 U.6 *.*.x S T T B l |@6 @@=.V$U$4.~$e#i  .c a a g +##.B* @I .@+@$.7 )+Y+&.E#Y#A -.o.o.C {.y o.0#c$r@i$6%Y&X#Z%v q A z >.*@h*-*7%7%D-%=>.&.n z $.+@9 *@J+!..@*@f%q=+&+@$., 2 o.Z Z 1@2 4 z | 1 #.a .@h +&@*d ,.z l 2 }.2 e#*.| H 8 h*]#[*S.#*>.8 a 7 4 a.l G#C $@O u { q o D z$Z$F Y&0$n q 2.-.f #.@*0 Z -.o.Z | o B m w s D w B m ~.w ; 1 < z k |@; } [ > ] B+`.^ H@G#j.4#~ / p@V%H@' u 8@o q B a$Q w z [ 2 -.D.4.D.2#!$0%V$3$}*&=9-3$o.x q-E-;@7-*.2 } &.}*X%4.D@@@2 h |#e#1@y {.{.x {$^$:@:@S | c @.o.q O o+o+n+@+t+x#t+d=>&P#^-u-F-J@u&f@r+g@u@y#t#J.x&b.e.[-3*G-B&i-L#K@H-I-L.J-2+] C@3#l ) : _ Z.' { ' l+%@D >+' %@D > 0.+@7@+@:.> z = |..#R.u.Q&}+:+)*8@O o+,+)*l+D > a.i.j.K-L-<.L-@*-*i=O+O+M-N-B-7 O-P-l n / A ; 2 n 2 T n C *.` f ` @.&.| z n > [ | &.n D o I+i#i#)&{ B@v.9.%@l+O l+!+' { O ",
": : 0.~ 3#'+' O C ' u v.D D x.x.t D v ].p [ Q Q Q G+u G+p [ 1.^.[ D [ ].G B q u {.B 1.C v #@Q t w.9._$_$n { { w.u q ~.B w T w t i+)&6$k#y.W#9@b@u ].v D G {.Q+B :%%-v=Q-R-t=:%{#G$F$u w G o o q l.w T S n l.B m l.B q n m q t G G D T y P+{.5 l 2.; c E+@. .j l &.; > o 2 2.l -.F*Z+D+S-T-T-D+x=q*,.j j ,.h j ,.d 9 .@b a >.0 +@U% # #U-w+D#A l o.U.;.D@V%V%^$>@}&n.[ [ v D o 4 8 +@a b f%q=f%.@, P '$(+, - < < 9 b +@+@>.+#.@b h 9 0 b g )+>.>.[ n A A ;._@2 h p&[%7 >.7  @*.S D.7-..H !.f V-<%+.f @.0 7 &.U.2 a.%@i$_$w.x.6$i+~#.=.=W-**o&=-Q- %a$C C ; z b %.Z -.5 U.2.A {.q D q m n m w 6%s&N%Y x P+@@q p ].D o 9._$B+0#0#0#H*c.l C@2#0=p@p@V$6 5 U.U.w 4 ; Y+2 X-H=Y-Z-D.H=D.a=`-&= ;.;r-+;6.u*}&P$@@l.{.1.$#-#@@s-U$2#)#2.h#7 3#^@G#o.8.<&8.o.C@G#^@l ..4$1 o : - _ ] !=2+F.@;4+{*{=4+~*#;g@y#f@r+q+.+,=F&D&$;]=%;&;|$E&c.7$f$s#s#t#t#f$y#b.d.o.G@|-h#7@[.n '+{ w.r&6$x.1*l+$@l ) n@7@f#Y@| m [ G+'$(+v.1.B@$@B@W#y.*;=;0@j#y$n B+H@h%f#:$-;;;D->;j&7%p=K+*@0.a.`.) / l B+r r T D o G V m |@B+'+! { > _ ' D { v.$@9.p+$@%@)=;*G* %y.9@9.l+,+>+{ 9.u u { B@",
"1+1.u.! a.'+v.u { _+I@O u I@=;*;^.G n t Q s o G G s o D Q p ^.[ D D ].Q G o D D v E.1.~.[ ^.[ q %@n %@{ w.w.D O B o.x r {.w q l.i+y$6$j#y.i#6$x.1.].Q v o T x a$Y%,;';);!;%-,%H+ % %B o.t ].s D n G C G l.{._#S q m B B x T B l.S m m q B S U.A A Z @.7 a h b  .| n l 6 1@l l ;.t&j=2@D*i  @`+x=x=+.,.i `  .T.E+k.7 h .@>.>.8 !.U%O&x+~;~;O&; 2 S 6 I#G@o.H#{;;@];@@^.Q D D - 3 $.g >.+@f%i=M+>./.p (+'$1.- /./.+@a >.L+$.0 b b 7  .7 h +@b .@+#< Z 2.U.;.6 &.> ]#[%!.k.i 8 S D.D@V$>.7 c  .#*g%a b 7 +@/.; 2.~.n+{ n i+I+y.^;0@G$/;(;&-V=&-W-_;5%z$~.G A 2 a c 5 o.2.| n 2.l.C u ].o Q+r B s&6%V+X o.P+T w m w l.m w.$@q@B+q@p+J.!*> ( D@X.r@2#e#-.l D@3$2 9 $%$%X H=X-% % X-z+X-:;z+X-<;S+M$;@r-[;a%P+l.n D ^+/.3$}*4.};|=1@l 5$:./ r@^@I#9#i$%@B+3#] ) { i  .; | > ! '+) F.2+i-|;1;%;c.]*,=N.2+Z@n#3+J@I%b#2;3;4;c.5;6&~*{*#;6;h+f@s+l$1$u+t+2+J.l ~ 4#&@j*w#l '+D l+j#j#9@x.D 9.> -  .j.g#7;A l.T w o o v.o+w.w.*;i#9@*;(%*;W#b@%@n > ' 5#K-8;9;0;a;b;D-N+M+( ( > 0.! H@0#p+n S l.D l.n c;5%s@] ' Q&m+u.v.w.n+w.p+p+9.w.p+%@~%1*d;i%k#9@a#C u u B@I@,+1.D )&",
"e;!+{ { O n+$@' o+)*u 8@^;0@^;0@].C S v ].t s s Q s s ~.~.D q n B l.t ~.m o n S s /+t n x :@s ~.8.n 9.o+u l+l+l+$@n n T n.R x _#i#y.y.i#i+r&I+*;_+l+s [ t m n 5%H+,;f;g;Q-=-z$z$0$s&C r ~.s m D D D w o n @@7-o.:@C C l.B S :@r h;Y [#Y m&&.m&m&w+y+/= #w+l@4%O*5 1@1#j `  .#.%...T.%.|#[*i;j;k;`%B*|*q*E+i `+..#.@..@$.!.+#)++#@  #u#l;l;O&8 h i E+;.X.r@X.U*W%{$D@~.]./.U.S &.9 +@0 >.*@9 +*g [ t s s o G | z , 3 g $.c k.c #.` d T.Z+q*f $.*@> n * - - * - > ^#S.V-[*.. ._@Z Z |@)+8 +*M++&e%0 0 > }@,$/.t G %@)&j%)=1*P%m;n;o;p;/;q;r;s;t;t;1-';z$S D.C+k.8 S U.&.o S S o t ].~.Q v 5%I+X#`$u;v;w;E=I+z$Y%F `$ %z$Y%x;J%x;_$_-{@! ~ /@h.j.i +.,.d +.~;~;g=y;=.z;*.2 D#m&A;G=s*C=S&X R+V Y V&L$^$:@S l.B R B;8-7-o.|@;.3$;.@@(@7;p@r@^@`.%@%@s@o.G#G@^ ( 4$..,.%.j.|-h%n@e-C;D;^=9*E;C;F;F;,=H*f.]@F.,=2;4+$;u-F-O@G;F-#%P#S$x*-=r$r$.+u+e@A@!=e.j.6#r*7@H;[.> 1.I@n i%I+6$x.y$%@l ( /@..5@p--.S y _#;*Y%y$9@W#b@x.9@I;V#V#J;x$P%i#O : ) K;L;M;-;N;O;P;Q;L h*'+u@p+%@q@a#_$n+,%5%z$5%h=R;S;H+w.s+<+r#J@2$u+e@f@f@p%P&6;u&G%G%k#W#~%i+k#T={ n l+l+' o+o+B@w.)&",
",+m+l / O B@w.8@:+O B@' T=(%y.T;].l.q P 1.o G D D G v t s s { u [ ~.v o m ~.w T w S T p (+C l.w.B+b@r&I@B@n+9._$o+n+a#o.U*@@%@<&O (%=;j#I+Y$ %*;1.n+o u Q D > D  %t=F u=(%G$a$Z$`$Z$o v ].].m C ~.l.l.l.~.n._#G o T C C A C l o.*.[#D#2 2 E@*.8$U%R*R*O* $O*w+ $5 U.f 1#d f j .. @..D*`+U;V;W;X;|*F*..|#d ). @).j c !.8 9 z .@> v+E@l@~;P*# a #.%.c ~ B+^ G@G#B+l r | | 1 o.U.|@&.0 +@b 7 %.^#b n o o q | < | l < [ *@.@9 >.*@0 )+.@.@>.` %.h 9 4 < ]+,$}.| o h [*N&Y;Z;j;7 b c @.b c #.--[%+&i=h z o 3 1.* |.G a#D `; >y=.>J;J;1-%-U==-=-v=';,;H+s&~.D |@|#j E+2.1@2 2.{.w l.o ~.G o ~.{#{#E +>@>#>Q%t%$>6%`$6%5%5% %6%)=G*;*8.@%g.) ] Y@/@P-C-D+`%|#f %>&>*>=>->X-$ X 8$-.C==.D@X-Z r D@y o.r a#%@w.v.n+w.i$<&7.%@I@n / r@H@0=l&l&;>o.>>^ l '+^ H@l / Z#i Z#i. .%.p-k&j.h%j.e-G-#-:-e.,>{@E;b.J.K@K@J.e.K@%;o#'>{&L@q+#%h@>&@+=+p%P&I+2$n h@$@H*l Y@4#h#(@:$*@_.- u.v.l+' B@D C r@0=L=|-i 5@k&6 {.S D@)>I+I+6$b@y$9@W#j#i#0@=;W#*;u w.~ 4$h.6@8;;;!>!>~>{>h&f-5$n C@o.q@n+9.i%K% %~%5%s=0$;*s _+{ L#3+s+x#g@y#y#[+u&G%]>^>'*v@j#6$y$i#9@j#u o+u D D O ' l+u.u ",
"Q&!+{ ] v.)*_+>+:+_+1.o+o+o+*;*;G+n }#A+U V+V+}#Y+U t s D v.n#8@< F#X+A$_%:%5%Z%K%J%)=9@8@s@V%++l%/>v$X@G%x#x#b.6&6&!*~ d#0.B&' B@(+#@t o n ~.[ U.5 2./.| *.+@< v.I+B@W#' v.{ B@{ n+{ D n+$@w.B@w o G m {.l.A 2 4 1 l > a *.E+o.a n +@#.k.7 +@c 2 l l A | > 1 | &.n 5 D@=.1@U.k d +.Z+,.$-p&^# &--[*$-.&(>(>'.x=X%e#; &.;.S Z B *.~.A *.n ; > | ; | 4 4 n -.1@-.&.o h > z &.m T m [ /.z *@.@#.9 `@A+J$& U%`@l@~;3%J$U%3%+ U%v+@ /.* 1.3 [ * } z - | - } 4 &.2.'.f&_>:> *<>[>L @*+*V.+*]#i*i*[%O+|.G+u 1.; - /%Z.> - B+C v.j#i#x.6$j%1*x.x.j%)=M&0#$@: +@7 }-g-}-n {.T ~.D s s G i%b@6$i#T=6%;*s=u '$q /#{.n w x w q s n r R r /#c$9.! 3#;.G@r@Y.}>X...i 1#,.).).q*`+V-k.j j E+#.w#X*1+3#L=2#|>T%1>_-h@7$G%o%2>]&3>-%=+d@4>d@I%5>6>7>8>9>0>a>b>c>i 4$k.i V-N&W*N&1#1#;.e#3$|@*.n { ! C@o.d#8@J-_ { 6#n ( p+o+e@y.v@d>(-9@o%K%6=i%n+o+O m 0.4 '+4 9%+@` i =*p&@*j*e>d-M.i-2+K@B&!=N.5*7 g-K;<-K;5$D r&J%f>g>6%l+D C o.a#q@D I@$@C Z.! ~ l Z#7 6#7 h>g-i>f#<-<-<-i>j>p...l 1$)@=+U#;%k>U#l>6=G*C )*Q&z _.: : !+I@O g@3+w&G%m>n>o>p>.>d>i+b@)&(%_+)*) 0.' 1.' 0.q&&@",
"1.' Z.j+_+o+)*)*u )*>+_+I@l+9@W#v ~.A$}=V L%L%N%U&V+Q G+I@g@e@{ 2 F#A+U :%X#5%:%b@y$r&b@0#D@d#f@;%q>2&r>r$s>d.C&t>J-d*u>O.B&v>Z.[ G+].m q q q w ;.*.A n 7 c a 2.: n+9.D v.{ { B@w.I@I@n+0#i$%@w.B n n q n B 1@V$@@l %.c %. . .E+F*).1#d |#..#.7 Z 2.U.l l l o n x :@;.;.e#2#7-D@T.i ....N&[%]#%=%=g%.&V-V*.&).x=w>X%/.[ [ m w l.n t q n | > /.4 1 | o | &.2.5 1@h >.*@*@- - 1.'$}.v | z W$J++#9 8&8&`@v+O&O&x+/= $ $u#~;v+ $ # $| 2 1 [ - } } [ * < 4 4 | > o a x>y>_>y>b;z>D-K i=N @*>.e% @-*K+G+:%o G A | O=q&O=:.- /%,+_+y.i+O v.$@n+n n 0#c$( n (@j.}-f-A><.3 [ ].s [ ~.Q ].y$~%x. %)&i%Y$6$G S {.S T r }&r w q n l.m ~.7-q-`;/#H@n C@G#^ r@^@;.T.`+|#d |#,.i* &i*S.d F*B>C-i p-/@|-C>D>E>F>G>B&H>e$Q@I>J>r>K>L>M>N>O>P>P>Q>R>S>T>U>V>W>X>Y>Z>j>.&W*i*g% &`>).q*X%4._@k )#)#p@2#J#%@w.o+u ' ' a.] ( %@,+b@b@ ,.,a@.,6%~%K%I+s s o o 1 *.2.< 9 7 h 8 7 a e%j*d-+,w-G-e-@,e>4*L*G-K-8%f-Q$K-Z#$@6%#,x%M&K%$@$@8.i$`.`.`.0=G#B+r*4#+@_.Y@5$&@h#4@}-f#K-<-8%L;g#2-]#L-: !*r$R#$,%,&,*,L>z#o%h@I@' 7 0 >.! ~ C _$h@f@h+{&V@=,-,;,x$A=~%6% %i#' I@0.: u.Z.7@6#*@7@",
"(.u.m+(.- { D O u 1.>+I@n+$@I+y.o o ~.n <#W+b&}=U U s s v.v.e@{ 1 * Q l.Z$ %5%5%r&r&i%i%a#a#_ )*>,,,',Z=K%i#> > ! ! `.: Q&' Q&: [ ].G+~.q G s m -.; 2 2.b b  .;.o.B+p+$@$@%@a#o.n ' B@n+w.D l+p+{.B o D ~.T Z Z 5 1 7 7 @.a a %.1#%.@.j E+ .8 c 2 6 -.D@}*2#;.2.5 1@=.3$2@D*B*2@2@ @.&g%i*.&p&@*f%f%@*=*%=p&1#d 3$1@&.1 [ D B B ; z 2 *.A *.A 2.5 2 | ; n ; ; 2 c  .h 8 | < Q t ~.Q 4 4 8 >..@` v+U-w+l@O&O&l@u#/=~;# l@w+l@# O&o 2 ; < < 4 < 4 * , /.4 n A U.` @*e%@*p&W;X;V*H ),z-O+R.h -.L+}.~.F n {.n 2.0 h 7 7;o.{ l+1.x.j%%@q@9.n+_$c$D@U*q@~ j.h%:$:$M;Q$.@4 z 2 s w G [ >+_+{ D i#)&i+)&Q+*.U.U.5 1@D@-.2.n 5 &.&.@@U$@@( p@D@/ r@p@^@B+B+G#Y.2#s-2#@@U. @..,.|#j `%!,~,{,X.H@H#3=1>2=],L#^,/,3+~&n%o%/-P&H%(,_,_&4>:,g.<,[,},},b>c>|,1,i.j.j 8 h f `+j=v*2,3,,.2.S -.|@I#] 1.{ %@B@l+n+! 0.> _$C %@6$i%i%K%b@i+r@n w.9.w n s v l.S &.o < | - 1././.+#Z.F.c.c.B&|,w-4,@,3*3*6#7 8%L-f-7 ! 9.n D o+O w.v.{ I@O n+3#`*l { !+> '+0.n '+*@4#+@[.&@|++@(@Z#f-D-#*Q$: O.v@5,=%6,7,8,8,P&'*)*I@> ) 0.! ] n B+o.1$x#=+X@h+6;9,]>T=*;6$b@W#*;l+l+' ' ' u _ > - u.",
": m+m+' _ a.{ 1.u _+,+1.v.n  %)&O s m x Q+W X+b&a&a&p Q D n+v.O [ 9&s T a$5% %Z$Y$Y$K%y$9.p+! %@0,I; ,a,W#$@{ a._ 0.! > : - _ ) Q Q ^.Q G q Q v > ; 2.| g $.k.;.B+a#C _$_$C C _$8.D D v.v.v.' $@~.w n l.n T 1 < > o @.7 c #.7 @.%.k.` i E+%.@.E+o.V$_@;.}*9-4.@@e#_@C+V$1#2@q*..+. .g%^#[%N&g%^# &[%[%W*N&V*E+i | z A *.x m T w 2.&.Z U.5 6 o.o.-.2.; 1 ; | > > @.` 7 b &.2.R /#{.v < - $.$.a @. #U-l@v+3%b,3%O*Y*~;U-U%U-l@# u#> z [ /.1 ; > o - , * /.| | o [ 8 J+I } )+4 g o 3 t 5 B S o z ].C E ~.n , > ..3,|>k&( a.n { 6%6%n _$9.l+o+C '@j$r@o.j.5$Q$K-c,Q$c 1 > z D G t P _+I@D %@x;~%r&v.o U.6 l n 2 6 ;.=.1@@@2 -.u*~$; _ ( ( H@Z*G#3#3#r@p@p@I#!$)#l 5 ` `+#.c @.j=d,C*a./ ^@2#e,K&f,N.g,r+Z@s+h+w@v&x@9,#+2>x@h,t+x&I.7*i,j,k,^=l,d*m,h%6#+@` k.E+|#T-2,E*F*j @@e#n * Q&Q&m+m+w.B@_$_$: _ v.C a#$@)&1*J%b@(%*;B+' l+{ G ~.Q u m G - 1 , 3 , = |.1.- < !*c.2+t>n,2*[-^=J*3*[.7 f#o,p,+@( 9.v.O ' { n 9.I@F+O n+^ X.) _ u.> / ) 0.> *@&@5$6#*@1+*@7@7@H N+e%|+m+i-t#M#S#q,r,K>O%w@u&n+{ 0.! 0.~ o.l $@v.)@@+~&o%~&(-h+w&x.y$~%b@j#=;8@' ' u I@8@I@u Z.m+",
"'+'+a._ Q&m+B@' w.B@I@o+8@I@8@o+$@w.D [ p u X+U }=A+V A+].].Q s z < D o F$:%`$s&~% %)&k#I@l+m+l+H+U=s,t,F$v ; z }@| /.* < 2.x u u s [ v ~.w D s | &.< , - 1 A 2.C /#9#a#p+_$n B@D I@u ' n+p+{ { s q m {.o.@@S 1 ; n A ; &.S &.z b 7 ` h 7 j k.h 1 U.Z ; -._@Z 2.x=`++.).[*W;i;<%[*N&N&i*u,v,w,x,(>^#^#.&g%#*k.1#E+b /.1 *.&.v o A &.l *.n 2.n 1 | &.2 1 > | &.n 7 8 0 h 4 2 t-9-M$o.&.l +@8 c 0 8 0 @.b $.*@.@7 a c @.c 7 h c k.&.; z 4 &.&.4 /./.< [ | 2 2.o < A z = Q R./+y,o-v Z$x s&q ,%t q m.{$s >#;$*.7-3$H@l / ( 9.%@z,A,S z l.C n B R x ;&R c 9 %=g%]#e%b A n > z 4 u.u.{ > n+a#o.p+n _$2.1 o | k ;.C+e#_@_@;.o.}*6 A U. .9%B-+@h-B,^ o.'+m+8.<&a#n n n+2 2 *.k S C,D,] : H@o.{ ) { (.-#J@@%m%G%m%h+E,9,F,{&o#/,G,J-H,H,B&I,F.C&L#v>n Y.X%p@U.@@|@@@;.l 1#` |#`+'.|#U.&.l a.a.'+) a.{ n+v.{ 9.a#b@I+K%G*r&y$I@,+] ( : > -.5 B o n D '$u p P ].[ 1.].D D J.c.b.J.M.B&H*f=7@+@4#7 w#7@&@4#a.: Z.: ) 0.v._$l+)*u u v.n D D $@$@%@n+v.{ ' !+{ Z.Z.' : }+j+o@f%+&o@1.K@g@h+J,q,q,W@g+w@x#q@{ J@h@u@I%I=A@Z@Z@O n+%@B+o.w.D 9.D _$B+p+v.8@(%W#i#W#k#(%X$=;)*o+",
"' ( ( ' 1.m+D n ' ' ' I@o+)*o+8@g@e@D I@P ].U V @=b&A+A$s s t t | o ~.t _%5%`$X##,x;b@W#n+%@' F+(%&*U=F m t z - = > z o /.[ Q G+[ Q G+Q G T G v * > [ * 4 o *.1@7./#C 9.n+n+v.' u D D ' u l+v.O v ].1.Q n x A o ; 1 ; > /.o z ; h b j h b c a 8 z S n &.2 1 S o.).E++.j=Z;i;[*<%S.(>K,i*L,f&M,x, &#*=*W*#*%=E+d  @1#A &.2.U.m w l A U.l A l A ; 4 ; &.o > 1 &.; b a b 7 o > ;&N,/$n.| A k.c c >.+@b k.k.b >.$.b b c f 1#j %. .k.; S 2.o 1 A | [ /./.} < < < }@$=(+^.#@].D 1./+1.Z$F$a$)>Z%{#~#Z%B o (+#@> k V$5 Z.! a.: 9.i$9=j$z > w x C o n y P+:@S b +*+*@*=*0 A o &.n Z '+a.> l o.9.n R$_$w.n A 3$;@8-w*X%)#k -.;.U.-.4 3 n O,P,Q,o@i.p-0=0=Q&j+n a#o.a#%@a#5 k D@)#D.b=D,H@;.^@l n ( m+k+!+l$K#r$R,3>G%]>6=%+k%1$h@L#I-C;K*$;3;@;S,J-K@V%G@H#I#1@3$1@6 e#e# @i d ..1#a | o ( a.G@^ G@G@'@j$c$%@$@1*y$M&J%y=i#^;B+_$( G@( ^@l 1.E.}.t D P u t u [ D o :%I+i+y#L#!*J.B&M.d.F.+@4#5$4#&@r*6#n@n { _ a./ > v.8.p+v.)*B@' v.O 9.w.B+_$D v.l+- Z.) ! ) : _ 0.l ^@#.]#&@) T,U,k%r$S@e+V,w&e@s+l+l+2$J@t#.+8=h@Z@A@)*v.l+' n+l+l+l+8@D 9.O u I@(%6$W#j#(%T=^;m;j#j#",
"} z 4 - < o o o o s [ 1.#@(+G+O [+[+[+)*^.G R+X S=@=A$A$A+A+s ~./.> m q H+`$6%X#z$H+X#,%D _$) ' :%W,F=X,L%V+]-z ]-2 E@%%A+X+Y+N% %F$p ~.m w z - , [ * 4 D D {.R P+o.x T ~.[ t m n x n o t t G u D t D s o D q l.o 1 A n /.> ; |@ @a E+j %.h +@7 > z A A *.5 l |@%. &Y,i;Y,K,Z,`,Y;x, 'M,M,.'+'@'W*#*]#[%]#[%,.E+%.f i a ; *.&.o 0 +@c a 0 c &.o | | | o | | | > h 7 b 8 &.n @@#'6.a%;.2.%. .` a 4 o ; *.*.; &.n n n Z -.2.A l 2 > *.2 > ; *.&./.= ]+3 /.* 1.,$$'>#v w w r t ;#^+t ].X#6%Z%w%W&G$b&S=P Q x @@A } - 3 l+n+n o+x-%'- 1 4 | m m l.;&{$Q+A 2 c k.V*[%1# @j i i.k&G#^@Y.r@_ n f=N.H*~ [ k 5 U.< V$&'_@6 n -.@@|@o 3.1 z-*'%=V-%.j p-h.! ^ ,@R$b@i+1*='t-y <&C 0#0#j$-';'0%7.9=>'`*{,,'''D@s@,@;**;x. %8.<&n '+h#7 p.h%{@I-)'S,!+] 2#!':=0=@@=._@-.A l c 1# @.. @+@2 -.5 n 3#X.~'W%}>/#i$;*i+y$i%d>{'z=i#]'^'9#u.'+h#C-{ $$E$R.o+' >+I@i#y.y.i+r&>%x$y$t#t+A@A@J.B&{ : j+_ ) m+/'e;*@6#h#w#&@6#{ _ 0.a.' )*_+w.I+6$=;j#I+F 5%G$w%~#s v o o q ~.m m U.|@k.%.` 2 a._$/-r$p%v@F,h+v.o+1.O [+M@('5,t#f@s+A@%@_=c$9.< /.- 3 _ 0.{ )*:+)*T=j#(%*;a,V#>,_'x$:'",
"o | 2.l z - o A ~.D v ].1.1.^.p y#[+g@v.D w T&Y+r=}=A$X+A+}=G+G+, < n n X#Z$K$;*,%W#:%:%{ p+a.s .-W-v%X,a&}#&.F#A+$%B=-.Y }#W Y K$Y%w o.w s /.z /.< < o Q Q B l.Q o D u [ ~.D G+[ w ~.n n ~.l.v v [ D o G [ t o o &.2.2.o 2 A |@E+)+b @.1#,. .k.-.2.4 4 &.U.@@,..&(>K,<%--<%<'`,`,M,['Y;+'}'2-0;V*N&V*g%[%W*f  .b h ..d &.< < n h a k.7 8 c ; z /.< | &.| 4 o A h 7 ,.j o l ]$8#|'}&s-D.1#E+@.@.*.2 o n A | 1 4 z | 5 Z < - 1 1 1 ; 4 < n 2.> 3 - }@} * 3 3 /.}@G+C r Q s l.T ].#@].s w ^.}.v n S=@=t D G w [ < }.]+v.u O l+' l+[ * > | o o @@z,]$S &.1 0 j X;1'B*d  .@.(@|-^@( ^@( : n N.f=M.( : | ; | 1 ~$0%6 < 2.l 2 U.< .#*.$-<%$-@*%.b +@ .m+^ >@C =;0@j#J%n o i$:+:+v.9#z%2'z,_=D@,'X%X%3'3-4'z,5')=6'7')&a#0#n ~ &@Z#:$A-8'9'0'd-: o.I#U*X%H#e#;.&'~$6 *.7 %.%.i k.9 ;.D@* > l ^ o.C@G@q@9.~%T=(%z.',J;n;y.;-^$>+!+> h#/@E$a'' : ,+:+,+:+^;b'*;9@x$P%J;',Z@1$h@u+2+M.- k+/%1.Q&=$/'q&+@6#(@6#*@o@j+' : 1.>+:+1._+*;i#*;(%{#X#,%I+W#{#G '$v Q v v B Q+k 6 j  .` > _+F+c's>w&s$X@h+:+R=1.F+5;d'e'd'[+r+t#J@<&f'g'U*1 2.n = Z.Q&B@o+R=o+(%X$^;T=I;J;h'h'i'>%",
"7 k.*.2 n A n > [ z ].P u Q 1.'$K@K@L#0.a.n ]-, Y#& F#]-m&X 4 [ > ~ n+n+x;;-s&_%H+`$z$W#v B &.^.E=.-j'k'<#W m&E@Y+X C=H=W L%l'D=K$)>_#_#w n 2 A Z 2 m m q Y%a$5%q [ ].D ~.Q [ s o ~.t s G G o w m s ^.Q [ o w o o D v o G T m o.1##.|#j ,.k.c |#3$1@A 4 < *.|@i (> 'x,u, *x>Y;}'Y;m'(>(>V-N&V-=*^#[%#*+*%=7%c h i k.E+D*D*j >.L+#*p& .a a 8 a +@[ z | | z 4 | 2 @.` j #.A 5 _#]$n.q 2 <  . .h b Z &.4 [ 3 ]+= * *.&.4 - - < > o /.; 4 1 > < z A n z /.1.= - 4 n '+] ( m+{ C@- j+-$}+: > u.Q&(., I$F#n'o'n'}=t G x :@Q+C B o ' _ +#+#/.> ~.C Q+T Q q n 4 $.0 #*+*r**@4#w#(@5$> ' n > F.C&J.!=!*' : n 2.1@-.]+p'<@S < 3 1.}.l 3 - ]#+*J q')+H O,+@) l C %@u&9,r's't')&K%K%q@w.{ D c$''~ ! m+'+W%`.3#0%4'i$c$/#s@C j$a#p@p@i _.u'v'w'a'- _ l X.I#~'{,I#=.U$b=u*7-2# .f d ..` h 0 L+,#} 3#;.! 0.D@0#' 9@x.I+6-z.x':'b'T;y'z'j+'+e;A'B'&$D$R.F+>+_+R=k#*;y$x.a,P%d>>-++Z@h@r+_+)*l+' !+Z.m+!+= * z | q&*@9%H N*|+: !+- m+%';+R=o+D O W#C'n&.%Z%X#S w n l.u C w o w - b,w+1 > { p+g@g@n#e@e@t+%@p+> v.4+D'e'Q#e@Z@t#n#J#E'F'9#/.1@|@3 (.(.Z.> u D { D 9@x. ,V#,,h'G'a@",
"h 7 2 2.2.n | > 1 z G+G+G w s ].M.M.J.) ; 1 Y+Y+F#v#A+A+E@m&| &.l / n B+f>H'X#m*F$:% % %D [ /.o W+F=I'v%}#L%E@2 F#%%X X W+X+J'.-;*g*{$o.B B 2 A 2 1 q q :%1-1-o&:%s s D t ].G+].v G [ B w v s w w q ~.].v D o u o v [ q D T q C 1@1#`+` #.b b 1#k U.l > | n U.%..&K'`,+'x>{>M,<'Z,m'i*=*f%+&=*W*+&%=]#[%(>--d 1#E+f T.).%.a b >.#*]#a a 7 %. .c ; ; > 4 z 4 z ; #. .a 0 &.l o.o.(#{$o.n #.7 ` 8 1.} - - [ /./.* 2 > - < ; n o - 4 ; n o [ o < 1 4 1 z /.* [ 2 l ( ! '+] `.] #$v'O,o@7@7@q&j*q&.@, F@S=@=Y ^&B C B r r C B o m+' )+.@z o ; w D (+F+p < - )+.@M+[=q&q&[.7@6#7@: _ _ `.x&C&B&!*B&m+( ~$u*-.= 3 *#}@D.o '#;$1.A }@H J+f%q=q=+#+#O=O==$m+C p+X@s$s$-%y=L')&T=$$B@o.l+B@w.m+{ ^ r@`.`.,'M'C@1.)*o+B@B+j$o./ C@(@1+N'e;R.H@;.G#X.^@3#B+p@`*4.)#=.U.=.s-)...i 1#+.T.+.%.[ - > / ' : ] ) l+y.6$~%y$0,.>A=i#)&t*O'Q&u.1+N=E$=$- ' _+_+R=o-X$b'k#W#6$>%J;k#(-s+n#t#8@_+R=' j+}+Z.Q&|.- > 3 q&*@*@j*o@q&- 1.!+m+I@)*' 9.9.D 5% %0$F Z%.%[ o q y o q n q m > 9&H$o Z s@'@h$2$r+t#n#e@_$q@~ ~ t#M@R#5,3+[+J@J@o.s@%@%@3$}*@@| { ' m+0.' D l+)*i#W#i#P%0,,,P'Z=",
">.b k.` k.b 4 < *.; /.< ; 2 n B !=!=( ~ 1 z Y+8$Y#z & * z ; ; S ( a.9.w.1*I+9@i#_%z$Y&F q Q z n V '%}=L%N%U Y+E#F#%%Y Y }#L%F=F= %;*s&q Q+U.&.1 z z q n H+1-u=*-{#v D v ].G+G+^.p n t l.D v D q n , [ 4 m n q n ~.[ D l.5%`$z$m l E+` k. .j k.j ; ; > [ > n Z E+[%u,}'M,V-g%.&(>X;<%S.W*@.#.7 #.V-i* &^#V-g%+*-*=*[%^#`>i;+&f%#*h*+*7%#*#*[%7 b +@b &.o 4 | &.1 9 @.>..@n 2 B T {.:@A ; 9 .@a !./.&.2 o | 2.A o o ; 2 *.A ; < * D q :@C t q Q G p G m n q q B n > 9%H o@*@*@O=Q'R'y-L-=@y-S'=@+@o F@v#v#V+[#b&b&t q m q o * |.}@X*!.8 > 1 2 G Q Q D z /.9 7 @.a 4#! ] ) a.n ] / f=],++)@@+t@++H@;.3,2@.@T'X*@#O,0 >..@!.9 a !.#.U%J$)++@>.L+, U'V'- I%h@u@r+I%W'=')=p+O 1.z,X'^$C@0.$. @E*F*k. @).q*%.z - o /.3 1 *.2.n !.0 #.*@< k ;.@@l } < | e#k @@7-; }.4 [ .@]#` E+d `+|#`+i.5$u.> 0.'+n u.:+>+)*)&b@(%~%x.x.y$x-;+j+Z.) ,+-$(.O ' )*>+%'$$I@l+I@1.8@6$I+6$6$i+i#9@9._+,+o+:+>+(+^.- * 3 /.1+:.:.O==$,+Z.! _ _ a.{ > n ) p+5%I+a$z$[ ].].D [ q t q n &.n *.Y+F#/./.m+u.d-6&F.B&L#M.> a.A ] [+t+Z@g@g@f@f@r+B@R=u _$7.'@C / ) r*q&u.u.a.p+n %@r&i%Y'>%.>6-Y'",
".@!.8 7 c 7 ; ; 2 1 o o o 4 D n / 3#C@l n 1 &.m&&.2 E@%%n &.> ! a.> l+l+b@6$6$r&Z%5%Y%5%D s < ].Z''%b&V Y+Y 2 Y#z 2 W V+W N%.-`'Z% % %Y%V$6 &.| [ < q a$ %R- ).) %l.w ~.v u p G+G+v Q u P p u v 3 , } z t v D R o.m B o H+I+Y%C l d 1#,.i %.k.#.- 4 1.< 1 Z ; 7 @*b;+)z>--$---W;i;i*V-1#1#f 7 a V*^#N&+*+*h*+*[%%=M+q=#*=*=*p&f%f%h*+&+&M+f%*@$.b !.| ; < [ - }..@b k.%.z o R P+w n z - g +@0 8 ; 2.&.[ [ n l n A 2 ; | o 1 2.Z n l.(#{$C n ~.S l.w B o o n D Q Z.o@z-A-/'9%:$y-@)<.=@S'#)S'H;N+0 * 9&$)S=S=r=}=p [ v [ } |..#.#+##.` a > o G w w n o < 9 a a +@_ ! C@C@`.^ `.G#g.T, +u@J@.+C#^$}>E++@7 *@!.7 #.#.c f E+h +@@. .# 3%+@9 W$O,< ;$k+B+@%I=2$<+r#%),+ %_$D U*;''@p+r@&)*)=)B*..'.e <%V-<%q*`+e#}.p'3.< 2 }.W.h E+>.2.*.o.|@Z z * 4 4 /.5 V$}@,#< W$#*V*1#%.` ,.`+t&i i ! _ ) ! / (.x->+_+l+~%(%r&6$W#*;%'-)!+u.j+a'{+}+I@' B@)*F+)*n+B+n+u ' O B@y.6$x.i+)&n+_+8@_+8@u 1.G+/.|.,#[ 9%7@9%q&m+(.k+1.Z.: ( ( ) : m+0.s n*n&C'].D t Q ^.(+>#!#]+} z l E@E#4 /.Z.Q&;)t>L#j-@;j-Z.! Z Z C )@t+h@@+ +8=h@n+n+_$9.n $@n q@'+h#h%j.~ ] / a#q@p+C ;*;*Y=;*;*",
"j 0 .@+@a 0 o &.&.| | ; > - 3 } > A S *.*.A;A;8$B=B=2 n ( ] ! > ( ] { n 6%x; %Y$s&:%_%I+G t 9$Z'p .%].Q &.Z *.| 4 ; G G  %X#,%I+o&,;Z$a$-.n +@9 /./.~. %z$t=>),):%v u [ [ [ u [ v ].u p u ^.u [ * U.1 3 ].D q r v Q Y%:%Z$5%Z$P+o.+.i  @+.%.`  .n 5 &.; [ /.- 7 =*+*7%[%W*W*`+'...d E+j c 4 | @.#*+*[%#*7%+*#*p&N++*7%.&W*=*--[%D-a;')j&N+N )+$.$.L+} < 4 > T @@F*..#.9 } | R P+B q [ }@X*` 7 8 `.`./ ! > n ( ] B+( '+_ u._ a./ D o {.r q t o G t t G o q w t ].: m+R.!+r*9%r*o@H 7@f-:$:$f-5#p=X*`@v#F#@=b&F=))G$G$Q ].1.|.J+J+8&# u# $Y#Y#U L%W }#Y#F#z %%w++@{ : > ! p+B+u@2$J@2$++g$~&!)3>J#^ 8 g I X*>.!.9 7 +#)+7 h 9 h a G=k 6 A+}@3 @@2 ] ] 2+6&d-~){)z@q#o#r#q#{+O'/%: i.])$-^#+*7%g%--x>x>2-]#a  @> [ /.; o 1.; ;.S n i 1#1#c a !.I *@#...` 7 d @.#.1#[%W*i*$-..+.1#'.|-j.7 7 3#^@H#l j+(.8@I@O :+)&)&y.0@b'm#1.B@>+-#:+l+D { O -#*$j+'+^ ] : - Q&1.,+*;9@9@)&*;W#I+y.P p Q Q ].^.^.].Q&!+}+(.m+1./%D$u.'+4#n@w#w#Y@~ r m D w B B T G 4 o |.3.= - , z Y+A+o *.] / '+'+H*!*: : u.{ 2 &.{ u.! 0.Z.0.{ O Z@u+G%o%-%~&6=1$'+Z#i  .w#u.{ ~ a.w.{ %@R$d;s@o.",
"+@+#)+c #.0 &.|@S *.l 2.o < z > /.n *.A *.6 $%z m&X n A 3#( d.2+0.n w.$@r&Y$1*G*E 5%,%X#n s v#& G+C'[ l.6 o.; z | o t D  % %I+F$o&u=X#F$4 o 0 >.4 /.t Z%**^)/)():%v u Q t v u ].[ Q Q [ s ^.D P > l | |.p B @@w s D X#Z%:%Z%Z%S | @.@.d B*`+1#@.; &.A l U.*.A 2.p&p&@*]#-*e%h %.f `+ @` o 1.4 2 +@f%@*]##*#*@*e%N++&+*@*p&]#=*W*@'D-0;0;[%%=+@$.$.b 4 /.2.o.P+(#).` )+[=- 2 l.G s [ ]+, >.` h $.a.n n a.) > _ u.u.: 0.{ ! ) ! { n l.G o G o l.s n n D s [ 1.^.P R.}+Z.! > q&:.O=:.r*Q$:$f#f#H;q'[=`@F#D#W+[#v%_)_%W#[ ].]+]+L+L+m@+  =7&F#%%Y+A$A+b&* v#F#Y+v+v+{ 0.> { D $@e@t+4>:)@%++H%o%(-f@' W.##<)*@X*g b $.*@0  .` @. .%.z+C=G=Y#n -.=.; '+/ [)})J-j-K@b.|)1)2)h@*$3)E$m+B,4)+&i=h*N 5)6)7)7)8)a;#*b 0 2 1 ; > 2 -.S l 6 ..d ,.k.0 .@!.k.b @.@.@.$.L+2@x=W;V*[%.&q*|*..+.l&(@h#7;}>`*~ m+}+0.'+l+n+I@x.6%r&T=T=9)0)o+_$%@B+p+p+9.)*-#R.' ! ] ! - m+' &@_ ' x.j#W#6$1*x;r&v o q m q D s D - u.- - 0.) ! ! ! ] 9%H r*h%k&i 5 S l.{.B q C B Z S n o l A z 4 L%U | ; _ _ !+- b.c.'+n n a.1 4 Q&E$}+u.Q&Z.I@o+q+t#s$-%l%6=!&u@) n@[.:.|+j*0.~ a.> m+' $@9.B@D ",
"$.$.b %.k.0 b ` 2.2.S *.1 &.2.2 < &.m&2 D#m&E#9&v#&.2 U.H@N.c.M.L#!*B@{ ~% %~%Y$z$X#H+X#[#N%z F#].P s {.|@Z 4 < ; > D G z$ %5%Z%,;v=,%{#[ &.a 9 /.} p .%&-q;a)b)n&(+p [ t o s [ 1.t t ].p 1.s }.[ 3 /.3 (+D :@C I+F$Z%:%H+H+o&:%&.k.a 7 k.j %. .2 &.5 -.1@*.S *.@*[%#*-*+@)+>.b 2.6 U.&.4 } u o 8 $.7%-*#*-*]#+&f%N+e%-*f%+&[%@*b;P;c) *V-[%-*h*L+>.< z 5 1@G (+N*O,!.a > 2.G p [ ]., o 7 h 0 $.!+u O B@D { { D n v.I@' w.n n+O n T o t G v q [ D s Q ~.s P #@}.%'1.O { { a.n m+- ' r*+@w#6#*@J+X*k*, & U W+#>F=F='%v Q , , *@)+|%d)7&J$& Y#Y+X+A+U W+Y &.E#b,@ - ' { p+_$8.u@u@k%k%H%%+o%e)f)p#-$g)g)X*W$h)+@>.!.+@7 h 9 c f 1#D#[#2 E@*.2 n } - o.]@M.e-e>i)I,j)k)l)m)n)o)p)q)r)h-s)N c)>;t)u)v)w)x)2-g%+@b +@&.&.D w n m 1@o.f h a `  .@.`  .%.@.b b @#*@h.i Y,p&=*N& &i*E+'.p-4#Z#])'=C*Q&-$j*~ '+> a#n y$J%z=0,l#y)m#X$9@b@%@n+n+n+' 0.B+^@r*:.9%+@h#4$=&4#9.b@i+i# %;*)=J%)>E w q m ~.t D n+D B@B@! / ~ _ _.7@:.H H;f#i>7@1 o m T 2 &.*.S 5 &.n 2.%.7 k.2 X+Y W N%[ [ }+' J*4*6#[.a.) < - !.H g g j+Z.l+1.t#r+'*h+S@O%z)G%'+n@[.*@r*q&*@&@:.!+!+' 0.u.- - ",
"%.k.h 0 b c h 9 - * z n 2.5 A } - > &.&.&.E@z * F#D#; 2 ] { C&a.{@%@n w.1*b@b@i%H+z$l.T ^&*.D#&.o [ o q n n 4 o > 4 ~.q I+:%5%:% % %_%[ p - , - * P P ~#A)B)C)D)E)G+o ~.~.n q Q G G w G u [ ~.o 2 ; | z v m G {.S _%F$_%I+H+X#:%;  .9 +@0 j 0 g } /.S @@|@Z Z %. &W*=*=*p&a b g >.*.6 *.&.o * 4 7 7 %=-*@*+*p&#*h*@*]#e%+*.&.&@*0;@'!>V*p&#*7%%=>.H < 1 - = G+1.R.< 2 z l 2.#@[ ~.~.z [ g g )+g 0.v.O 8@I@v.9.n 9.n+D D w.$@p+p+q C l.w B ].[ Q ~.^.p s | [ }.'$:+)*8@%'-+R=0._ (.(.H :.*@q&H J+I F)9$]-E#L%V ))c;.-G q < < +@>.+@@ l@x+E@]-N%[#}#Y W W &.%%&.2.a.9.n+v.8@v.Z@A@@+{&)@-%2$X@[+f@~ ).2@,.E+j c @.#.!.a 8 I g h k.]-Z'& Y+&.o | o ' ! M.N.e>2*G)H)I)i@|)j@J)K)z-5$L)/@g%--^#g%Y;`,M)N)O)x, &p&!.9 1 Z S C B T U.n k.@.8 8 #.f j *.E+@@,.` 7 0 N*:.i L+h*@.^#f E+B*h%[.w#*@Y@4#/'Z.Q&m+R.:+B@{ I+i+a,P)P)Q)^;*;*;X$o+I@u I@u.! '+{ :.H w#(@=&j><-7 ) p+_$p+l+p+n c$/#w Q P = m Z o { { D I@Q&! B+~ 5$[.n@6#_.|+R)j*- ].l.{.A &.z > o 2 A n S A S 2 2.W 2.&.> S 3#C@S)v-7 n@( ] | 1 0 >.*@> 0.O v.k#v@]>X@U#T)v$S#s$0.+@r*1+|+k-1+q&/'e;: ] ) 0._ ' ",
"#.o ; &.n 2 | A > } ]-Y+*.8$Y+]-Q G x T t G C q ~.T n ~.m D l+q C K$K$;*C w B G B ~.A o.l  .%.n q S n D x r [ ].P Q m B n G ~.G G [ u [ ^.(+^.G+P ~#.%G$****o&&*Z%I+o ~.~.o s t D C n s > 2.U.&.2 A Z o.; } o ; ; w q v s m ~.].< !.!.7 .@@.*@L+a .@7 #.+@8 c #.[%2-c)D-h&+*+*+&+*0 >.>.a +@h b f a b 7 8 +@a h @.b 9 +@9 +@h %.W*^#]#g%f%h a $.!.0 < S z = }@p D S R C x G Q Q n 2.&.1 +@b !.)+2.&.o < t G q s u n m G o s z$Y%_%`$C ~.~.v | A o.| [ z $.3 g 3 u.> m+,+:+o+1.>+8@)*1.Q&q&:.|+H h)  H$& 1 T T G s D 2.5 i.[._.*@b o $%B=U)U)e*V)W)X)W+Y+~.B w - 0.: ~ ~ ! a.n ] `.0#^ s@r@R$] 3#1#7 7 >.!..@7 h k.E+i @.+*+*%=8 z < | A < | / 3#1.R.Z.0.6&Y)|;d-J-&${+a''+D@0%U*4$4# .i.h.Z)p.j>.& *u,[%g%8 c @.; *.| Z R r R |@f 7 h @.&.n S {.U.:@U.2 5 ; o A | < *@o h 9 0 i 7 *@L+0 b .@*@[.:+q#`) !X$y.)&r&k#.!9)9)+!T=G$y.v.[+t#g@Z@t#S,I-@,D;@!#!$!%!&!*!|+' _ > '+] ) ' { > o 2.a 2 8 /.l &.* 1.< | &.S S 4 z ; - ]+H |.Q&Q&Z.- +@[.+@_.w#4#C@r@o.n+l+D _ > +@6#n@Z#Z#Z#/@h#Y@ . .h#h#Y@5$5$a.> ' u 9@x$J;I;P%J;P%0,'*W#'+< 3 , 1.= Z._ u.- > ( ~ { b.`.",
"%.A -.o.2.> > U.S | Y+&.$%X Y+]-o G G o D D ~.m ].^.u v [ s ~.s :%F 0$Y%S l.Q G 2.1 | ; c  .@.o z x y {.G s ~.u D [ v m w D u ].Q 1.1.G+W&C'~#w%{#G$,%I+u=u=u=u=H+:%t Q u u u u [ s s ].* > o 4 1 4 | 1 < /.z z /.< Q [ v v D n h c 8 $.*@*@>.!..@)+@.j  .` #.+@+*!>z>{>b;+*7%7%M+N+*@>.X*)+$.>.$.c #.+@+@c c 0 .@g .@0 +@>.h 1# &h*h*7%!.!..@*@9 @.U.@@; * ,#'$ %F Y%X#m.D q r -.5 2 | a  .%.#.; o z < s D o s s Q ~.t ].D Z%W#_%Z%l.q o ~.S *.2 | 8 0 >.)+L+.@a.Z.j+1.o+O B@' 1.)*m+u.7@r*q&X*0 J$H$v+5 -.T n B w | 2 7 [.&@Y@2.4 z %%S%V)z;W)=!-!S&T&S {.0#9#r@B+C@H@r@0=r@C@G#o.D@0=;.~ `.a.9 h 8 W$)+0 %.j f  @ @%.]#p&[%%.l n | A A 2 '+n u.0.! a.!*d-H-d-> Z._ _ r@X.I#X.|>E*T.])p-])|-j.i*[%g%+@@.#.c #.l 5 2 Z :@r R m.j 8 a c | l :@B D s T r U.A 1@C+< > | > /.4 h #.7 >.$.h 7 >.N+g r#;!>!9,T=b'i#9@(%T;.!T;^;*;W#.%p+x#x#t+n#q+H-6&@,J*@!#!$!$!@!,!&@w#4#w#6#6#w#4#h#Y@7 h h +@.@L+2.> < 1 A A 2 2 n - [ | z [ /.[ }+R.#$/%|+n@n@6#n@6#] 3#n D 6$o+1.n@w#&@[.6#6#Y@h%&@4#4$i.])l&i Y@ .h#{ ' I@W#P%:',,'!)!!! -i#9@> /.* - * 3 Z.u.{ 0.0.> : - F.e.",
"i U.k e#=.)#U.A *.%%Y+&.%%E@9&9&q s s t [ s n w s ^.].t u t ~.].~#W#H+I+~.l.n w 1 A A &.@.k.c 1 - n {.r w o n n C Q 1.v t (+E.#@[ ^.p [ ].u ,%,%W#G$F$,%Z%Z%,%,%I+Z%t Q Q Q v t v u z - - 4 * [ ; | 2.o * 4 z 1 [ [ p ].[ p [ w 4$h%5$7@Y@k&h-4#9%&@i.j.n@Y@Y@w#+*#*g%^#[%]##*8 +@.@)+g } o - 4 7 j f f +.|#` h 0 .@$.8 8 >.a ,.3,c h 8 !.8 ; 2 k 1@[ o.{.q (#P$~!x%K$0$z$_%l.{.2 A ` d  @ .b 8 /.z o * - } s ~.Q o w o o n H+:%~.G B m n w 2.&.- 4 2.o - > < < ) !+(.- n+%@p+B@8@u 0.'+Y@Y@w#9 k.U-@ O&U.5 B B q G ; *.h#i.4$|-Z 2.A;G=$%X {!{!]!^!h;:#(#P+8.J#;.`.o.3#( ~ { u.: _ '+'+! 1.0._ 1 1 < [ S @@;.U.E+1#E+#.h @.` i 1@A o *.S *.n / / a.: ] f=c.J.t>a.( / `.V%G@l G#U*H@k&C-T.L=p-p-d ,.`+A -.S n -.k 6 l S :@y y /# .a c 7 z A r m G D B C *.S e#D@- < ; 1 [ 4 ; | > - g !.b 0 >..@l)i@/,f$)*_+B@o+I@1.8@u p u Q p v.p+_$D u.0.{ _ 7@r*+@_.i>8%=&K;[.[.6#7@*@9%[.(@j.j.k.b #.0 $..@* * | 2.2 A S *.n o ; S Z A 2 2 : (.#$=$/!1+o@9%r*7@_ ' I@O 9@8@Z.9%_.h#Z#&@6#n@7@w#7  .])(!_!P-h>Z#h#n n+v.x..>I;:!d>Y=J%j%~%x./.[ /.4 : - Z.m+0.0.0.u.t>L#C&e.",
"7 5 1@5 *.l l l B=m&m&D#z z v#Y+T m G s Q G w D ~.o t v t v [ u F$W#I+Y%~.{.]$/#z | 2 ; a h @.n A T Q+r {.l.s ~.n [ 1.].^.;##@Q t u v D t D X#H+I+I+I+Z%Z%,%F$F$_%F$t D D s t v q o z * } < < > , [ > * } > | | 4 > [ u s t v ~.Y@n@H &@i i.(@/@h#n@h#4#7@w#w#6##*+*-*]#p&]#7 #.f `  .0 n 2 *.1@T. @,.F*x=Z+|#|#+.%.b b b 0 h ` X*O+c 7 f *.l n 4 |.* > q o.S (#<!@>[!s=Y%s&w G > - [=H H $.*@$.3 } < /.| [ D n p Q G+].].P G$ %G m S q G l.U.1@6 A &.< ; l o n / ~ { ! q@0#s@R$B+B+C@H@7;7;/@E+@.P*P*O*2 2 w T w n U.5 j.4$i 4#2.k }!z+-.X-|!1!z;2!<#U [ ]._+R=*$-#Z.!+k+j+!+{ ' _ _ : '+'+0.B+2 1 &.S 5 1@1@Z 7  .f j  .@.7 h < } n D@;.U./ ( G@o.B+`.f=2+C&H*'+o.`.r@G@X.3#^@) ! P-P-B,P-k&L=%.*.=.;.|@A 2 S k 5 A 2.Q+x w A 0 7 @.a z o w T x x x B 2.U.k ;.&.2 n < , - o > 4 - +#g >.9 *@1.-)r+n#q+I@8@9.v.n+D w.w.t v v ].B@n+D O ! l '+}+&@9%q&o@H;:$i>i>w#9%j*_.w#n@4#4#n@4#0 !.b +@!.!.0 2 l &.> 2 Z 2.; 2 Z 6 -.A &.A 0.: !+{ q&j*/'1+N*[.) - O ' (%1.!+O=r*h-C*4#r*7@r**@_.4#h#3!4!B,=&8%4#Y@~ 9.n+~%y.a,1*;* %i%K%D [ [ /.4 : ' - m+> ] / ~ b.!=e.d#",
"h 2 2 | * ]+[ &.A;D#8$Y#F#& Y+*.S {.m D q G Q u p t Q ].v [ ].s :%:%I+X#m x n./#2.z &.A k.k.i Z 2 w Q+{.m o [ [ E.(+v n q Q u Q v [ t t Q v s [ :%I+I+I+I+I+:%:%v t t t Q u G+^.Q o < - * [ < } - z - * 4 ; | , /.> o G w m ~.n 7 h#7@_.&@&@|+Y@h#[.4#[.r*r*_.+@+@9 +@8 9 !.h f =.@@6 5 S U.C+C+). @ @'.T.2@T.D*'. @ .h h c #.#.o.1@l 2.5 o.2 n t t q C C C l.{.$>5!6!7!+>Y&m G *.;. .0 N [%]#!.> [ < n -.1 t n p o r D@{$R y m *.; *.&.S D@s-u*!$=.n.P+_#x o (#`.o.G#V%r@8.s@J#R$i$o.^@h./@4$` 7 8!x+U-4 < u u C l.A ; n@6#r*H [ } A+]-& A+v#9$9&]%-#)$9!-)%'-#1.m+! > 0.{ > ] 0.' > ! ! ! 0.'+1 | ; &.o ; 2 &.l l l 2.n 1 ; &./.[ *.C+1@A '+'+] ( C@/ ] ~ ] ( i$r@H@;.G#0=Y.2#X%&'!,B>7;/@B*..k n R _#P+R ]$Q+n m &.2.-.Z 2 2.h 7 c h z [ v q x x r r 2 1 ; A D m D u m Q+n , 3 3 3 * < 4 } }@>+D 9.v.%@l+9.%@q@n n G Q u [ p G+u t o z - - /.)+H +#g +*7%+*7%:$=@Q$i>g-i>i>}-8%f#-*#*+*#*%=9 h c 9 L+>.c @.a c ` 1#i  .a 7 ` n ~ _ u.H _.O=O,/'&@: j+)*u y.l+0.' 1./ V%' 1.Z._ - !+) ! C@/ 4#f#K-7 7 '+w.w.$@9.r&0#s@q@q@$@n+[ [ ' m+- ' ' ' > ( {@x&b.b.C&F.",
"2 2.n ; /.3 z &.*.E#D#E@m&D#2 m&~.n l.B m [ p ~.G+[ v v Q [ v o .%W#F$G$~.C l.T 2 z 5 |@,.%.,.` < Q Q m D ;#!##@p ].].^.G+Q D o s s o o v t s ].I+I+I+I+H+5% %Y%o D t Q Q Q Q v p s [ [ [ [ 4 , , *.*.o } |.3 , < > l.{.w D ~.B B+6#h#7 6#7 7 [.6#7@[.+@9%:._.5$a a h h a a @.` _@k A S S 6 )#V$`+1#,.d 1#E+j @.#. . .@.@.%.j %.-.1@D@3$_@5 {.B T C {.m.(#/#y F 6%0!@>a!b!c!S x |@4.q*B*[*k;(>=* .6 U.S U.U.r _#q G {.@@t-d!7-@@5 |@5 /.n | = 4 S n C n t Q t {.C@'+{ '+9.$@$@n+9.9.a.~  .(@5$b ~;O&`@m@| /.F+;#~.o , } _.H e!N*$={+f!$)$)C$,$= 9&0&=#'$O l+{ B+C@l / ] l B+! { '+_ { > { m+n ) 2.o /.1 U.*.1 1 2 n n 2 &.o z z *.1 z n ; &.( G@`.B+G@G@^@`.~ B+8.8.C@`.;.I#~'2#2#0%g!])L=T.l&o.T _#]$P+Q+n.^$:@P+@@k |@6 *.*.U.k.8 b c 1 > o D l.l.{.y l *.1 } [ m n G l.C 2.l < < /.[ < 4 < [ _+{ w.D _$B@w.p+q@9.~.s ].].].1.u p ].[ - 3 3 [ J+I +#L++*+&+*7%8%i>f#Q$H;p,i>6@g#h>[%N&]#g%]#+*)+)+X*X*$.9 9 h k.` f  .8 8  . @3#`.] '+&@Y@7 4#9%H D$a'h!-#(%j#Z.) > !+u.1._ u.' 1.(.: Z.: u.' =@<-4$5$0.{ '+9.w.D %@a#s@c$B+{ - - Z.1.1.m+u.u.u.'+!=c.M.M.M.B&",
"Z S 1 | o > 2 2 Y#A+Y#E@8$8$E#%%o q S r m u Q n ~.D ~.G D D ~.o F$F$I+,%G T n m * [ l 2.c >.b 9 }@}.}@o n - - z &.o * ]+= /.o 1 &.n 2.A q n n s l.w m m z$Y%`$Z$~.o D s D o ~.q > 4 } , , - > 1 | *.2 o | 1 o > /.4 l.C D t q m m+_ n _ ) ) n ! a.0._ m+' > > n 2.2.A 2 2 2.2.2 | *.n A 2.l S k  @i E+i E+%.a $.0 b 7 @.%.f E+f l w y L$r S m G B C r T y {$x ,%a$!;i!j!k!l!o G A a +&e%m!>;>;h*j )#S < , < * z G t t Q ^.-#>#G $=[=%.7 *@*@/.< s G+u (+n!'$H+G > &.2.1 Q t s ].Q [ - /.!.9 !.$.w+8&  `@*.> (+p ].u |.1.*@9%O=1+}@& %%Y+]-z z ]-< ; m n %@9.w.8.Z S S 2.Z Z 1 &.S n > < n > l Z A | ; l /#T w C l.q G q q o ~.m | < m+! n C@^@D@B+u.- ( H@3#n ( D 8.i$R$9#/#;.`.B+V%B+! 2#`*/@G@z,o!;*I+Y&p!(#(#q!6.C+;.U.; A l c 8 b c 2.l S l.n T C o.@@D.1@o m n C Q+S q l.P+;.6 l &.z /.4 o n q@n D O ' 9.w.w o s s v t t p z > z [ } 3 , = H *@)+$.g 0 9 0 <-K-p,#)H;f-8%g-L;<-[%[%[%g%@*+*9 +@a 7 0 .@$.a h 8 a 8 *@>.c #.2 A 2.l h +@9 b !.W$,#-##=n-r!r!{+0.G#n u.1.0.Z.Q&' : _ m+k+R.1.p,f#Y@4#&@0.> > u.!+{ ~ 3#r@`.> o+8@)*:+>+8@' u l+w.u@t+s+Z@e@h@",
"6 S 2 o.-.| o | 8$%%%%&.E@m&8$-.Q+:@{.B S q ].Q m G o ~.q m q o Y%6%:%,%G ~.~.t 4 < z ]+L+H $.)+* [ Z Z n 1@@@A ; ; | o 1 2 *.*.2 2.S l l.C C G T l.m o Z%Z%Z%I+o ~.~.~.o s Q [ - = * /.< /.* z n ; z * o A 4 4 = , o D ].G {.G '+~ ~ _ u._ ( _ ! a.n : - 0.0.'+; 2.2.| < z 1 1 < * ; &.2.S *.A 7 E+` a h #.#.k.#.a 0 c j E+f Z q q C C R y s w B q m G+[ w o Q Y%%-t,%-s&s&q *.!.+#M+f%+)_>j&f%0 | |.} /.o |.3 t o D t 1.'$t D T's!0 9 a  .A S T s P u q ~.G$.%| ; > /.t Q p G+[ ^..#-#@#@#O,@#t!u!u!k*o } #@t }.F+1.]+9%j.L=@.o D#*.m&*.m&E@Y+n n G q p+n+l+{ l S S A *.A z 1 -.1 z > A S n 2 o > 2.1 m ~.S B n m B r o.C l.l.n | ~ H@/ l ( '+: Q&,+Z.' !+_ '+o.-'J#<&0#r@H@C@r@o.n 2#Y.o.j.H@/$Y&W#z$;*x%B D@B;}&S n *.2 o.6 f  @E+#.l *.q G w {.n C |@@@2 &.B ~.q B w C n.a%C+)#@@o.A o | 2 a#p+a#9#a#$@%@$@n D s ~.q n m t /.[ < o | 4 - - .@7 #.7 0 c a +@p,L-i>i>8%K;}-K-f-i>=*=*$-W*[%[%b a k. .b +@0 +@7 9 b a >.+@h !.> /.* * $.!.8 h X*N*|.3 #@^++=~#_+!+!+~+k+D$/%R.' - - !+!+: > u.H Q'k-*@r*:.Q&m+: > ! ! B+H@n { _+)*1.:+:+8@u 8@' v.u+s+[+r+o#3+",
"l &.*.;.k 5 2.&.2 8$&.2 *.-.X D#1 o < o l 2.4 } A &.z | o ; | m ,%W#I+ %C l.q ^.> < | ; *@*@!.)+/.z 2.S n &.*.*.5 A n 2.n z o A &.1 o 1 n A 2 &.2 z v G l.w q G s v Q ~.~.~.[ } z [ , } 4 [ $.7 | &.n ; > z 4 4 < [ ].Q ~.w B B 0.{ m+!+- _ a.> ' _ 0.- 0.> ) ' 4 /.z > /.4 1 1 [ > 1 ; n 2.*.2.B+G#I#^@l ( 3#o.;./ B+G#o.( ( B+o m n u w l.u [ ].T q v D l.x q :%H+W#:%n D 1.3 .@)+-*7%M+@*K' &7 0 /.< o > /.} ; | w G ^.].o u $.k.` 8 E+7 &.5 /#G G+G+p u W#w%< /.* ]+;#}.1.G+o s [ [ W$J+8 a 3%w+u#H$< 4 D ~.;#}.]+} +@Y@Z#` ;.)#G=D#&.A < 1 '+a.v.{ w.9.D $@2 l n A o.*.o 2 1 z < A 2.A Z 2 o A A o ; A G o u D l.S 6%`$Y%w ) ! '+n a.) n / ] { ) ' Q&j+! H@;@v!_=s@%@a#a#C o.( a.`.u.{ 3#3#-')=M&g*o.s@R$J#`*;.C@o.G@o.h%h% .k.@.h o 4 v Q m s n :@o.l l *.{.S {.Q+P+R 1@-.U.U.-.o.U.2.| z !+j+' { 3#~ *.2.&.&.&.&.| o | | F#F#& & & ]-z Y#w+O&x+# w+u#x+h Q$6@K;o,f-}-g-L;L;6@W*g%V*p&]#]#8 @.0 +@$.0 %.!.!.8 )+.@g )+>.*@[ /.* < 9 8 @.!.W$I ]+* v ].W&b$1.w!0)%'w.s@{ ,+O I@-#I@v.n+w.' j*7@7@q&*@&@_.H o@7@n@i C@C@( _ $@{ O o+o+I@l+D y#<+q+Z@A@Z@e@s+",
"o | 2.Z *.*.S *.m&-.s*E@X X $%D#2 -.|@;.;.-.*.*.2 o.U.S 2.A ; C D F$I+`$o.B G 1.| > z o +@c c b 1 A S 2.z /.1 2.1 ; A *.&.z | *.> o ; A A n o < 2 | D G w w ~.s ~.~.o m o ~.< [ [ z | z > 1 8 a < z 1 ; | 4 /.< - - u Q t D ~.G : u.m+- u.u.0.0.'+_ Z.{ { > ) / o - | 2 z o ; * ; *.2.o > A 2.; ~ B+3#( ] l ^ o.l / G@0=G@/ l ^ T @@/#{.B T Q ].s l.G n T l.C w q I+I+H+m D .#< b >.f%f%M++*c)+&a 0 /.> o < | &.Z _@D@P+l.v s T D@1#c g >.*@&.S B u 1.].u u .%#@3 * 2 o.o./#P+w G ~.*.2.h h b L+  k*R&`#'#$'n-x!y!;#} 3 O=1+|+*@S 8$8$X 2.; ; * > ! D B@' q@o.0#2 4 /.1 &.4 /.| /.z o A 2.1 o > 4 R.|.]+[ A | D D ~.n B Z$6%6%s&] '+'+a.a.n B+G#^@o.H#^ / ( ~ `.z!2'^$i$C o.s@<&,'`*`.l { ~ 3#] { i+o.'@%@R$`;9#X.G@^@^@H@`.h%h%#.#.@.7 1 > s t q D w r Z 2.l l P+P+R /#R :@5 l 6 5 Z U.l | < < m+!+n : o.] Z | | o o > z z > o A+9$F@9&A+]-Y#Y+ #U-l@# v+8&R&>.o,<-K;:$i>h>j>A!6@B!.&W*.&=*g%W*a +@>.*@g .@9 !.0 b L+g $.h 7 >.z 4 z 1 a c 7 *@h)[== , u t F${#>+I@1.o+n+B+q@I@v.,+>+1.o+B@_+1.(.7@7@&@7 +@H H 9%*@&@6#C@] 0.~ n n+l+' O l+' I@g@f@f@x#8=.+u@p%",
"&.n &.< , [ o 4 ]-8$m&s*B=E@]-B=_@C+3$V$;.U.S -.*.o.U.k e#1@| G s :%5%`$x q G ~.1 n 2.2.j ` @.b 2.o.|@U.A 1 1 2.o > o 1 1 1 &.2 h 7 c h b 0 > > 2.2 &.&.A A q t G T | 4 o &./.} z 3 >.!.+@h h k.> 4 z 1 1 > ; l 1 z [ ].].u ].p [ } [ < /.3 = } > 1 * S 2.[ o o Z A &.&.&.A 2.2 k.c c %.f E+,.|#^@G#o.l C@r@X.;./ ^@p@V%G#X.0=I#;&0%R {.x S ~.~.B G ; A Z Z &.s v t B s > n |.A 8 H >.>.N M+e%@* .@.7 ` ` h A S |@D.k o [ * v B , 1.n o 1.}@4 3 R.|.;#}.1.;#o-/+U'C!D![@E!F!o->#>#G!H!-#>.I!Q,J!K!L!M!k*} -#^.o n s /.< 9%o@k-W$'#N!@$Y+2.&./ u.) ' I@w.$@C T n o 1 o 4 | l 5 2.| 2 Z U.o.S 2 U.c  ...e F*|@e#=.m._#/#/#@@m.%*7!;.I#0=`*U*D@X.p@I#V%3$_@=.e#2.A p+%@c$j$'@/#c$`;9.9.`.D@^@G#U*}>G@%@H@0=G@G@^@r@X.r@^@o.4$j.5$&@a a b a n 2.C {.T l.T C 2 2.o.k e#@@1@5 *.2.*.S i  .#. .c >..@9 h#Y@(@[.@.c k.a 0 +@>..@`@`@U%@ , 3 } } } - < > } < z > .@H g !.:.*@7@n@5$w#w#Y@7 _.9 c f  .j f +@.@0 0 0 +@$.#.j k.b %.j j k.h n n S l c c !.J++#*@[ * ].[ _%G$%'u u _+,+:+o+R=,+u <&n+:+)*F+_+-#Q&{ l j.+@q&&@H q&_.9%( ) _ C@I@*;(%k#i#9@s$v@w@w&h+p%r$p%'&=+",
"| > 4 * , /.z - , v#Y+&.m&Y#z 2 1@U.n &.Z Z &.o | 2 U.2#2#-.4 D D H+ %H+l.m q B S l o.Z f 7 k.#.*.n < [ ; n | | ; o < [ 4 | &.&.%.`  .c b 0 1 n l l A ; n *.B G m q > 4 4 U.*.= * 1..@H X*0 0 >.&.z < > z [ > *.| < p G+].Q Q [ [ * | 1 | > * < = } > 4 ; A *.n 5 5 Z S Z 5 5 U. @#. .`+D*+.|#`%D@r@G#;.X.D@H#Y.X.r@;.^@C@C@`./ x /#m.(#/#o w l.{.x *.n l 1@o.2 o m 2.2 z 2 2 ; *@.@k.j p&N&.&<%+.f %.k.#.h z z ]+>$U'$'>$-#!#'$]+[ 1 < z > - >$R.- p P ^.;#/+F+3 * , = P (+1.u ~.G ; [ 8 K+K+7 O*U-l@Q*|@1 T T {.m 1 2.Z#4#_.*@- 9$E#m&6 U.n '+/ a.n+i$j$r@{.o.-.o.5 o.V$C+3$U$=.)#C+V$V$V$_@4.e E*d ..'.d 2@|@e#P+r {.{.{.6%l.> ! ] l / n a.~ > / 5 5 l &.1 4 _$i$9#7.'@0#8.n+%@$@( H@G#G@X.3#I#^@i.C@^@G#/ B+H@l '+) 7 5$n@[.0 +@0 b n 2 n q v ~.l.l.; ; A l 6 6 o.Z 2.2 *.Z ` #.@.c b 9 +@a  .h%h#i.h h *@)+8 0 .@g m@m@8&m@} [ /.[ } 3 * [ - n | < X*H a 0 4#|+j*&@7@9%&@n@&@j*!.#.i E+ @E+7 0 b a @.h +@%.@.h a j k.a 8 @.S o z } +#!.)+X*$.*@* 3 '$;#0@W&>+,+>+,+,+_+,+:+;+_+w.' I@)*8@{ B@(.}+- _.:.:.*@4#H H [._ G#:=s@y$i+x.6$6$i#'*F,;!v&w&s$'*^>7=E%",
"; o ; 2 | z z /.v#{%I$]-&.D#B=A;; 2 n n 2.&.z z [ - 2 D@@@*.4 Q C 5%5%W#m C ~.q -.A Z 1@%.7 k. .2 A | > 2 2.A S 1 1 o < [ /.> | @.` 1#,.j #.h b 2 2 1 z o 2 2.2 1 &.4 4 n o.2 - - /.7 +@g !.>.g z [ /.o 4 } * o &.| s D ~.~.s Q & ]-8$8$*.s*m&m&*.C==.X $%% H=A;Z e#e#;.`+,.f |#t&B*[*[*W;i;U;|*~'0%0%2#0=2#2#H#V%r@Y.W%`*2#}>0=m.^${$a%u*e#;.6 2.*.` f a i |* .h 2 ` j=F*%.1#%.,.E++@E+k.9 #.k.7 $.g W.z-h)3.;$-#$';$| 5 ; , }.D ]$<$m.7-/#o < /.[ - 3 ]+]+3 , , > o 4 o ~.o ~.q w 5 A a )+7 c l@@ @ O&&.< m G T C *.2  .i.h#!.n B=Z l C@o.d.x&]@],c$i$s@c$y /#!$3$e#_@_@-.l 5 e#5 Z n z > > n ` %=q=M+@*c a n *.2 ; 1 ~.D Q p ) J.M.L#Z.}+1.m+u.0.| A 4 /.| 3 n M&B+<&s@w.%@_$_$`;o.n o.H@] Z.7 |-s.4$h.7; .(@h#w#&@6#+@7@w# .9 +@b c *.2 o [ p s G o z z 1 A 1#1#i ` k.k.j ,.V*W*V*]#-*%=@*@*0 7 #. .7 +@L+[=9 9 8&+ 3%b,U%3%0 !.*@g g *@.@>.> 2 &.z /.* z *.! > ) ) _ ) / ] Z.' 2.Z l A Z l A 2.| &.*.1 /.} < 4 < /.3 < | l n * , ]+)+7 8 .@!.$.[ - ^.P w%F$k#k#9@y.k#j#k#6$=;(%^;=;)&W#9@y$i%l+I@I@Z.' &@r*r*9%:.&@0.`.R$O b@b@y$6$s$v&v&^>6;w&6;9,O!5,Q@C%",
"1 4 1 2.> - o l F@P!]%Y+* * Y#8$*.2.&.&.2.n < * /., } /.|.} o G m.s&a$W#s m ~.w k *.2.;.#.k.7 a o 2 l *.A n A Z ; | | 1 | 4 - * 8 @.E+d ,.` 7 8 o > 4 /.< o ; ; Z -.2.S -.l 4 o ; 4 >.8 h a 8 $.l A 2 2.&.z z &.| 2 S C m s u ].* A+]-F#Y+D#%%]-E@D#s*z A+6 2 2 Z 5 D@3$i f  @i i d  &V---Y,[*V-Z#;.I#^ l `.^ B+> u.! / 3#3#( ! C ~.Q :@n .#, ; 1 1 0 L++@` 7 h @. .h g )+)+>.Q!R!S-O,H )+N*J+X*W$X*)+s!@#H , /./.< z 2 Z | - o /#t-u*-&S!-@1@4 1 4 , }@1.- [ } ]+|.= } t q w n s w S A @.h j +@+ 7&+ l@2.n l.B {.y o.A w#n@Y@@.*.G=l l n ( N.d.d#]@a#n O n l.~.| |.1.| o /.> ; z 3 [ < - < | h -*h*-*]#7%f%8 #.4 4 > o o s Q ].L#L#!*F._ m+Z.- 0.~ n &.Z )#k C C 1*u ,+u n C %@9.D@p@;.V%p@G@Z#A!f#Q$=@8% .(@5$Y@7  .h.h.(@n@Y@8 +@9 0 &.&.o v ~.G D v 4 > n -. @1#` @.7 @.` i V---i*=*+*-*%=+*$.7 j c @.c a *@)+.@J$+ w+l@U-v+>.9 !.L+N*W$!. .4 | 2 > 1 z = A !+: ( / 0.' 0.: R.(.> o | > 1 o ; U.; &.1 [ o [ o < [ [ - o o A /.< n 2 h #.c 0 *@$.[ 3 ^.]._%G$9@)&i+x.6$9@i+y.i#6$(%(%y$i+9@9@(%6$n+v.' ' _.r*_.n@[.1.0.: 1.v.I+)&y$9@'*v&s$X@=+G%^> !D'('7+S#",
"2 z o 1 * }@[ 2 ]-Y#X D#v#@$F@F@/.4 - - < - = ]+, |.|.} , < - '$@@F 6%Z$w s w r V$6 l *.8 #.k.c A ; 1 &.2 l S 2.2 > z &.A | * 1.!.+@h #.%. .c b +@9 z o o z z > n 4 n -.; 1 > , b ` #.#.7 8 k.#.o.U.Z *.&.o o ; |.,#>#}.].u #@/+T!U!V!W!X!o'n'X!n'A+X+a&T!r=@=%%* !.` d `  .N&[%%=N+6)Y!Z!`! ~.~z-{++~D$-$~+/%!+(.{+@~D$R.D$D$/%$='#H!$'>$.#* z H g 7 0 N& &N+N++&M+e%K 8 )+<)#~$~%~| = }.= }@= W$$.8 0 0 h  . .n l *.Z o.| z 1@L$6!u*a%T 1.;#;#o 2 )+K+g L+K+W$1.- [ - s m q s '$[ o | b !..@)+@ U-U-@ &.U.r x l.q 1 n 5$n@n@c 2 8$&.2.] n !=F.2+M.g@2$9._$q t A o o z - o n < > | 1 n o /.o h +*a;+)0;]#]#c $.!.0 ; n m q ~.~.c.C&H*x&] { 0.{ ] a./.&.n /.3 T q@j%L';*/#i$r@7.j$i$p+s@^@Y.2#7;8%;;&~9;*~K-}-}-K-8%i.T.B,L=3#~ k.h +@9 o > [ G+o o D q A ; ; Z j %.[%g%g%g%=*p&$-S.=~w,+)')')h*)+@.1#f ` f #.>.L+.@J$8&O&l@U%@ +@_.|+1+O=j*r*[.0.) ~ { _ : 1.- I@o+O D 8@R=_+u 1._+G+[ m q m n *.o.; | - * Z S z } 3 [ < | - [ < 1 n 1 *@*@8 8 9 +@4 - [ t F$W#*;i+I+y$i+9@I+6$=;(%T=9@y.W#K%d;)&)&I+l+u.0.&@r*|+e;Z.- _ u o+o+i+i+X@s$v@F,^>s$6;u&m$('d'5,C%S@",
"< 3 < &.o /.> n v#* A+X+, T!^%{%} < < /./.]+'#*#} [ 4 ; z < * [ T z$T ]$(#m S C Z o.1@; @.#.i ` < 4 2 l 2 A l 2.2 o o 2 n < * [ } * /.0 7 @.h 8 8 8 &.2.A o < z , 1 &.l |@V$U.*.!.b +#9 0 N*N*$=R.1.[ z > > o o 3 } } p p u v s N%A+o'X+^&U&h;l*U+W+E#W+A;^&z = /./.h S  .1#T.).(>W*-*f%-~-*b;]#(@`.3#'+! ~ B+/ 3#] ] ~ a.~ o.G#6 S l o.o.1 ; z /.A i 1#1#i*[*S.S.V-=*-*k.+@),7 q*,.]+/./.> | 1 h ` h *.#.| #.1 1@V$6 B S C *.P+Q+s&t }.=#!#P v o.D@,.h a >.J+L+= [ [ z G p F+p Q u > [ W$L+$.a O& #v+U-n l q T C B n 1 +@+@7 %.` &.l S H@l c.s+g@g@J@u@q@_$s o 5 ; < [ - [ < z < 2 &.n ! 3 _ c g%M+;~%=]#>.N*!.$.+@1 1 o s s D i-L#2+!=] ! > { / B+o n * /.l 2 a#1*{-8.9#i$J#_=''-'z%>~9=U*D@o.4$B!5@B!L;K-7 Z#7  .i.4$h%(@Y@5$` %.` 6 k o.w t B l.n S 1@Z *.1@o.Z #.@.k.` ` %.i  @ &%>#*$&h*@&b,D#P*m&c a b 9 *@!.8&m@O&v+H H g _.7@:.O=N*o@9%_ ' : n - m+( ' 8@)*o+' v.v.B@O D O u v w ~.m x S *.o A n | *./.|+1.H |.3 n 4 - 8 8 .@*@L+*@b >.>.} , * Q u .%.%i#(%I@9@O j#F+^;o+j#:+b@$@y=,~;*x.(%j#W#1.u.'+0._ > m+{ > u !+' D D s+Z@Z@G%r$=+r${&7+R#m$'>u-m$",
"B@{ D w.C S B T D (+F+.%A+'~o')~3 4 ].(+1.>#;#!#^.D s v /.4 7 1 > {.V$u*q!L$m s l.G 1@1 d 7 1#'.h a a @.%.j  .@.| &.2.A 4 = , 4 @=Y+}#%%| ; ; o ) n : > 9.B@O I@} > [ * [ } >${+, * ,$|.< z o 2 q ~.].Q n 4 +#9 >.b )+- | 4 u [ - 1.}.[ 1 > o z /.*.k.S |#;.j o.2.B n G ; Z @@=.f %.l;x+!~<=~~ #%.j E+E+f E+ @|#i %.c 8 7 k.h #.h 0 1 Z l.v t {.u o 2 -.|@1#Z+2@(=R*O&u## J$+@O+W$g X*9 !.0 h b 4 _@l n < D /.t r D@/#6%l.K${.C w o ].^.u D &.A 2.> >.0 +@$.+*7 [ - z o o z /.> o 4 } , , * 1 Z 6 e#o.> /.> n l n &.*.2.| ; S ` j h.i ~ { _+D  %I+b@x;M&~%~%~%;*n ' 1.w.l+8@l+D $@' u.'+F.u.M.{ a 0 +*9 3%F#z Y+z ]-z o _ - ' h@L#8*^=^=&@r*!.9 %.1#k.b [.Y@4$3#/#j$c$G#r@I#3#C@`*2#^$'',@{~D@c$R$s@/#/#G@H@( C@B+4#7 h%h%i./@|- .C@;.&)3-i$8.p+q S {.:@x q B 6%Y&6%I+:%n T s%U+2 2 x+=!@ ]~w+^~z;/~e*(~D#E@%%*.k. .@.+@+@+#Q=N >.*@L+g g I h)J+4 1.}.} } > 2 }@R=1.>+:+8@O B@n+n+$@n q@{ O $@G n V+q 4 0.*@*@e;_~e;:~k-_.7@9 0 7%+*#*-*+&7%9 L+- |.|.].u u {#W&^.].!+l+_ w.m+R=!*g@i-A@3=+%+,q+>+' x.*;y.u D 9.{ O p+^ '+u.9%j*!.h ~ l 3#%@B+9#'@/#l$1$u@F.M.e@",
"n n+1.w!#@[ ~.B D@w b$~#'%J''%S='$3 '$!#!#p 5%5%o q D t z o 8 $.> ,$|.C+]$D Q l.o.w &.; #.7 i ..` j ` c b a h h *.l l A &.1 1 G }#v%V A$z z > | { ~ : Z.1._+w@6$/./.}.}@|.z l 2.&.2 n /.o Z |@~.p H+q Q , 1.>.#.9 !.>.0 z 4 ~.[ - - - o - ,#= 4 >.8 a k.1#f j @@2 n o t m r U.2 A &. #O&O&v+l@l;c a 8 b @.j ,.d i  @k.k.E+%.k.k.@.7 S S )#S S o.B s m B D@&=j=|#<~[~U- $O*O& .f $.h c %.7 8 7 7 | 2 t n q q l.y y /#0$s&Y&$>K$F T w t [ D o > > *.n b b 0 *@f%!.} z [ 4 z 4 > |.- o 4 o A n 2 l |@k 6 S n 2.U.6 U.2.2.l *.S Z A K;}~j.h#u.-)l+6%K% -Y={'i%J%M&G*s@o.R$$@B@v.p+n u D F.B&!*b.H*a.n@c c 0 Y+Y+Y#A+Y+%%| | _ 0.Z@s+|~|~2*2*9%_.!.9  .#.@.h 5$Y@7 3#^@r@^ D@0%;.:.:.! ;.<&a#{-x%Y$1*1*y=H'x%r@r@8.C ( ~ h#h#Y@h#<-5${ n G@^@i$/#8.s@l.w l.B w B 6%H+u=u==-1- %Z$R;u%^&U+1~z;!%4&^~2~3~4~5~/~e*6~Y+m&#.c h >.+@6#f-o,g g +#J+H +@!.I /.< >$$=} |.]+,#%'o+1.%'>+' O u n+9._$q@9.n+w.Q .%7~q z *@9%8~9~0~a~:~b~7@&@8 8 g%@*@*@*#*]#a $././.t D s [ _%D /./.' ! l ^@3#a.{@N.H*f=g.E&B&L#Z@' r&Y$r&y$ % %y$M&`;`;I#P-L=i ----....r@G#i$<&r@r@ +t@H*f=#-b.",
"n+{ 8@>+1.P '$(+s [ P ^.a&}=c~d~G+G+p 1.+=_%I+I+,%Z%t [ | S 7 $.< , 3.$'y!w _#S q o z S 1 /.8 a #.i ,. .c k.#.b *.l A ; n l S l.W .-[ o 1 /.[ o !+> Q&k+%')*y$6%1 < * | , 1 e#2 > 3 [ > 4 A 2.o G 5%G v /.1 @.h 8 9 +@b * } s ^.- /.3 1.1.1.* 1., [ !.!.+@b #.5 2 B x Q+Z *.S -.r%z+/=# O&w+ #l;@.@.@.k.%.%. .k.%.` #.%. .7 h 9 +@7 j 6 |@-.x r 7#Q+2 S `%e~f~=)g~y;l;P*Q*h~O&O*,.+.%.7 j #.#.f n | o S 5 Z o.6 Q+o.S C C C @@P+o 4 4 z z z 4 /.1 2 ; | b !.*@+@- 4 z | [ - > .#;$= < 2.U.l l *.l 2 *.Z *.Z |@|@U.A n A 2.l 2.| f#K-5$n@- v.q@x;6%K%i%i%i%#,j%K%n+p+8.n+n+n n %@B@a#.+y#t>F.2+0.6#>.0 8 &.F#F#F#z E#4 /.I@l+y#3+i~G)[-G-7@&@+@0 h @.j j (@h#(@/ ( ' Z./ o.C@] ( C@a.D l+ %b@y$9@y$K%;*y=8.8.s@$@n B+j.Z#j.4$h%h#a.{ l a.a.r@$@p+w t s o B D@j~Y%I+:% %a$Z$6%^&U+8$X 1~1!k~l~m~k~n~V)o~1!{!z; #[~j @.7 !.[. .i.[.L+)+)+J+[=)+* $=- ]+}@/.- |.1.]+>+)*>+R=_+)*1.o+v.D $@w.n+p+9.v Q }=/.< j*q&p~&!q~q~a~r~6#6#a.6#]#-*#*7 7 c #.@.n o /./.Q Q s G &.| ! ] G#X.;.l e.C&N.e.e.!=s~T,)@_$a#0# %1*)=x;j%;*q@_$o.H@ . ..&W*4$i.C@^ o.8.B+8.g$)@e.N.H,f=",
"l+9.D u v t G+#@^+F+G+F+r=r={%r=t p Q [ (%W#W#I+G$Z%G Q 1 U.b H }.R.= , ;#^.!#u l.s - /., R.*@8 0 7 a $.$.h 7 +@1 &.n ; 1 1 > < N%J'D w &.[ [ 1 ) ] : - >+1.(%6$D [ 4 > ,#*.~$2.&.o | n 2.-.n w 0$z$Q [ z &.h 9 .@b a 7 | * p 1.= 3 3 /./.3 } 1.- 4 b +@*@9 c 2 2 q l.r 5 A l |@k 6 l;/=y+Y*P*/=f  .@.#.` E+f %.j f k.8 c @.0 k.c #. . @4 ; t u Q p 4 ;.D*F*,.c # U%# R*y;t~/= # .`  .@.E+@.b +@A 1 1 ; n &.Z U.o.o.C l.n q m.P+; o 2 *.; n *.2 S U.n | k.c 9 0 1 > n z , ]+]+; 2.[ z ; > | n ; 4 /.z 1 &.l -.U.2 n &.; 1 1 &.&.L-i>j.7 ' B+C 9.b@K%b@x.b@K%x.~%v.$@v.)*u p+{ D D q@1$J@6&t>B&!*9%$.+@$.Y+]-Y#F#]-& - , 8@o+r+r#u~u~L*2*7@_.L+J+*@h d f 4#h#h%a.3#_$l ~ _ B+G@~ '+a.n w.K%r&I+x.I+K%)=y=a#q@s@9.{ n n@n@ .h#+@9%> ) ~ n ~ G@i$R$r l.x S r L$j~F 6%a$0$Y&s&6%V+X 8$8$W)=!v~w~]~l~w~x~k~y~z~A~~;R*,.` #.0 w#Y@Y@r*g W$h)N*W$@#<@;$* 1.}@}.n 5 , |.8@8@1.)*8@_+:+o+O B@9.l+B@q@%@p+B W z &.4#6#B~C~D~E~F~e>@,1.{ '+7@>.8 @.c a c  .5 &.> ; w B C C 2 ; a.'+H@r@V%H@N.J.c.C&b.2+E&d.] p+$@D o+W#i+)&x;~%o+)*u.Q&k+9%@*]#h#n@0.'+q@n { B+8=g${@f.v-N.",
"K%;*i%(%1.Q p E.,$,#R.3.$)& F#E#o t 5%:%X#,%G~Q-W#,%n ~.; 2.< ]+[=N*|.1.>#n!H~p {.~.D t ; < )+9 n 1 > > 9 !.+@h *@)+.@+@0 !.*@} Q G$t ~.o /.< | : ! ! a.v.I@^;(%#@}.p t 1.T m.{.G o m q :@o.B {.)>F o Q o &.8 9 h ` h 0 > , P G+t o /./.* = } } 4 [ b c 9 $.b n A m 1 1 &.2.Z U.6 *.u#P*[~I~I~Q*j i  @,.f f 1#..,.f E+ .#. .@. .,.k.k.E+2 S l 1 &.| S 0%+.k.j  . $U% #O*[~<~I~S*` ,.E+` D*1#>.)+#.c `  .j @.E+)#;.k 5 l S l e#*. .@.7 7 n A 2.A 5 5 1 z *.l &.2 /.> &.- - }.3.l )#< [ /.} - 1.} * z < } < ; &.; A l *.A &.n l o.L-=&[.w#) ! { n n $@B@B@$@$@8@D n B+{ v.u :+-#0)r+t#g@J@t#n#t+u@) ! 1 < z 4 Y+z | [ Q G+B@1.3+<+|~J~K~l,*@_.g [=>.b i ` h#h%h#B+H@'@~ k+> 0=X.0.u.3#B+n+i+K%~%6$g*T*9#$@{ { w.D ] ] 7 h%..4$w#7@] 3#/ '+/ ^@j$R$x y (#n.P+R y @@;&:@y y /#@@A;s*A;$%O&w+w+w+L~L~M~N~O~z~4%v+x+y+`+..i #.h%5$[.7@g W$W$*@.@N*.#< 2.n o , | 1 E.1.I@B@O 8@' ' 8@8@v.$@C { D q@C 8.2.*./@i.P~K*Q~L*R~R~S~T~K~;)i-: _ _ { a.a.> _ { '+a.a.] / ! - ' 9%7@n@4#(@Y@n@r*e>U~l,d*D;@,D;3*:.Z.: 9.{ l+r&;*G*x;y$i#l+O )*j+>.h*+@r*m+0.$@n+v.D t@A@B&M.H-~)",
"I+y$i#(%G+^.#@F+R.]+= } z u#v+b,&.B F z$`$H+=-1-,%,%q w 2 1 /.[ )++@4 ; | G D o T m ~.Q o | .@b 1@*.*.U.a J+X*b 7 $.+#)+>.>..@/.^.w%u s | o /.* m+! l ~ w.8@V~^;#@].Q v Q o Q t o (+G+l.y B n o. %;*P+{.2 &.a a E+i #.7 | 4 o ~.l.m [ * /.< < 1.- - b c 8 0 h b *.S S 2.; &.5 @@k X-h~Y*8!h~<~<=1# @+.`++. @i E+`+F*d f f c h @.@.c 7 7 o.@@=.3$C+5 5 U$Z+j #.,.<=->W~<=<=Y*I~y;1#d '.|#`+|#+.T...,... @q*B*'...|@V$@@;.|@-.1@2 +@7 b #.;.o.> [ < o /.]+,#3.'#]+1.3 * 1.]+}@}.< < ]+- 4 4 * }./.3 o < = , - * } 3 * 3 1.} * - 4 X~Y~q&(@3#: I@p+' 8@l+n+O O o+l+%@_$w.n+B@R=B@%@o#f@g@J@f@n#h@g@! : [ 4 4 /.]-%%| [ v u v.)*t#f@P#Z~D;G-7@+@8 a f f 0 k.h%q&:.'+8.i${ }+l X.G@`.G#H@_$$@6$b@6%L'`~ >7.r@'@r@R$s@H@/ n@Z#k&B,l-B>>'H#B+_ a./ R$a#G w o.@@_#P+P+L${$w v G r y m&E@m&X ~;O*O*l@L~#& {.{ {+{%&~~y+h~|#..E+ .4$Y@[.6#f 7 8 8 0 8 4 = 1.3.,$= = /.s '$' l+l+B@{ v.O v.n 8.i$%@n p+n q@2 2 /@n@w-^=R~u~i~@{i~1;j-J-/,q#,+- > 0.' 1.m+) 3#o.( ] 3#! Q&' :.&@7 4#w#r*j*/'4,@,#{K~#{l,l,@,q&H _ { D 8@I+ %M&;*;* %u ' D { >.f%H H Z._ D O v.O .+.+2+t>;)j-",
"i#(%0@b'1.#@F+^.z 1 b  .~;&>!~ #&.w 5%X#X#:%%-t,z$a$ %z$q q &.o +@0 8 5 A > m m x r C n n l S U.2.&.2 *.n | S =.,.` h 0 9 $.L+]+].G$s q n 1 < } [ ; 5 > w.{ i#k#[ w v }.!#].s Q D 1.#@G G s v o Z%X#C x S l k.a +@+@9 a 1 o q t s Q [ w w u * - z ; 2.A 2 *.k.a ; n *.S 2.2 S 1@z+)#Y-Z-D.C==.D.).D*D*T.`+|#|#2@|#`+E+ .@.7 j i E+|# @` d D*Z+t&F*+.d  @|#E+j '.->${%{S*8![~$ ->+.`+`+ @1#,.%. @V---i;--.&i*+.d 1#|#|#|#,.` k. .+@+@.@.@b 8 [ * * - u G+;#*#^+P , }@,#.#;$|.> , , > | | | [ [ &.1.< > /.* * * } , - } * 4 /.3 3 H;<.&@+@Q&R.l+q@;+0),+I@Q&u.!+}+u O 8@w!w!1.u+Z@y#Z@(-p%w&u&s$<+Q&' * [ } | Y#z o o D { Z@g@J@Z@~*N.e.!={ 0.| 2 > | = < _ ,+0.B+' I@' ) G#C@~ ~ B+> R=l+G*x;K%f*_=<&/#'@'@`;I#G@^ C@`.H@|-4$j. .l ( ! { { _ > /.o t G r y r P+/#o.1 * | S l #.7 # 8!S*<=&{%&4%1%*{={g&-{;{>{U;S.i  .7 +@] n ) ' +@+@o 4 4 2 2 < ,#$=!#!##@v v -#u I@u n+p+D B@n _$0#C n 9.v.v.{ ~ 4#4*4,,{,{U~e>'{1;I*I*H-0-'>t#o+8@>+_+v.$@'+a.^@C@n ! { _ +@5$6#[.+@7@7@[.6#7@2*4*3*4,@,d*e>2*o@o@_.u.%@v.I+i+6%i% %b@6$x.9.n 7 +@|+j*m+m+!+!+j+u.!*2+b.2+C&e.",
"0@b'+!9)F+[ o q > /..@!.4%@&#&m@4 Q G$Z$H+,%Q-U=Z%Z$X#_%~.r e#Z +@>.9 a n 1 G ~.B w ~.o ; 2.o.; 3 4 > /./.&.S Z 9 k.,.,.` h )+R.q 5%n w ; > o ; > n S , 9.8.j%b@Q [ p ~.P (+o u s p 1.s n s q ~.a$_%G x *.S +.`+2@d @.a 1 | w q D s Q D v ^./.| n ; &.A 2 ; 8 8 , 1 S l l U.o.5 $%s*X 8$D#2 B=)#|#d 1#f %.7 !.L+[=g +@8 @. .#.1#i  @f 0 k.d |#` j h +.q*`+%.E+` [~P*/=Y*8!(=y+R*f %.E+E+k.i %.i W*[%K,W;V-.&i E+d ,. .f j %.a %.#.h k.#.>.*@[ 1.n } #@p Q G+}.E.;$.#.#= } [ < }.* &.4 1 ; > ; } , - &.*.; | &.&.A U.-.6 k U.2 n :.<-[.q&Q&Q&n 1.){!{w!:+1.0.!+}+)*-)O'~{z'8@J@q+3+n#h+P&{&P&w@u&u._ [ ; < | A+]-G C _$q@e@1$2$A@s~,=c.M.: 0.| ; &.o U.< /%: ( ;.C q@~ { ] a.~ / '+> p+8.L'g*`~{{9=<&R$a#s@r@o.`./ 3#^@o.h# .j.h#'+l m+' 0.B+|@n v Q ~.{.w m P+R S A | l S ;  .f Q*R*y+$ ]{*>^{1%/{({K'({%>_{[*i;+.` c +@n C@C@: >.8 o > &.2 n A &.4 [ (+>#n-:{-#1.I@' v.$@9.n+n p+%@l+' l+8@u : 4#_.4,4,K~K~<{J-[{I*H-&;u-u-H>4+x#n B@u 9.8.^ ^@G#( l ) #$E$j**@q&*@q&_._.+@q&O=e>@,2*#{D;L*#{[-1+H 7@a.~'q@9@x.G*M&x;1*i%b@B@' >.*@o@1+!+1.(.: 0.: 6&C&B&I-!*C&",
"0@0@;+w!P G A | g W$}{i=|{d)d)8&A+}=Y+R+1{u%t%`'))2{T+V+X C=y+S*[%%=7 ,.U.< [ l.x {.B q q l.2.2 ] / ~ ! { '+'+> r*[.5$5$4#6#+@> p+i%n+_$~ '+l S * 4 1 1.u m a$5%G D Q s u ].^.u [ D p o ~.~.q C Y&F o t 2.n #.T.2@#.a  .> | n l.s p 1.p u u [ t /.A 1 Z 6 2.2.1 &.; 2.2.2.2.; &.A;8$E@B=-.G=B=X c a H )+>.8 %..@!.8 +@+@7 #.k.E+f h h c [%[%.&[%]#@*<%(>f 1#h 7 ~;# u#x+[~<=~;Y*@.7 !.8 c h @.c g%i*S.i*^#]#=*S.`++.j %.#.f E+ @`%'=j=d j j n ; o.n P [ G [ ^.;#1.R.3 - [ 1 | 4 o z 1 o /.&.> * o 4 3 = o 4 4 o &.o A A n l *.2 (@6#w#n@0.> B@:+8@l+o+_+m+0.Z.Z.:+){3{4{h,n#u+g@9,'*6;X@D%7+('w@' _ m+' < | D n G s _+F+e@Z@|$n=S$P#<+2)1.R=#@F+u S R m 8@{ q@w.)@C#J.L#e.f.]@M.L.J.l$Z@m%2>5{&+D@z%J#%@8.c$G#/ n D@W%p@H@l a.^ 4$6#{ '+{ l |@*.1 A S y {.{.D@Q+l l Z A A S  .i 2@T.+.).e Z+).i*6{6{Y;2-W*e%M+%=7 c 0 0 ! ] ( { = > 2.A | ; 2 z G+o q [ Q v '$^.8@O { p+s@R$a#$@q@{ B@w.{ I@o+' l,B~7@o@:.r*j-I-B&h@s+A@,=#;#;d$2$Z@s+[+2$+%x#n#7{Q.I)P.{)Y)S,6&4*J*@,D;@,G-#{e>H 9%9%_.+@_.|+q&9%_.+@l o.w.j%i%M& % %)&)&y$>+%'g 8 [.&@H k-&@5$!+Z.L#2+A@g$l$h$",
"' ' I@8@Q D | &.h !.N+N+d)d)8{`@8$W }#T&W+t%w;E=k'D=S+T&2 s*8!l;=*[%@.0 /./.t t l.n q D v v o 2 o.^ / ) 0.{ ! { 7 w#w#w#+@*@:.u.w.r&D 9.! : 1 n 1.> - 4 ^.v I+:%v G+'$}.P p Q v l.{.s s [ v l.{.[!@>B p ; 1 9 %.@.!.9 c | o o t ].1.[ ~.w q Q u z o.5 o.1@5 5 1 n 2 Z l l Z 2 n 6 6 A;6 A;*.A+]%$..@+#>.!.!.#.#.f i ,.1#` #.7 a k.` @.i @*#*g%=*^#i*K,N&d E+b 1## x+8!l;P*O*w+u#%.%.#. .@.a c h [%--V-^#.&K,<% &+. @i E+@.%.'.j=9{T-i 0 j ,.> - &.l o v 1.G+'$^.z 4 /.< - z A 4 /.< < * [ * * z , } , 3 * = [ | 1 ; - [ ; *.Z 1 _.7@4#{ m+O D I@w.B@u :+' : !+k+>+R=1.o+f@J@t+t+w&w&v@9,m$m$('h+Z@- m+m+[ < s t G+p %'0)l$u+S$F&F-'>q#s#R=:+'$;#G+t T q O %'1.D h@)@J.t>t>O.L#t>@;t>r#|)x@u&P&h+_${ O o+v.0#I#o.;.0=C@/ ] a.a.{ 4#6#] H@o.n z o 1@U.:@o.:@T r n 1 S U.2.U.1@%.j  @1#` T.|*j=t&+#N S.}'g%U;w=.&E+f #.k.7 ! ! { - , - 3 }@3 < } 1.^.p t 1.[ m 1.F+u ' 8@w.'@r@%@n n+l+u I@o+_+>+1.e>0{q&9%r*! u.j-Z@h@Z@2$!@L@/&F&s+u@Z@J@y#a{k)z@b{c{d{L.J-v>M.K@4*J*@,[-4,@,L*#{9%[.w#[.w#+@+@n@n@6#+@) n+n  %T=i+i#x.i#9@b@n a#Z  .[.9%j*j*r*6#Q&: 2+2+A@8=++)@",
"> a.) ! 2 &.8 @.7 b %=]#e{@&f{8&F#D#&.T&[#T&L%A$W W+$%B=x+8!%>g{#*@*a +@> n C x Z$z$t [ v o G G C %@p+_$] '+'+n j.n@+@4#f#=@Q$n@9.)&l+v._ m+u._ 1.[ = ; [ D F$H+m u Q o B t [ ].~.w t u G+u G x h{j~n t < [ >.7 !.*@>.+@&.&.w m o D D m l.n n n x m.6 U.Z A Z l a h k.c #.f S S X D#* $){%A+V v#a ]#g%V-.&@*%=[%.&V*.&V-W*W*W*=*#.c #*[%.&=*a;h&@'Z,(> &.&W*h #.x+$ <~i{y+l;u#u#` b +@k. .k.j @.N&[*i;W; &N& .1#` #.1#,.#.@.).3,|*8 [=h 7-=.| [ | 2.D@z *#= o < 4 S ; < > z < [ * } z 4 > > | [ | ; > > - [ /.1.= 4 &.2.Z 2 * 1.) / B+w.l+D 9.y$b@I+o+R=u ' - 1.i-K@h@h@J@Z@o%#+P&G%m>j{m>k{l{w@[+Z.' - ~.s D t G q 9.O n%n%m$&%m{n{q#r+R=1.u ].G C Q+s 8@-)>+n+J@u@j-7{v>H-Q.|;I-d-<+f@v&F,s>u&C Q&*$E$(.l ^@C@V%o.Q&Z.{ > : ' [.r*r*+@6#w#~ / 2.2 2.&.5 *.T C B=B=o{~$2#3$;.S A n | @@X.C@( /'*@7 }{I!W$h)J+@.+.1@[ , o } | z [ 3 1.,#= /.(+(+P [ [ }.~.G y!^+8@_+1.v.$@B@u D I@)*R=-)p{q{p{~+/'/'k-r*o > , R=:+)*1.O !*t>4+~@t@)@t+t#3+e@2$Z@e@1$g$2$s+Z@e@t+J.K@j-6&v>K@2+e.C@C@( a.'+{ : _ 9%|+j+,+o+l+x.)&x.x.~%Y$a#8.p+$@4 - Z.Q&|+9%_.7@6#+@!*L#t#3+y#Z@",
"/ B+0.Q&z ; b c 9 0 p&N&&>}%&&@ + z ]-%%*.S&U&S+W V+s*$*P*# L~4%+*]#7 a ; 2.T w :%5%D ^.P v G D 9.{ n+%@/ a.'+( i.7 [.7 K;8%8%h#w.)&D D ' Q&m+: - 1.* | B x z$Y%{.G o m C q G m w B m s D v ^.D F 5%t [ |.} >.)+9 !.9 $.; &.w n w C n B n D n G w m.@@o.Z A A 1 c a 7 b a #.2.Z &.Y#= ]%= %%^&-.k.p&V*i*[*.&#*[%[%.&<%S.N&[%W*$-b 8 +*[%[%[%m!Y;r{s{m'i*i*g%j h # I~${t{y;y+Y*~;1#a 0 %.@.c d +.W;`>Z;k;--=*0 @.f 7 1#|#,.#.k.b @#u{I 1#)#Z z > z * ;.1.o s-|=; /.A n [ z /.}.* - |.; l o /.< &.A 2.2 z [ k V$5 } [ A Z 2.* ;$R.- $@q@$@D b@x;d;I+1*v.9.$@{ > _ O.O.J@s+J@s+{&{&P&{&U@V@U@K>S#V@t#! '+! C q v ~.[ v _$n $+v{w{D'5+#;x#t+' 1.1.(+P Q n l.C { l+l+[+r#;)S,O.t>;)d{x{J-3+t#y{9,9,z{A{{+#$R.!+B+;.0=X.n a.] B+n - ' +@o@1+_.w#n@a.! }@* 3 z 5 o.w q s*r%C=% V$7-;.l 4 o , }@R.~+-#=${+'#I | %.}.+#> 2.1 R.]+l < > 1.z ]+z > < < ^.v ].1.t o n s E.P v.o+)*' ' 8@l+p+' 8@)*I@' u 8@8@,+H |+/.n v (+1.~.l+>+8@L#K@4+c.2+u@e@s+t@C#+%k$q+g@1$h$h$x#J@s+B&2+C&N.H*x&f=B{`.3#~ { - j+D$-$D$!+Z.%'O u i+r&b@ %6%x;_$n+I@1.* }@j+(._.6#|+1+|+j*d-H-q+o#f@y#",
"4$h.(@[.@.c 0 h 8 8 h k.~;O&l@# # v+U%m@O&E@&.8$Y+X Y*/=o=4%={C{]#=*g%#.A n ~.t :%5%:%{#p s q G C w.{ $@'+: : '+ .Y@5$Y@K;}-K-6#B@i+n+v.!+j+Q&> /.* o 1 x y u%t% %a$Z%w%(%H+ %z$H+:%W#w%{#{#W#C'~#F$~.m [ [ H W$$..@$.)+z /.[ G+5% %l.C r Q+r C o.r 2 A n > *.V$h 0 h 7 @.k.2.U.m&8$D#A;R+U&^&X f g%g%p&^#[%h*@*]#.&S.i*W*]#@*g%7 0 ]#W*0;b;D{E{F{G{!> *[*.&i ,.y;%{[~h~W~H{I{%{).f 7 c 8 c `+2@`%S-x=`%F*E*Z++.E+k.1@6 S 2 S &.< < Z |@U.2.z - 1.< }@$=,.J{f~9 1 /.> < , 1.1.[ [ * &.z $=3 |.> *.1 A ; 2 !$=.2.U.&.< n n 4 | z { D D r&i% -A.K{z=A=y$~%O B@D B@O.i-Z@Z@t#t#P&(-7+7=K>S#R@L>L{R@h@)@%@p+9.v.p D v '$y.W#w@m%M{N{O@c= +)@q@8@#@E.[ m C T v.n+n+B@J@3+2+2+i-v>j-!*J.!*r+o#6;w&s>O{=$D$-$- > n ^ W%'+k+~ ] %@_${ : :.*@|+_. .h%) : } ; < &.| z A 1@Z-P{H=&.)#)#m o.r D >+8@w.n+F+Q{R{o-`.,@:=9#n m+O'O'* | 2 | n ; < 1.&.*.; o [ m w D q C n t ,%H+q@8.9.O l+I@8@n+_$_$w.l+B@n+w.v.}+' z } o }=a&X,n'^.p D { 0.w-c.|$^*|$~@{@]*|$,&P#+,M@Q#5,d'P@d%|$m=k$h$A@@+2$s+D p+C $@)*;+!#F+I@u I@' $@I+j%1*i%~%n+n+{ u.!+k+= ]+' - 9%r*q&9%j*N*J-d-f@q+ !O{",
"n@7 [.+@0 .@$.k.c 7 7 @.O&w+ #u#o=L~l@ #P* #E@E@D#-.x+O*%&!~/{/{~>]#]#7 c n q G Z$X#Z%H+m m n l.%@w.n+n '+u.m+_ 7 Y@(@ .L;K;K-&@v.j#8@8@- - Z.' - &.n 2.l.C u%w;X#a$H+F$.%z$Y%Y%_%Y% %X#.%,%b!k!5%F$[ o 3 /.$.*@L+W$J+H } } u p G$w%~.m o.D@x T G m 1 ; 2 2 5 e#h a  . .` j *.l X X B=X-T+U&T&$%%.[%V*=*=*g%@*[%p&[%=*p&[%p&+*+* .8 =*--v,!>S{T{U{V{G{m'h*#*..T-I{=><=l;l;y+y;->2@1#7 a @.+.t&B*j h .@!.c T.B*'.E+ @3$D@-.*.S 2.Z |@@@6 |@o.; 1 &.| /.* 9 X*v'L+| /.[ | < , /.< < [ )#4.1., ]+- > } o z * ; 4 } 2 [ ]+, [ 2 5 2 8.K%K%1*',P%:'A= -m;r& %B@p+q@{ v>O.J@g@t#y#(-{&Q#Q#S#f+R@L>W{O%/-x#w.w.)*I@v s r u i#6$w@r$d'm$>&F&k$e@o+-+;#u m Q t Q+9.v.D B+.+k$]@F.!*L#v>b.c-x&l$8={&s$'*v@- 1.j+!+u.] / n { 0._ =$I@l+l+l+9%4#5$+@[.Z#3#'+n *.*.|@Z o ;.2#s-Y-X{Y{)#S m {.l.~.O a#C v.$@_+8@B@r@4'_=5'B+R=%$*$/.1 1 4 1 o - ; l z 1 5 n q {.S o D D v :%:%{ %@$@l+l+O 8@8@n+$@{ u D _$l+-)=$* &.X+X+}=X,Z{d~T!P v ' !+L*l,i)3;6&`{ ]4;^-.]#;,&;=D%Q#R#Q#C%,&|$h@h@[+3+q+o#I@B@n 9.8@R='$(+8@u _+D )&9@M&;-#,K%)*:+Q&Z.*@H }@]+Z.Z.j*O=+]O,O=/!I-i-t#q# !v&",
"H;H;=@f#%=h*-*V*7 c k.%.u#w+v+l@#&e{o=#&w+@  $U-/=S*}%}%{>@]#]$]0;~>]#>.!.n q Q X#,%I+ %m t D T D v.n+%@%@n+_ > n@7 <-=&<-f#=@7@h@v&:+1.0.a.: : [ A 2 l [#T&2{l'6%a$X#X# %F K$)>0$Z$z$ %5%a$%]x%n&.%q m $=3 !.)+H O+K+g , * Q Q C'C'G$_%o n u (+u [ s l.S n | *.#.` E+c 7 j *.n D#$%U+T+s%s%X X i .&i*.&[%=*=*[%V-V-W*[%]#%=%=#*0 a p&--2-w,S{&]&]*]Z,0;^#g%a %.O* $O&P*Y*Q*S*~;f f  .j E+..`%|*F*T.F*E*)...6 6 e#;.k @@6 U.5 5 /#/#P+P+L$@@| | Z U.#.$.h a @.%.4 z [ | ; /.[ /.< l 2.&.- 4 = < [ } 1 Z S 2 n z 4 /.| 4 1 -.5 5 q@I+y$d>x$0,h'=]-]5-z.!!Y$1*C B@O.O.M.C&2$u@/-P&R#m$V@U@;];]>]R@G%3+I@O _+u ~.Q B+n+y.T;c'w&,]']-=(*k%h+9))]n* %X#X#5%6%)&I+y$1*l$u@d.b.b.N.d.F.b.{@k$2$v@^>s$F,- 1.!+' '+l l 0.0.( ,+$$:+)*o+l+_.+@|-7;4#+@n@+@5 Z |@V$S U.0%}*<;T+<#Y+n x B l.w._$I+~%x.y.m%!]~]f>y=G* %J%8@:+%'l+/.1 A > ; z < l *./.o r T D n t t D F$:%z$W#$@$@n+B@B@{ I@-#-+,+u { C s@%@l+p q T V+Y+{]]]^]/](]d~}@q&r*_]U~:]<]<][]{={@d$z*}]|]1]2]3]U@k{S#d'O!6+M@w@v&]>v@j#T=*;j#(%(%W&n&1.' *;W#y$)&y$W#k#W#)*8@!+1+H k-*#F+Q&Z.1+4]5]6]H _.!*6&o#t#X@P&",
"L-=@o,o,h*0 @.` a c  .f x+l@w+O&1%e{&>o=3%b,O&O&@  $w+}%&&1%@]/{^#g%]#7 A A m q z$I+:%w B &.; 2 n+D n+n p+9.'+] Y@n@g-K;f-Y~Q'1+g@'*u ' > a.! ~ z ; A A n U&T C ;*s&a$:%`$s&0$`$a$F$I+Z%H+~#W&H+I+Z%G+Q G+; 1 o H s![=0 * , (+F+1.F$(+'$#@1.q ~.* < z z | +@)+)+$.h 7 )+>.,._@1@2 X X X W $%2 %%#.@*p&g%#*]#N&V-.&N&N&V*]##*%=!..@b b +*p&w,7]8]N;9]}'K'V*^#W;E*y+*.X-t{0]a](=~;` 7 +@k.%.o > | 2 S -.1#E+2@..2.T.D@+.@@c z !.S 4 q 2.l.l l ; 2.Z o = o @.> 1 1 ; [ < /.[ z < [ &.2 * /.+@7 @.b A l S 6 o.1 Z | * A -._@D@1@2.~.y$6$d>Y'.>z..,z.b]c]:'M&1* %8.q@.+2$H*.+A@1$#+z#X@s$=%T)>]d]>]/>X@v@k#y.6$6$B@=;u y$u&'*]>s>n$B%m$'&k%k%~%I+`$E k!g*)>F j%j%~%D u@3+L#]@T,C&!*d.@;[)l)7$w@w@w@A@O - !+Q&'+a.) 0.C@^ { %@n+v.I@8@Q&0.h%l r*r*5$ .|@o._@=.l 2#U$5 o.X C q n r q 1.{ o.x%b@e]V'R=R${-k!D }.R=n-t*F+p+%@z > &.A 2.D ; t > n G t D s ~.G m w s&z$w%{#I@w.> u u.u (.1./%1.( U*T%_=3#a.n -.1 Y#@=A+f]n'f]n'3 4 *@|+#{S~g]i~u~i~ ]L.5;f@^-3+e'6+n$h]e'm$e'w@d'w@w&=+(-h+y.T=k#W#.%G$t u )*o+K%)&W#X$y.X$i]j]F+O ! > ) : ].s l+u.!+k-q&:.9%u.m+1.[+v.g@^>",
"p&%=*@*@$.3 * n &.1 o 1 h 7 ]#]#@.b 8 7 @.c  .E+2 4 z h a 8 7  .x+# O&*.l l.q G m S Q+Z / 7@7 h#z D B {.n [ j +.h*-*h h +@*@X*|.,+b'j#b@p+9.w.n l n n _ ! Z ~ 2 P+y B G G G n {.w.%@w.' >+u )*>+I+G${#_%,%v [ u 4 ]+|.3 * } , }.= G+- - * * - [ )+J+J+J+H e%+&p=N e%8 a 1 A o.;.o.-.1 n *.@.c a ` #.7 @.%.E++.F*.. @f  .k.@.c k.b 2.A c g%p&b;@' *Y;v,0;z>S..&j 6 W :#k k )#-.A;G=v#F#*.z b&a&b&1.v ~.z *.|#E+k.V-..^#c =*i V*%. .U.a < c 2 *.2.> - : w.'+' 9.D q  %m m w D * z h +@8 8 +*=*V*]##.6 6 S l A | 1 n Z 6 e#D.;.n G a$t,v=%-Y%F$F$:%0@9@9@8@%@_$~ R$_$x;$@{ 9.q@C v.I+x.t$:'k]l]m]n]t$/>k{v$v$o]w&p]'*;%=%S#f+S#V@=%V@T@T#t$P%z.6%s=:@(#{$o.C 0#h@g@5;b-5+A&/&H>H>5;a-q]r]H>>&!@m=u+x-,+o+:+_+' )*1.%@%@8.8.{ B@I@)*u u 4 o > n o 2 6 o.b L+j ..c 9 *@U.( 0.9.w.x.6$6%$>r G u }.= A 3 v#z ;$s]{%< 2 2 ; m G ~.m q _%q 5%~.Z%W#~#.%G$n*,%z$Z$0$X#(%p _ 0.&@_ _.: +@'+(@o.|-0=p-G@w#9%0 b #.j @.%.1 &.1 |.(.(.t>t>K@J.$;'{K@i-d{E$~){+t]-#h,u]^,e)F-M#h+W#h+y$I+9@W#6$I@l+I@O B@9.`.B+u 9@i#i#I+x.j#(%0@j#H'f>a#B+9.n+:%H+,%~.D 3 < | 1.(+#@(+Z./._ B@",
"+&-*.@I .#|.Q l.Q+l.; 2.` j .&$-j #.c k.%. .%.j o.Z > , [ 1 &.n $%8$D#m&l.n l.S r :@U.|@7;6#5#7 Z G l.n o o 1#2@]#7%$.+@9 +#}.#@R==;*;i#{ n %@q@( 0.: - u.> 7@) q r y x C l.B r R$_$_$u ;+;+R=u F$,%G$w%G$H+t 1.'$#@} /.* [ 1 2.z > o > z > a c @.>.e%+*+*+*+)v]#*#*j +.-.k e#6 o.5 U.2 +@!.V*^#d ` c  .|#q*'.1#f k.%.` @.k.f  .A Z o.o.` ]#b;{>x,2-D-')c)x>p&h R+w]W W+2 $%&.8$m&D#A;A;U U Q%F=:%6%m s 1 | +*@*g%]#]#]#N&K,[*@*` i >.+@` ,.l l n u.v.p+C $@ %6% %H+I+W#v s z Z 7 8 +*+*#*]#~>[%j |@o.2 ; A S 5 U.> 2 ;.6 S *.~.:%,;Q-U=:%_%:%H+o+>+I@9.n p+/ a#j%M&~%I+{ 9.n B@l+x.x.:'z=l]x]>%y]d]y]z]u$A]o];,q,e+f+*,z)O%S#m>S@S#w@u$9@~%)>:@n.n.D@P+( ~ F.F.B]q$5;m{C][{m{D]G;'>+,^->&>&A*8=O R=)*1.l+u u v.8@o+{ p+n w.)*w.G G s q t t n 5 o < $.h F*7 b +@6#_.0.{ %@%@i#9@`$z$D t 2 |@..f  #8&H$E]U%x+Y#E@Z 2.m D v G X#W#Y% %z$H+,%G$F$I+G$:%H+Z%,%:%:%o - 6#w#h#/@i.h#j.|-(@&@6#j*_.&@5$^#]#f#}-i>A!7@|+w#&@v>H-6&2+i-t>b-P#v>t>1.E$D$/%;+-#;+0)r#r+5+o#y.=;0@=;j#*;0@6'x-)*8@' u.{ C@^ ' (%T=x.='{{*;i+(%9@6%b@)&1*6$k# %Y&Z$F$o u Q v [ [ Q Q /.4 z o ",
"e%h**@g < | 2 Z ; ; n *.` ` V*N&7 a 7  .j  .@.c S l < R.1.z o z U-U-%%D#l.B r @@P+{.o Z |-w#5#5$2.t n G o n k. .c !.g )+L+I .##@1.6$D l+' B@D l+: j+Q&{ n 0.}+}+D o ~.n C l.l.r J#v.n+l+' u I@I@,%{#{#F$u '$'$].].1.} - * ; V$}*V$;.-.2.; n %.1#,.` N& &i*V-W*[%N&i*2@T.U.Z Z o.1@;.o.*.h  .p&p&#.c c  .`  .7 0 #.E+` @.` %.7 c 2.< 4 2.#.8 #*[%z>x>w,{>]#7%]#d T&S;Y W+D#&.]-Y#$%$%$%D#}#s%D=#>a$H+o S A > [%W*^#V-$-[%N&^#$-(>!.+@>.h E+%.Z U.~ ( C p+_$C D D v o [ ~.n s 1 1 c +@!.b =*g%^#.&j -.6 o.S l *.n *.U.U.-._@)#o.w Y%t,F s&:%Z%a$z$' x-u '@s@9.D n+Y$x;_$%@_$9.a.D n+b@r&x$Y'>-P''!t$W@v$T)u$k{g+o]u$W@S#f+S@U@R@F]'&Q@t#u&O n r Z ;.|@@@2 7@7 K*e.s+7$f$z@t]s#s#r+J@t#y#u+r+^,o#h@n+u D u D ' B@D v.O C o.l+w./#''0$~#E.].'$t 5 ; &.A G]#~Z;i;--.&B,h./ C@B+l+i+;*k!z$Q p - Z `+` Y+Y+& 8$n [ 2 l 2.*.B o O 9.p+D o ~.~.o D o q m ~.Q ~.w s Q D s : w#n@Z#p-i 7 5$4#_.q&&@1+j*_.7 p&^#<-}-w#/@i.q&:.|+I-x{H]H]I)H)Q.H-7{~)u.}+w!8@u _+)*:+r#q+y#f@j#j#*;=;X$=;:+,+R=I@I@o+Q&Z.0.{ u 1.n+q@a#u -#l+8@1.v.v.l+u _+v.{ ' v.D n+{ v.' O v.{ D l+' O l+",
"]##*0 a 2.*.n | < l 1@U.k.%.N&^#0 a @.%.` ` j f 1@Z l 2.; ; 2 n v+w+D#B=5 S x y S l.o A r*q&o,6#z s w B *.2.8 >.*@)+H W$N*W$3 /.8@i#u o+o+I@)*,+(.1.{ C@3#! _ n B T G t m C B w p+' 9.$@{ B@D { H+`$`$X#o q m ~.S o z 1 1 1 | < < z 1 &.n A %.E+@.#.[%[%V*W*[%#*.&^#8 #.5 1@2.A 2 5 1@A %.,.W*.&8 .@.@a @.8 9 8 a +@h %.k.h a h ; > 2 5 c 0 @*p&c)0;')]#=*%=g%` Y I]<#R+s*D#%%z D#m&D#&.W l*J]K]7!s&m m > l --[%W*$-$-[%[%^#N&[%>.+@#. .k.%._@5 G@H@$@l+8@l+' p+G G p s G [ 4 } 8 )+!.7 ]#[%.&` 5 n 2 l A 2 2.&.Z 6 e#3$=.k 6 /#F L] %z$5%Y%`$,%_$' )*B@B@D v.v.1*r&v.C <&R$3#) ( 9.$@9@b@!!A=',w$v$M]l=k{k{W@W@k>k{S#S#V@T@U@7=/&4+J@y#)*1.,#} *.U.|#k.5$h#S)3*d.o#)@t+t#r#3+t#e@[+[+Z@r#3+s+f$w!o+9.l+I@8@n+%@a#o.J#,@7._=c$s@F s&~.F+-#~.2 1 }*U$).`+ &X;Z;<%h.B*G#( q@$@1*y=a$:%p [ &.| *@>.8$X -.8$4 z > - [ 2.P+x { n+$@D o G ~.s s ~.q q G s ~.s ^.].D /.6#4#5$(@h%j. .5$&@*@_.n@9%*@*@_.]#[*N]X~e;_.o@v'v'4]Y)Q.L.x{d{j-v>I-;)I-j+Q&o+)*I@I@O ' t#o#3+3+j]b'(%T=(%W#O u I@O o+:+}+1.Q&!+O $@D D o+O _+_+1.1.D l+' n+D O D ' _$<&{ B@o+O ' l+D D B@' u u ",
"f%@*#.a +@b ; z ; o...` 7 #.N&N&+@a @.@.7 #.f  @D@1@o.6 l &.n 2  $b,U-2 2.A 2 A ; &.9 0 5#8%c,p,m Y&{.Q+o.l 7 b g L++#J+|.1.- z $@w.v.O ' l+l+O '+{ 0.> u.Z.0.~ [ s D ~.o [ [ q { $@B@{ 9.C a#$@Q+B m T o.y r S 5 2 2 n > /.z z < o &.A 2.2.k. .` %.=*%=@*p&=*]#[%#*+@k.l -.-.-.; ; -.l ` d V-=*k.+@$.+@b +@9 8 h c %.`  .k.@.8 n 2.S 2 0 #..&V*%=#*-*p&p&h k.A w Z$w S 2.&.l &.2.2.n A x m.p!O]n.Q+C n *.e#S.V*g%V*g%#*f%e%g +#9 a 8 b 8 2@D.2 ! 3#_$C n w.n+_$6 &.&.< - 4 - 1 !..@0 h b #.%.b *.A *.A n 5 _@_@6 o._@7-=.l &.S H+`$H+Z%H+5%Y%z$n+w.w.l+l+O { n 9.D : ~ `.3#i.`.n O { W#W#r&9@P%x$x$Y=Y'k>V,k{v$o];%u$W@T@S#f+M#e$H>v>J.a.' h)0 ,.f W*@*<-L;g-g-c-g$t+<+7$<+n#[+n#7$t#n#7$7$Z@2)0)I@p+i$8.B+9.v.:+;+{ /#p+>+-)1.W&I+s&Y&n m n e#F*k.p=K f%g%z>-*[.+@Q&/%v._$l+{ >+:+].[ ,#{+W$h 5 T G 1.1.u : / ( / / ! u.0.> Z.4 > > < z ; n ; 1 | > /.} /.| ; r*n@h#7 5$i.i i.4$(@7 7 7@7@_.q&b  @[./!9%P]q)z-!+! 2+t>J.2+2+M.y#g@[+J@o+8@p+v.1.>+_+I@n#g@n#[+=;=;=;k#{ $@l+,+u l+8@:+!+: _ ) a.: ' ] u.0.' m+(.' ! ' ' ] a.- c.C&f=f.F.K@s#r+n#n#h+p%G%G%p%n#",
"-*[%d ,.c 0 o 4 A 2. .k.c b @*p&>.a k.k.c @. .%.D@;.S A Z Z l Z Y*u#w+v+o < - * o l a !.f-p.Q]=&o Z$q B &.< $.$.*@X*X*$.> < < o q@p+w.9.%@C _$n+'+: k+,+}+}+(.R.'$s ~.[ 1.'$(+p R=D I@v.w.B+o.p+C m o ~.n w G t ; /./.z 4 4 z < &.&.&.; 1 n  .f j  .]##*@*+*+*@*]#p& .i o.&././.4 1 2 *.k.d V-.&!.a 7 0 !.b k.j 1#).'...`++.f ` U.l l *.c a %=+*@*[%.&.&#.@.j S n  %n C 2 n U.l |@S ; A R 7-%]R]C s C R |@..W*[%N&]#+*+*N +&7 f %.` @.` +.D*V$A Z.a.w.n $@9.%@%@U.2 %.&./.< z *.c #.#.7 @. .@.o | U.;.5 A 6 )#e#@@D@V$6 S A 1 o ~.Y%F$_%:%:%X#X#v.l+9.n+{ I@w.B+B@l+' ) ] '+Y@Y@! - { v.O y$i#k#i#0,d>>%;%k{k{W@;%;%u$U#*,O%V@6+'>%;6&N.r@n .@@. .j .&g%A!5@<-i>c.8=2$h@r+n#e@n#n#[+x#e@p#r+u+S]x-w.p+_$u D { v.F+)*_$j$R=T]p{!{U]{#,%,%Q T )#7-D*7 @*]#@*]#')h*j*j*-#V]$$_+o+1.){W]*#E.{+$=9 o q ~.^.P ^.1.}+-$/%1.{ ) : _ ! ! /.4 /.3 * z z - } [ 4 | &.> 4 &.Y@7;|-h# . .Y@(@j.h#+@*@*@_.9%*@O,K+e!X]o@1+e;_.m+~ 2+c.d.C&!*c.e@s+u+1$O 8@B@:+:+F+:+o+o#g@u+s+' x.I+i+l+B@v.D D p+n ' u.0._ ] ) - n 0.!+_ u.Q&u.: - m+0.u.Z.{ d.t>L#J.F.6&<+r+t#f@'*w@X@P&X@w&",
"c h f 2@d `  .k.#.c #.`  .7 h #.h k.` j i  @,.j e#e#1@o._@D@e#@@[~&>~;u#2 1 o 1 5 5 a >.K-j>Y]j>T z$m C > /..@$.I N*L+h S 2.n A l+' I@v.8.9#8.l+1.o+_+' 0.u.: !+D t G+}.!#*#y!=#o-}.o+n+n+D $@B@q m G D t v [ * 4 - 4 ; ; ; n 2 q m n m ; ; n A c #.@.#.[%]#-*]##.@.7 7 ;.5 Q+(#y :@Z *...1#E+ .@.E+1# .k.E+E+k.%.b k.d i %.j f U.l *.Z #.0 ]# &-*#*%.#.8 h 2.2.{  %%@B+/ ~ B+l ^ l ~ / B+o.6%G*{.m 5 6 c h p&7%#*[%+*q=)+>.+@#..&V*^#V-`+ .#.b o.n '+/ B+_$s@r@`++. &..f k.,.,.f %.A 2 A *.*.A 1 {.S G o w S x Q+T S m '$'$s D ~.~.Q Q [ p v D [ u u u v.n+B@1.^.v z 1 +@.@0 h 8 z o | | o v G$I+x.I+x.y.k#:!Z]v$g+;%;%u$W@u$s$<+f@3+u+o._$'+n ] ^ 7;j.j.h.n@q&l D@_$D B@n n B@' l+{ { %'O n ,+_+9.v.l+u _$8.p+n j$%@_+`]Q{){V' ^.^+^Z%W&'$n -.`  .+*f%}'-~Q;@^k-L.K.Y)!+1.1.k+Q&u.(.}+1 2 4 < u j]F+I@u 8@>+:+m+m+J*^=[-#{D;&@a h +@g g >.*@J+0 k.%.#.k. .k.k.B+`.( ) '+_ !+u.' m+,+D$j+}+1.0.[ } R.!+!+1._ : /%j+j-2+M.O.K@J.q+o#J@2$p+u %':+R=8@- ' d-t>t>t#1.R=F+_+' D n+9.n+C B+D D B@)*B@_ { n !+> u.!+a.u.: }+k+u.u.Z.u.:-G-J*J*B&H-y#g@3+3+^>'*k{W@t$h+",
"7 0 7 %. .%.j  .k. . .#.h h  .1#` k.h a %.|#'.+.A 2.o.;.1@-.Z n # }%u#~;n > z | &.o h h f-i>q.p.o.F$s m = } )+*@W$.@7 j 5 2.1 > I@n B+n n 8.s@_${ B@o+B@! 0.! 0.D D G+#@#@#@F+'$G+'$n+8.C v.{ O t v v t D o > > < [ o 2 &.; n 2 m m G o 4 z | n 8 k.#.c V*W*N&.&7 9 h c 1@n w T B @@U$};e d ` 0 k.E+ @ @+.|#1#@.`  @ @1#d |#d ,.2.S 2.2.` %.^#$-+*+#$.$.>.n &.G 6$~%n n ~ a.'+( ( n ~ ( v.' j#~%S {.5 V$`+E+$- &[%%=@*#*b 9 a 8 =*p&#*g%@.j d i o.4 > > p+C 0#o.d V*N& &1#j  .8 ` 9 4 | z 1 l l S l.o o l.l.l.r :@o.x /#]$P+l.T C D ].D ~.G B m Q n n p+9.w.8@1.v s - /.$.>.h 7 8 8 $./.> 4 Q s 8@I+~%y$y.T=I;:'k{W@W@o];,p>p]k{h+6;X@w&9.n $@w.~ ] l l w#/ 4#0.`;<&8.o.r@i$0#O n+n D B@{ o+' { 9.{ )*O n B+o.C 8@-+w!w!!{R=$$Q{#^$^I+Y&`$G |.,$O,+##*+*h&L %^&^*^Y)I-d-> Z.#$k+m+> 0.' [ * }@-#;+*;,+v.n l+p+n ( > 3*3*[-#{G-[.6#a 8 !.b ` j c b a h h 8 !.>.9 =$$$a'~+-#+~~+/%(.Z.!+m+{ Z.1.'+*.A Z.,+- Q&1.R.j+(.@;O.t>I-S,G,g,<+[+l$q@F+x-)*{ q@u.}+@;6&;);)w!-#%'o+O I@)*)*1.B@n+O w.9.o+' ! _ - - 0._ m+Q&R.- ' 1.}+Z._ 0.l,w-D;d*6&O.y#y#y#n#h+u&u$W@v$r$",
">.+@>.#.#.h N&]##*p&c b a @.@.a 7 a c c b E+%.c l n n ; 1 A l ;  $l@O*v+4 z l &.o 1 >.b K-<-=^8%[ _%[ E.= }@[ o .@>.z o 1 2 B B ! ( / ) { ( s@s@0#w.n+D D D O D ].Q [ p p Q v u ^.t w.n %@{ )*_+; o /.} [ | n n &.n 2 ; 2.> | 2.B w C m o < ; &.h #.7 7 ]##*@*+*c c *.Z S A D ].~.{.C+V$k V$e '.q*`+|#`++.j  @%...j  .f ,.+.|#d -.r 5 |@,.i b *@0 a +@o 4 - z v 6$9@O B@) n n n ! ! ) > I@)*6$i%P+Q+|@D.'=F*K,i*V*g%]#%=+@h ; $.@*p&@*=*,.E*1# @U.* 1.] a#B@8@> p&{>^#%=@*p&$.!.#.!.} [ /.* v w n w n D w r C {.R r {.o.:@x B w m Q t l.S r Q+C S B n n n 9.{ v.o ~.[ 1..@0 a a -*a h a o > o q Q t Z%G$I+G$6$y$.>V#:'n;b]:';%g+M]O%W@k>s$(-r$X@v.n+9.%@S G 4 m /#0#C B+q@$@n+n+w._$O )*8@u D w.u u o+8@w.s@o.C O ,+1.$@l+B@l+I@ %I+`$Y&n '$$'-^I 8 %=7%f%;^>^,^'^P.H-b.d.2+&@7 [.n@) n { { _ B@n x;{ ' n $@u 8@! l 3*L*m,e-5*n@Y@` 7 !.#.@.$.7 E+h *@)+J+h)O,)^t*t*3)!^B'A{%$1.' - - m+u.> > u.&.< }+1.: !+Q&-#=$!+K@M.x&v>d-v>o#6;1$t+D 8@v.o+_ ) 1.' F.t>S,;)Q&!+' _ ' - > ~ %@9.v.D w.9.{ l+: Q&Q&' B+^@_ ~ B+a._ ' u.u.) _ w-i,8*Z~6&&;.]H>u-+,R#Q#S#T@K>-%",
">.0 +#8 f #.^#N&+*h*)+*@b k.7 >.9 +@8 +@a @.a +@n A *.A 2 *.l A w+~;<=-.2.o.o.|@2.l @.*@i>6@8;o,[ w%].(+]+}./.| *@*@/.o ; n l.T o.o.C@~ ) ! { { n _$%@%@9.v.v.D s D t u ].v s t v v u 8@8@o+o+8@< /.< > z 4 | A ; n A n ; | ; 1 x x C n &.| &.A +@a h k.[%]#]#%=%.%.2 o > 1 C R R y l *.6 6 q*e d ).|*q*|#d `+1#%.h k.i j  . .&.2.B n A 7 c 0 9 0 7 | 4 , (+t q i+9@8@8@' 0.! ! ) > ' m+O v.b@K%r o.3$7-`%t&Z;k;i;W;.&9 $.>.| S =*p&p&p&..j f >.= } u.! n+>+:+a.N&Y;N&+*7%N&%.%.0 b n 2 &.o Q p w C B G S y C r :@o.Q+r C n G G G o m C Q+P+o.B n m n+n+p+C q@n s p - 4 !.0 a +@-*#*h a o > o ; q t {#{#I+{#j#9@6-z.x$c]c].>u$W@~^{^U#g+U#O%r$(-~%i#B@8.y G t B R$q@n+' 8@l+9.9.o+u D ' _+R=_+w.o+_+)*)*1.' { v.u )*' 9.9.a#R$o.H+ % %Z$q G+}@;$g >.q=N+q']^^^/^(^K.6&N.e.{@/@(@h%P-Y.D,D,X%X%{,^$G*%@B+_$' u $@0=3#l,2*;>E>_^7;1#|#%.f `%'.c c c L+T'N*L+J+[=N*Q&k+: n ~ ) { ( ] ^ G@H@G#^ ) > z 1 { > > ! : }+> _ 2+f=f=F.f=k$I%/-2$h@D D p+O -#k+Q&{ K@L#!*O.0._ 0.0.u.- _ '+{ v.l+v.{ D ' )*!+' _ ' ' 0.Z.( ^ { - m+3#D@: _ J*8*Z~R~H>H-'>5;+,u-M@Q#T@=%T@M#",
"b %.c  .N&p&[%[%p&%=h*+*#.f k.0 h h +@$.7 8 a 7 n Z 5 *.2.*.l S B=D#D#-.@@n.o.P+n S U./.Y@Y@Q=|+].m*X&b$[ o 2 1 < - [ o 1 o ~.n `.`.`.o.C@~ > u.w.9.O D $@$@n B@[ t s t t D s v u )*>+>+>+I@{ 9.[ >.b @.7 +@< z | o z [ 1.> B B {.l.Q u s o [ [ [ ; 8 !.!.8 h .@!.+@2 S C r R /#r w r y -.1@2@i E+i  @..'.t&F*1#c %.j @.a #.,._@Z x S Z A *.#. .@.k.&.1 s v q  %I+,%[ [ 4 z z 4 } } 3 , ^.[ :%5%B k =.;.E+j +*-*U;w=q*`+` A 5 k  &i*^#p&i*W*@.z-+]7 C@'+m+~+#$4#V-u,W*[%+&7%e%+*a a 7 #.A | 4 < q l.l.m x y T {.S T w m n l.n ~.&.2 ; o A Z *.n q@%@n 9.n _$$@B@s v v ~.&.> $.$.a h 7 h ; 1 ; &.].Q s t G v G$F$s&z$0, ,I; ,a,I;:^<^>%'![^}^U#/>O%/> %K%I+W#:%s&Q+t ;#!#u C C v ^.P [ p #@}.(+v 1.>+u O u w._$l+8@u B@B@v.v.n+{ q l.m w n G 1 4 2 }@)^<)|^1^2^3^|;J-j-6&S~M*4^5^H j*1+q&Z.: _ _ v v v v v u 1.j+' D$@~k+,++~' `.@.K+T'X*K+I *@O,6^[=g .@g [=*@c (@Y@|- .j...L=j. .i j.+@6#7 Y@p@U.y C w.n+R$B+{ ~ { M.!=H*d.N.t+x#v&s>F,-#p{-#o+u.m+u.a.@,@,3*#{Z.m+u.0.u.!+Q&m+' m+o+)*8@I@' ' !+: : ' Q&_ '+C@l n _ m+3#H@{ n d-d-d-j-j-d-o#<+q+f@w&h+h+h+X@h+",
"j D*`+E+[%=*[%=*]#]##*#*a h a 0 7 %.h +@7 c %.h n Z *.&.2 2 n A E@$%m&U+(#m.C p 1.m Z 4 O=N*7^8^9^o*.%w%#@[ 2 l 2 o > &.&.4 t G a.! > ! ] ( n { n+%@9.v.l+O l+O v s D o ~.G ~.o B@I@I@I@o+l+n n +@0 0 +@b h 1 4 < < - - = 4 q w w n t v ^.u * < [ &.b +@b  .1#k.b @.2 &.l.w l.x S Q+B w Z U.,.` f k.%.1#+.q*E+@.f B*|#a #.i ` Z 2 T *.Z 2.2.h h  .A | o G X#X#:%Z%,%v t > o z < * } /.< u v I+_%S k ;.;.%.f g%V-i;i;D+t&k A 2 2.@*[%h*f%]#.&g z-1+ .^ B+3#n ) i $-{>p&N&g%V*p&%=h b h #.n > z 1 m m B B x o.C C T l.~.t o w q t | n 1 | 2 n z < _$_$%@q@C C %@n G G o q l 2.7 #.c c c c n &.n n t B {.q w m 5%Z%z$z$0,A= ,0,c],,:^:^,,>%0^~^w$T#a^M]K%~% %K$x%F r m p 1.t o ^.>#F+^.[ v 1.'$P >#w!R=o+>+_+n C O 8@8@I@o+v.' w.8.w o ~.~.n T 2.5 U.|.|^b^3^6^[=%.v>[)P.c{5^,{c^d^P=e^P=f^g^B'J)a'n->#P }.'$m B+0.j+> `.V%3#! 0.{ I s!X*7 #.k.a O,s![=O+I g >.0 9 7@&@&@7@_.|+9%1+1+4#4#e!X]:._.! l P+9#q@9.8.a.: n / b.J.!*J.2+O.f@]>^>w&,+_+v.B@0.' - a.w-D;D;S)'+) ) ! u.!+m+_ _ 0.D D B@l+O O ' : Q&Z.(._ ] ) B+o.C@'+- =$m+u.6&6&O.O.j-@;q+f$<+t#u&w@u&p%P&J@",
"i q*,.c W*N&{>z>P;b;]#@*0 9 +@8 b a b E+j k.#.8 | 2 &.1 2.2.; 1 L%s%r%r%m.Z$,%.=o*m*G+Q ,+,+4]$$o*h^+^o*}.P z o.; 4 < | D ].p v > { > 0.a.l n u.B@%@a#9.{ v.i#I+o G n B B q D t B@I@u O u v.n n %.c 9 L+g !.8 8 ; &.< < ].u u q x w m w u D 1 o z > 9 c @.h @.@. .f @@k T n T C S D@o.P+6 *... @i f E+ @d |#@.h |#v*E*1#d ..%.*.2.S Z 6 o.6 %.k.-.*.; D o 5%z$U=v%J'@=}=A+z Y+E#F#2 8$E@L%A+F=#>U.D@d |#f 1# &W;W;i*7 b 2 1 /.4 7%h*f%N f%f%W.O+9%+@: ' ! l I#E*i;$-V-X;i;i*V*[%7 c 7 8 +@0 h 2.l.o w l.w B m o G m q D s q n m | a | &.*.&.z | %@%@C a#a#8.i$9#K$s&`$Y%m C U.*.h a b b ; ; 1 | z %%Y#9&o l.Z$ %`$E R-i^.,J;j^:^k^J;:'>%M]O%h+{&6=r$w.0#(#7#l^:#m.{$:@{.C s P ].t u P G+p ].G+n!w!8@' ,+F+l+n+O O B@O )*l+I@D C 1 /.< 4 ; *.*.U.o.1.>$$#-^| ;.-.;)~)d-v>@,:-m^C~n^0{7@*@Q&: (.u.|.9$F#m&V$=.;.|@5 5 w v 8@{ 8@o+> *.l *.C+0%U.* ,${+$',$1.[ ; | +@r*e;O=k-e;O=|+O,N*j*N*O,z-o^p^<@n!w!){h!;+R=:+: u.d-|;Y);)D;@;s#s>(-n%)=x;$@v.Q&: ! B+v-^=J*1,i /@7;|-5$_.- _ 0.> { { { D v.D 8@O I@B@8@D C $@{ D q@q@o+8@>+>+y#y#t#3+o#q+7$f$t#y#t#o#o#t#[+3+",
"^#E+%.k.N&g%0;w,~>!>p&g%#.c c #.h +@b  @E+` #.c o n A 2.U.-.*.; T&}#[#W+w%0@+=I+(%W&G+C X.3#7 u.(%V=.=+=p Q [ [ 4 - - 4 t u ].v _ '+] ~ 3#^ ] Z.n+v.' o+9.C y$b@w m m m G v u ].o+8@O D { n+w.{ c a 0 +@>.>.8 k.l l ; ; G D o S Q+~.~.w D w 2./.|@1@j E+j #.%. .f d ;.1@y x x P+{.Q+P+{.n -.E+j ..'.2@ @f i E++.`+'. @j  @..i U.2.T 2.5 Z o.j j o.*.n q a$6%U=,;E=`'X+U Y+E@&.&.$%6 &.Y#^&[#c;v;C+D@d 2@@...U;(>M+i=O+O,$=}.} z +*h*e%M+N+f%)+*@H N*/%k+Z.{ ~ ~ 7 p&@*-*+*%=[%=*a +@+@8 0 +@@. @*.~.n w m m o D ~.G ~.G n T C B 0 9 4 1 2 &.&.l 0#a#%@n $@%@o.9#x%K$`$Z%Q o | 4 +@9 >.!.z z 4 /.]-z Y#Y#S x s=%*F $>.).)z.:'q^A..>d>',>%{&G%(-l%.+u@C r@C+;&D.r^_#@@r {.Q+T w o.Q+~.Q ^.P ].[ o O O 1.%'R=' { 9.u { D o+O v.D { | 1 4 | A *.Z 2 6 U.z z 3$w*a=( F.C&2+!*4,e>B~m^_]@!4#Y@a./ H@V$e#B=&.&.&.1 4 - * ; S x n+v.8@w.Z &.| [ z &.* }@,#}@, /.* 3 [ ]+k-N*+]N*j*r*O=|+4$4#O=q)s^t^O,!+!#E.>+F+)*o+1.%'!+-#[)P.H]Q.d*L./,u^s>(-y.X$O { - 0.n / 5*v-v->>p-7;|-h%n@&@) / ~ n w.{ D { { { O l+I@O :+>+o+,+l+1.D { D $@)*R=[+t#r+<+q+<+o#r+f@r+q+f$q+r+3+o#",
"N&c #.k.@*+)0;c)w,!>!>[% .@.c #.9 8 h h @.E+` @.n 2 A n &.n n > s%}#J'j'.=G$u=.)Z$Y&.%.=D o+j+w!m*/;,%W#v v A 5 o > > o o D D o ' r*_ 0.a.( ] > q@w._+R=i+)&6$)&Q+l.o t [ u s m w.p+%@C C p+{ 0.0 %=c ` f j i ..|@e#3$D.^$(#D@D@x%;*m.n.y y e#6 k V$ @j j  @'...o.Z S S T T a$5%5%X#m ].2 e#[ < Z+D*,.f  @E+1#d +.+.|#'.).|# @@@o.y U.U.*.S l 5 2.1 n n `$Z$_;o&D=t%V+W *.*.8$2 Y+D#Y+z [#V v%v^!$_@#.1#S.i;.&h*N p=+#)+* z m o -*@'h*q=N 7%9 H |+j*m+m+!+' 0.: g +#J+L+h 0 ]#+*+&N e%g%]#q=M+c &.~.~.G C S l.Q+Q+T w B {.S w G !.9 h k.2.A A n q@B+p+{ $@i$r@i$6%L]5%Z%G ~.z > > 4 /.< z z v [ Y+%%D#8$X [#m {.Z%z$u==-V=o&w^,)x^F y$6$2$8=e=y^g.c-G#;.2@)#I~C=P+o.r {.{.r P+@@{.o u G+Q o t q D l+v.$@C 0#C { $@%@w.O B@_$%@_$; b +@c  .c ; /.< * G @@P+>#G!3{r#@-v>i-@,J*@!&!%!C~*@i.0=U*'@2 o U-U%7&   == ]%^.B :@{$G ].W#F$t G+G+u p }.F+p p D t v s ~.o ]+o@O,/!q&&@r*q&6#Y@|+z-e;j*/!:.~ u z$6%x;%@w.l+1.' - t>v>d-J-[-t>=+u$6;s>b'T;>+x-*$*$#$D$S~2*3*w-Y@[.&@+@6#6#) n ^ 3#q@q@%@n D u y$6$k#9@k#k#(%X$b'T;*;k#i+y$r&)&I+6$j#T=>+_+)*8@o+>+:+1.Z.Z.Z.Z.",
"<%` 9 M+h*0;w,u,v,2-w,V* .h h @.*@J+.@+@ .h 9 @.2 1 > 3 ,#}.3 1.& a&A+[#B n s&z$~.n ].G+,+/%,+,+p C'Q u s [ ; o < 4 < [ u u ].p - m+' 0.'+] ] n _$n )*8@9.D v.9.*.2 2.{.{.B w T R$<&o.0#i$^ 3#o...+.d 1# @|#+.,.l 5 _@k |@y k {.S {.@@;.1@5 |@o.Z 6 j ` j E+d -.S Z S *.B B `$6%Y%a$C y o.-.&.2.6 5 k.|@D*S j 1@..=.T.C+e 3$..V$)#]$=._@S 2.A Z 2 2 r T m z$:% %1{S;V+}#&.D#D#2 m&<#6 V&S&^&J]z^C+e#E+ .a )+J +#M+*@L+)+; *.m z f%@*+*J+f%$.>.!.6#n@] ) _ _ ' }+H +#L+$.i 7 @.0 %=.@h*0 M+W.s)W${%n'{%r=w T m /#r {.{.Q+Q+T w A %.%.i.j 2.S 5 A / o.a#n s@U*7.8.E t=6%E x T A &.1 o z z | G o t n 2 ; Y+w ~.s s u :%X#_%.%W#1-Q-{#I+n n n l$_-g.]@T,4$/@`+d j U.2.G l.B n {.Q+q t s }.E.^.Q D t D ' : l+u.p+3#n+!+o+(.I@- n+> 0.8 +#.@7 #.!.}.|.* ]+; q * !#.#'$L#L.@;0.e-(@v-4$A^n@*@!+k+1.8@O | R.H 2.f Z o ,$v t ^.x Q 1.X#~.D < > 2.| s n t 4 ~.u [ G ~.D /.' j*j*H H o@w#4#:.9%+]|+7@O=[.G@o.r@a#B+n n D >+8@$@Z@n#s+L#K@M.s+e)f$g,>+o+B@%'=$/%}+}+~)J-c^U~q&/!z-N=4]k-}+(.> u.I@O n+n $@n+b@i+y.9@k#(%X$*;0@0@o+y.R=I@v.n I+6$y.*;o+' D 9.v.u I@B@v.' o+o+",
">{~~*&B^@&%&C^;{D^%>g{x+~;O&l@O*3 -#,#[ o 4 } R.;$}@} , }..#]+- > < A k -.; | &.&.> z /.1.g 0 8 > | < * z < } - 4 2 w o D t G$Q G+m r x B B T S Q+{.o 5 e#@@`+j @.a %.@@;.-.x x w l.S 2 ; 7 +@$.H 3 o 3 }@} h .@+@b c s!N*}@>.k.k.%.7 h b +@7 h 2.U.5 5 e#D@|@U.*.m ~.m w l.S o.T r m._#y :@P+l.R+l*E^:#s*s%*.T&&.S+G=r%z+U&-.s*6 |@o.*.2 l 6 ;.-.;.|@A 1 v o Q ~.D ~.m q ~.n x o.5%C $>0$%*@>7!S ;.l > R.3.H 3 $./., [ 2 | < n h 9 a z #.*.| 2.; o ; A S &.o < o z [ o S l &.2 g * J+[ b z +@%%S%F^L&U)$%k $%B=5 n < > { ) C@3#(@|-D>Z#h%h./@B+~ G#C@3#0.) ~ C F Z$B l.&.| &.l *.Z l 1 o w l.~.1 |@`.2.n > n l 0.{ $@D B@n+B@v.W#Z% %6%`$ %%@0#_$u G@C@( l o.3#^ 3#! Z./ o.`.a.- 0.u 8@u { _${ { > r*m+*@: r*- /!0.9%m+6#( 5$Z#j.h% .5$b +@+@+@%.j 0 1 3%%%@ n 8 7@6#h w#h n@z 6#,#-^#=F!#=[ O q+2)@;g@B{+%I@_+v.l+1.t G D 1.].0 0 h h 9 z b | @.| * } /.* } < [ } , ]++#J+q'M+<.5#q&1+1.=$Z.) ~ e.J.y#q#q#r$X@X@G%'*u&r$s+r+B&k+D$1.u.(.(.' - 0.! D v.n+v.- u._ ,+$$E$E$t*t*-$D$}+1._ u.Z.(.v.j#(%W#b'l+v.F+_+l+' (.l+_ ) ' ^ m :%I+:%:%z$i%)&y$j#k#I+ %)&u&F,",
"G^H^4%4%^{%&%>%&%>!~x+P*Y*<=l;O&1 [ * z 1 ; | < o &.Z _@4.}*C,C,B*q*q*)... @` 0 %.%.j j k.@.#.c j  @ @E+E+E+6 k 6 1@y C q G 5%H+n l.G t ~.n n m m G | ; h a ]#]#[%c @.A | /.u ^.1.l.n - .@c [%>., , , ]+[ < 0 0 #.k.!.H )+.@9 +@h*@*^#^#=*b 0 b #.-.5 l -.1@1@k {.w t u v n x y l.S /#~.m w Q+m }#l*r%U+Y W V+X+N%U&l*T+:#<#s%S+S 2.2 S _@2#3$@@V$e#@@5 A Z > /.u [ D n w q w S Z$0$K$s& %0$$>Z$5 S 5 ;.A &._@o.1 &.> 4 n 2 ; n &.*.&.; /.| *.&.A 2 1 2.l U.A 1 | 2 | n 6 2.[ o A o z n Z S A X =!I^J^1!K^q%%%X 2 &.o z u.0.> Q&L*l,d*@,_.*@_.[.( 3#~ a.) '+l B+m Z%s m &.o n o.-.l *.*.w n Y%q ] ^@] ] 3#! ) ] '+0.' 0.{ 0._ B@o .%_%F )>Y&l.T $@O n n n ( / '+/ ( 0._ r@G#n ! - (.v.w.>+-#_+_ w#6#&@9%9%+@6#[.4#5$7@9%[.Y@(@i. .7@q&+@k.k.c 7 9 h 0 a b,3%@ ~; .a !.9 8 $..#$'[@L^n-u T S o >+r#q$^-@-5;+,n#g@n+n ~.u Q u P }.J++&+*7%$.)+)+9 L+L+< 1 > > 1 | z - * 3 +#J+5)i=<.f#:.P]@~/%_ 0.M^N^{)@;p#o#l%h+k{W@f+O%!&n%e@x#4#[.[.:.k+m+{ : > '+C q@D O { w.- > > { 0._ - u.: : : n ! u.}+o+w.i#j#b'B@9.$@' u.! l p@I#`.n@'+x E Z$5%`$6%~%y$)&x.x$A=d>d>/>P&",
"e{}%g{g{o=O^~;P*/=l;u#x+<=S*3%.$[ /.[ 4 n 2.2 &.o.*.1 &.*.l 1 - *@g $.8 a #.j %.c k. .%.` #.8 9 9 9 7 %.%. .*.n T w n D p Q X#Z%n o Q [ s q X#G$P t o 3 X*!.#*-*7 b b | 4 D G D q r B m &.| a 7 5 t }.(+; 1 | 2 Z o 3.[ b 8 @.%.]#D-@'#*#*]#+*-*g% .c 7 ` 1#,.|@Q+S G [ [ ~.m G T l.~.~.w n q G [#R+X T&[#W+T&Y T&X U+T&T+X S&S&k k k @@D@=.|@A S 2 | Z S 2.; n o | n 2.2.n w T n m.@@m w P+)>F 1@*.&.n - 1 e#S | z /.z 1 | o &.| < V$P^+;e#&.*.o.Z n l U.;.o.Z 2.l n A 5 o , > A /.> &.2.A z ]-U)!%o~L&R%U)F#D#&.4 z < m+u.0.{ w#+@9%j*k-/!-$-#@~/%Z.) n a.`.G#{.w l.r 5 n @.1##.+@> n l.B C S H@`.> '+/ a.] ( { '+{ n n ! B+s@~.5%G q {.R Q+q w.n+v.n p+q@l n l ^ / ! ] _ m+> a.- { : D$E$+~,+7 (@6#9%_.6#h#w#7@_.r*w#j.Z#6#*@j*o@|+7@8 b k. @` ` k.8 8&`@m@ =W$L+W$H b 9 }@}.< 1 S n G v F+F+j-`{'{&;d-J-i-!*: { z = * [ /.} I )+>.!.9 .@} [ < < 4 < ].t w l.> } - 3 X*X*J++#/'7@:.O=k+,+}+Q&T~Q^K.~)g$@%!&/-f+v$o%=+(-o%y#s+Y@(@h#w#0.) ] a.'+) 8.i$_$q@i$0#{ ( C@n ) ( B+! { ) 0.> ) a.) q@/#x%p+<&`;j$s@l+0.) { { > m+> 0.s w m ~.B+/#'@9#;-x%;*;*2>2>%+z#",
"^{%&;{&{&>}%w+v+ #U-m@R& =k*R^M!= 1.|.3 ; 2 ; n n &.1 4 - } } } *@K+N*.@+@0 a 7 c #.a b @.h >.>.9 L++@%.k.c 2 o T l.m s u v :%,%/.3 Q D s G z$F$Q l.> , H 9 ]#*@+@/.< z v D m q t m n s 1 | >.A m (+E.p > * /.2.2 [ *#n %.b 8 a [%{>2-@'-*+*+*@*=*p&h c %.f j %.l B m o o q q o w T t C C q D x U+s%U+^&Y }#X s%s%R+T&}#s%S+l*h;U.;.V$_@k 6 U.l 5 ; 4 2 5 &.U.k A 2 n &.; ; n l.n x B G C y y P+;.1@*.2 1 1 l 1 ; < 4 &.&.> z 1 2 = V$S^T^*./.2 *.; ; &.S 2.2 1 2.&.&.2.&.[ * > < z l l 1 | > ]-E#V)X)e*U)=!]-E#z ]+, , 1.- - _ 7@&@4#(@Z#h#n ] : ' R.Q&,+}+Q&u.t v ~.T l &.c ` f  .; 1 w B w l.r@/ ( / a.] / n n ~ '+'+] l ^ B+C T B B C {.C B $@w.l+v.v.$@a#s@o.^ / ! ) ~ / ( ! '+a.: m+!+Q&0.(@i.j.7 _.q&7@4#6#[.Y@ ...|-6#:.:.:.:.q&)+9 k.1#j 8 8 )+k*R&J$U^T'+#0 a b !.4 ; * n l o v Q P >+6&P#B&P#F.6&x&2=:=o.< , 4 4 < - *@g >.0 0 z [ ]+z 1 z * Q s v v [ ]+3 , X**@>.9 7@7@q&j*R.,+(.=$*^4^G,I-t+t+(-m%V^W^6={&X@o%Z@y#> 4#n@[.{ ! 0.u.Z.Z.n+9.I@I@{ v.- n n u.( ! Z.k+,+_ : Z.u.> { _$_$1*8@O O F+R=u ' n > !+- 1.Q&- ^.1.1.#@x->+' u D y$i+)&!&H%z#w&",
"x+y+i{[~ $ =  7&I$@$^%P!@$I$* z z , $=|.o 1 o n &.&.n n n &.1 | !.8 @.k.7 #.f E+#.#.b 0 7 h +@0 !.g 9 0 g .@; o s ~.D Q t D ,%F$/.[ Q v t o  %`$n G Q [ < z b 9 +@* /.o t u G$_%w%F$[ (+u t /.A s (%.%Y%l.].'$[ [ [ 1.l.A 2 ; 0 =*c)b;a;;~j&+*%=e%7%#*p&=*[%V-..2 2 2.S l n ; ; S A | = n 2.2.o.Q+R _#S m w n n S o.r Q+Q+:@o._#|@@@;.U.*.2.A 2 2.5 )#1@5 *.2 *.+@+@9 !.9 | 1 1 z < < | &.D D l.n &.1 5 -.1 o 2.> | &.n ; | > < 1 > 1 &.1.R.2.o | ; n > | > > [ Q [ o n ~.u u s Q q B w o m C N%E@L&U)W)E@]-$)= /.R.,$*#-#- u.m+_.:.q&_.+@4#l o.o.`.) l ) 0.u I@;##@^.p * [ !.+@8 c 1 &.x {.w C ( '+r@^@~ 3#n { ) '+n ! '+( a.) 2.D o S x q D m $@D n w.B@{ %@1*w.D l+B@{ p+n ! ~ ) !+Z.9%q&6#4$7;h%j.6#_.[._.[.r*Y@4$Z#|-h.h#Y@I#^ ] 0./.[ - * - ,#= [ E#F#z v#L+>.i ,.9 )+o 4 = = |.3 [ < D u M.]=M.d.f=@;0.3#I#~ 4 ; 1 z /.o o < z o 4 /.} }.^.t s Q t t u p , |.* - g 9 +@9 *@6#/!X^a'Q&_ j+x{Q.~)F.e@f$s$~&~&z#r$X@<+y#n#r+R.Z.Q&=$k+u._ !+}+}+1.o+o+o+)*_+_+o+)*u { o+w!F+>+o+O ' ' v.n C 8@u R=1.)*%'x-u ) B+( 0.> ) : ) z 1.k+R.~+*$a't*p{-)g,q#y#Z@t#<+",
"3%R&.$t!Y^. m@b,P!]%* ]-A+* Y+B=< }@-#= | 1 o 1 *.n 1 1 n 2 &.| >.8 c h b k.%.h h 7 a b h a 8 8 >..@!.g [=.@1 } p s s t n l.X#H+1 &.t Q q ~.Z%Z$s p Q p [ 1 9 1 | [ s n ~.u {#W#Y%H+P G+[ P - w F$z$`$Y&m P >#p o ~.G l.| 1 1 1 %=%=>;+&v]+&@*%=[%]#p&=*#*b =* .` *.*.2.&.1 *.|@o.o | *#1 |@A 2 T {./#Q+B w s o l.o.P+n./#_#C r 6 1@-.2.n A l S *.; [ /.o *.o * +@0 0 +@0 8 z [ ]+o 2.&.> o ~.t > z | 2.A | 1 *./.z 1 n A ; 1 n > l o * * n A o 2.5 n - ]+4 | | p Q [ [ v u [ q w x l.o Q o C q E#L&U)X)&.]-9$9&- }.-#<@a'=$m+_ 1+o@q&_.&@+@{ ! n ] a./ ( ! n+B@p [ ].(+}.|.H H I N*;$-#(+(+^.q !+: H@`.B+H@] ~ / ( ^@H@3#~ 0.) > | l.C w ~.n r C { 9.n+D n+b@6$9@y$D { u :+,+: 0.u.m+'+4#*@&@w#4]N*H [.5$4#5$(@5$4$7;Y@r*(@ .;.a.a.3#G@6 2 z > /.* - o $**.Y+Y#h a b 9 +#W$]+|.o 1.= 1 z 1.v l+c.{*L#L#J.t>: /%Z^A{;$n 2.A ; 2 ; A &.z /.3 1.u ^.u D v 1.^.Q t , 3 > > !.+@*@+#O=4]P]e^$$j+_ /%7{d-K@F.Z@t#X@=+c's>s$w&/,s#q#/,/%=$=$D$,+u.! _ _ ] n D O _+,+o+' B@R=' D O 1.o.0#D 9.p+D { B+q@n+l+I@{ $@0#D I@0.0.) 0.0.] > > | - (.- ! ' k+k+-);+`)h,<+o#s#p#",
"R^R^{%9$Y+2 E@Y+F#F#U L%Y+U U U 1.,#,#} o ; | z 1 n n | < 4 &.S b a @.7 0 b h 0 b b h 7 a a 7 7 0 $.>.$.*@+@| * s ~.G ~.n w H+_%&.n G m l.o _%:%,%G$o p - ; < < o Q s q Z%{#.%~#X#:%~#(%].u v Q :%R-6%s& %a$z$Y%Z%F$s B o G q &.)++@p&k.p&b a 7 ` h 7 k.7 ; 7 7 k.#.b .@g b '.3,%.c ` >.c E+8 A T S y /#o.l.m T B r /#n._#@@w B 3#H@^@3#( l `.o.C@~ - n C@o.`.n c =*]##*b a 9 g X*k.i h > 2.2.o /.o &.| z | o [ 1 ; 1 2 l ; ; o.A *.5 -.;.|@- /.A 2 4 * = - 4 o D :%W#C'(%W#Z%z$,%z$X#{#b$b${#o 9&F#D#2 *.Y+> - , }@}.}@#$$$-$=$/'+]=$Q&m+!+m+_ 0._ I@D _$q@u@' u v 4 [ * * *@.@.@>.> z * = P 1.m+u.a.~ B+l { _ l l H@X.p@H@a.0.2 | > ; 2 A T x {.y x;Y$x.i+6%#,r&r&x.y$u _+:+v.- > w#+@_.r*<-7;+@> ! p@p@! { ! / : 0.! 1.'+j+$$,+u B+`;_#T G m m w ~.t ^&T&X+a&/.< ]+}.- /.* 4 z |., ; z 1.} u.B&L#J.H*~ ! : k+(.,+3 ; 2 2.l 2.n l.G u 1.'$^.D G+u o ~.].1.u v /.> ; z !.9 H J+)+K++]O,1.=$- Q&{ 0.) u.>+1.)*o+O 8@O w.D { o+:+: (.1.' m+' _ ' m+_ - m+0.' 1.8@*;X$X$I+6$W#W#i%i%I+K%Y$~%r&6%b@Q t l.~.T w s P u p u u | n 2 1 4#7@q&*@&@*@}+(.m+Q&J-S,F.J.d-<+",
"+ 3%E@2 &.%%%%E@E@D#<#X R+R+}#A+/.1., - /.| &.z [ /.< z | n A *. .@.7 a 8 h a $.9 >.0 8 $.9 7 7 h $.$.+@$.)+> n ~.D G m m B a$,%2 > w S ~.v I+,%,%G$[ t ; A &.1 [ u t o Z%I+:%F$Z%F$,%{#Q m Q .=G~*-z$Y%,%s&0$5%Z$a$Q t (+v o [ [ [ o z z o < > o o *.-.2.; 2 2.>.7 #.0 >.c 2@D+f ..d i E+f #.2.|@{$m.@@y {.y o.w Q+{$@@y {.q S B+^ ^@H@H@G@G#H@3#B+o.( / ( ] '+p&]#%=7%9 a 8 >.+@7 a 9 z 4 4 ; z 1 &.| 1 A &.o 2.5 n 4 z [ - ; z 1 |@5 | ; 2./.| - z 2.Z < } [ q H+Z%.%C'G$:%_%Z%{#w%.%X#z$F$H+]-F#D#E@2 F@4 o - 3 }.= Q&!+m+D$`^e;k+-$=$Z.- 1.1.' _+B@D q@1${ ' s n S S 2 h 7 c k.6 S | l _#y ~ ) ! 3#B+_ j+t*a'(.! o.r@G@^@( 1@e#3$=._@k n.;&L$t-#,b!{~ /='b!L'#,M&G*q@a#a#q@'+! |+X]/!*@f#k&B*U*2#n (.Z.' a.Q&+~Q&a./%u./%&$%'v.0#0#G [ o C G ~.q G Y+}#U+R+; 1 n A &.1 z - = }@< 4 1.1.* ; '+b.J.M.: Z.}+Q&{ _ S 6 Z o 1 1 q t ].#@-#E.^.u ^.u v o ~.Q u o 1 n 1 * *@>.+#g H W$q&/'m+_ G#( #$B'%$Q&w.,+){l+8.v.v.n+$@C O l+_ Q&Z.- !+: { Z.' u.Z.' ] ~ { { 6$k#b@K%x;y$y$j#i%G*#,y$I+y$r&i+v m n ~.w D [ t (+].[ s ;.Z S &.Y@w#+@_.o@H ' _ !+m+v>L#!=F.v>[+",
"#.a &.A &.&.A A 1 2 w Q+{.m w T ; $.)+.@>.0 0 .@0 +@9 9 9 !.!.>.0 8 a h a 0 0 8 8 0 a b >.$.>.*@!.*@X*X*)+$.z ; q n ~.m B T a$F$| | ~.o D v G${# %5%:%Z%s D | ; D F$_%F$Q u [ v o v 1.Q :%,%Z%{#G~W-./W-o&=-,%,%5%F 6%G$(%G$Q P u ].v D o n n t n B {.w S n q n b #.k.@.+@%.#.` i ..2@e ..f f 5 @@P+C w {.y R {$Q+y m.R P+Q+y :@H@`.3#`.o.o.o.H@3#C@^@a.! n - { e%h*+*+&f%+&a k.0 h b b 0 h 0 >.o z > ; A n | o U.5 *.; 4 4 ; l &.n o.> n Z > n A A n 1 n S S w v :%Y% %:%:%I+{#G$.%{#5%X#Y%Y%X#* z 4 o z < z 5 - - - - _ : Q&1.R., - - > n { 1.8@o+f@3+[+A@l$$@8@u *.|@1#%. .f 7 %. @|#;.1@Q+Q+H@/ n / 3#n : !+(.Q&' { _ !+Q&- 2.o.D@|@Z l R :@~.~.d;b!g>g*y=#, %K%#,d;%@9.C i$G#] h%j.Y@+@5#r*:.1.] ,++/k+1.j+%$O'] 1.=$: Q&k+' n 9.v.o s G o.T w l.l.U&V+W R+S &.2 2.*.A z 4 /./.< | - < ; *.( ^@) !+=$-#!+m+) 3#@@)#A } > 1 w G+;#>#E.^+(+s [ v D o D D G l.} .#;$-#I +@>.)+)^<)/'1+3#H@D$K)9!:+U*5'-'I@{+! H@a._ D$u.H@u O ) - 1.1.Q&' _ - - 0.!+' 3#a.{ $@ %9@i+Y$6%j%J%6% %;*~%9@I+6%)&9@Q S *.A 1 < G+n D q t q B n /#-.+@9%_._.|+:._.q&L#6&i-t>2+!*t><+",
"` #.n ; *.k 1@| > 2.m B q o D o +@+@*@*@0 8 +@0 %. .#.7 8 +@+@0 $.b #.#.c 7 @.k.@.#.c c j j c a !. .a L+*@.@, * s D u [ D ~.X#G$o 4 [ Q s ~.:%I+:%:%:%:%D s < Q {#G$F$,%D G G ~.t o u ]._%F$,%W&W-W-W-V=&-@/G$I+X#a$Z$a$a$`$n D Z%F$Z%I+,%H+ %z$0$ %l.v o S {.w 2  . .h k.|*`%+.k.` j |#f k.E+;./#m.m.n.(#_#Q+{.w l.x {.P+r {.R r@`.~ n ] / B+C@o.o.`.a._ 0._ ' h*h*h*h*h*+*a @.9 8 $.)+.@7 8 * > z > 4 < A o.U.;.6 l ; o | ; ; n 4 R.* o z z 2 n n 1 z > 1 > [ Q F$H+ %`$E F :%.%I+G$I+Y%H+s&q r S 2.|@k S ; Z A 4 l l ] ] : u.| 2 S -.o.C@~ ! o+I@q+[+3+s+Z@9.D s 1 &.7 8 k.`+j f E+f Z l T B B+~ a.'+! 0.! ] '+> ) ~ : -$D$- 3 } 1.R.z 2.r {.m.:@1*6%)=W#i+i%x.)&K%6$I@9.%@B+l o.i.n@_.w#Y~+]=$-$*$~+Q&: Q&*$$$Q&1.-#(.Q&u.Z.:+:+o+l+~.B x r x m n T T&[#Y }#l Z S U.-.l A o - | ; n 2 l 6 &./%1.: ' _ ! 0.a.`.H@-.*.z [ o ; v ].G+'$P P Q ~.m [ p G B ~.G+'$$=$=$#*#c j h !.H [=P=N*G#-#V]R.D $@9#o.{ l+) ~ ~ 3#Z.,+=$/%u v.(.,+j+}+j+Z.0.> 1.Q&u.) 0.0.Q&- p+I+i#6$I+i+i+y$ %9@9@b@x.i+y$D S A | z = , u D ~.o t t t D o.B _.*@9%7@&@+@+@7@t>B&2+M.L#v>6&[+",
"i k.8 !.a i ,.c ; 2 *.2 A > n > +@0 !.>.0 8 0 a @.k.%. .7 a h c E+E+ .h 7 %.j  .8 b a  .i ` c k.8 k.7 )++#$.< - v t G+p Q D 5%,%> /.* [ D q X#:%o&&*G$_%F$Z%o ~._%_%o l.B n 1 ; > > [ Q [ G+.%~#./@/C'W&{#I+Y%s&Y%I+v o n w B S Y%,;,;u=_%Z%a$Z$`$Z$Y&X#D B :@:@|@&.A 2#w*a=l > U.-.&.2 &.2 5 |@:@P+r {.o.Q+S S x C m C D@:@{.y ~ ^ l ' !+a.^ `.^ C@] l a.> ~ 0.h*h*h*7%0 b a h 0  .#.b 4 n | - &.[ t o ].t S o.r o.{.G v s ~.~.o n 3 1 &.4 &.; o | | | ; 2 n 1 D m C S S o.x D m q ~.q S G w o.y Q+S :@o.T l.P+S n w t [ Q G+t z [ > l U.n l+I@n+$@J@3+f@y#f@I@m+4 - 3 .@0 ).Z+@.7 a b 1 ; 1 1 3#'+u.: { '+a.n ( ! ! ~ '+m+' ] z o v G+~.w l.m p+q@B+l+R$R$y=j%W#Y$w.{ $@p+] Z.E$! l 1.+]A'f^f^t*&$#/j+] u.u.m+m+m+Z.> 0.- ] n w.D 9.n o q T B w T C T V+U&R+[#m w 5 l 2.2.> < 1.> 0 !.8 c `+` T'I *@b 7 8 0 k.` i i c 8 9 )+3 (+t ~.P ^.s m Q t Q z 2 &.3 ;${+{+-#2.C+`+ @).%.9%9%e!A-m+(.) r@A@h+e@l$!*6&b.d.#-C;J.K@v>@;i-v>l+u u u 1.o+u.u.Q&Q&_ ! ] '+u.> $@n+n+w.{ B@l+l+9.B@D n+n+9._$9.2 z - | 1 1 > 1 o D D [ t D n G *@*@:._.6#6#B&L#i-2+e.!=J.j-.]+,",
"@.7 @.7 b 7 #.h l ; ; 4 /.* 2 > h 0 8 8 !.+@b 8 .@8 @.#.h 8 a 7 ,.f b g .@h 7 9 0 8 #.E+i i f k.h 9 .@*@)+>.o z D ~.Q v o m Z$z$> z 4 > o o ,%G$V=W-F$:%H+H+o D X#H+q w B l.A *.> z z D v G+.%_%z$1-F$_%I+z$Y%a$X#G$G+u v v D n 6%t=`$X#Z% %F 6%n P+x x S w e#2#D@U._@X%&=z {+< n o.U.-.6 o.6 1@o.Q+T l.{.x {.r x y S Q+@@B C r / ^ C@'+0.] o.;.o.G#B+`.B+n ~ - )+f%+&7%9 +@0 8 c  .c a 1 *.; /.Q Q G m t s o u G C C o [ s G ~.; ; A |@D@-.S 2 o 1 n 2.Z o.6 6 q n w ~.o S o.T G S o.Q+{.r m l.r r S r x Q+{.Q+C S w B m G+1.Q 3 * o l l | D $@o.a#u+n#h@x#s+t#: 4 3 /..@+@|* @!.>.>.+@; 2 2 n n ! > ) ] ] ) 0.) ) ! > > { { { l G ~.G G G q s n+B@$@B@C ,+0)i#l+C _$a#o.n ! Z.,+Z.'+' |+/!O,1+}+j+,+!+- m+u.!+j+1.{ a.! ( ^ ^@0#o.i$8.l.m w B m o.C q W+s%U&R+y q 1 2.l 1 [ z 1.} $.9 9 >.@.7 W$>.+@)+X*J+)+h b c @.!.$..@X** o o ~.v D D q G ~.B S | = R.|.3 > > *.A c 8 !.+@_.r**@n@~+3#p@9.[+'*3+s+v>v>J.H]$/%/L#d-x{J-Y)@;I@u v.v.I@u > ! Z.!+Q&_ l '+> - : p+9.l+O _+,+O w.9._$p+s@8.B+n | *.2 o | ; ; A m m G [ m q o S ! w#r*9%6#&@i-t>F.d.d#N.b.t>u-F-",
"]#=*^#[%]#p&7 !. .%.)+[=O,)+b b @.a a b !.!.0 9 *@9 b 8 !.>.+@h 0 h 0 )+)+0 a +@8 h #.%.f ..,.a 8 >.*@!.0 *@1.- t o t s ~.m `$5%> | ; | s Q G$G$_;1-Q-v=5%H+Z%F$].m C l.*.o.f h >.| &.> Q s D I+ %Y%Y%z$:%,%s D D v u ].p p /.G m a$B G m y @@{.A ;.-.o.Z l D*s-2#n.t-^$-#n-^+#@D {.o.R :@w n C s@s@q@_$B+a#q@B+n p+%@_$B+p+_$p+o.3#/ ( / / / l B+G@`.n ~ l n - 9 b c @.7 7 2.Z l 2 z o 1 l Z U.x S B n n w w q D m q v v G q t - 4 o.C+4.e#6 -.1 1 &.2 A A *.S 6 o.o.U.-.@@|@2 2 -.S A z ; 2.o s@0#q@p+D $@q@0#i$C {.{$o.Q Q s & F#o 2 *.*.%@%@B+%@2$l$S$|$x*8=H@| [ ; +@)+p&M+q=N J+H * /./.[ : 0.) ~ l ( ) u.{ / 3#a.> ) '+> m o B P+Q+w ~.D 0#v.' { u o-%'8@/%,+m+(.}+k+-#!+(.=$u.] m+' u.: ) m+!+Q&Q&0.{ - ! ] n ] ) ] H@H@G#`.B+3#-.o.Z 2 ; *.2.l &.%%Y#m&C S B ^$=.4 z > ; * $.a 0 +@g )+W$$.8 O,<)H +#0 8 +@+@>.0 0 $.n > p 1.(+} 3 /.z 4 o 9 H N*I H L+[ [ } , )+L+T'T'O,`^N=&/!^3)*/=/A%^>g,%)Q.{)L*U~L*#{c^-/;/d{I-S,o+_+o+u 8@u ' Z.!+(.}+> r*7@6#: 0.u.m+: ( H@^@o.- { / ] 3#^ ^@/ 6 =.@@1 1 U.5 o l.m B w y C H+Q+B+l ) _ F.J.B&J.1$u@2$s+#%u-^-^-",
"^#%=+*#*p&g%a )+g @.H O,I 8 h b 7 7 0 !.0 +@>.+@9 +@+@!.$.9 h  .8 a 0 >.!.a c a @.k.#.#.@.9 L+g 0 !.9 +@.@+#3 * G+Q p ].[ Q :%_%z | 1 > [ u ,%H+v=v=,;Q-X#5%z$ %D B {.T *.S @.9 9 0 h | z o D q {#_%I+X#X#:%s t v t v u G+p /.> /.D 1 | 2 ;.V$U.h 8 0 8 ]#..i*` C+w r ]$1.Q l.Q+_#y r /#_#l.w T C %@w.D n _$_$C w.I@w.D %@o.%@n B+l l l l / / l l ( '+: { ) 0.'+.@+@b b +@+@&.l 2.2 1 A n 2.S 1@/#T Q G+p p Q ~.G B C w m l.l.m } n e#C,2#_@o.o.Z l *.*.A n A S o.o.|@|@-.o.o.l A | n z [ < | z v.n+p+C v.O D _$0#B+S C n o s o $%&.o 1 Z 1@B+{ a#w.s+A@O@d=>=~&'+3 1./.a  .#*7%+*e%+#J+|.]+= 1.Q&u.! '+'+n a.) ] l 3#l l B+B+C ~.z$l.R m.R :@;&o.D _+u o+>+}+!+' Z.' j+R.D$K)!^{+(.l B+) n a.] a.u.!+_ a.) '+~ a.l { a.G@`.^ X.X.B+n ~ S k @@U.1 1 A Z &.E#%%2 G {.B S n < &.| | } !.b >.8 +#)+L+)+*@H g >.>.a 7 0 +@a #.7 >.!.- u p #@1.- o > * 3 L+*@>..@+#[=]+[ }@]+X**@*@*@z-q)8^f^A{>/,/o-o#w@f@q#7{'/)/!/c^#{d^~/d-@;i-v>_+_+u v.B@D ! _ m+: ] a._.|+j*6#/ o.^ C@G@r@;.V%^ I#G#'+'+/ o.G#D.C,2#S l l l Z {.G S S x C `$Y&] a.> ' K@B&J.C&h@e@e@y#5+.]P##;",
"]#-~+&]#[%[%#*f%}{f%H K+*@+@h >.8 8 $..@0 b +@0 0 8 8 0 8 a c k.@.7 8 !.!.+@9 >..@9 a @.h *@.@@.7 !.0 8 +#L+4 - G+u 1.(+(+^._%W#4 > o z Q Q I+X#=-_;u=v=Y%`$`$`$P+{.2 n b !.7%#*@*9 b 1 o z Q G t t o n B l.~.v Q v z o > /.* * [ [ 9 8 b k.f  .=*=*N&V*z>K,m' &7-C n.(#P+_#7-@@y B w Q+R T T q %@q@n n B+B+q@C $@9.B+_$B+%@$@B+C@( l ^ / ) l D@`.n ! : m+Z.Z.! $.!.z 4 < z ; 2.A n G T S {.n ~.l.n o u ^.[ v ].u o w w G G m l.k 6 V$C,4.V$1@o.|@-.5 S 2.n l 6 _@)#!$~$e#5 S l -.&.A } /.2.*.-.8._$$@%@w.p+q@C n s@x T {.{.m s E@2 n &.n n n+O q@9.e@Z@Q@F%'&r$> > [ 4 7 ..p&h*+*h**@H }@}.}@|.k+: '+_ Q&Z.! / l a.! n / l l B+C F s&x%7!c!x r a#D ) : /%(.}+k+0.> ' 0.{ : j+O'!^-#1.x-u D v.w.%@%@v.v.%@p+B@O p+9.%@q@o.C _$$@3#~ a.a.2 5 k @@A 1 1 > Y#&.X *.v Q v #@1.n | > [ 3 +@0 $.>.L+g 8 +@L+7  .$.+@7 #.b !.9 9 !.7@q&- - > z < 3 < 1 )+L+H H N+N+N W$* o * ,#),O+*@*@X^{/]/4]=$!^a'%@++z#6;^,~)^///<{0~(/_/4^|,S)d.F._+O C i$0#i$X.H#G#^@l !+:.o@9%/@p@^@n Q&D$Q&n B+a.! 1.j+!+' 0.3#f c R.:/p'!^$=n r m w D ,%H+`$a$' - K@6&o#3+g@u+[+n#>&#%C%B%Q#M#",
"+*]#=*b %=%..&c [%!.*@9 $.$.7 +@0 *@g $.9 h 7 0 h 7 @.#.@.h +@>.a @.` %.h !.$.>.g !.h 8 $.0 h 0 #.8 0 a 0 $.} 1.Q t ^.'$'$1.F$v v z > o D s ,%F$X#u=1-1-X# %Z$s&{.B A *.c 9 .@>.@*8 h 9 < > [ Q m B x Q+x T w n S m > o o 4 /.4 > [ 4 | >..@0 ]#[%V- * *z>x,M,j;3$o.o._#6 P+w v T C {.n ~.t B o i$o.B+%@B+C p+_$0#/#8.0#o.O v.$@l ~ '+0.m+m+'+^ '+] ] u.(.: ) _ !.$.- - /.> ; 2 A S S Q+x y x C w D G m v o S S o q B r :@:@P+R 7-C+U$_@|@)#D.D@X%0%7-3$e#;.'.U$C+D@4.0%3$@@_@V$;.Z &.S 6 :@6 7-`;r@R$a#w.C 0#C q@a#{.(#(#r x ~.Y#E@A A n ~.B@O n w.y#h@7+7+M@1$'+2.z Z ` ..E+!.e%!.+@z /.- - [ } < _ , k+Q&: { n ) ! a.] ( `./#R g*b!@>c!%*R Q+0#$@' ' 1.m+~ 3#^ l ~ ] '+n '+!+#$$$-)x-%'1.F+;+>+)*u l+$@n D _$8.q@B+c$X._ : '+- a.a.'+2.; z 2 ; > 4 z *.%%]-A+v P ].p ^.u | @@6 o $.L+g +#*@g h b !.0 b .@.@8 @.#.h b !.8 j.Y@0.A G#o.( < > n >.0 9 L+H .@f%X*/.> 2 , }@]+K+$'{/-$4]k+!^{+}+l q@x@O{p#g,@;c.a>n,</[/S,K*'+'+O u >+>+8@O O (.~+k+R.&${+/%j+!+0.> { > Z.=$j+m+Z.' k+D$R./%!+,+&$<@]+2 z , ]+| n t G B o :%I+F$'$)*!+L#K@<+o#g@e@g@J@L@#%7=r$/-=+",
"@*b 8 o +@z 9 z k.b g )+q=M+N M+*@$.!.8 a >.*@+@7 h 9 !.0 9 !.7 @.b 9 7 8 !.9  .>.>.+@h 7 +@9 h > n &.1 A A z * - } Q v G+u o ~.W+[#N%W+w n ~.D t :%5%X#I+I+)&r&w &.&.2.*.2.l U.7 S S o /.> n n ; 1 Z o.2.2.2.4 S S C B w q o D F${#[ o | < < b +@!.%=.&z>`,M)<' @1@..)#D*k &.< o 2 y C q n z$Z$o._$n+$@q@q@p+9.%@p+n r@<&C <&i$s@a#p+l+O D n n I@v.q@O v.p+a#0#l 2 &.*.U.o.5 l > 2 Q+/#]$P+B G Z$5%z$ %6% %Y% %B C x o.o.Q+P+m.C o.1@e#;.V$U.&.%.#.U-l;/=8!}/${-.A;H=s*X+W+}#A$t n n C R g*m.l.B B l.B T B l.w y {.C o.x Q+C m }#Y+[#Y q m w q n B+A@g$u+1$,&t@^ a @.i i %. .2 +@| o ].o #@}.].1.]-3 , * > } , < 2.*.o n 6 |@x n 6%_%.%{#F$o G n t v w l.l.y %@D 1$0#_$9.D m w D o l+l+8@' o#/,0)F+:+I@8@)*: { * ; ` -.1# @ @,.E+c 8 h ` 8 < o ; 1 G m s t u ^.1.w%t ~.D o S m.A /.* 4 $..@.@L+- ; 2.1 /.- !.0 8 a $.a @.k.=*4#) `.!=1.v>(.B&'+!+n u.'+~ 0.r*B+c$c$w.)*)*>++/p{a';+}+~+|/@~1.: O !{o-:+$$9!k@K@+~1/1/-#Q&!#^.#@;+(%,+%'(.=$A'N=:.q&Z.Z.1.,+R=8@Q ^.1.u v u G+p G+1.u G G u 1.G+F+}.Q G+q {.Q w T l.G G n s P #@:+y#e@J@@-0-^-d$#%5+Z@g@x#B+w.l+",
"8 0 > > > | 1 ; [ }.T'O+N +&>;f%g%a 8 h c b +@+@#.%.k.c c @.7 7 #.L+[=9 !.!.+@7 H $.b @.k.%.E+ @; ; - ]+} z o 1 z * u D G n q [ V n'r=A+t n T G ~.o :%H+y$I+)&r&n n A 2.A 2 S 1@A 2 2 &.1 o | &.-.2 2 2 o &.l n 4 z o G G o s t F$o&Z%X#o v /.z $.$.]# &<'6{2/2-V* .'.2@,...-.1@-.S x C T l.X#Z$_$a#8.q@n p+_$p+_$p+n i$<&o.9#r@s@0#8.a#B+C C B+D n B+p+a#/#/#0#2 2.U.;.k U.l S *.l x y {.r T q  %a$6%a$Y% %a$`$~.t o l.w o q {.n T A e#)#V$|@o h d /=S*3/3/4/Y*l@6 D#= X+T&}=d~p u t G+.%I+Z%Z%G o s G m D t G C q m B l.~.G l.A$Y+U X+n T n G C B+g$g$y#t+,=)@n@9 j 1#,.c S &./.< t u ^.E.}.p I$0&9&& I$P!,$5/, z A A > 4 | m q H+.%.=.=G$s m ^.u ^.Q D o s 1.<+n#B@o+I@u o n w ].I@n+{ 9.h@f@,+8@I@l+B@O ' j+@#O+L+a j  @i*i*i;<% .b 0 #.2 > > 1 q D w D o w n I+~.B R 7-D@w 4 /.o 2 c b 0 +@4 < 3 }@}@3 $.$.b $.0 ` +@!.#*9 1.F.@;L.O.I-O.i-Q&R.k+Z.}+%${+>+*;.!-)F+R=R=[$%'h!q{t*9!R.j+- : *#!#;+-#y'B'6/7/`]=/8/h!t ].W+V 9)V~;+-)#${+X]H |+H ' _ 1.R=T=*;p (+'$1.p p u t s s ~.m m ~.D D p 1.;#F+[ m T {.n B B l.m Q G+[ [+n#g@n#+,+,^-4+F-.]s+h@n+D ^.1.",
".. @-.S A n ; 1 ; /..@8 ^#[%@'+*N&f i 1#E+%.j 1#1#f i d i  .c 7 @.+#W$+@+@h h 9 )+!.+@$.!.c %.#.z > * = } [ /.< < 4 1 1 s D q m L%A$n'n'o n q n m D Z%X#b@i+6$I+[ 4 &.A &.> | 2 Z 2.A S l 2 &.A 1@o.U.n z 2.o.2.1.} Q s o o D s G$W#s l.C m o | 9 8 #*N&Y,i;{>@'i*%.`+`%E*|*k o.C+e#@@_#(#@@Q+n.U*p@`.'+! ~ 3#3#`.3#] ~ B+l / ( 3#B+`.G@o.~ > _ 0.{ _ ! a.( ~ ) o 2.5 l A *.*.2 n 5 P+P+T r Q+x F E F a$X#Y%`$`$o ~.q n w l.C r y P+1 Z e#_@k -.%...h~<~$ /=%>v+3%A;D#A+X+U b&S=u u v p ~#G$F$X#n q ~.m B ~.D T T o ~.o G [ D G b&Y+X+Z'u s Q ]._$a#2$u+J@A@@+++ .>.#.).D*`%=.; /.[ 4 4 ^.[ ~.o F#* & F@, $)[ < < z < /.z > z t q a$E F H+ %D ~.l.m p D m S ~.P J.H*l a.( ~ l Z n < > ] a.a.b.!*' u.!+u.) '+[.q&.@L+)+a ` %.c b @.!.9  .h b o | [ * - 4 [ /.1 S T S [ D =.6 }.-#[ | #.%.#.0 9 a 1 | z < > ; 8 >.h h a h 0 h b h Z.o.8.9.p+D B@:+o#r#r+f@q+/,t]s#+!9/$$x-%':+>+O )*[$%$K)k+-$$$V][$x-;+){0/a/a/b/0/c/3{F+r ~.@=d/w!%'-)9!#$Q&9%j*_.H m+- F+,+I@I@P 1.p v t Q Q t T t [ q q v D S z [ R.]+3 [ 2 &.1 Z 2.[ , * /.< Z@g@J@n#P#^-#%L@F-F-s+s+I@:+;#P ",
"f f Z l A &.| o Z S 1#,.i*[%~>p&,.i @.a k.` f |# @k.c h 9 9 h h b 7 %.` 9 0 0 $.)+>.!.*@!.c 0 K+,$]+} < ; 1 4 4 [ [ < /.[ Q t s L%@=S=a&[ ~.m ~.q v ,%Y%6% %r&i%&.n 2.Z *.; 1 &.l l 2.l A 2.A *.*.-.|@S &.l Z ; > o ~.q m n n w m G o G m m > [ 8 @.h*g%(>S.[%g%E+E+2@Q!e/q*5 Z o.@@:@x y S m {.;.C@n '+a.n / `.] ] > : ] 3#/ l a.! _ 0.u.' - _ C@`.0.' 1.- { 0.; 2.*.&.n S Z *.5 |@y l.Q+P+/#P+)>K$a$z$:%a$Y% %x Q+x C S y /#@@R _#k V$3$|@&.n +@!.U-O*b,7&f{m@z z ]-E#b&a&W+Y+S w t o :%F$Z%,%~.m ~.~.n ~.o T :@T T w w B C o N%}#Y A$'$1.[ ].{ %@h@u+)@C#++i$&@8 f E+j h ; [ &.n z - o m m m $%-.X E@m&%%o A - | 4 > S 2 < q q X#Y%Y%Z% %o Q y T n Q+~.m o Q B&F.~ ] ( / U.l | 2 a.n ( 3#N.H*~ > q&! (@(@Z# .f #.c ` 1#f c 0 W.g)O,+#b c l A ; > 4 > |.]+[ &.2.t p Q * R.= 2 ; &.0 +@h b !.0 A Z 5 S 2.2.c a +@7 0 >.a h g A `;j$C O $@n+)*B@s+g@f@q+y#n#J@7$V~0@,+R=:+1.O %@x-R=m+k+k+R.}+-$w!,+[$h!h,q#x#,~a/f/t]F+!{;#p !#_+u { n+0.a.5$6#7@H }+j+x-:+I@8@].u Q Q u u v o t m q [ Q n l.o &.o 4 * 1.]+|.3 2.2 4 , 3 } * 4 J@g@Z@g@^-#;>&/&L@>&h@J@_+,+P Q ",
">.9 | ; ; | D t /./.8 9 !.L+7%@*0 @.+@$.h 8 *@0 9 8 b .@g b c >..@8 a 7 b @.b >.b a h b 7 i  .+#,$|.3 /.| > < z 4 4 z | 2 n > [ ]-F#z Y#s D G ~.q v v n j%J%)=x%_@-.l *.2.2 2 A &.2 ; &.4 o 1 *.2.1 &.2.A ; | 4 n ; D Q [ Q t D w *.n /.- > > [ 9 a 9 ` |# @` j 1#j E+B*q*1#k D@1@2#m.S x o.{.{.| o 1 A *.A n A Z Z ; < &.l 2 n a.] ) ! _ '+! ! : ( ) '+! / l ! 1 | A o.6 l 2.S -._@m.r :@P+P+Q+s=0$a$s&T S B C y {.T S U.6 _@=.e#;.D.7-k *.*.2 1# @#.b 0 $.$.>.%%Y+v#v#[ s B m @@{.D G ~%y$b@y$t q G t s ~.q l.x w T x w Q+o.~.U&s%:@r m ~.n n w.$@x#.+8=C#k$B+n@b @.9 )++#> o < z < 4 -.2 q S 2 & , v#3 = = [ 1.3 = < n !+,+w.C Y&6%`$[ u v G+#@(+[ w 3 [ /.z B&t>> : * < 2 > o n z &.3#r@{@f=i.(@i>Z#=&7 (@j.%.` ` ` E+i ` 7 4 ; ; < &.S 1@|@1##.9 )+0 >.>.z 1 1 1 1 !.+#)+h +@h 8 >.9 9 %=#.@@_@|@l n A Z -.@.+@+@a +@.@*@1@t g/h/C'T=0@=;~%&+w&G%p%B%Q#('c'F+R=x-;+8@{ n+l+o-w!Z.1./%Z.a.: q+g,a{g,[{'>z&i/j/k/z@!{l/!#}.;#I@w.8.q@u._ 7 n@q&1+R.R.>+o+1.R=P G+].p ^.G+[ t v o n l.B B n G A 8 >.X*H W$O,+#b 9 *@>.b 0 >.> J@J@J@g@#;L@S$d$4+|$u@h@O ' t t ",
"+@8 ; n &.1 D t < /.9 0 b 0 ]##.$.#.7 +@h 8 >.a .@9 0 >.!.@.` @.i j c  .%.%.h a d i E+k.h ` f 1 | ; | | 1 z z &.> n 2.2.2.&.| ; * E#%%E#m ~.t G w s u v y$r&1*i$k S ; ; &.1 o > ; ; o n /.4 o Z _@S 1 n Z o.U.*.o.S q t [ Q s ~.&.2 S Z 2 > > &.9 +@h f  @d %.d 1#7 i '.d `+)#l 3$s-n.C {.Q+Q+T ; 2 A &.; 2 A 2 2.2.o < | 2 A &.! a.0.: !+{ 0.> ) { : ! '+'+! 0.o ; l 1@o.*.A S ;.-.l.n m y P+x 0$;*x%l!D@m.@@{$]$L${$m.)#3$2#D.|@k k _@o.Z 4.4.q*F*+.1# @d f 7 X $%&.Y+o m {.{.o.w n m i%i%b@ %D w l.o t m S C Q+C y D@y _#{$R h;V&@@/#@@Q+l.l.C s@t@l$)@e@q+F+-$I h)K+g *@* | &.|.- /.* R.s q & ]%^%]%R.[ | n > > 1 n 0.(.u.s@l.Y&a$a$s s o [ G+Q t Q ]+- , - ) F.] ! - - | [ o < - ; ] / b.w-K;L;}-8%Q$H;w#(@@.%.%.c 7 7 8 < 1 ; /.z &.l *.o.c @.h >.)+L+*@>.!.1 *.2 *@H .@0 8 7 h 0 8 h p&#.'.V$;.-.U.o.o.U.c !.+@k.7 h c 1@].m/E).%b'X$I+i%l%w@(-$+E%>=m$X@t#1.1.I@O o+I@>+x-,+Z.- k+j+1.1./,q#J@r#n/o/F-!@d=G;6/p/O'0)!#u ' { 9.' j+- +@:.|+o@=$/%_+I@)*:+E.'$G+p u v t v ~.s ~.l.T n n B 8 $.O+N*$.L+W$g +#g L+)++@8 b 2 !*J@y#n##%4+4+>&^-|$.+.+n w.o ].",
"h h &.&.n n w l.n q ; *. .#.a a h *.l l o.6 S n A 2.Z k _@o.Z -.@@S n U.o.|@U.l Z n 2.l 1 | | * 4 s t t t u [ ; z 1 | o ; o 4 > .#.#9&F#[ < o Q ~.s [ p 8@u v.$@Z A n 2.2.&.> 4 1 n | 2 z ; ; l 5 *.> - | 5 U.A 5 *.G t [ v D ~.A h j 2@..a $.8 ; 1 &.Z 6 1@Z 2@,.[%<%Y,` d 2@!.k @@U.S l.o G o | 2.S &.4 z n l | ; 4 > > | *.; } 4 4 A ; *.; &.n z ; *.S ; z ; S U.5 *.A l S l U.U.Q+:@{.P+/#R o.R (#;&7-L$L$L$)#D.3$@@;._@o.&.E#A;X 6 =.z+D.=.2@..T.B*'.d %.0 Z 1 | &.n n w C p+n+w.{ i+i+y.9@s D m o ].D C B r r o.P+y R @@R y P+Q+x o.Q+_$$@q@8.w.v.A@Z@t#p+( } |..#/.[ ; n > }@3 }.5/;$| z ;#p v s G l.q t G s D $@9.n+$@_$D o.r@c$$@v.l+{ a#a#B+{ ' { { n 1.: '+_ < * /.< o < z z '+u.u.9%K-&~&~8;=@#)#*N&c @.@.7 &.; | z o m | > < &.2 *.h c ]##*f%+*h*+#7 >.b h +#+#+@!.-*]#=*]#@*g%V*%.E+o.-.-.1@k U.2 4 | 8  .%.` 7 /.G :%_%w%^;I+i+X$q/e)r/v@R#d'7==+<+_$q@I@)*8@D o+u._ m+: C@u.~+D$^,y#^-s/e$.]t/u/S$v/6/j)-+I@$@o+o+o+' 0.u.Z.Z.!+Z.Q&(.k+j+Z.O o+'$P (+'$G+t o D D [ [ ~.G o G B >.L+),W$9 )+L+X*+#X*W$H *@.@+@S F.s+J@n#^-^-^-^-^-/&t+2${ ' v ].",
"j %.2.2 2 *.x Q+:@r l -.` ` c @.S S Z 2.1 2.Z A 1 ; ; 2 2.> } < |.}@* > , /.> < } $=|.4 4 z o - m m G ~.o Q < n z &.n 2 l n 4 4 {%$)I$F@[ [ G+G+p Q s t l+v.n+$@*.2 2 2.2.&.; &.< n o 1 < *.&.o | &.1 z | A *.2.*.2 G s t D ~.q +@9 8 k.f %.a !.; 2.1 -.@@o.5 _@.&V*V-(>k. ...)+= } > 6 r o B y =.k S 2 ; | ; 2.&.n o 2 1 o 5 2 o ; ; o.S U.A S A Z e#5 l 2.2 n 6 l | 4 > ; 1 > ; A C l.S m q w P+P+/#o.@@@@_#o.2 l -.|@@@|@l o B=m&&.Y#X s*5 &.)+h ,.|#.. .9 !.| z 1 &.l.n ~.x w.{ 8@8@W#i#y$I+t u o o ^.Q B l.Q+P+x G x o.r B l.B B q ~.S i$B+p+p+%@R$U,++1$a#U.o [ /.[ ]+}@}.}.l -.1 | 2.z }.p t n q w G q ~.D p _+' D l+n+s@p+R$c$$@o+O 9.`;_=%@] n '+] ! u.- ] ] ' < } - 1 1 ; ; } `.n ) r*K;w/r.x/j>=@]#$-%.@.@.%.5 S *.l n w S A 2 A S 1 b 7 ]##*$-[*--g%$.*@$.>.*@>.8 8 +*+&h*+*]#$---f o.U.*.2 l 6 |@o.;.k %.%.8 0 b [ B ;*a$w%j#j#y/^;z#^>z/v&A/('n$^>h@O w!F+C _$_$C a./ k+a'0.{+B/a'p#<+[{n=A&c=C/D/E/F/b/h,I@F+R=,+>+,+/%=$k+1.!+1.(.1.: : 1.- v.o+F+#@#@#@^.[ u 1.p G+v m w ~.D o b L+O,X*)+J+H [=L+!..@+#*@+@8 ! F.t+u+Z@F-H>F-P#S$S$y#y#>+x-p t ",
"h 0 9 +@| o t Q G m v s 1 > 9 >.[ - * /.3 | 2 ; [ /.< < [ - /.z > 2 *.A &.| 4 - * ]+[ /.* < * , G G s G w B S A ; ; 2 l %.c >.H F@F@, I$|.= } /.Q s t s $@w.B@D A S S o | 4 | 2 < z 1 l 2 2.1 4 S ; 4 o n 2 n &.&.o q B n w s m +@!.$.$.!.0 h @.o 1 A &.*.U.&.1 e%7%%=W*|#` @.$.4 * [ &.G D G Q+*.|@&.l ;.o.; 1 1 n o ; 1 4 | 4 o 1 4 > 4 | z 1 2 4 4 | z z o 4 ; ; | z < 4 1 2 [ 2.o t m q l.{.C B T T A 2.l S &.&.*.o.,.d T.`%I~(=Y*~;x+l;S*$ @@D@1@_@;.S `.] S 2 1 1 n+{ n+n $@v.u O p%P&P&I+~.1 A *.&.&.A 2 -.k l l 2.5 6 Z w B m G B y c$B+%@s@<&c$s@q@v._+[ ]+;$5/-^>$}@} &.5 o.l &.; ; 1 q G ~.~.q G D v n+{ 9.p+$@{ w.%@s@R$a#a#q@p+R$7.r@l V%o.o.{ { > { / ] ' 3 } v#& 9$, , - ] ! a.j.<-8;w/x/G/8%e%g%a c h h 2.A A S A n 5 -.S 6 ,.8 +@h @*@*^#N&]#+*8%H;p,5#f-<-i>Q$*@_.k-O=|+j*_.7@! w.p+n+{ u.> ! _ 1.- C@_.4#[.l (#%*x%=;b'W#*;r&H%w&6;P&v&9,m$O{f$>+w!l+B+'@p@a.'+I#1.@~j+E$z-+~r#b/o/+,m{H/I/J/K/r]a{q#1.-#[$>+) > k+=$}+j+:+R=:+>+Q&Z.1.j+Z.{ u Q 1.;##@'$#@P 1.Q s D m D m m 6#|+1+/!/!O=1+:.r*7@r*r*9%k-k-' c.A@.+2$L@^-5+5+/&#%t#r+8@B@s s ",
"+@!.9 b 1 z [ u Q s ].u < * )+g > z 4 > - ; 2 ; 4 1 &.| > | 1 o *.-.*.o z /.* /.> - 4 z < > 4 - v D q Q+:@C A ; > > > o 0 +@$.)+* = {%{%1.- < 4 o ~.D o p+n n+w.o 2 l | [ 4 1 4 [ o &.2.6 o.Z U.&.2 n > < z 1 ; *.o ~.G w n D D +@+@0 8 +@9 b @.-.5 6 o.o.*.[ - +*7%%=V*1#@.%.` < [ 1 < n ~.s w 4 n /.2.V$V$Z 2 1 &.z > z 4 n 2 4 | z z o | z 1 &.4 [ [ * /.; *.2 ; | o | 1 1 o 4 &.o [ q D m {.B B C l.&.Z _@V$5 2 *.1@..`+B*t&t{y;i{h~Y*[~$ h~)#V$e#e#;.6 H@G#6 U.*.1 w._$q@%@{ B@v.$@~&H%6=x;C@*.S 2.S n 5 2 2.-.S 6 5 U.1@6 x r w w n m s@o.<&R$<&B+o+-#-)-+}@}@,#'#$=} | &.A A 2 &.| | 2 Z n q G G q q ~.s n 9.q@o.8.$@n 8.B+i$/#o.9.p+9#/#G#3#o.C@B+) a.B+'+~ a.u., }@I$A+* F@1.3 _ a.n Z#i><-8;h>p.8%+*c >.9 a 7 | > &.l l l -.o.Z o.1#c 7 8 -*+*-*p&g%%=g-8%f#f#8%8%g-8%+@:.O=H N*O,1+(.' O ' 8@(.1.m+0.'+_ m+( r*7 7 - %'7'6'y.x.9@x;{-L/!&'*^>9,s$u&z/z'B@B+o+[$u : -#! X.u./%/%$$q)O'H)`).]+,M/[{I/N/O/[{^,2)w!-)x-,+a.! }+k+Q&1.1._+)*1.m+_ _ - !+m+[ v Q u ^.}.F+'$(+[ D ].s o ~.G '+6#*@|+j*j**@r*h%[.[.h#[.j*o@Q&[+Z@h@J@0-b-B]e$s/H>[+J@w.%@n D ",
"a 8 9 >././.s G t G t t z - /.< /.> 1 ; 4 4 } }.[ ; 2 o z | o [ - &.| < 1 ; 1 *.o 4 /.z z o ; z t Z%~.{.S D s D n A #.c b !..@*@v#* 9$F@, 3 - /.- | G D B@l+D p+q D s ~.s q B T m l.r T w D q q z 1 1 [ = 1.[ 4 l o q ~.T B w w #.7 b 0 !.9 k.|#o.k U.2.5 1 3 A g%7%h*[%i*N&1#d +#H * - *.o 4 A b %.@.i +.d %.k.8 7 a a 8 0 c @.a !.b a b c f ` 9 0 b #.%.c b a 2 &.1 1 1 1 > < = < q u ~.v s q n 2.Z @@=.1@Z @@|#+.i 1#).F*D*e a]P/Q/R/P*/=h~(=k k @@e#H#0=r@^ H@o.3#l 8.c$c$o.t+2$)@k$H%*+~&1*^ *.*.2.U.S k Z S o.*.l S |@o.2 w.C C $@n+n q@p+l+8@D $@I@>+o+)*D m ; < /.| | /.&.2.7 >.>.7 %.l n q ~.G n l._$p+%@_$a#s@p+' D 0#{ s@R$a#C 9#2#H@B+/ u.{ ~ '+u.) [.[.9 +@+@*@8&v+# v+)+N*O++@7@_.:.4#i>(@j.j.4$n@c ; 2.Z &.o o z c @.#.c 7 c 7 a @.a %=+*7%@*g%]#<-6@4#[.4#6#5$Z# .6#|+9%{ n a.Q&:+%'-+-#;+_+j+j+/%&$&$m+- _ ) : :+^>6;/-o%w&(-]>+!9@k#+!0@9)S/V~)*' Q&u.o.~ {+R.' > o@O=k-H H =$d{o#u+C#>&P#G;H>+,@-i@^,-);+}.G+n n@Z.Q&u I@u I@1.8@v.n n 0.|+}+(+].D s ].p u u P 1.Q G+Q Q Q ~._ { Z.!+0.~ C@) - Z.) n Z.Q&' (.<+f$q+t#.]5;s/5+^-5+J@u+n+B@s G ",
"b 7 b $.* 4 q n s n ~.~.o /.z o < z > 4 * * 1.}..#} z z > ; &.o 1 A 1 /./.z o n | > } [ < /.> u v F$Q ~.s p v ~.4 | h b !.*@*@$.F#]-z & * 3 } - /.4 v u ' B@D { 1.q n q s G ~.w m t D o G q w D 2 ; o > 4 /.4 1 *.&.B m w B B {.l a h 1#).D*'.`+)#A 1 S l < , !.@*+&7%g%$-^#` f 9 b 1.n Z 2 2 Z k.k.a  .E+,. .c c k.k.@.a 8 h c $.H $.>.0 @.+.d k. .k.i `+1#h 8 n 2 n ; > 4 4 z /.4 w m T n q Q+;.;.|@)#!$=.o.1@f 1# .@.,.|#2@=>T/U/P/V/Y*/=R*t~D@|@1@X%;@!'T%0%0=r@o.H@i$s@a#a#x#u@l$h$!&W/n%m%^ *.S S *.S l A l 5 5 |@-.-.U.6 n B@D o+R=,+o--+-)8@B+0#D I@n i$n T 2.; ; A A ; A A 7 h h c @.2 n q ~.G l.S 8.8.o.B+C C $@' 8@l+l+$@n %@B+i$^@n ) ( }+: ^@/ !+_ +@4#7 @.k.@.P*I~<=# k.c .@.@H q&&@: :.0.4#Y.r)5.k U.2.1 4 o &.; a b !.$.+@!..@!.7 #.p&@*]#]#]#=*L;<-&@9%r*&@5$Z#7 5$&@: ~ l ! !+{ ' _+)*8@' }+/%/%/%}+j+}+u.- Q&<+r$%+-%=+s$v@X/i]6$b'S/0@^;9/T;R=v.^ C@] ~ m+: Q&,+H e!X]o@j*E$@;<+g@C##;[{m{H>u-s#h,w!x-}.E.^.9%9%,+R.>+:+>+>+R=8@w.%@] 0.q&1.1.v G Q ^.t q [ ].p o D s s m o ! - (.u.! _ : m+! { ] '+' 0.> k+J@y#o#q+5+!@A*n=S$5+f@y#O ' s w ",
"8 =*b H |.z l.w 5%6%n n m D G m /.z > 4 > 1 ; | * 4 1 &.&.1 | | | | ; o [ z 1 > ; | 3 * /.- [ ^.p F$_%Z%v u D o [ < !.*@X*J+g 9 w+b,`@m@/.4 z 4 > z < - l+w.9.v.v w G s [ D s q G q v s G n o G A ; | ; &.1 ; n S *.T l.n S B {.o.A | n l l 2 ; c L+8 j 8 @. @c #*f%+&%=V*[%h 9 0 @.3 &.1 S -.U.S*/=~;P*S*<=u#O*x+O*l@U-@ b,w+u#b 7 b $.7 8 8 c ` %.#.`  @f c c S l 2.; o > | &.1 &.{.Q+n G C ];X%)#@@D@`+'.q*).+. @Z+T-`>W;K,3/Y/Z/`/`/y;->I~(=e#V$Y.&)~'^@r@z%^@3#/ B+l$g$g$)@2$2$@+h$c%(*-=!&n | U.Z 2.Z 2 2.5 o.-.5 *.U.*.2 ' x-w!!{-+,+,+' q@c$c$q@~.t o B Q+{.l.G | ; 2 2.A 2.k.k.k. .#.2 S l.q G p+C 8.0#a#o.<&R$)@u+y#3+8@B@p+B+] B+^@n ' ! l H@5$q&6#5$6#Y@k.#.l;O*b,`@3%# h~x+.@)+&@6#> 8@,+_+}+p+:=V%> 2 1 } 3 z A 5 #.]#+&h*@*+*e%-*a c 7 h c a 0 h n@+@+@r**@6#n / ! : m+u.) { I@u v.v.{ v.v.l+v.v.}+_ _ -$/%1.k+=$o#|$m=m=h$h@y#g$'@9.){ (t p -#u 1.Z.0.) ) `./ u.k++~O,O,N*/!O,+~R.o+n I@i@^,g,g@r+f$o#F+,+}.!#-#1+H D$-$F+%',+,+F+)*B@w.) 0.9%!+= [ D [ ].q l.v [ q C B o w /#v F+R=B@p+%@9.v.w.l+O u 8@o+o+_+,+y#[+f@3+^-/&>&+,5+P#f@<+8@{ ~.[ ",
"%=p&9 N*R.4 l.w Y%F l.l.B q n w < | ; o 2 A 2.A 4 > &.2 n ; ; n /.< n 2 4 > 1 [ z < , * | ; o t ,%:%,%F$u G+u G+4 o b +@.@)+$.0 l;O&b,8&} [ > 1 4 > o 4 l+w.n D t ~.T S o t o G v G G m t o ~.B o 2 l 2.n 2 A 2 -.Z S x Q+D@R P+|@S ; ; *.Z 2.| +@ @,.|#D+B*E+#.V*+*+*-*N&N&h $.k.7 ; &.n -.1@@@Q*$ R*[~S*P*U-w+ #b,@ 8&m@U- $O&8 @.c h  .c 8 h %.@.8 !.!.+@#.d 1@5 2.n n A 2.2.-.1@Q+P+Q+D@(#t-D@1@e#7-2@E+f f @.1#).'.i*K,i;;{D^+{.(+(I~<~y;%{_@|@I#o.`.^ w.v.- { ~ / g$g$1$t+t+y#t#t+@(@(>==+: - 5 *.S l *.*.; 5 *.} ]+z $=#($(h!$$x-1.B@$@$@C s@n l+q B l.x o.r x x Z l l S n S ` c c ` f l |@x w G 9.p+q@C s@o.0#8.h$l$t+t#_+I@' 9.( ~ B+/ ^ ^ o.B+ .:.r*4#4#h%k.+@v+~;P*8![~<=<=u#b $.[.0.' v.8@8@1.x-;+!{}@4 > /.| 2 2 #.[%]#7%%==*-*7%p&c +@9 0 !.!.0 +@&@r*Y@7 &@w#n / ] _ ! '+{ { n+n p+$@p+D { B@9.p+Q&_ : ) / 0.Z.v>O@#;/&^*@-J@A@.+R$>+9!}.p p 1.m D$m+/%!+3#) +~a': !+v'A'1+H e!E$Q&n $@w!i@`)i@7$[+r+1.1.1.!#n'X!1+|+R.,+_+:+_+)*>+1.o+' > ! r*Q&|.P ].v s G q D [ G n l.s D R [ y'-)O v.{ n u :+;+1.>+,+)*I@I@l+g@<+s#/,G;n{j/5;+,L@e@y#1.o+p ^.",
"+*#*0 >.z &.w ~. %`$X#5%w G G ~.m w q [ ~.~.m w ~.n w q o D D D [ [ D D Q o l.q u p ^.u w S m q Y%z$F$,%[ 1.^.1., [ 8 a b b @*]#8!l;# U-- * < o o | 1 o n+q@q@B@D G T C y L$<$n.o.x o.P+o.P+/#y 2.|@)#e#1@-.U.U.o.-.y Q+R L$@@P+k _@;.-.5 o.-.*.#. .j |#1#0 0 h V*b;[%g%^#p&b @.f c 2.o 1 o z 2.O*~; #v+u#u#H$`@ #@ U%8&@ w+U- $a 8 a @.b 7 c h b b @.#.b +@c j U.l A 2 A *.2.2.n -.{.{.C @@@@Q+-.k E+c 7 c k.E+E+1#V- &S. &V-3/D^%(&(*($ y;T/${|@l `.( $@D r#q#j+_ x&{@t@t@)@.+1$h@^-S$d%M#d%%+n ; *.n &.[ < 1.1.;$U'!^'#o } -#R=F+x-D a#a#/#'@8.8.q t G q G w :@/#@@R y Q+S A *.l  .#.7 h k.U.k x n ~.n+n q@B+s@0#a#%@u@2$2$t+q@w.u C V%a.! r@0%X.^@/ i.w#+@4#Y@j.c >.v+P*8!x+U%#  #w+b 9 n@{ I+i%)&i+b@6$I@v.t D | n *.*.A c p&P;P;c)=*7%+*V*k.9 *@.@- /.z 4 [.w#5$7 ) ) n ( a#v.n+p+%@C b@i+w.D l+O v.{ 9.$@^ l > { ! { '+F.]*=(-(~*b-{*x&M.-#-$1.}@}.@$.#|.Q&{ - _ '+'+{ '+j./!t^A'k-H +]1.n T ' )*)*-#`)f@D 1.,+1.(+;#a&@=k-j*,+k+_+:+(%k#k#j#8@I@_ ! r*1.- Q Q Q [ p G+u t Q u s [ 1.w D T;T;T=9@)&I+*;^;0@*;^;V~y.i+k#=;t#f@<+r#b-q$s/@-H>5+e@h@u >+^.s ",
"c h b h 2.l *.l.C {.m w C l.w m D m n s w q G ~.t m n o s m w q ^.Q D D s G m q s [ u [ w C t t Y%H+F$ %w s s s 4 > b h a h =*k.u#D#l@E@1 o z /.| 2.-.Z n B+0#_$q q q G Q+Y&T q ~.G n n x S S S 6 _@D.4.D@1@-.6 6 6 _#x x {.l.q o.;.k U.-.;.6 2 h h @.@.+#H c 8 =*7%]#g%^#%=>.h 7 `  .$.8 >.$.0 .@ $U%J$3%U-k*U-S*E@3%9$U%&.v+w+@.c 8 h b %.i d k.@.E+ @%.c #.#.; n A 2 &.; &.2 ; A w T q D B C 1 n @.k.j j f 1##.%.g%@*g%$- &.&}%M~;(>($ ->I~z+> w 3#$@8@X$1.v.o.H@g.T,f=x#A@l$g$Z@t#)@,(k%'(h$C *.> 1 /.}@]+*#*#<@3.,$} S &.> $@v.v.B+`;D@/#8.a#p+n+o | q 2.Q+|@@@|@*.2 l  .h #.f E+c 0 8 7 2 Q+T w.D n+_$8.o.R$s@a#C p+w.u+$@n %@$@B+H@~ C@H#H#`.3#] h#4#[.h#h%h.f h l@u#O&v+l@b,.$@ k.h [._ y.)& %~%K%{&g@h@D B@q@/#U.m ; 2 ]##*c).&g%h*#* @ .b )+*@> 4 /.> h# .&@7@) ! a.] O _+B@a#<&q@6$Y$q@B+q@C $@n 9.n l ! { _ m+~ B+( {=)(!(~@~*!*!*!=' Z.[ 3 $)]%{%< : ! / C@~ I#U*V%/@z-O=O=N*|+j*4#e#x n+u F+;+a{h@9.o+R=F+-)P ^.p (.m+o#)*I@o+u 9@8@O B@O : 0._.Q&u o v 1.(+(+1.v ~.D [ ].u G+G w D 6$*;y.W#k#y.(%=;(%=;(%i#(%V~0@r+o#<+<+F-P#P#u-H>f@J@h@w.D [ p ",
"a #.h 9 b 7 h c 0 &.2 n o z ~.m > 1 h n 2 A 2 &.z 1 q o G l.T n Q&_ ! { ! { a.C@3#'+0.{ '+'+> s Y%#>N%N%}#Y E@E#E@Y+w+ $`@U%U-b,z Y+F#Y+G s s ]./.1., | ~ ! - Z.D n+b@)&)&b]X$r&{#Z%D ].1 | 1 ; > o q l.B w q G m w w ~.T m n l.w C w G m q | 2 ; n h +@.@>.@.,.x+U%U-u#` ` @*+*.&Y,=*@*f#Q$L-%=9 2 } 4 4 /.1.-.)#w 4 o ; T Z 2.Z |@%.k.]#[%V-$-=&}-=&h>=&=&h#%.S W+Y N%q n w m G C B w n+D n D t D &.2.A &.2 l n 1 @.c 9 h ,.+.P*x+l;B=Z-~(X-S&<#l'm H+F$u=Y% %G@/@/@H@3#] ~ B+'+> n+o.@+/#k$_$t+1.a{9!){y'p{F+n+w.a#%@w.p+q ~.D %@_$o.d@+%f=_-B{n ' - $.1 P*2 ` 7; .n@8%8%{(](=&K-g-g-7 h#a.{ %@l+h@_$w.9.C _$D 9.w B {.r C $@{ 9.{ 9.B@D 0#9.- Q&B+) H*b.M.7 [.]#%.#. .f c b +@*@]+1 5 1 > &.G+t v.B@.+|$H>#;5+#%u+-%q@b@q r ..c @*#.!.+@0 $.!.o %%E#9$* I$9$$.9 9 8 1#k.z z ,$} D o T C {.8.0#1$A@t+n+_$w.o.4'n B@v._$D m n+,&c=d$f@f$r+f=! ] > E+,.` @.+@f ] n l ] o.,'}>H@h#[.+@/!*@|+O=7 H@- }+u.=$/%[+@+@%3+x@F,F,v&s>e)v@p]N{e)(%_+G+u - 1.- - 0.) u.' n+l+u 8@1.R=R=>+0.) > 3 , < > v l+n#u&w&W@;%k{t$I;>%z.A=)&i#l+B@K@c.|$/&A@t@-%w&r+v.{ l+_ ! o > ",
"2 2.h 9 9 +@+*+*+@0 8 b 1 1 ~.o .@)+)+9 | /.[ o V$6 w ~.o ~.D s : ) a.'+a.'+n B+3#] '+- - ! _ 4 ~.k'N%W+[#[#E#Y#%%F#U%U%m@U%3%v#A+L%U W+q o q o z 1.}.3 _ _ u.' l+9.)&x.V#x$x$J;~#(%].^.* 3 $.4 < v v [ Q t D D D D n m l.q q D ~# %{.l.~.Q 4 A &.U...,. .#.` ,.Q*#  $O*j ` [%]#--i*@'D-M;^(/(Q$0 ; S ; < 4 < l T u t G ~.C r l.2.S a h #*g%.&$-8;](A!B!B!A!h%A l T&^&}#T n ~.T o m B w 9.D a#_$w l.2.n z [ | Z | 4 .@0 7 !.8 +.a]((}!X{_(k T+:#U+u%_%I+1-U=t,Y&l  .Z#Y@_ (.}+!+: > u O 1.' ,+[$k@%)f$s+%@<&D@_$8.p+$@_$n n w q p+i$i$r@:( +!={@H*!=5$[.#.%.O*S*4$k&<(6@8;[(}(;;c,K;8%(@(@) _ !+f@Z@x#.+w.p+n w.n w.m T x S B B p+v.u >+R=B@B+R$p@^@{ C@I._-C&] j.V-,.,.E+` j ` ,.h 1 U.1@2 > 2.q D D B@#%#;|(8+1(2(7={&G%i+I+o &.9 $.b a c 7 #.2.&.E@z & %%&.B=7 c h %.).%.3 = - o v (+t C x ]./,q#t#f@o+D R$/#q@v.C B+' q@n I@A@c=y#2$o#f@a.! ) ^ ,.2@` i F*` / ] ( - ,+' =$k+O=k-|+1+j*H 7@4$D@n :=}>k+R.r+/,u+Z@h+6;v&'*O!3(k{4(k{p]v&T=^.3 * < n A a.{ - Z.e@J@I@)*_+:+:+_+: '+A 1 < /./.[ g@g@G%/-o%T#3&l>A=',x$.>x.i#D l++,P#^-5+[+y#w@s$' o+I@I@Q&u.c #.",
"A 2 7 8 !.+@-*h*>.9 8 h 2 2 n m $.9 9 0 ; 4 } /.D@U.G s t [ u v 0.) { { '+) ! a.n u.- R.j+> _ 1 s U U U ]-z Y+%%%%F#& & A+F#z A+Y+&.E#%%> 4 ; n < 4 z [ 1.1.: ] n+$@)&x.y.x.x$x$Z%w%[ v * 3 9 > [ t v p ^.].].1.Q [ m l.w G G [ p ~.C r S G | l o o.C+C+@@o.S 2 $%$*B=*.#.7 c +@k...[*]#K-<-f-i>@.&.&.2 /.< o o D G S w ~.n w x S 5 *.6 i f N&^#M;8;B!=&B!p.h%l &.}#U+Y q G G q G n G v p+{ 8.r@o.S 2 ; o > ; *.| *.@.b a k. @F*t~$ t{5(6 = X S+R o.I+a$I+6%x%T 3#h#Y@(@( { Z.(.Q&0.I@' 8@>+p{h![+g@g$I%o.s@0#q@%@p+{ 9.~.q r S 0#n 8.9#k$@+H*!=N.b.5$w#b c O&x+7;h./@Y@}-K;:$:$i>=&8%Y@ .) : u 3+h@h@u@n+q@w.$@n 9.w S x B G o %@D v.n+o+D `;D@V%H#G@l T,c-d#r@k&T.|#2@..E+ @1#i ,.V$U.n A ; 1 [ n 3#! 4+%;6(7(8(8+>&2$s+I@W#Q A j h 9 8 k.Z _@1@2 Y+A+%%B=-.$*+@+@b %.1#$.[ 6 1 } G+u o ^.!#=#f$o#q#^,O _$_$w.:+R=n+>+^.u D n+++,&1$:(+%x#1.u.,+: '.%.>.B*Z+%.7;/@P-5$4]X^A'N=j+}+Z.' n > '+! *$' X.: t*/%/,a{q+u+h+e)e)F,'*k{f+>]e+t$(-i#{ l+< 4 > *.H@^ ] u.o#q+r+n#' )*>+1.(.> ~ ] ; 1 > [ u@t+h@r$(-p%t$v$A=P%k#i#u O v.)*.]s/s/+,p%p%u&'**;*;>+F+R.j+q&7@",
"> z 8 0 !.8 ]#+*!.8 7 h z [ [ Q 1 7 8 +@| < } /.6 S l.w q t Q D > { _ _ '+'+{ ! l ] B+/ n ! u.o *.V+Y+* = = * ]-E@E#E@%%]-z %%%%&.2 Y#]-< /.&.2 4 < - } Z.- - m+n q@ %x.i+(%I;>%:%.%].[ } * !./.^.Q v ].u o G t G+p s G G o s u t D ~.n C C A 2 n k =.k l *.S l s*s*2 D#@.0 a j %.` --N&5@5@<-Z#Z S z [ > *.; 1 ~.C o.q D ~.D S 2 n z 2.@.a %=+*M;M;8%f-K-}-4#2.> Y+^&[#~.n n D ~.G D s p+v.l+w.w B l l 2 1 A -.o.-.E+j j 1#....${-><~y+*.2 A+E@q m ].X# %Y%6%B / n@w#Y@( { Q&R.=$u.v.9.O R=F+w.,~d@I%9(z!'@_$a#_$n $@%@q o n G a#q@i$B+g@x#x&c.!=C&9%7@8 0 # # j.h%(@+@r*f-f#g-K;5$5$) n %@n C t+t+g@2$n C 9.9.n _$l.l.S o.y x p+l+' w.' v./#<&r@G#l l !=N.c-I#2@+.`  .` E+ @E+E+k.Z S *.U.S n 1 2 '+) x&~*8(!(9+O@d$t+B@l+F$u o.T.` *@L+h U.=.o.o F#v#8$X 2 z >.b k.#.#.8 1 A 4 = G+u ~.F+x!;#$@o#q#r#B@R$l+-)l/%'s@<&C s l.a#J@L@@+Z@p#u@~ ! u.: 1#0 [=9 ` d |-/@k& .s^0(B-:.: { '+n { 0._ Q&_ :=D@!+a(' u@t#s+1$u&s>v@F,s$v$f+b(*,2&)&i#v.w.- o o 2 n ! a.{ [+o#3+Z@l+:+%':+}+1.m+0.o > /.} e@J@[+[+s$v&F,A]c]Z]X$W#D { O R=F-F-@-'>F,'*s$6;+!X$F+0)-$k+o@|+",
"3 3 .@$.*@9 #*h*>.0 7 7 | > ~.q &.z * - /.3 3 | o o G n n q G G o | z > A 2.n n l 1@k @@Z o &.2.; o $., |.= [ | n ; n n o | 2 2 3%3%8&U%+@0 c h )+.@$.$._._._.' w.B+%@O i+i#i#i+I+_%p p * z 4 } t ~.D ].u q l.n 1.].].Q t t [ v ; 2 2 o | l U.S 2 _@^$/#l.n S r m&m&8$&.2 2 *.e#`+,.d +.h-l&L=..o.k s-1 R.| o | ~.t ~.t s l.n o 1 | < 2 @.h #*%=f#}-8%H;r*w#7@z o N%Y N%C C m w C s t w { 9.D ' s G 2.S 2.n *.o.U.-.,.+.|#+.D*D+c(}/->I~I~O*& & 4 s q ~.G ~.G [ ) > : - (.-$+~~+-$}+l+_$n+I@o+n+B+a#/#j$z%J#j$'@`;%@G G G w l.B D@/#s@$@A@t@C&!*B{d.) ( 1 > D#E#! n a.a.a.h#j. .Y@{ ) > 0.p+C )=p+w.n+$@n p+n+' l+{ q n T {.C m { n#' u u+2$v.q@] a.'+^ ( ;.^@l |#c c 1#+.i %. @S 2.2.-.o.k )#k d j / X.T,f={=]*|$~@,&e@l+u G+p a.Y@+@:.+#b S k o.A *.2 6 s*Y F#@.#.i j ` k.n , 3 } - /.2 /.1.Q { _+)*u B@$@F+!{l/R=G o 1.v w C r$R#e@g,^,1$T%D@{ /%X**@K+J+`+` Q$o,g-X~d(]/j*7 a.: m+0.R=u 8@u : !^e(f(%$(.q@I@t+t+w@6;^>]>9,p>n>g(W@;%y.y.:+o+< < Q&- O u J@3+J@f@o#r+r+o#)*' : (.k+!+- 1.= } M.i-3+t#t#^>F,s>(%T=1.' n n - }+F-H>q+r#9,v&6;'*v@^>1.F+-#j+*@j*",
"/.4 +@9 >.+@+*e%9 !.!.4 4 4 t s = ]+1., 3 } - - [ 3 G+Q G n m G > o 4 z n 2 ; &.z &./.4 z | o.U.+@9 .@g +#3 - < n > > o o ; n 1 m@U%m@ $h a a !.>.*@)+>.w#n@4#'+{ $@n+{ i+i%b@x.:%:%t s > A ; < G n q t v D o v v ~.v s ~.m G l.5 *.A 2 | ; S 6 o.k :@T q w S x m&8$2 & 1 -.A > h 0 +@c n@q&+@Z#A e#&=/.- $=|.< t v t ~.m l.w s > | 4 &.b +@+*+&=@L-f-=@4#n@7@h n V L%W+C n ~.w o.q t G O n { B@o D o &.n n 2.5 @@V$F*q*B*x=S-B*h(}/<~(=${S*8$8$U.2.S o s ].v p m+-$*$-#m+> 0.u.: ! p+$@' u B@v.%@9.n+n+p+o.j$_=j$o.{.~.G P+@@R ^$B+_$C k$h$J.2+e.f=( '+&.o ]-s*B+B+a.] ] ] ( u.! > 0.n+l+6$i%~%9.n n l+O { { )*{ O ].[ Q [ u Q s+u+$@n+t+u+v.q@a.a.C@/ ! a.> C@k.a #.` i ,.j  @2.A n 5 *.> *.-.i +.^@n L#K@~@c#c.E&t+g@8@,+F+G+q&O=o@w#h @.2 2 A n S A 8$&.L%Y+f c %.@.$.K+$=*#[ 4 4 &.&.z S ~.I@O v.{ $@_+-)w!9.o+^.&#o-v r o.%+Q@o#t+++g$}+_ ] ) $.L+0 #.d !.X~K-i(j(k-4]o@7@0.m+1.}+l+>+:+$@|/k(l(m($$!+F+-#f@r+v@v@e)]>e)n(A]o(p(;%r&k#_+_+4 < - u.l+' [+o#<+r+<+f$o#g@9.9.{ ! _ Z.!+: o ! x&!*j-q+<+<+v@^>k#k#o+8@D D Q&Q&3+'>r#<+w@w&w@'*h+h+l+' Q&j+O=O=",
"; A @.h h a -*7%9 !.< < 4 o q n - 4 &.o < 2 *.< &./.* z 1 > t s z o 4 4 1 | > | < > * /.o ; A > $.f%N+L+)+$.!.9 1 4 < z s ~.m o U%&&@&e{]#%=#*+*0 )++#>.w#w#6#{ > v.B@n p+p+~.o Q [ D w z ; &.z u v D ~.~.~.D v q n G w n S C r S a h @.9 )+> 2 x S l.m n l.Y%q $%&.Y+A+* 4 z < o n 1 1 0.{ a.'+z *.4 < - 3 (+Q t q ~.w q t m q l.T > 4 g .@+*-*+*h*5#L-h#4#r*j 2 & %%E#o z o o &.2 &.1 { ) }+(.s ~.n 2 ; 1 S @@-.;.`%D+e E*e 2@g=q(q(&{W~0]v*'=2@n - }@.#R.{ '+Q&1.!+' _ _ { n l l B+] '+a.w.u w.n w.0#r@9#0#<&o.P+_#P+:@{$m.x 0#w.a#B+2$A@t+u@C&J.) ) | > E@% 9.n+n+v.' v.9.v.B@n+D )&x.W#i+x.n+q@w.u ' 9.B@8@v.O O { 9.w.~.G x#u@u@s+3+y#.+h$h$:(3#Q&Z.j+) ! 9 7 +@N*X*%.1@*.@@_@-.l 5 o.5 A ..F*/@H S,L.6&@;@;!*F.v>=$,+1.G+*@j*' l B+l &.| 2.2.S l.~.G D m b c %.c ; - ]+,$; n ; /.< Z D@&.- (.> ~ '+m+m+1.< z | } 2 5 n a#n%&+r(s(@+[+[$x-{ l - } *@*@8 >.=@t(7^u(4]P=[.n@: ' 1.j+s@l+' D 1.$$+~-$-#1.-#x-u _+v&v@v@s$s$k>S#v(k>w(j%T=I@O ! { n+{ s+J@'*v&3+3+3+3+[+g@{ w.w.q@] u.u.( B+'+n,O.L.L.7$o#t#n#o+1.I@)*!+- |+' g@g@n#f@'*w@w&h+h+{&t+h@F.t>d-Q&",
"; l #.h c h +*+*8 b o /.p p t q | /.< } R.* 1 - 4 , , > > } p o ; n 1 | ; 1 > | o 1 n 2 o * } [ #*7%N+N L+*@$.>.z 4 o o v s q &.U%&&@&|%%=%=g%[%c +@+@c 5$+@r*> _ n+9.$@a#{ Q G p 1.~.x < z ; | v v t D o D D o ~.o o l.~.T C C 0 k.1#k..@*@> < C C T m D D  %F z E#Y+E#/./.&.z > 4 4 *.( ( '+) < o < - ]+}.G+~.~.t [ n u 1.B G m C 1 > *@9 ]#p&g%]#:$5#w#&@:.#.n $%B=]-4 o > o < ; Z *./ C@n ] G G n *.S Z 1@)#D.!$)...'.).`+T.g=x(y(_{P*y;v*,.d e 1.L^5/} ] B+u.n o.^@] ' ' { n n ] ) ! { 9.n p+p+$@$@8.p+9.q@y l.l.{$^${$D@@@<&w.$@w.2$1$Z@t+e.H*n C@A /.]-]-%@{ w.{ { C q@r&v.)&~%i+I+i+ ,A=D %@B@{ %@a#u o+9.$@w.n+n C C _$.+t+2$y#g@@+u@@+2$h$'+'+3#'+) ! @.>.W$*@a h l l e#o.Z S k @@U.|@e F*Z#h#K@6&H-Q.Y)H-K@O./%,+v ~.u.[.a.~ '+~ 2 n U.l w m D q v D < 7  .#.Z z = 1.A z ; [ 5 a=4.2.' !+: { ! ! (.u.= 1.4 &.5 o.S D A@6=r$=+y#r#w!o+1.- }@|.X*0 +#+#H;z(N'Q=N=P=q&9%1.: m+_ { D C v.Z.=$k+(.m+Q&-)O 9.o+v&v&w@w&F,F,A]A(/>T)I+6$1.8@- 1.u I@g@h@u&u&Z@o#7$[+J@[+D B+%@$@> _ { ) 0.m+l,S~~)@;y#y#t#3+)*>+l+O !+: &@'+c.@+.+t+o%H%$+=+!&n%h$u@B&!*!*6&",
", /.$.>.b 8 e%f%+@b z | q q S S D#E#A+9&9$v#A+& A+]-]-A+F#%%%%z z z *.5 ; 1 ; - z z z 1 &.; z - ]#=*%=+&0 b !.!.z [ 4 o D G w &.8!#&}%O^V*+*f%@*$.g )+b 7@H _.' Q&n+_ m+Z.> 4 > 2.&.D s s t D n 1.Q s [ u D w B o D {.{.o B q D ` 1#k.9 H +#| | o v T x q [  %Y%]-9$F@& 2 * o > - &.> A ( ] ) '+4 = } 3 |.3 D B n [ p u G S o [ m {.&.< b b h*+*-*+*Q$Q$&@6#! 1 n 8$8$&.| | 1 &.1 - n *.B+C@G@3#s T 5 A U.*.-.=.C,};3,E*q*d 1#`+h~h~1#1##..@g +##.%.~ '+~ ~ n ~ { a.a.] B+] : - a.( { ) ! ) ~ ) n n _${ 9.8.C C B T x C o.m.x G 8.q@9.0#1$u@.+u@)@x#$@_$n l.R+U&p+a#1*;*1*i%b@z.J%A=P%z.d>d>>%x$' v.9.p+n 9.w.w.w.n n w.9._$_$9.u@,&d=,&4+S$2$h@++B(C@H@a.B+a.C@1#9 @.d 4 4 |@6 1 U.D.u*m.r C o.1#1#`.C@_ =$7{K@i-v>1._$8.{ v v - C@'+$$@~Z.n '+~.v t m m s v o Z 6 1@l 4 }.I .@0 0 >.!.E+e~` )+u._ _ n n : , z 2.&.| 2.o , 3.)$7$]> !v&s>O{x-x-+~#$-#|.* |@*@@#@)m-+@r*r*:.r*_.' - ! ! !+_ I@O } ,$.#;$R.!+R=' O 8@0@0@x@9,s>X@T@l{W@g+y$b@8@_+O u 3+[+C%M@d'M@g@f@o#h@u+.+C#t+B@{ : 1.: (.=$(.w-C;d#d#)@@+2$s+D I@l+l+a.0.1+(.v>r+s$P&{&(-t$W@r$(-Q@M#H>b-L.@;",
"o z 0 a 0 .@e%+*$.9 1 1 | ~.~.q & ]-]-F#* F@F@9&Y+Y#Y+Y#v#, & 8$> z n A 1 2 2 * 2 1 > > | ; ; 1 $.7%7%-*@.c b a o < < z > q m z O&&&&&&&7%f%p=+&0 )+L+)+:.*@:.m+Z.)*!+' > u.* [ 4 | m q D D s u D n n o o w B m B q D x o.C q o | *@K+J+a !.3 2.T B m ~.t u X#n & 9$I$%%o 4 o &.[ z o ; a.a.0.> 1 - < < * < ~.l.G v s s B G l.w Q+o.S o )+*@@*V*[%-*5#L-4#4#~ -.2.& Y+$*6 > z -.&.- 2 1 ~ 3#~ ( p S e#k o.| 2 _@U$2#).|#i  .h 9 l;l;j j %.c $.J+!.b ~ ^ G@B+) a.( ~ ( B+B+/ n { ) _ 0.> '+n ] o._$$@p+n B+8.m m C {.R y S l.m C 9.p+9.w.2$1$t@u@u+t+$@$@q ~.Y R+8._$6%C({{x.J;D(D(.,:'J;>%.>z.x$p+n $@{ B@l+B@{ n p+n w.9.p+n h@L@S$S$S$S$4+@+I===C#/ o.a./ l H@|#j $.H ,#/.5 o.n U.|@;.u G T r 6 d ~ '+- Z.J.H*K@j-:+I@B@D q q a./%R.3#;.`.C@( m ~.D o D s D ~.n n 4 , 1.= *@7 9 h 9 8 7 g K+g a.n a.) / _ 4 *.U$3$-.n 4 > 3 E.q#O{ !z/E(z{0);+(.R.>$} 3 1.M-|^A'N*j*:.9%+@w#Y@{ u._ u.m+3#n j+, }@$=<@D$(.1.%@' :+.!^; !F,X@(-R@m>u$t$)&x.I@O I@O y#u&Q#R#m$M#F-r+q+2$8=)@u@q+)*l+R.-$R./%=$}+3*B&L#K@t#f@f@[+O I@' _+Z.1.k-!+q#s#9,6;s$v@A]o]9,s>('m$.]s/4;i-",
"| o a a !.0 ]#@*b $.>.- < 1 v t Y Y [#L%A+}=9$* ]-v#A+Y#E#z E#8$o < o &.| &.n 4 ; > /.- [ 4 > o 9 >..@+@7 h b @.0 9 9 z o A A < v+4%4%1%q=h*!.h )+g /.3 - > : ) ( u.u.! ( { +@r*} - | &.~.G :%~#t q n ~.D ~.G D m l.o y S v m B &./.* [ o < , ; o 2.l.l.T B ~.T &.w+b,l;+@8 a h | z A &.a.n { > * 1.[ < /.> 1 2.D t t m T s T x C S {.T 1 > 7 ` =&L-r*4#(@7 { z z Y#m&G=-.1 < z = > Z 2./ ~ a.n n _#C+o.5 Z e#}*_@2 a %.#.+@)+J+3 o 1@;.;.1@o } a./ ] ! ) n n ] {.l.B T n l.2.; ; > o n 5 D.*.o._$n _$%@S n ~.x T x {$(#T+V+U q n ( a.{ t@k$k$x#h@A@p+$@z$z$R;F(o.%@y$6%6-x$A=G(Y= -.>x$x$x$z..>l.w m ~.D o n q@$@_$_$n n _$_$A@#%8(>&u-.]u-4+n=x&e./ 3#] ] ~ o.@@&.1 R.} o | 6 6 | B y m D S o.C@u.#$-$%'O %@C ' o+v.D j#j#6$D ~ a.l H@3#0.O _$p+n ~.t v o q n /.* < < L+.@+@*@)+L+g L+0 !.=*#.X.l { { z > 1 n l *.; > ]-Y+& G+J@m$h+u&w&h+' n+O o+1.[ , [ H(C!|/$$+~D$R.m+- ! r*H *@_.9%i 7;n } ]+.#}@} 1.u 8.-#R=^;b'0@6'y.(-e+l{U#T)6$T=>+u ' D P&w&m$m>*%m$@-.]3+n#<+r#3+^,G,O.+~#$D$R.1.(.O.v>6&n#[+3+w@P&W#W#' 1.O u (.}+/,r+s$v&A];%=%e+V@e+('('@-'>H-O.",
"1 | 8 0 8 c g%#*9 *@$.>.> 1 Q ].L%U U Y+N%N%z & 9&A+* F@Y+s*B=z o - 4 n o < | 2 z z z z z z z 4 *@g L+.@8 h c k.E+i E+k.7 *.c .@$&}%I(L~f%@.k.b 9 1 n 1 '+! : '+n u.' ' _ ! 7 7@4 1.[ &.G q 5%_%].u v s t Q [ [ m n t C o v T ~.| [ z - = [ 4 } [ 1@D@Q+x m.T S ~;# l;x+0 0 @.0 n > *.n n '+'+> * 1./.z 1 A n 2 T m ].q o w C P+@@Q+m ~.2 1 +@h G/5@h%7 w#6#{ > > E#E@E@; &.A *.S l n | '+'+a.a.C :@-.n &.2 5 ;.A z 9 +@+#I )+7 S -.@@1@U.5 A n `.C@l / ~ ] ( 3#x B w n G m A n > &.*.S Z D@&.S C n n+9.w ~.C <$M$@@r n [#Y Y+W+{ / l n @+A@x#u+h@2$p+n  %Y%J(K($@w.I+6%J% -d>>%a@6-',>%z.z.>%b@G m w n q q $@n { n q@q@%@q@8.++n=L(!@#%0-s/@-5;j-L#! n ) Z.m+~ S 1 1@[ [ n &.6 6 &.l.n {.S S G+1.,+/%,+u p+$@R$C l+p+x;b@I+i+I+w.~ C@] ] a.I@{ n+D v u p p Q D z 4 &.&.>.a %.a +@.@!..@H .@p&` L=C@~ ^ S l ; z o o z 4 v#v#]-G o%>=r$w&w&X@n+B@>+v.< z > - M(t*k+Z.k+/%R.1.1.u.:.q&&@+@:.+@n@6#- [ 3 * /.> $@' %'o+b'=;9@*;~%K%w(N(a^l=x.W#o+I@,+1.'*s>j{A]O(P(6++,J@g@f@J@e@2)J.f=u.!+Q&!+- 1.H-d-t#n#[+'*w@X@9@6$' _+' O m+)*r#7$F,e)J,Q($,l{l{q,O!('@-q$I*I*",
"&.1 +@b 7 8 7%-*g !.+@0 4 [ D ~.}#W+N%W+}#Y &.%%Y+* , 9$`@`@@  $Y#v#F#%%Y#& Y#D#A+F#Y#Y+Y#]-& [ +#q&*@_.&@w#[.7@(@i.|-(@6#w#f-f%&&$&!~%>h .@g * 4 < , [ D )*:+_+!+!+!+1.O=7@4#&@a .@o n D D 5%Z%t ].u o ~.[ p Q m G s w o m B Q s ~.t [ p u o | > 2 5 =.U$U$1@l l@$&O^#&-*h*7 8 b 0 a a ) _ '+: = /.2 1 4 /./.1 T B D T o o.w x P+B t Q | 1 a #.l&..(@[.0.> { o ; E#E#%%&.*.1@)#C,-.2.; '+( { ] l.s 1.}@;$$'*#3 3 1 @.h h @.E+2@U.B s s o o n l.w.n B+^ C@/ ( / {.x T n w w 2 l 2.n 5 l i ` c U.r q u D B C n.R(9-;&U&[#Y X W W a.3#( a.x#A@h@t+u@2$6%M&6%a$S;I]C B+%@Y$)&T=I;0,:^S(>%.>i+i+I+I+].v o G ~.o D { w.9.n _$@+g$l$h$z*T(u/U(S$L@/&d$b.H*/ '+a.`.r@^ 2.-.5 n 3 n l *.r {.r r l.].P 1.[$D v.I@o F$d&C'G$~#`$;*K%d>',r&@+(&3=],^ n B@9.v.l+v.w.~.t I+l.; n > 3 L+$.9 8 a h e%%=7%e%f%+@9 *.Z S ;.2.o n > | %%Y#z Y#&.l.-%L>r$u&c'9,n+u ' _$/.2 > |.3.|.1.' l+' ) { _ ' q&r*r*q&Y~X~m-k-4 &.1 z , 3 q v 8@)*^;=;i#y$;-{-V^V(%+2>#,#,n+8@/,f$O!('W(X(Y(Z(('#%#;>&l$I%h$J@d.!=!*I-j+Q&' m+f@y#y#3+v@v&'*o]:!:'i+j#' o+8@o+t#6;v&s>p]k{=%e+e+q,`(D' _._+_H-",
"4 1 b 0 a +@7%#*!.8 >.>.[ - q w }#}#N%A$@=}=A+]-F#& v#9$R&7&R&+ ]-F#& & ]-Y+Y+]-& F#z z F#& & F#&@7@7@_.9%&@7@j**@6#Y@7 =@:$f-7%e%*&}%&&>.*@} 1.> Q P [ ' :+(%y.m+u.u.: o@:.9%7@b 7 S A Q [ ,%W#t v o m t (+^.o D q n S l.m o G t n t u p G+> o | &.z S l n l b g{1%e{o=#*7%+*a b a 8 a '+> n { [ 2.k S 1 z z 2.D G m w t B o l.r B S C > 4 b 0 r*_.&@w#> Z.Z.4 4 E#2 m&S U.1@@@k *.n n / ^@a.' ^.^+$'3.{+t*U'>$4 *.%.h 0 9 b Z [ v [ m B m C C n+$@] ! : { ] ] l.{.C w B n ; 2.> 4 | &.@.7 a > > u ^.s m T n.a%}&m.<#X+b&b&V }#l l ! _ t+ +)@u@.+t+K%J%6%`$2{l'n+C 8.%@y$*;:':'k^,,J;J;6$x.6$i#].Q s o o o 9.n q@9.{ $@@+@+A@x#@_#_$_$_z&,&4+O@!*J.) n C@G#G#C@o.k l 1 [ A 5 6 y x n [ p F+P t 9.R$_$C `$Z%Z%X#5%a$;*`$0, ,A= %Z@d.2=5>n 1.%@9.B@l+n+%@n t ,% %U.*.1 4 >.!.>.*@>.9 ]#p&p&=*f%$.a Z l l |@5 2 S o.A %%E#D#8$X r P&k{p%X@6;w@l+{ l+a#*.o ,#}.1 l n+O 8@%'}+1.m+(.e;q&9%&@K-y-#)<.h z = * /., p G+I@' (%(%W#y$y={{V^V(&+(,%_L'$@u q+7$('B%Z(&_*_&_x*,&|$,&.+1$u+n#B&L#L#I-(.Z.u.' t#n#n#s$s$w&W@o]b]:'i+i+n+u I@)*^>'*F,]>;,;%e+n>k{e+m$R#=_t/-_H-",
"< 1 b 9 !.b ]#]#b +@$.$.< z D s A+U W+}#W+L%]-]-F#F#F#]-@ `@m@`@& z ]-A+F#Y+z * &.2 D#&.%%E#&.8$'+_ : : ' 0.[.7@+@w#<-<-f#f-[(7%e%@  $`@>.0 4 > D Q [ _%(%0@X$*;' : 9%*@j*O=m-o,b 7 2.; v _%G$w%Q D G ~.u P u G m G ~.T w q o m X#I+s t t w C s o /.9 E+d  .` #.%>;_H^$]0;p&-*@*#*]#b h n@7 7 Y@1 *.Z &.&.&.< 4 o ~.~.~.u v q o.r C Q+r n A ` 7 r*q&*@w#] ) > o ; Y#E@s*o.*.Z @@D._@o z / G#'+,+!#^.| Z ; 4 * < n | b k. .b !.> v I+5% %5%:%w.$@C n p+n B@O 9.q@m T {.{.C n ; &./.o n S 0 #.h 4 | q B y y /#7-]$C q W+L%N%W T&U&{ 0.! 0.e@)@g$@+z#G%i+)&z$z$>_t%n a.9.9.)&(%0,0,,,,_J;P%9@i+B@u s o ~.~.~.G p+q@a#_$$@%@g$1$u@A@'_$_)_!_9+8(d$d=c.g.V%I#V%V%^ B+5 o < = n _@)#)#B G v E.;#!#v B Y$1*I+M&I+b$%-t=';t,~_s,>-{'Y=i%x#j-{_]_$(1.a#n )*u w.C 6%a$s&s=; * 4 ; $.+@7 !.+#[=+*@*@*g%f%b 8 > < n A l > } > * & E@A;m&2 G s>e+v&e)w&G%W#r&$@$@t !#}.} | 1@n+y.*;T=>+u _ (.4]|+K-j>^_;;/_S'8 o /.< ; A m ].v.$@9@y.i+~%i%1*(___*+5{{{K%n 9.h+s$Q#F%:_<_[_}_|_y&,&#%H>.][+[+Y);)I-d-6&K@! > <+q+s>v&w@f+g+;% ,J;0, ,I+y.O O 6;s>e)v@V,;,j{$,l{l{1_2_3_D/|(P#",
"S | z o 9 0 h a #.o !., 1.[ Q o t U L%W+}#[#Y#& &.2 &.Y+3%U- #O&`@z Y+z F#& v#A+&.8$m&8$&.E@2 2.2.> ! n ! 0.&@9%_.9%6#n@f-:$Q$e%8&U-v+v+a c [ < Q ^.Q _%].F$I@1.o+m+!+,+j*H r*7 7 z [ v o Z%G$W#o D Q u s m m D B o Q q [ t n q [ G+D s u D D t * , c c d 2@ .0 #*#&H^@&P;N&p&%=+*%=+@+@[.Y@+@h#c i d A > /.1.[ t q n y S m T y m.P+Q+x o.k f b h#7 4#7 / B+( &.o.B=G=E^e#A | 2.| }@-^*#' / _ / {.m z &.z > > n n < 9 h 7 7 c &.B  %Y%I+:% %{ D D n+_$p+B@D p+p+B C P+@@Q+S *.n Z 4 > 2.| *.h 4 w l.{._#_#L$<$r G m T l.r @@T v { 8@a.%@)@g$@+@+l%-%~%i%6%a$5%`$o.B+n 9.$@9@)&>%',.,>%F$x.H+n+v P p v D G w a#s@C C 0#o.l$1$g$ +e=#_4_'_C/S$d$|$!=e.o.^@/ / B+C@k Z |@_@n ,$,$} [ v m {.n D t s _+x.O ;*:@Y%z$=-Y%';U=x^5_6_A.6$;)~)7{{)H-1.-)8@D n C %@X#Z%Z%:%^.]+| S | 9 a +@>.c !.9 =@h*R)9 [ * , , o o 4 } *.S A;2 m&&.Y#= F,p%w&=+&+$+y= >`;B@[ P |./.6 A 9.9@x.~%D %@] Z.o@9%+@L-f#:$g-p,+#}.= } - &.n 1.u B@x.y.0@w@(-z#>=d%D%r$u@B@q@p+r+F,[+Q@M#U@7_8_>=g$O@[+F-f@o#f@B&J.v>!*L#L#'+! g@q+q/]>^>u$g+f+Z]V#c]0,w&0@'*h+^>^>'*6;V,Q(A]m>e+m$9_2(0_|(a_{*",
"6 G o B A | o z < ~.o ^.u G$H+z$X#,%F$_%W#F$~.o v t &.o 1.[ | )+L+.@0 8 $.$.| n 1 | n o [ u p v < < 1 &.> > 1 | < 4 z o 8 a a h 2 Y+A+v#%%*.8$Y+]-9&* L%E#N%| t p p t Q - - 3 * < #@'$Q v [ t s =.3$C p s m [ (+o s 1.G+~.D v l.~.z 4 o n n > - } o &.l k -.; 0 a c ^#h #&x+v+`@x+l;# U-+@c w#Y@=*[%p&*@, < ~.H+I+{#Z%F Y&z$B @@D.5 5 l &.Z S ; a.a.a.a.B+H@`.A k.O*O*O*%%v#9&v#,$]+/.* o 2.~.G G ~.q [ ~.D 2 ; o /.A 2 < | 2.*.S o.:@B D l.Q+S w s v q w q l.Q+2 |@/#P+@@Q+T {.R o.G q x {.2.o B `$G*L'{{G*6%I+J%g*x%)=)=K%)&i+6%x;/#d;x;i%n R$$@p+q@%@p+n p+q@^ C@3#B+C l.G Z%W#I+H+#> %#>H+m u Q&- 0.: { / B+'+B+^ 3#( ) '+e.,=@_d$z*d$O@|$d#d.C&_ o.V$e#1@k ,.....+.W$W.= 4 2 n < > &.A 5 2 1 m &.~.2.C w E C F Y%Z%X#a$a$ %6&i,C;x&N.M.!*t>o+o+ %a$H+X##>w;A+V s T {.*.~ u.n > ) ~ S)9%,{9%' ! { : _ > 6#n@f ,.#.#.+@.@>.o ~ O _+B@x.=;b'0@b'i#_$' 1.n h#'+u *;b@9@{ _$1.l+- - 1 .@X**@h .@' -#-#- G+[ v [ (+8@1.t+G%d%y*P@b_8+}$#%P#t>L#!*/%1.m+<+y#z#{&{&A@9.u+' e@9.B@9.p+B+/ ) ! ! > ! h@y#r+^>6;s$w@w&u&u&w@s$e+o]m>l{S@e+l{$,D'e'('`(e'F-.]&;]=B&|~{=",
"o v G w o s q w ].G+[ ^..%G$:%G$6$W#W&(%F$Z%Q [ (+v l Z 1 4 | ; 8 f%!.+@)+>.&.> > z ~.t t ~.o q z z | 1 > z z 4 z 4 4 4 z | ; n 2 E#Y+z F#%%&.]-2 ]-& F#z &.D#Y+Q [ s Q p p P G+[ (+'$(+(+p v Q @@o.v #@^.^.P [ t Q 1.F+}.#@P u R.}.= [ o | z [ /.o 4 2 D@e#4 R.+@+@c 7 l@O&w+~;~;u# $U-b 9 Z#7@%=]##*>.[ > q X#_%F$,%Z%I+5%C o.Z ; *.S < z *.o '+] / C@G#;.C@; 0 U%J$ =]%]%, * 3 * > - /.&.G o o m q D G n n n ; o n A *.S &.1 ~.l.S T T {.o.:@P+S l.l.w q n C n 1@]$R Q+_#:@{.C C x T C C S T 6%Z$j%y={-G*x;x;;*H'm%!&~&#+6=l%j%1*x;6%i%r&$@B+n+n q@C %@_$_$%@l B+l ~ G D D o G m N%V Q%))X,U a.- - a.~ ! ! n ] ! _ '+B+n ' i-|$c_A&,=/&S$b.N.!=C&B+2#2#)#_@k |#j ,.|#7 9 &.U.;.2#;.k e#k e#e#;.e# @2 n ;.2#;&y y r  %~.Z$S D !=,>7*d_],{@F.J.$@_$c!)> %z$k'Q%Y+L%n R o.q ) ! n { M.C&2+B&J*t>Z.) n '+( ^ i i.%.7  .@.T'.@t&1#}+*$R=D y.^;.!V~b'b@C 9.u.- j*,+-#+!x. %9.D 8@I@}+u.; ; * | @.a ! !+R.1.^.p P 1.Q t J@[+7+y*e_f_g_h_=(1(]=]=D;2*Q&m+!+m+I@v.r&W#B@{ w.D B@l+O { w.B@> { : u.! a.e@n#[+n#u&6;^>'*w&u&m$m$e+m>l{l{R@U@S@T@5,('('O!u-@-1;I,6&B&8*P#",
"&.n 2 1 o n n 4 1.[ l.C T n G ].F$,%W#{#t s t D u D 1 &.n &.&.A b 8 8 >.3 } < o o 1 2 o > ; 4 - | 1 | | 1 o < /.> 4 /.[ /.z 1 n z A+Y#Y+& Y+E@9$Y+Y+Y+& 9&F#%%Y+s v s u 1.1.'$^.(+P P #@}.p ].#@G+G+'$P [ ^.'$[ [ t u #@'$Q ].-#,#R.]+* 4 o | | < - 1./.5 o.1 * 7 &@0 a l@ #v+# b,w++ v+a h i.+@-*-*+*+@o 1 G o Z% %Y%H+G B S T ; 2 Z 6 2 ; -.*.) ) ! { { 0.!+.#g m@`@8&} /.| n 2.; 2.A $@q@C _$G C C T x r *.*.-.5 A &.U.o.2 l Q q w S Q+C n T n.P+{.w q m B {.w x /#T {.R n q o t G ~.~.l.l.r B l._$0#c$q@{ $@C '@g$e@u@x#t+@+i%~%)& % %I+9@y.8@' B@v.B@B@v.v.{ n+n+D B@v.G n o q N%L%W+Y+U N%'+0._ ! '+_ _ n { u.u.~ G#3#! J.O@|$S$.]Z@h@t+e@d.!=~ X.}>o.;.;.f 0 k.j ` f E+,.q*T.D@D@@@_@@@2.E+i W*d ,.q*Q!7-)#6 2.w A G /.Z.[-i_,>j_H*2+] o.B+{ .=g/_%z$E=c;N%&.U.)#o.| n 2./ n c.H*M.d-i-t>!=n#C&d#! > '+- 0./%z-X]<)k.'=$.a'+~)*o+:+%'9)7'y.i#-#0)k+j+k+~+){k_0)v.n D D ' - : - * 3 > < 3 ' ) 4 < v [ ^.t D [ )@1$d'M@m$9_l_l_2(m_.]@-O.- =$,+j+Q&1.)*x.W#l+' I@' l+{ _$_$C w.> _ !+Z.> a.v.O ' ' 6;s>e)s>u&u&w@s$e+m>l{l{t$T)w$U#h+w@w@h+n#q+I-H-@;t>M.i-",
"; 2 2.n | 1 &.; | q 1 n 5 S 1 v G Z%I+Z%[ t ~.o ~.G < 3 < n 2 1 @.7 9 *@/.[ } - z 1 n [ } z < [ 1 &.o o n ; 4 4 z 4 /.[ /.4 o 1 * 9&F#E@&.$%m&& z Y#%%z 9$* ]-& t Q v G+P 1.(+p #@1.G+(+'$G+^.F+#@^.P (+].u G+p t p ^.^.^.^.].[ /.[ - * [ 4 | n o 4 | 1 &.|@V$5 5$4#b b  # # $b,m@ $3% $7 %.5$7 ]#%=+@8 ; ; o s I+X#Y%`$T B l.w ; l *.S Z n 1 | : ' m+m+u.: ' !++#U-O&w+> 1 A *.n o n l %@n $@n G l.w D B l.A 2.|@|@S | ; ; 4 A r ~.'$'$s m G o q l.l.n w {.y :@S T T n Q+P+~.s v ].p o D m o {.x S %@C a#_$w.9.9.8.u+J@h@[+f@e@(%k#(%x.b@i+x.*;I@u ' O O B@v.D v.l+O l+D w.q G G t S=Z'L%W+X+Q 1.~ l ) n 3#( ) / / ( 3#G#^@o.G@h$x#/&t+h@g@x#1$c-g.^ G#V%~ l o.)+g 7 j %.j E+ @F* @-.2.U.V$1@E+w=Y,`>n_3,..#.#.@.; .@/.n 2 4 Z.4*o_p_8*5=(&B+}+:+o+.%n&F$5%`'[#D#8$#.-.i -.-.&.'+! C&c.2+t>H-K@g@t+c.B&- 1.~+!^H(H(q_A'I h)L+N*-$(._+)*>+-)m#+!y.x._+:+(.k+=$*$ (i]$$o+v.o+' l+n ) [ |.[ < [ , { l 1 - G+p ^.s Q ^./,q#n$n$&%5,1_b_r_.]0-r+u.) =$R.j+j+>+:+0@y.1.>+R=8@o+o+l+_+)*B@_ - - m+!+Z.D l+u o+9,c'q/e)w@w@s$s$e+e+e+m>k{v$U#v$(-p%w&p%[+f@O.O.v>6&K@K@",
"b 9 0 7 a $.>.c h 2.@.2. .2 +@o ~.[ ].[ [ Q u (+- > | /.} z &.1 A 1 o z [ - * = ]+4 A z g *@+#H >.+@>.!.a b !.!.!.!.>.!.!.!.9 9 [ < z 1 2.5 Z n 2.> z | o > z - ].G+u ^.P G+^.Q G+].G+1.1.G+G+p u v ].^.Q G o t o u 1.].v u Q n o s [ p G+p Q s t Q Q ^.^.{.@@n 6#n@c #.O& $U- $ $w+8!w+c c +@4#]#%=0 8 &.n m q n q n S r S C x 2 *.2.; &.4 }@|.- m+- 0.'+] ( ( ; 2 n z < o n ~ ) a.w.w.$@D B@D Q G m o n q > 4 < z ; z /.- 1.[ Q P }.(+].D t 1.[ G B w n l.l.q {.n w B C o.C v v t ~.B w B Q+x o.l n > 0.] 3#/ { : M.H*!*d-6&t#j#W#(%k#j#k#W#(%B@v.D n+w.9.w.n+r&b@)&)&b@)&Z%_%^.[ [ [ < [ [ > B@l+' v._$n w.%@/#9#i$8.i$o.q@n B+q@++<*C#k$l$l$e.2+f=N.H*c.b./ d N&-*=*]#^#i 1#7 8 @.i 2@|*E*D+X;Z,W*q'q=@*q'h*-*.@+&+@b @.@.6#@,@{w-_^s_!*m+R.u o+G+u X#s& %n O*l;[% .[%j 1#7 w#[.M.v>B&d.2+2+Z@2$Z@r+3+r#t]k)_+o+u.Z.- ,+=$k+(.1.(.Q&:+R=*;X$W#r&$@u /%/%k+-$p{w!%'1.8@:+F+%'j+: o - /.3 * 4 ! '+[ 1.#@(+^+y!;##@i@S]N{`(m$d'Z(t_W(m$d'w@O l+9.B@' 8@)*F+y{ !T;^;b'(%%'w!:+;+%'o+u I@- m+1.1.D B@O I@q+g,q/e)'*'*6;6;s$s$m$m$U#/>T)T)=+r$h+h+n#Z@g@g@!*B&t>K@",
"!.a h 8 8 +@0 7 E+#.@.` k. .#.7 ; n q m B n t v [ 4 | o /.< n l > ; ; > /.3 3 - 3 > 2.z H L+L+$.g *@*@.@9 !.$.$.!.9 9 +@+@9 9 !.4 o > [ /.> 1 &.A z 4 o 4 /.< < (+'$G+1.1.].].t p u [ Q v u ].t v v t q B l.q o G o ].^.v ~.D v v Q u u u u u ].t u ^.G+t l.{.T ~ 5$c ` ~;U-3%3%v+ #/=u#8 a w#w#+*%=b h A S {.C x S S r Q+C w n ; o 2.; < /.} - ! : - ' u._ ! ] *.n z [ z n / l B+^@%@{ n+n+n+{ s q G n s G < * = ]+/.< - - , = [ P P p u D s 1.p s ~.s t G l.T w G q w o Q Q p s Q G G S R ];_#5 *.n 0.' a./ { - Q&K@!=2+O.K@n#u 6$i#W#W#9@i+9@v.D n+$@n $@{ 6$A=d>K%i%r&)&I+:%s G G n l 2.| > D { w.n %@p+9.$@9.q@n { p+C n { D n { _$ +U,t@h@d-B&B&M.L#B&f.2=u_Y,[%[%=*i*i 9 b +@f x=t&q*E*`+q=N+[%]#]#<% &=*h*h*+*-*!.$.9 4#2*o_n,2*G,J-: ! n 1.].Q H+6%F w S*%>g%V*[%g%%.a 6#w#J.F.c.x&{@u+r+t#r#h,f$[+Z@t+l+l+a.{ _ !+=$=$1.!+!+,+_+u *;T=X$*;o+,+#$R.(.-$F+;+%'R=R=1._+x-+~' &.A > - , z - Q&R.,#-#(+'$>##@1.' [+('('M#S#v_v_w_U@f+p%{ 9.' l+D { _+-#v@6;X$X$b'b'F+%'R=,+I@_+)*8@(.}+m+u.l+O l+B@y#q+]>e)F,v@v&'*s$u&M@Q#/>/>T)/>o%-%/-{&h@u+s+e@H*C&K@i-",
"$.a +@*@h E+%.b 0 0 p&.&=*p&]#7 > q ~.o G ~.o &.&.; < - 4 | n S s m t ].s Q 3 4 3 z  .@.8 0 !.b f%e%7%+*h*+&h*e%%=-*+*+*+*+*+*0 z > z * ]+, - * /.< 1 1 - } [ /.F+}.G+^.^.].p v P u t o G t u D n o ~.w n D t o m [ 1.#@E.#@[ D u p G+].v s Q u u p Q w {.l.G m C@3#2 *.*.E@E#& z E#D#8$z n a.a.$.a #.k.S -.-.S S 2 m n m D u p /./.1 | - /.; A 2 o ' ' - ' { ~ a.{ _ _ > ) ~ B+8.8.2$u+e@g@h@D B m t t }.[ < - > - < - } [ 3 , $@w.$@n 9.D D { $@n w.' o+' $@B+Q+x y y {.m G S ~.s o q :@(#<$n.5 U.3#( ] ~ a.u.u.{ !*c.C&M.J.x#n  %i%)&)& %r&)&C _$$@9.n n 9.)&>%i'z=z=.,.,~%i%0#0#( a.a.! 0.{ 9.v.D w.v.' v.p+_$C w.I@I@O l+B@Z%Z$x o.r@r@1$J@n#x#L.1;B&3;~=~@8%-- &g%%=.&.&=* @f +.`%T.%.#.f ,.2@,.%.,... .0 +@` %.8 b k.` i.F.!*v>@;;)2+o.] %@R$9#o.T B z$r %>@]x>=~W*@*p&=* .L=1>:,x#f@[+3+[{x_6;l%{&X@g@t#Z@A@%@{ u l+I@Q&_ 9%1.j+I@_+w!o+1.o+x-;+-$-#j+-#x-w!%'>+R=>+l+D _+u u Q } , }@= ,+k+|., 1.v s Q D D I@r#M#M@('S#v_Y(y_;]f+W@6$)&n G v.D 8@R=o#f$'*^>'*^>6;v&p#`)<+r#q+r+f$f$r+t#8@)*o+u u _+F+%']>e)F,^>w@X@P&(-G%p%G%{&=+-%~&#+u@x#h@u+u@x#M.i-",
"9 h 0 !.8 b +@0 +@8 +&-*+*#*@*i l ~.Q Q s w 5 Z A S z = 4 ; | ; v o o Q p G+/.&.2 2.i j c b 9 b +*+*]#]#7%h*+*h*]#@*+*7%7%+*%=a b 4 o > * [ /.}@} 4 A A o > z * ;#F+G+G+G+].G+[ 1.Q v v D t t q s v o q D Q s q n ].1.'$E.p ~.[ u ^.'$P ].v Q u o D ~.G q l.~.P '+C@*.2 &.D#X &.Y+%%D#]-| 1 0.{ .@@.E+f 5 o.U.A l > ].Q v Q v G o n 1 | 4 < 2.5 n 1 ! '+) > { n B+l / ] > u.'+`.q@{ g@.+x#t#s+{ B+n B w [ t o , } 1.} 3 * z z 1 8.B+B+c$9#B+n+$@%@q@%@n+O ' { p+~.D Q+C G r Q+x q {.{._#L$m.~.o.2.l ~ n / ~ { > l ^ x&H*C&d.d#)@8.Y$K%y$~%G*G*#,/#8.9.v.D 9.p+Y$Y'6-',A=.,d>~%r&_$a#l n ) 0.0.a.p+l+l+w.{ v.n+w.w.p+$@9.p+w.O ' H+F$q n n+u t+1$u+.+F&~*{*2;z_c#j>V*W*g%=*p&%=]#$.N*f ..8 !.a D*_@2.@@e#_@e#A A #.A 7 o 9 2  .&.t>O.6&F.N.C&`.G@B+c$0%c$B o  %G !~g&2-`,i*[%[%p&r*:.7{)'u]h,A_u]&%C%/-G%P&(-y#<+u+s+u $@n+D l+: 6#+@j*(.}+,+_+)*)*8@!{w!(.-#R.$$w!;+-#)*v.I@O { B+{ p }.= 1.[ < > u., * u D v [ 1.~.p+o+5,m$Q@F]B_C_D_E_U#z.i+i+G l.C w.l+I@3+e@w@h+P&u&w&u&<+[+s+u+y#f$/,q#r#q+_+,+%'R=>+R=%'%'q/x@9,^>u&p%(-{&G%p%(-r$X@G%o%o%A@t+2$2$s+s+J.L#",
"b 8 .@>.>.!.a 8 %=p&g%#*h*+&')+*l@m&E#2 D#$%@@Z 1 - k+!+u.{ u.u.o v Q t Q ].[ > ; z )+!..@!.9 c =*e%p=N e%+*+*+*+*7%+&h*7%7%+&*@k.> - = - [ z /./.} 4 4 o o , ]+R.}@1./.* < /.[ - , , * /./.4 o [ {#H+5%_%H+B ~.G+^.]+}.= [ 4 < u G+p u u ^.^.p [ Q ~.G t v s t '+^@k A m&E@D#-.E#]-E#&.S 6 B+( n 2 #.k.#.7 b 0 * 4 | 1 o | n l S ; ; 2 1 | &.1 n 1 `.l _ ! a.{ H@G#C@/ 3#/ $@n n+n+t+2$h@n#J@{ { n l.n ~.D < [ 3 } - < o &.2.*.a#B+q@%@%@%@q@q@0#a#q@_$p+_$%@C a$Z%5%Y%6%a$x C B D@|=F_0%k Z |@k S 3#'+( 3#~ a./ ~ f=x&2+2+H*u@_$r&~%Y$ %b@~% %%@{ { q@a#_$n 1* -)!G_P' -.>~%b@n+_$u@l$d.d.B&c.s+1$e@n#2$A@e@u+e@u+u@t+s+2$.+$@z$_%.%_%*;~%B+p+e@h@n=,&9+!_H_s~i>N&.&g% &^#L+W$H +@#.X*I b `+6 m C y ]$7-Q+T l.z S 1 D *.G [ 4 c.F.) ( G#H@B+n R$o.7.a#p+9.n+z %&G^M,+' &N& @b 6#_.J.B&<+x#x#y#G%{&-%G%G%X@e@n#B@l+I@$@o.C w.!+_.r*H - 1.' o+v.B@u )*_+)*)*,+#$1.j+k+!+a.> l+D a#C D s v [ o s '+: } 4 Q q m m G q B@O F%'&P@L>&,D_I_J_w$',K%s&~.s B+$@1.u f@J@p%G%P&w@v&^>w&r$e@t+s+y#n#[+<+<+_+R=F+)*O >+w!F+,+,+s>s>v@s$P&=+{&{&=+{&(-p%y#t#2$2$h@h@Z@u+g$u+",
"8 $.L+0 !.` %.k.g%-*f%f%7%7%h&]#P*% -.*.$%E#> > [ 3 - u.{ u.: : s u ^.G+u u * * < * +#)+L+g )+!.e%i=q'p=M+M+q=N q'}{N f%7%+*+&g z [ * = * - z > * 3 [ < > > } = 1.[ = 3 < < |.= - } } * * * 4 q [ ~#_%H+,%_%Q 1.'$1., = 1.[ > o u v D s D ~.o t Q u v t ].].[ p : H@D@Z D#&.8$2 %%%%Y+m&S 2 n > 4 < $.$.>.9 8 a &.A *.2 | > ; *.-.2 | > | S o.S A 2 H@G#( { u._ B+/ n ~ C@C@p+n+w.v.e@1$8=h$A@v.~.v v ~.q o 4 z ; 1 o o | n *.Z 9.n %@B+a#a#B+B+_$C 0#R$c$R$o.0#K$s&`$z$Y%Z$r {.y 0%&=X%)#e#@@_@-.2.B+C@3#l ) ] / ~ e.f=b.C&H*2$n+6%x;x;j%i%I+I+' I@v.q@0#q@$@~%A=K_L_K_G(M_M& %$@I@1$g$x&H*d.d.t#Z@n#n#u+e@f@r+J@t+h$t+n#2$x#D 6$W#W#,%y$j%C l+A@2$,&|$8(T$N_b# .W*W*[*Y, &7 b 1#,.a s!b j '.*.v Y& %Y%s=Z$5%B n q v B o.o G+[ ) c.a.G#V%I#C n %@q@C p+p+w.w.;  &&{ '[*i*1#+.#.i ^ 5=I.t@u@h@t+w&s$X@p%!&O_P_B({ D 9.o.a#$@{ : 4#o,*@7@_.0.w.n+%@v.u B@v.u m+' _ }+m+Z.- Z._+>+)*{ n B G Q s s { ) | | Q m w q t o v.s+'&'&P@L>Q_R_S_~^!!!!F F T m R$9.B@a#h$f@r$G%P&P&u&6;X@o%g@y#<+[+.+@+e@Z@D I@_+1.)*,+;+%'F+F+e)9,F,'*u&X@X@p%p%p%X@h+y#y#3+y#t+2$2$g$ +C#",
"| &.S _@%...@.#.#*p&#*7%+*%=~>V-8!u#x+ #O&w+n &.n A 3#( ) Z.' D } - [ 3 = 1.} - 4 [ /./.>.)+*@$.9 .@)+$.!.*@L++#L+g $.0 a 8 $.g } G+p ^.].].t s ^.].].[ [ u Q Q ; 2 o z /./.3 [ [ } - > 1 o < Q u .%W#_%{#~#].t D G | < - [ /.[ [ 4 4 /.< > > 4 4 - [ /.- < z /.'+n Z Z B=8$8$&.E@D#m&6 -.&.0.m+4 < /.< +@a #.` h @. .` S *.*.*.l *.*.2 ; A S *.: ! ] > ' m+!+0.l l 5 6 o.Q+a#%@D p+a#B+i%~%i%K%m m q q m m | z 2.2 n n 2 *.5 -.w.9.n %@B+0#o.R$o.o.i$i$i$o.0#0#s&Y&Z$Y%a$F T w T r -.6 5 U.l 2.2 2.B+C@~ l ) '+> ) f=B{f=!=d.h@D  %Z$`$Y%z$,%W&].u v ~.n n m X#.,z= ,x$T#T_W/!&o%/- +2$.+x#O@z*A@2$t+h@h@s+e@t+@+u+u+f$g,J@g@' i+,%I+I+b@b@r&y$Z@J@4+^-U_V_c_c#p-2@d B*`+8 )+!.l e#1 $=- *.2#(#6%Q-';Q-1-t,';a$ %Y%5%6%0$Z$ %:%B@p+a#C %@B+a#%@$@n w.9._$_$n *...y;k;T.1#`+q*e#}>p@],A@h@u+e@e@w!>+R=)*/#4'i$I@l+p+2 1 3 1.}@/.7 N+7%8 a 1 S G G n q u 1.].< 4 n j+' : : }+-$Z.u D q B B G D [ ' !+/.*.C T ~.[ [ D { h@P@C%M@S@z]W_}^M]!!j%C l.~.t 9.s@K#h$w&e)X@w@h+{&G%'*s${&G%w&J@t+t+g@Z@u@] z - Q&,+x-w!-)w!;+x-F+s>s>s>9,8@8@o+o+8@I@u ' l+O 9.p+q@9.R=x-",
"4 4 < | 0 7 .@*@q==*.&^#g%#*a;@*U-b, #b,b,3%&.z , - > ( '+_ )*)*- /.* 1., - - 3 } 3 [ } .@+#L+H a +@9 9 $.L+H L++#+#g $.9 +@>.[ ].].].].[ [ [ [ ^.].G+Q t Q o t z ; ; &.z > z &.z [ - 4 o z < Q W#Z%I+I+H+Z%Q s n n ; 1 &.A &.z > z | 2 A n &.2 A | > o o &.2 1 { n U.o.k s*6 $*D#E@2 %%> > : > o &.*.U.i E+`  .c b 8 @.o.k o.*.S n &.A 2.&.o 4 ! ) '+_ > ] ) '+l *.-.6 S T C p+%@C C _$1*M&)=j%l.C T q o G &.&.&.n A 2.*.*.*.2.$@$@$@n _$C 8.s@/#R$8.%@n $@n p+Y%F Y%a$a$6%o o s D A 6 U.; 4 o 2.2.'+> _ n ] ~ { ! c.c.F.J.!*B@~%:%:%:%I+H+Z%(%[ D G G G G s ].I+A.Y=d>W@t$-%&+n%3>@%u@x#1$4+,&u@h@x#)@g$1$u@t+n#r+t#r+r+h@@+8=6%Z%,%X#6%i+i#9@2$u+#%S$U(3_._#%C@7 %.i @.>.k.Z [ ; z 1 6 }*b=;&s=X_Y_x^x^!;s,`$`$s&`$6%6%Y%C {.a#R$'@8.%@C <&c$C w._${ n+p+9.Z k r%D*|@,.V$1@*.) _ 3+h,7$q+s#p#x-B@B@u w.I@-+!{n+o.*.2 ; ]+H![=@*[%[%+*k.9 1 r m q s ].].t > < ! j+u.' - 0.a.l C w.[ Q ~.m G v ' : &.l C S T ~.1.].g@Z@Q#Q#M#Q@U#v$v$y$~%i%n q s P u q@o#A_O{p%X@P&X@s$'*u&G%{&w&X@n#n#e@n#r+8@m+1.!+!+>+1.8@>+,+R=:+>+v&F,e) !8@o+1._+1.)*8@I@l+u I@' w.n+' n+",
"n ~.u t - < 4 * b 9 f%+*p&%=f%M+v+=!U%J$b,U%+@L+]+$=~+1.l+{ f@R=- .@)+X*1.* - , 3 3 /.* < } * 1.< [ /.< - 1.= 3 3 , , } - - 3 = O u 8@' B@D l+I@v.{ B@n B+C B+$@&.Z A A *.n /.o | ; A 2.; z o n 5%R-H+,%a$6%D G+s l.5 2.| | c  .c c %.i 1#%.@.c E+#.c c 7 #.k.7 ! ] o.=.s-z+$*=.8$2 2 z z n ] l :@Q+l A c @.^#N&[%g%7 a b c Z 6 5 2 o | ; 1 | ; n { ] n ! ! ) / S V+W <#w l.B G n l.Y%5%~%Y$K%r&v s m C B ~.z o &.&.n n ; | z < v.D n+w.w.n+D v._$_$p+n $@w.n+{ `$U=G$G$_%Z%Q G w x k k -.2 +@/.2.G { 9.q@p+p+n q@q@1$A@u@t+s+B@~%z$I+Z%X#I+,%5%~.n n o s D s u I+r&K%i#h+P&n%!)M{Z_|&d''&c%E%;=$+=+z#%+6=z#X@F,e)s>'*(-=+-%&+n%G*y$9@I+K%6$X@r$2$n#/&O@#%'>'>n#a.1 2.&.n &.| 4 = ^.S y Q+o.;&_#l!6!6!K$Y&7!`${.T o.S {.y r |@D@j$c$<&7.9#<&i$R$s@B@3#B+~ ) / |@@@l*|@r 5 x m B _+w!f@q+r#t#h@[+8._#*.A 1@z >$= o.U.,.h~x+/=b,8&e%@'[%g%j #.; 2.Q+{.B q s [ [ < : ! ! u.a.'+'+( %@n+[ ^.].s X#w Z.m+> ; n l.B G s s e@s+B%B%M#7+(-P&x.D 9.n &.; /.= - : [+f$w&G%/>/>T)f+w&p%r$=+r$v@^>z#l$@+u@{ - 3 [ /.Z.u.D l+v.O I@)*r+r+r+3+O u 8@1._+_+1.)*>+I@j#I+i%)&b@K%",
"B G G+u $=]+z < ` 7 %=#*=*W*i*q(P*`_ #w+w+ $#.b 1 < 0.'+B+$@Z@o+j*g )+H |.]+, } = 3 [ * [ [ [ } , , - > > [ * - , 3 } /.4 4 [ } O I@1.' v.w.v.O v.n+{ D v.{ %@8.U.-.Z *.o | | n 2 2 2.S *.; o ~.I+%-I+.%I+`$G [ [ D | o o &.#.k.a 7 7 a h k.%. .@.a 7 c 7 #. .#./ ) ; -.z+]-I$Y#m&$%D#$%Z 5 ^@o.P+o.S A h a @*]#N&p&+@!.8 c 2.2.S U.l ; ; n &.n _ : a.'+> { ! 2 q W+}#[#~.G m m C S Z$ %r&r&r&b@{.w o s D o | 1 o o > 4 < /././.$@$@$@9.w.n+n+{ n+w.$@n n $@w.)&z$=-(%w%F$X#B :@x r U.2 n &.a z q G 9._$i$B+B+w.9._$@+l$++l$x#{ i+I+X#5%I+W#F$ %m w q v [ D q q I+6$j#k#o%R, : :M{(*F%(*.:x*x*c%!&{&p%u&F,9,s>e)v@6;^>P&z#6=k%o%x;y$9@i#x.I+-%%+1$s+4+d$m=A*n=8=: z Z Z z 2 | [ m [ G m ].^.B _#G$+:t's&o.T m q x :@S U.k o.,.@@R$C s@'@R$s@0#B+w.n p@r@o.C@I#~ u T&S n ~.q D l.R=v.l$.+@+u@g@B@q@B 5 V$;.l &.Z U.l [~(=l@3%`@b,;~w,V*^#E+1#2 &.S q v Q [ G+= = Q&m+u.0.~ n ( ~ $@w.m o s o :%z$a.: > 2 C l.n D o s h@h@C%P@D%D%P&P&D n+q m ; | o > > ) g$2$w&p%f+w$O%O%r$G%X@u&(-w@p%n%@%k$A@x#( n ; | u.' l+v.9.{ ' >+r#f$f@g@B@O u o+1.>+:+R=F+)*(%i#9@k#i#9@",
"m X#v s n B A n 0 $.!.8 =*i*<%&>o=@:`_Q/x+ #c k.z /.: ' n#3+y#l+_.L+X*H L+L+, , - 4 s D D n m G 3 , } < 4 [ * * /.- } } * * 3 = ' u )*u u v.O ' )*o+8@R=;+,+' _$> /.| ; |.[ *.Z 5 | * [ o | < u n&o&1-**F$:%D v s G 1 4 .@!.8 b 9 9 $.*@9 #.1#d 8 0 h 7 8 8 h 8 m+v.n w T&X+X+W S+W U V+C w a#o.R o.S 2 a a ]#p&]#%=+*-*h @.2.A l U.S S 6 o.n > ! a.~ ~ o.G@] > [ N%}#N%X+b&A+Y+o o H+5%X#H+5%Y%o.r w s v o o < /./.< < 4 4 4 < B@l+' ' O l+D n+p+n n $@9.9.$@~%z$_;1-Q-6%K${$(#B l.2.| 0 >.h 2.G  %I+i+r&Y$M&K%I+y$p%p%/-/-(-b@I+,%X#5%_%G$,%F$Q o q G o o ~.~.j%K%G%(-{&-%{&p%#:$:%:&:*:<_8_O%w@w@w@^>s>^>X@P&p%=+o%%+~&-%~&G%~%W#y.)&/-6=~&=+%+&+C#C#=:-:+%K#a.* ;#(+Q n o t o.q w%Z%I+s&;*F u [ o P+Z &.| ;._@-.k.i f b p&j l %@i$a#%@B+'@c$o._$`.3#B&Y)x{%$E.#>a$0$s=E X#Z%B@{ @+h$l$l$g$/#o.;._@_@$%$%/=R*$ x+ ## v~=!;:O*D-c)[%+*N**@> 3 #@!#!##@}.;#, 1 r*7@: (.0.] ] n D v.m q X#X#_%F$1.1./.* t n o.x q D h@t+Q@7='&Q@s+D > 0.z > 8 a *.< a.o..+u@6;6;S@8,L>=%m$Q@C%e'B%7+'&M@q$F-/&u+a.; 1 ; | /.l+9.v.{ D I@:+,+3+J@' ' u 8@1.:+F+%';+:+j#k#X$b'k#j#",
"t G t E.G Q ^.&.o } < 0 )++&]##*O&>:@ <=[~/=0 #.z /.!+' m+' y#B@< *@)+.@)++#} < , /.[ t Q m q G 1 < - [ /.- * - } = }@}@1.[ z o : : m+- (.8@1.8@O o+' 8@u v.l+D [ u > &.[ z ; 1 -.&.< > n &.z - P G$,%G$].[ v v - o 1 < )+>.7  .8 9 !.+@0 +@0 h #.@. .@.!.)+g X*Q&)*| B $%Y+E#}#z+W+Y#T&{.w w.0#o.r l A n 7 @.#.a b %=-*0 a @. .z n l 1@e#6 A 2.a.( ~ ) n { !+! m <#T V+w Y+u Q t t 5%s&Y&Y%o D w n m q s u * /.< z o 1 | 4 - p u O v.n+$@n p+_$$@$@$@$@$@ %n  %Y%u= %H+Y%Y&/#Q+T m ; > &.o 8 4 W#,%W#r&)&)&~% %Y$Y$(-p%{&(-h+X@K%`$)&,%X#z$Z%W#Q s ~.o s s o G  %)&/-6=#+/-o%&+&+W^(*,:>=':F%e'^>F,]>]>^>p%p%s$h+s$P&6=n%!&l%b@r&y.i#1*/--%l%z#m%O_h$:( +a{g$):D@2.v m x n T B B w W#(%y.5% %!:F+Q 3.|.2.6 2.Z  @ @ @,.[%W*W;q*l $@_$B+n o.J#{$c$q@~ 1.~)O.j-(.v Y%H+s=k!z$W#5%Q+p+p+y#a{g@k$/#| A n | z <=(=R*l;l@ $u#l;>(<=%>]#p&@*.@!.5 *.(+!#P (+^+=#P > 1 { }+> ) ] ~ 0.: ,+R=[ [ W#F${#t > m+< z q q w ~.t I@l+h@h@{&t+J@$@9.{ : [ 4 &.l ; > ] '+K#:(K#*+l%T#7={&Q@X@R#M@('6+d'B%F-.]5+J@' 4 > &.n [ o+D O 9.C _$v.8@8@O 8@8@8@o+1.R=%';+R=-#%'V~F+W#)*x-",
"o 1 o /.[ s s Q w [ u o 1 h c a U.Y#3 > ` 9 8 ` h %.1#2.1 < v.t z [ o , |./.4 3 < 3 /./.> | [ /.| * q s [ G Q Q ^.1.1.G+[ t | ; >.X*L+g *@- J+3 > [ [ u p u G$~#W#H+m q G ~.D t } 1 1 A c 9 X*9 - [ 3 1.]+]+* z .@0 >.g !.+@$.*@>.9 9 !.!.*@k.` @.h #*7%q=N++*+@8 4 0 A k.A 7 1 1#; b Z l 5 n n *.Z Q+x B &.; &.| o b b @*]#]#=*~;y+Q*(=o.5 S B B T m n m+- '+9.K%X#b@z$r&X#b@I+I@B@a#B+$@_$] w.w @@r q s u 1.o n B o D o D G [ B@b@C 0#a#%@n $@w.p+6$j#9@A=i%I+b@Y$_$C a#q@p+l+%@p+l+l+B@u ' u y$z.:':'.>A=x$c];%/>a^~:w(1&T#T)=+I+r$~%b@b@y$i#I+)&W#k# %~%G$`$n p+D w.9.$@n { _$Y$x#h+f@ !q+r#s#o#f@[+B@l+O { v.O 6$b@r&)&I+)&:'./V#z.A= -x; /{:]&r#g,G;[{u-g$C V&U+s%S&R+n.y R$B+_$o+q+' J@o+/%-$~+j+3#V%V%0=~'0=Z# .j.T.l&G#_$1*8.s@w _#5 Y#l U.0 .@w#4#4#a.n B+0#R$w 1.V ]:R+q m O _+D 0#n+}.L+H c 8 i*i*V-]#p&[%p&@*o=.&W*]#K-h>5$h#a.' X$V~b'^;+!%'8@- }+!+)*o+R=D B@' R=)*' 8@)*l+v.8@_+u.m+m+_ { 0.u.u._ ! ) ) ] a#C@q@R$R$p+$@_$n p+p+p+n+' 1.1.B@p+C %@r&u+n+Z@I@t#n#f@o#n#e@y#<+o#3+: [ = 1.[ , R.}@= | < = * * |.}+;+r#<+3+f@t#Q&1.Z.' }+x-= ].]+;#",
"0 !.n o.{.s Z%6%z$G$Q G &.2 @.a n ^.3 = 9 h 0 1#b k.k.c o n m q * 3 z ; ]+,$1.4 [ } < o o /.[ | | , P p G+u v v G+1.p Q Q u 4 &.f%h*]#7%)+.@.@+@1 < Q Q G+G+{#w%n*Z%H+H+G D ~.q ]+]+- [ 9 9 [=.@*@.@)+X*J+X*H +#$.8 9 g )+.@$.9 !.9 8 .@*@+@c g !.#.%=h*7%h*+*f%7 $.h  @j b h  .f h a k.6 k S 5 2.5 Q+S m o G l.~.s a 0 %=]#D-]#[~[~y+/=; * ].o D q B q ) B+3#n+)&',K% %I+~%K%i+D l+$@$@) '+'+~ T n w n p G x S T C ~.~.m o ~.o 6$9@)*F+R=I@v.D B+i$y$i#.>A=a@a@s@R$8.a#B+%@p+B@9.%@w.B@O { 9.k#T=z..,z.J;',6-d>T#/>w$/>2&T#2&2&p%{&r$(-i+i#i#b@=;(%6$I+r&~%X#6%$@w._$O v.v.{ D ' D _+)*R=x-o+1.i-M.Z@s+D ' I@B@B@l+)&)&~%I+)&)&A)*-d>d> -6-r&;-~&6;7$y#O@B]^:2)v T&X L%N%W+G+Q $@_$e@u+h@t#t#q#;)+~Q&> m+~ 0=5.X%D@P-C-P-j.&@}+q@J%p+0#S P+6 $%E^X 7 8 7 Z#5$/ R$C 8.%@G D S+<;Y+[#w T 9.a#o.8.c )+>.a ]#[%p&[%+*-*]##*7%%==*]#L-L-&@j*0.u.-#T;V~T=k#T=>+1.(.R.[$!{,+>+I@8@D ' B@u 8@v.q@a#_$w.: ' : ! '+> _ _ u.{ ; ; n 2.A ; c$a#9.9.w.9.q@9.w.{ B@v.{ B@: > p+_$q@_$w.B@l+D t#o#t#Z@g@J@g@u (.4 4 * - * } - > 2 o * } 1.|., g,<+t#t#[+J@' !+}+_ ! _ - 1., z ",
"!.$.[ [ [ [ s q q v Q D 1 &.7 a n } 3 1.a ..=*^#]#^#` f l Z A &., 2 2 n - < &.; o ; n l l 2 *.Z |@|@4 3 - /.| < n 2.Z S n | 1 A =*p&p&@*]#[%a 9 | - [ o s v D G [ ~.t t ~.~.o t [ G+o > &.2 o A } - < [ [ /.} |.* /.[ - z > [ 3 $.L+9 !.!.0 0 g +@j ]#+*+&M+7%f%#*]#N&W*@.#.#.!.&.; n | A 2 | 2.*.A q o t t D o l.n c 7 p&[%V*.&3%b,~;v+2 *.l.w S x _#l.a.( ~ { y$y$b@~%~%~%9.w.v.{ n+D 0#7.c$n B S Q+T ^.v C Q+n n G B S ~.v Q 9@x.I@>+)*D ! u.n o.i% %a@.,z=6-a#s@q@%@_$n $@l+v.w.{ { n+n _$6$9@A=d>>%:'P%.>.,>%P%k{f+T)U#U#/>G%G%G%=+i%I+W#9@x.W#)&b@,%F$G$Z%_$w.p+q@n n+u D )*I@[$>+1.8@9.B@u+A@u@t+{ B@9@6$y$y$~%9@i+k#y.=;/:_;Z=6- -A=I+J%(-s>e@2$+++%n=1$n :#S Q D ~.u u ,+o+y#t+A*d=@-f$p#g,r+f@f@ +(:_:2+6&C&d.d.t>O.F.I%K#o.i$G Q+7-7-;.@@6 1@;.o.e.d#0#p+%@0#r m.<;U+U W+[ [ _$'@i$_$*@!.!.8 8 >.]#7%+&+&+*+*+*p&[%p&g-8%6#_.' - R=>+=;(%*;j#I@O _ _ D )*1.)*w.{ $@$@v.I@u n+$@9.w.w.) ! ) '+! _ : > ' > ; &.&.n ; o s@p+n q@9._$c$B+_$o.B+{ n+9.w.n $@9.D u o+I@O l+e@t+A@2$g@n#y#1.> | ; 2 2.1 o n 1 &.2.-.|@5 ; < s+A@.+t+h@1$l / n l C@o.|@-.2 ; ",
"c 9 - 4 m w n m o s s ~.; ; 0 !.Z ; 3 4  .`+W*@*[%i*'.E+` S l 1 =.4.D@_@6 n | n 2 2.2 U.o.S -.5 A o.o | l z < z n -.1@S 2 2.A a .&[%]#%=-*%=8 a 9 1 ; z z B w p ].v G o D ~.D t ].].z [ - 1.[ < o [ 4 < /.4 - , 3 - /.[ [ < > ; b f 2@ @d ,.@.k. .@.@*=*]#]#[%]#]#V* &$-%.#.h 0 2 n 2.> 1 o > ; |@5 w G q n w n S Q+c %.W*N&(>S.x+O*8!8!o.S m ~.T l.Q+{.l n '+a.$@M&r&W#b@r&' ' w.D B@v.B+R$_$$@T R y C o [ '$P l.G o G ~.s t Q j#W#8@>+)*l+_ - I@n+i%6%6%',z.z.%@a#C B+B+%@p+l+u w.l+{ C $@D y$b@A=>%>%z.>%Y'K{.,>%U#T)w$/>l=a^#+P&P&z#i%~%r&I+y$6$y$)&:%I+F$:%w.w.w.%@9.o+8@u I@' F+o+I@O w.v.h@1$.+t+n+9.r&)&I+~%6%r& %b@i%b@J;_;a@a@>-Y=J% %r$G%@+u@h$P_z*g@{.R n q C y j$8.$@{ t+t#c=^:o/5+7$q+2)r+t+<* +l)::H-c.2+f=b.F.f.k$ +9=j$w m.7-D@U.6 6 D.}>3#B{(&c$9#/#/#x S W <#<#<#~.].n q@w.)*K+>. @`+f h -*]#%=-*%=-*-*^#--<%K-=&[.r*!+Z.)*)*(%(%y.x.v.O u.0.9.u R=R={ { D v.v.u l+D l+O B@O ( ] n '+0.- ' > : { ; n &.n n 2 a#q@C 0#p+_$i$C $@i$%@u v.n w.w.' u o+o+v.p+_$n+u@A@.+u@2$g$)@w.H@@@@@|@1@o.*.1 - * > 2 2.2.1 } s+x#A@x#h@u+a.a.( ^ H@^ 6 6 2 - ",
" @%.n A T n D Q ~.m w B 2.n !.)+S 2 H 9 @*g%V*@*=*%=-*0 @.@.2.2 *.3 < *.V$2.z | S S 2 *.&.[ [ * .@0 9 +@b !.!.a !.7 #.7 c ` ` c ^# *W*^#=*]#g% .9 !.0 1 n l ; = /.> *.&.&.n } } ^.p t ].].G+t D *././.- 3 [ - /.[ /.z o > 1 l 6 D*2@2,f~q*d ` 7 @.7 N&V*=*g%]#]#f%[%$-$-W*+*!.j o.n w ~.l.C T q S *.w ~.s s ~.m w x @.E+.&^# &N&S*l;l@8!6 6 C G T n o S C@~ ! { '+8.w.o+D D u { { l+B@9.a#_$i#x.{.r l.m q C B C T ~.G o [ D G [ x.x.O u I@O { '+8@o+n+b@I+)&A=.,_$B+_$_$_$$@w.u B@' v.p+w.n+$@j#m*./',6-z= -a@A.',d>3&T#T#l=T#/>9@O 9.%@$@9.q@0#r@B+B ~.[ Q s w C c$q@n+R=R=>+:+' O B@' O I@' O I+)&~%~%b@~%K%1*.,',w$w$Y'Z=1&z..>',J;Y'<:B.b@=;Z@f@u@k$K#[:]@i-p+C 9.p+'@i$u+t@2$t+|$!@F-H/F-A*M@6+m$('P@F%N{}:[{#%c=^*m=:*}]|:2=M=^@~ &.@@V$@@S n P+{$R$q@h@h@s@C B+o._#w V+V&T+N%u G+o+,+:+1.[=*@7 c i `+d f c @.@.+@+#.@c  .n@4#7@o@/%: l+o+' u ' B@I@R=,+1.B@B@9.n+v.B@v.o+' )*o+I@u { n+u ) ) a.a.{ u.u.0.! ) n 2 n A Z 6 s@s@C B+%@w.{ I@a#8.{ u $@q@_$C D D l+l+w.q@%@n+t#3+3+f@g@t+f@h!#$1.4 [ = |.R.-#|.3 > 4 3 < 1 4 y#3+<+q+7$<+n#x#%@B+q@D u ' u 1.",
"q*,.-.1@l.^.u {.T {.T n 2 2 a b &.< H +@@*]#[%]#+*@*p&[%b 0 1 *.-.< /.3.-#}@z < 3 n *.; > &.*.n @.a 7 $.[=)+0 8 c 7 c k.%. . . .P;2-^#V* &i;j;K,1#8 h `+D@o.*.l _@_@;.S 1@k 1 ; o.x y w l.C G n 2 < n n | 2.2 &.| z | 2 A S 1@@@1#,.` 0 $. .j  .2@`+<%V*.&<%^#[%[*V;[*^#V*g%k.D*e#S {.C C x x C -.-.r {.B w w l.y r Z #.g%^#V*.&U-x+O*P*2.l S n @@}&z,d!p@l n ] ~ ] ) n+n+l+B@%@_$q@n ' { a#Y$b@n q v D q S n D T q l.q t m q [ i#6$v.D B@l+0.) v.8@D v.i#~%!!!!$@p+{ v.D { w.l+8@I@8@w.q@n+{ w.(%@/0,:'x$x$z.A=>%A=O%2&l=l=g+x@w!u $@p+p+$@q@c$_=8.:@m./#/#S D l+{ O l+)*_${ 9.B@I@D B@$@n n+{ b@6$y$K% %b@Y$)=W=1:2:3:a@z=O%/> -z=A=6-D(d>)&b@t+h@x#x#@+B(e.f=%@$@p+O O _$A@t@ +2)#;/&K=^*a-.]Q#E%E%e'4:D'f)n$5:^*e=d=c=i/6:J=T,_-3#3#Z o.|@Z 4 /.x ;&'@n h@A@B@B@{ B+(#7-7:U+Y A+Q ~.R=-+$$#$[=s!z-W.L+N*!.8 a 9 *@W$O+W$)+g n@[.:.P]}+( u w.v.8@)*' D B@' - 1.v.p+$@D v.D B@8@u ' I@' n+$@{ - u.! ~ ~ ) 0.> n n A 2.A *.o.V$i$R$p+p+8.n O 1.u p+C q@0#a#p+n q@q@n D O u u I@y#s+h@f@f$t#h@e@_ }@'#,$1.4 [ R.* o *.A 1 2.Z a.t#7$q#o#t#t#Z@1$$@n+n+D I@)*_+F+",
",.A | &.2 ; G n B {.n z | n 2 *.+@)+.@8 p&=*w,0;>;.'8:W;0 0 7 7 *.5 6 o &.; n [ * 2.6 A ; Z -.Z k.0 c 7 f%N q=N+N&[%g%[%7 +@+@h x>x,[%%=#*N&(> &%.7 #.` k.h 8 !.@.#.@.a o | ; z [ s G t X#s&H+`$l.w m.P+x m.:@C w G q G Q D y 3$+.,.h b b %.j k.i 1#.&]#^#S.i*S.=~`,W*W*[*--E+T.;.-.o.o.6%s&s&/#k @@m.m.@@:@x S C C ;...i*--V*V*x+u#O*P*S 2 m n _#}&6.d!>'Y.`.a.E+Z A A *.2 o > m l.F H+G$I+Z%F$t q ~.o D m G m C n m s D q s o t D s v < o 1 1 n ; s t ,%a$9:f;%@q@9.n+9.$@_$n+u 8@)*9.B+9.9.%@H+W#.%I+X#,%6$)&Y$r&i+I+~% %P&6;)*n+$@D w._$C 0#C n Q+Q+q s [ [ ,+w!)*8@w.n+w.n w.v.D n+p+q@p+9.)&6$A= -z= -W^r>V(V(0:a:0^}^n]b:D(Z=.,Y'6% %i%J%B(U,d@+%_-T,s_],)@h@u@.+e@g@h@.+m=4+u-H>+,>&q$.];=c:O%d:e:T@7=R#B%7+F%-=y*f:c%d=!=|,i /@i 4$1@l {.S %@/#D@R$n%@+s@'+'+X.)#|@8$D#A;A;6 S =$a'$$-$/'O,N*e!j*q&H 9%r*+@~ C@^ ^ / : m+}+j+#$Q&! : '+m+- 0.l H@`.a.: { p+9.n+9.D u ' B@n+n+D v.{ 9.%@> 0.! ~ ( n ) ! ~ ~ l Z *.2.-.e#a#s@9.w.B+p+{ D B@C i$0#a#8.8.a#w.p+C B+n B@u ' n#n#[+<+r#[+x#x#Z.] ^@l _ 0.> Q&! ) '+'+'+] a.: F.j-~)L.<+[+h@1$x#g@t#q+s#7$O e@",
"Z &.1 n > 1.].n [ q 1 z ; n ; &.$.>.0 +@+*h*2-c)_>u,i;$-k.k.%.a o S 1 /.n /.1 6 Z A 5 S n > - |  .f j @.@*e%K 5)V*N&V*=*0 >.9 a [%v,g%]#@*@*g%@*>.b 7 !.L+>.+@)+)+J++#8 1.]+/.t*G!=#>#}..%:%H+s&/#_#t-P+l._#P+w w s t t p Q C |@E+ .0 #.@.E+d  .@.0 %=]#g%.& &V-m'}'p&[% &` 7 i n | D q z$Y%z$x%5 @@]$]$@@r S {.B C o.|@--S.----h~/=8!w+2 S {.r L$7-<$@@~'T%0%W%j a /.l C+@@2.*.~.Q :%:%_%,%_%G$D D s G ~.T w D G G ~.D l.G P v Q s t u < &.; < S -.Q u Z% %X_0!C 8.p+n 9.n+D 8@{ w.{ $@$@$@n B@H+H+X#:%F$W#9@y$y$9@i#I+r&)&G%G%{ %@8.%@9.%@q@{ r l.G ].1.#@>#(+,+u 9.D l+:+{ _$n B+_$p+u o+u v.i#I+z=d>.,Y=V^g:k=3&[^b:h:k]k]z]w$!!d>D(d;x; %x;1$k$ +I%1>_-]@H*h@Z@u+J@[+2$1$A@c=O@^-s/P#S$O@7+F%i:R@=,e+=%A/N{j:k:P@;=-=x*>=m=C&|,Z#+@Z#h.Z 5 m v C R$%@w.=+z#B+a.l ;.C+|@B=8$6 *.Z *.u.-$D$R.N*|+N*N*e;O=O=H w#h#`./ 0.: _ u.-#/%j+m+> Z.{ '+_ ( G#r@`.'+: ' B@u B@p+$@{ O 8@O ' o+I@v.l+O 9.3#] ) '+n a.'+a.~ ( Z U.S A S k p+a#9.D D O v.9.p+D v.$@%@%@_$p+n $@p+C %@n+v.D t#f@f@o#<+y#h@s+_ ! l B+~ ( '+Q&u.: > a.~ ~ ] n c.6&~)G,r#3+y#n#n#t#f@<+q+Z@n e@",
"1 ~./.> - |.z l 2 &.A A Z *.w s 2 U.%.h f%+*]#[%#*J l:K #.b 2 *.2.U.n > *.l Z D@o.; o &.> [ < 4 k.f #.8 +*=*a;P;b;{>=*+*$.8 a 8 %=]#p&#*7%h*8 c b b .@>.!.0 g L++#J+.@b n * = = ^.#@u u ~#_%X#s&x A 2 &.o 1 2 ; 2.< 1 = 3 - | o %.@.h #.f ` E+'.2@f p&p&[%W*$- &g%[%+*@*%.%.j 5 1 ; t w 5%5%z$ %l 5 Q+Q+S T T T T B A 2.^#W*.&.&u#u#O&S*2.1@r x Q+o.C C I#0=H@) W$.@0 c &.1 l l m G w r s&Z%{#F$o.*.; > &.;.=.k 2 | l 5 S n * [ ^.].G+s ; 1 2 | 2.2.~.s :%6%9:.)%@$@9.{ l+B@{ l+{ w.p+n+w.B@v.l+~.n G q v D [ C p+B@O q@n D ' B@$@D n B+$@B@~.w #@u Q '$^+-#P [ 9.p+%@w.' O D l+v._$%@D 8@_+)*O W#I+a@A=P%z=m:r>~:a^;]Q_4(A(>]b:l=~:{&6=$+!&(-p%I@_+Z.'+'+' Q&Z.q+f@u+h@u+t+@+A@'>0-u-F-q$e$+,P@M@f+$,l{$,k{z)e+e'R#'&B%|&c%M#^-!*v-K~@,j.5$S S t m C 8.l$u@/-%+D@r@r@H@1@6 *.*.A;E@5 &.$$D$_ k+1+N*O,/':.w#( ( C@! Q&~+-)w!>+_+=$}+: ) l ) ! n 5$5$7;L=/ ~ l ) w.0#%@w.n+' o+_+>+l+O _+o+l+v.D / a.0._ ) n n n ( ( k |@Z ; S Z > { ^ `.0.!+)*D v.B@W#x.Y$K%6$j#n+B@I@' v.O u B@e@s+h@Z@3+t#e@t+: 0.a.o.B+'+/ n B+( ] ~ / / ( ~ d#C&K@i-J@n#o#s#f$r+6;6;h+/-X@p%",
"o n &.[ ;$}.S k Z S 2.o &.A T q &.2 8 8 +*g%=*p&]#}{M+8 !.8 A U.U.2 n o /.A 5 o o * , z 2 n ; 2 c  .#.+@+*@*v]')v]v]+*+*9 !.+@b 7%+*+*7%7%7%!.9 a >.g 9 +@.@X*H $.*@+#s!}., /.- '$D n ~.,%,%H+~.> > > 4 - 4 &.2.A 1 2.| n | > | h #.@.#. .k.j +.1# .=*]#@*[%W*V*]#h +*@.|#'.6 2 > | q ~.,% %H+m S 2.n q G m w l.w C U.f ^#=*p&p& $U-3%O*; 2 m l.n.L$D@n.r@/ ) B+#.#.c #.&.o l o./#o.:@(#b!k!Y%t A n A o > ;.4._@o &.o.|@o.S z [ o G o o > > n A | z o m `$F R-5%w.D n+w.D n+$@n+B@v.D { n+w.{ v.D w ~.o q w q ~._$r@i$a#{ n+_$_$B@8@8@n+_${ ^.(+;#E.E.F+^.v o o $@9._$_$$@$@$@v.v.o+_+o+)*_+I@B@y.k#0,.>:'x$1&l=l>l=n:L{v(o:p:q:3&r:W/W/5{6=w&h+n %@n _ - Z.!+Z./,1$K#x#n#A@2$t#F-O@!@|$.]@-H>s:;==%$,e+t:h]L>h]u:A/F%D%E%;=E%S$!=P~^=^=5$n@5 *.n r i$i$k$h$!&8=V%;.H@B+;.k G=D#E#6 =.n (.`.G@-#P]4]/!|+5$4$I#p@V%! (.> $@:+p{o-> n ~ l l ] ) ] (@Z#Y@w#> - m+{ w._$%@B@I@' u D ' O ' O { w.{ D a.{ _ '+l n '+B+0._ | 2 1@l n ; ) n ^ / ) ( _$p+9.w.I+i+y$x.y.*;O l+n+D I@I@' )*f@y#h@u+J@y#Z@Z@- 0.'+a.: Z.0.) / l ( a.] l ] 0.d.J.i-d-q+q+7$f$q+r+^>v&p%P&(-7+",
"o.q [ v < A +. @i h - |.].v D v - } = } 9 #.c b  .$.7 a +@2.&.2 &.o &.n | *.o.*.|@2.- * o o > A 2.1 c @.^#]#+){>0;P;@*p&a 9 z ; b 9 $.>.0 a 8 +@9 +#= * 0 !.4 > 4 } 3 3 < [ < < p l.G u ^.1.s m n | ; ; o ; 2.A 5 o.-.A *.2 z o k. .a 9 0 8 8 7 b @.]#p&V*[%=*W*9 &.k.Z @@)#U.2 | 2 x S l.{.T S l 2.w l.C C l.m o ~.; 7 p&p&]#@*l@w+v+O*2 4 o y r Q+m #@-$- C@I#S l 2 S A 4 ; S o.5 {.Q+R /#P+o.| z A ;.e#@@5 z < 2.-.&.> 2 | [ G q 2 ; o z $.>.4 z C x 6%5%F$z$D D $@n { { n p+{ { l+n+D n+O ' D w D s q ~.B r L$v:w:<&%@B@p+9.w.n+B@D ~.u ^.t G+(+#@^.U }#}#N%D D m w ~.G T {.G t Q G l.q D ~.6$i#9@x;J%y$(-z#U@':L>S#L>3]t_S#$+%+2>]&=+%+h$t@'@J#H#H#V%] m+- n#8=C#x#r+1$l$++I%n#x#.+C#s+o#=+D%R@R@k{x:y:z:']A:x_x*e'E%s:J=B:C:f.d.N.] a.l ] { / B+q@h$++t@)@B+^ ~ `.e#V$-.$*k % S &.u.-#K)V]8^q&_.o@/ 0=I#^@i$$@R$8.T]k(+!i#q@s@( n > > 9%7@4#(@+@H q&q&1.' w.l+9.n+l+9.9.v.D B@D $@n p+$@n+Z.Z.'+3#~ a.] '+> ! 2 2 2.; 2.o.o.3#o.3#] ~ _$%@w.n+)&I+i#y.i#i#u 9.$@O I@l+' 1.f@y#h@t+J@[+y#t#{ n ~ > - Z.m+0.a._ 0.( C@~ { > K@v>S,I-o#f@r+<+s$w&m$P@#:z)K>d'",
"5 n v s n l j j i h > 4 s p u s | 4 } 3 *@0 7 @.0 8 0 > o 1 | > o 2 | 4 A U.A > < z > ; n z [ z o 3 9 b p&h*>;P;')')+*h*)+1.1.3 [ * g [ +@o >.)+X*L+* - @.8 - , } - < /.; A A > ^.u p ].1.;#1.D A < 4 &.n *.&., | -.-.l *.6 2.| b #.k. .` @.b a +@E+V*%==*.&[%h ; 2.5 2.-.@@l &.; A B {.B G T x n 2 B C {.C w G ~.o 0 a p&g%=*]#Y*O*l;8!S 2 S B G C m [ > ! { a.z o z &.n 4 1 2./.| n n l.{.y |@l n 2 1@_@2.o 2.Z S l 2 | > &.Z r w &.4 4 o $.9 [ [ s D s _%W#X#n p+C q@v.' n+p+{ { v.w.v.B@u ' G+G+Q v p D w D S 8#v!,@9.O { B+w.n+B@O ].'$#@G+~.n n ~.X+L%W+}#q Q Q D s D m l.q :@x n {.T o m )&6$y$x.6$ %(-6;l{S#*,z)L>&:D:E:E%%+-%/-u&{&)@d@2'F:G:3'D,C@> `.I%g$t@g$u+g$@+h$A@t#n#s+u@J@[+u+e'T@*,3]3]*,H:I:J:4:R#E%@(K:,=F&_-!=b.b.n ^ ;.`.] l %@%@t@h$@+1$B+^ ^@H@2#-.*.C=C=% | ]+/%~+a'*$+]|+n@w#C@I#l n C 9.{ x-Q{q{)&j%_$a#a.' Q&Z.j*q&H 4]k-*@|+q&: u.n+{ n+n w.n o.a#{ w.%@_$w.p+q@$@Q&!+_ - D$R.: ! I#;.S A Z 2.2.6 o.3#l ~ ] B+q@{ n+D b@)&i#9@I+i+v.p+{ )*' n+v.I@r+r+y#n#t#[+s+s+n / l { ! '+- : '+Q&!+/ ^ { m+0.H-O.L#K@o#f$7$o#h+(-Q#7=U@=%e+f+",
"2 t D n ; o ` e q*f 1 4 ~.t G T o ~.q q | /.- } } /.3 < > t G v 2.> < &.S ; /./.- o Z U.1 [ < o [ ].> g f%N+L:M:m!>;7%+*>.* , ^.'$1.* v 4 Q , |.|.* 3 , A > 3 } q ~.D p [ [ [ ^.].}., < * |.|.- +#>.b a +@>.$.!.` ,.` c +@f 1# .8  .,...i h h i q*).[*$-^# &$-0 2.x o.T Q+@@{.T 5 U.l *.; < n S *.*.l.n q n C x S r ,.1#N&g%p&]# #<=[~l@Z l m s o q C Q+C@~ '+) D m t s ; n 5 k ; 2 A 2 l -.U.A *.*.; > > } |.1.A 2 2.5 *.; 2.|@S m n o o 1 !.9 2 l A m G w s=k!o.q@q@%@{ l+{ $@O O n+w.n+u l+w.B Y l.S w q ].:@N:O:P:_=q@C C v.< - /.< * } /.4 1 *.$%%%]-E#8$m&w s s ~.s v v [ [ :@P+S y r G ~.n+_$B+$@9.{ w@p%M@5,&%C%0+M#Q:R:@(2]$+]&k%=+A@8=B+'@U*T%!'0=j 6 9._+{ p+v.u ' o+v.8.n+$@{ 9.{ C &+!)6=%+S:z#T:U:k@V:u]W:@%e@h@@+d=|$A@x#n+q@^ H@`.B+n n N.c.]=L#0.'+C@~ |@o.s-~$Y#$)z 6 G@p@X.n Y@[.i k&~ _ ' k+[$o-t'9/W#r& %K%p+q@n - ' 9%Q$L-S'f-o,#)&@6#r*{ n _${ { { ' I@8@I@I@O ' 1.I@B@' k+k+,+' ~ ) : '+> u.1 *.1 1 2.2.(@(@B+B+a.! 9.w.n { b@r&I+I+.>i#l+' ' I@8@v.n+u J@[+y#[+o#f@J@g@: { ) : ) ~ > ! ] 0.u.0.{ : Z.!+(.' 2+2+g@[+[+n#M#M#S#S#k{k{m>*,",
"C ~.G Q 1.z 7 a ` f -.2 G t o ~.G s t Q 4 - /.4 |./.[ [ s Q v n < /.z ; &.o 4 4 - &._@V$*.o ; n s v | /.f%h*;~<>-~h&]#j %.1 t s ].[ [ u p G+p ].= } - | 6 &., u ].Q Q (+1.].v ].q p /.[ 3 [ /.z $.@.b !.b >.g b h 7 7 ` #.1#|#d ` f f E+` a c ..@.j V-N&N&[*<%8 l y P+y _#D@R y @@_@C+1@5 S A A Z S l.G o m x R _#@@ @i ^#g%]#]#x+8!# 3%l *.n ~.o S B q / l ! _ T o.l.w U.-.;.D@5 l &.o &.S %.7 *.&.1 > < | 1 - ]+/.o ; &.n S *.l.r D@2#C+;. .7 > l S A q Q+ >R]/#_$w._$_$n 9.{ B@B@p+n w.o+l+q v N%B n s m v ;&X:Y:_=9#R$o.$@u [ = 1./.4 1 ; 4 ; &.%%E#2 $%*.2 w ~.~.G t s G q G w l.l.{.o.o.o.n C $@B@u ' G%X@M#Q@>=-=b%Z:M#`: <.<n%$+o%P&A@t+B@a#^@^@G#C@#.Z ! :+' p+_$n+_$D _+D l+w.n %@i$C &+*+H%$++<*+!]r$a/@<q+k$1$e@.+Z@/&L@e@t+n _$l H@`.l n ] x&C&$;F.!*a.r@I#2 l r%s]+$D#o.A B+( - (.:.5$(@Z#u.k+Z.D$0)x-9@~%Y$i#6$ %9.p+p+B@4#[.8%<-:$5#y-y-_.7@4#`.0.{ 0#8.{ ' O n+w.u 8@O l+' l+v.- : : { ] ! u.! ) { 1 Z Z S &.| j.7 n C@( > n+w.9.v.x.y$)&b@>%P%:+1.I@u I@I@u u 3+o#f@y#[+J@h@s+Q&- _ : 0.'+n B+) { u.Q&!+u._ u.0.! d.!=.+.+1$1$C%d'e+A]S@*,L>#<",
"T 5%B q > *.#.8 #.j 6 2 G D X#:%,%W#F$,%G D ; n - > Q G+o H+W#~.4 } , 4 1 /.1.3 z A -.U.n 4 < < v G+[ < f%7%')a;<>>;-*h h | D :%5%H+,%{#^.G+[ t q D Q G n s 1.^.u W&w%{#].}.G+o - /.4 - )+9 8 0 7%]#+*e%+*+&N++*%=]#%=[%[%^#V-.&` %.%.E+d 1#j 1#c k.^#V-S.$-g%c :@)>;*)>$<$<m.y 6 1@)#|@ @1#` k.A 2 n q m w C x m.y  .7 p&g%g%g%l;l;O*O&S 2.S R x T G ~.l o.l ) n r C o._#o.Z -.&.&.b 8 b c c 7 2 1 Z o.&.o 1 < 1.- /.; 2 &.*.*.T o.@@D@e#6 f k.j ` Z 2 o o.$<x%R$n 9.a#8.%@9.v.w.w.p+%@9.I@' G o Y+E@&.2 1 1.-.%<&<&=3$'+: > D$5/;$1.4 o ; &.; *.; %%X G=s*8$E@{.q t v D B {.l.o [ t l.{.x S C 0.n n+9.9.I@J@u@d$L@/*/*Z:9_*<N#|&,(|&'&Z@h@.+ +V%V%G#`.Z S k.2./ _$9.B+q@{ _$n u Q Q D D o.{$q i+ %)&i+{ _$J#%@w!-#B@n+n+_$0.s+d$E%t+u+w.p+p+D ! ) 6#w#C;C;=<-<f.H@a.}+o A 2 ]%8$$*;.o.B+'+1.#$N*:.|+|+(.D$x-%')*l+i+i+b@i+J;d>x.y$n+n+4#[.f-}-K-i>K-=@_.6#(@C@n l+$@$@' O D 9.n D O n+$@D l+n+] '+a.'+! n / ~ ( ! > l S U.2.; w#Y@7 7 { { q@n { B@y.y.z..>x$J;:+u u I@O u o+O t#3+y#g@n#g@s+n#u.: 0.) { 0.) ) !+!+m+' u.u.> '+^ ] F.C&g$.+g@f$J:`(T@f+7_7_;<&_",
"D Y%r n n 1@E+j 7  .-.2 z p D n ].G+v t o * /.> < o 1 v G+G$t Q t 4 1 1 4 < < - *.S A | | z - Q Q ].[ .@N +*')v]L:-~+*>.o S s=K$s&s&C T w m ~.o t p ^.Q ^.u 1.E.>#b$_%_%u (+1.G+-#} , 1.} - 8 a .@M+f%7%+*%=-*+&p=+*+*=*W*%.[%c %.j  .k.` %.c @.j k.g%.&.&^#^#d 1@n./#m.n.:@R ;.-.Z l S ,.j +.|#j S 2.*.5 o.o.Q+y o.f  .p&p&g%^# #w+Y*Q*l |@(#r S m G+(+0.~ ] $@Q q G x @@A z 1 A 2 7 7 @.#.#.@.h b %.;.6 *.; z } > o 2 *.2 2.o S C ~.1 &.; k.c @.8 ` @.> k ~$7-a#n C <&s@n { v.n+{ n+C $@D B@p+; Y#$%X n *.6 )#><,<$~D.%$m+: > *.U.Z *.Z l n 2 l n X )#E^A;D#*.{.T w G D m w D G o D w {.l.G 9.n+2$A@t+u@1$2$)@++e=,=Q@7+7+d%y*-={&C%%+ +h$l$w.r@r@^@l A %.` k.V%7.$@{ n+n+n D ,+F+O 9._$1*s@K%)&9@i#~%o+' D K%$@C x-1.v._$) { P@P@=+l%w.I+n w.9./ / ( B{g.>>M=s_) > n 3#{$q T&D T D !#/%' (.a'j+&$#$R.,+o+_+)*n+_$_$n O D x.i#i#v.B@a.) +@_.4#Q$7@g-h#+@&@n@a.0.9.8@u n B@u w.n+p+p+p+_$9.{ n n _ : ! ) { '+] ) ] 1 A 2.A o A 3#l [.{ u.u.9.l+$@w.W#T=j#V#(%j#D l+O u u v.D ' t#3+[+J@J@s+u+s+b.> !*~ '+- Z.=$=$}+: a.'+B&L#M.!*M.M.!*J@<+`)|)E,m$M@L>D%N('<k=",
"B m o o n l S l S *.#. .` n | 2. .b !.*@L+>.+@*@+@&.o > z D 1 t o+9.i$_$O B@v.9.{ ' 8@I@u u u ' Q t z h 7%h*;~a;v]>;N+>.z G G$b$}=V+E@2 m&A+]+}@}.$=3 , [ 3 = ^.^.}.u p [ p ].D Q v s u P ].> < 9 !.$.$.+&+*-*#*p&7%+@'.k.U.i f  . . .#.7 a c k.k.j  .E+E+@.@.k. .k @@)#k S 1@+.|#i  . @f '...d V-=*.&c k.5 S |@5 n @.h #*]#c) &#.*.S S *.2 G t T r {.G t ~.T x w 2.A A l j #.0 +@0 c k.g%^#[%%=:$K-g-7 5$Y@a.> - < | | 0 c #.| m 5%X#s ].m ; @.c p&]#-*a;0; *<%C@$@$@s@s@p+n+$@0#_$$@n n+l+D %@o 1@6 Z 1 o.@@*.o.X%)<[ L^/.2 |@0#s@8.8.n D p+w.S -.o.2.| 1 A -.V+W+B l.q q {.t ~.G G Q 8@l+o+B@'&F%E%d%c=1$d.d.N.0#B+q@G*#,t=.,M&)=z#)&C C 3#p@I#U.,.1#i i*.& .l 2.u t ~.o C n y.u&X@r$/-T#/-=+i#B@)&~%K%y$W#',x;1*y.j#y$)&O q@O%S#w(M]u&/>s$z#k%1$0#p+C R$l s#A%7$s+P&h@ %j%%]i%I+(%+=E.E.o-l/.=n&^;9@r$t#q+y#J@Z@g@c.) ] ; &.1 [ > o z ; 1 o +#[ b S 5 ; n a.{ !*c.c.d.!*2+C&2$s+h@Z@s$X@{&D (./.o 4 &.z : _ > u.: > > ! !+m+< q 1 ].^.[ Q G+[ u ].].[ F$D o $@B@o+)*u l+l+u D { 1.' l+{ { g@[+s+P#q+f$f$/,s#r+e@2$2$h@F-0-P#!<1(=_@-[{m{q+u@2$h@g@r$g$#+D%!&",
"S w o 4 z 1 2 2.6 &.1#F*|# .b h =*[%[%%=+&#*c !.8 8 1 < < 1 | | l+n+q@$@' u { C O v.O o+)*u O u t v )+.@N N+j&a;h&f%N o &.~..%{#* E#9&I$* F@1., .#* &.> ; ; z , 1.#@p [ o v u ].u t s u u s G m 7 +@!.a ]#]#g%.&(>[%h d Z A n l  .k.#.c @.k. . .f k.@.j %.#.` h j ,. .D*|#` `+B*`%,.%.|#|*2,x=D*i;v,^#[%%.@.2 l l l %.8 ]#p&2-.&1#n o *.Z | o {.x Q+S G t o  %l.5 2 > z 8 7 b !.+@>.+@a =*N&^#+*[(^(L-f#7 5$n n 1 1 &.| 9 b h > o F$(%F$o w ; > 7 %=h&')a;~<{<')] D n+$@n+n+9.D q@a#C n w.B@O l+| A | | ; l ; * |.< 3 {+<@< 2.&.{ n+p+w._$D { p+&.A 2 | A U.2.; <#}#q m ~.G w n [ P D u )*_+I@h+Q@:_N#]</&!@x&!=^ G#x T E $>^<^<{{j%r&y${ $@C@G@-.|@2@T.i;i;i*E+; 4 ^.v 1.(+$@9./-(-C%7=/<#<L>g+x#u k#)&i%y$x$x$a,V#k#W#b@b@B@6$3&f+v$f+g+w$O%2&%+z#y$i+{ o+O u q+3+F,v@9,]>J;G(:'J;(%n&w%z$B Y%X#Q-.,>%w&w@Z@x#1$2$c.2+4#4#a 8 > 3 /.4 4 o /., | o | n 2.> ; ; _.G-!*B&B&6&L#b.Z@t#n#Z@X@(-=+n+| 1 o | A > m+u.> ) ' _ { > !+!+D p (+}.;#G+v ].p ].u Q t s D D 1.1.1.1.1.)*)*o+u l+)*I@O 9.%@{ u@L@u-[+q+a{^,y#g@y#J@u@F&d$}$T$(<_<3_8+|$c=g$@+R$C h@t+l$t@)@h$",
"Z C n > < z 1 2 S 1 f T.|#j c #.`  @|#E+c #.%.@.h 7 a 0 > 1 1 | n o.l > u.- m+Z.u._ > > u.Z.m+' ].].g >.e%+&')b;-~]#^#k 5 s (%Z%A+E#* = * * * & /.&.&.4 | A *.> p 1.(+^.u G+Q [ '$[ [ u t D s G 0 .@.@+@%=-*]#^#V-[%8 8 @.@.> o @.#.7 b c j j #. .i f j %.k.j j f d |#).,.f '.j=v*T.` '.j=j=3,B*Y, &^#N&#.k.Z *.n 2 k.k.^#=*W*W* @2 ; 2.2.2 *.Z -.6 Q+l.o D ~.q 2.&.> 4 z > z < 4 4 +@+@+@a 7 +@h>}-K-f#+@9%u.{ A &.&.o >.0 a > v _%.%I+v Q ; A .@!.-*+*+&;~')-*0.O n+9.B@n+%@w.%@$@p+_$D u u u m+_ _ ! ] ~ 0.) u.l !+{ ~ ! a.! l+i+~%6$q@{ ' n Q G {./#1@S l l X X w S l.m D n ^.Q v.u O n n+p%E%:<Q:9_P#L@.+k$D@7.j$R$0$6%';';M&r&w.%@n n+] B+U.|@j E+|#+.N&c > o m x v.>+n+9.o%z#{&=+-=(*r>~:2$>+^;i#A=A=J;J;J; ,x$:'6$i#{ v.h+w@w&{&(-w&{&o%=+z#{ w._+>+' D h$u@w@'*v&9,m;P)n;x$~#n&:%;*R g*6%=-W#9@w@h+t+u@)@u@F.O.- - b c z 1 2.&.&.1 [ 4 ; n ; 1 &.> ; > r*_.Q&Z.u.u.m+> ' 8@I@l+B@v.D l+A 1 &.; } < ! m+: ! - 0._ u.' Z.I@R=)*' _+o+v.O 1.o+' B@D { { D l+I@o+l+n _${ I@:+%'>+v.p+_$%@O g@7$`)2)7$>+u %@u+.+!@S$8(8(<<<<[<}<}$'_y^K=K#h$R$R$%@v.e@x#A@g$",
"o n *.2.1 4 < z 1 &.@.k.7 c @.9 b a b +@a ` i %.b b a 0 > o 4 4 ] '+Z.m+u.' > _ 1.1.m+: : - - : G+3 )+9 +*7%')+)v]K,`+>.,#'$n*n*v#Y#z Y#Y+A+* ]-|., 3 > &.4 - R.Q 1.>##@Q v v (+v D t [ Q [ ].[ > +@0 8 #*#*@*@*-*g% .c @.%.2.Z k.`  .h @.f E+k.c E+%.%.1#1#1#f |#d |#d  @f `+`+'.j h D+G]|#T.,.(>V-[%W* .1#6 2.l A #.E+^##*[%[% .6 5 A 5 |@U.2.-.-.C ~.u u o w 5 o.-.2.o z o | o 1 8 >.)+.@!.$.L-L-f-f-+@7@) / o z > > !.0 h 1 t Y%Z%Z%m t [ &.0 >.$.0 g%[%p&0 : O { n+' 1.1.>+_+o+u B@B@)*R=)*m+- 0.' Q&j+D$1.!+_ ( ( ! ! { B@k#x.y$9@%@%@n 8.o.B n y S 1 *.n W U+n C n t t t p G+F+1.n+C B@'*B%|<Q:]<S$>&A@8=o.o.0#0#s=x%Y_!;G*9@D a#$@B@a.] 5 |@f f %.h [%f 1@w G+u { w.%@p+o%#+o%G%Q@x*8,7+J@p+r&*; -',1<Z=6_A= ,V#W#W#n+w.u@#+x#{&6;p%{&6=(-'*8@u s@s@B+a#q+h,s>h+u&6;>,V#I;.>X#H+ %Y%D ].Y%1-i#j#u&=+u@s+1$t+M.i-u.u.9 !.} A l | ; > } &.1 ; 1 ; &.< ; ; &@7@(.- { ! - _ v.D l+D v.u l+D A n ; A 4 [ ' { _ Z.' a.!+}+- - >+>+l+9.B@O B@u )*o+u l+v.{ { { n n+{ p+0#s@q@w.l+_+' v.n+w.C { 3+o#q#f${ a#C p+2$u+#%4+2<._3<4<6(8(u/,&|$1$)@t@o.`;o.l+3+[+J@g@",
"o q &.| /.[ z &.| A  .j c ,.`%` [ 4 4 4 b  .E+1#i  .%.7 b a !.0 n z 4 n o < | } 4 > z /.4 o > /.} 1.L+.@+*+*P;@'p&p&g I .#!#X&{#9$, F@v#F#9$F@]-} } , o o } } } G t }.'$p v ~.Q v p p ].p Q D o < > a c =*]##*-*=*]#]#W*j ,.U.U.` ,.1#k.@.j E+%.b c k.E+i d `+f ....` +.,.8  @%. .#.8  @2@`+F*,.(>$-$-<%j  .A Z ;.-.%.j V-e%+*=*#.%.E+E+i |#|#` 2 ; o z 4 < < 4 S o.Q+q Q t G q ; 1 4 * - < /.)+:$f#K-f#[.w#) > [ ].< o > o a | v G Q+S ~.Q G+(+> | 2 l %.#.8 < p+C C %@n l+8@O o+' { v.' v.n+l+g@f@J@t#t#g@g@Z@Z@t#u+f@A@.+[+3+k#I+i#6$i+Y$x;Y$H+H+o s u G+u Q v m v v u (+~.].}.#@I@8@8@)*O 6;M@:<0+N#S$S$t+t+C _$%@0#s=s=~_%-r&i%C C 9.u { o.3#3#j.p-|-Y@4$/@1@y B G n+n+w.O '*X@P&X@7+F%M#e'r+f$r$w@p]T)g+f+w(T);%u$s$p%e@h@l$A@L#A@x#2$x#g${ ;+8@C <&p+i#j#a{p#n#s+h+r$6-a@z.',y$b@_$w.].^.(%,%9@T='*p%x#A@ +1$t>t>_ '+< 3 - | ; < z | < 1 > z ; Z S - < | > > [ z z > < ; 2 |@{.n ~.v q T S n A ;.Z o _ l ! ! ) u.!+l ] (.3+3+f@t#y#J@[+o#t#t#t#[+n#Z@e@u+{ B@l+v.w.$@n+v.O w.c$a#9.{ v.;+!{F+o+l+9.n+I@_+n#y#F-5;J/5<6<7<=_m_#;>&>&h@x#_$C s@q@{ h@x#O@d$",
"Q G *.l n | | ; *.5 #.@.h j D*1#*.4 /.2 k.0 a d e |*d ,.%.0 7 8 z &.| z z z 1 2 2.A A 2.S S A 1 > [ $.!.%=+*+)+)e%f%X*$.&.n Q t 9$]%I$* F#A+9&& 3 < o A o - - 4 ].~.q n D s D D w D G n ~.s v p } , .@h p&%=+*#*%=-*+*[%7 %.o.2.#.j j c a c #.@.a %.f  @d d T.2@d '.1#'. .j ..`  @%.1#'.`++.1#d [*-- & &1#f A S l _@2@` Y,]#-*#*b  .` %.1#|#|#`+2.> [ > A A | /.w C C n ~.o v ].4 | z - [ 4 z > &@L-f-w#h#B+n u.v u 4 ; o > 0 z > r 7#n.G u v ~.~.G &.n &.~.4 [ { %@$@D $@w.B@9.l+n _$$@$@9.{ { Z@f@y#f@[+u+A@h@y#t#2$x#t@Z@g@g@9@y$i#)&y.b@ %i#X#_%^.>#(+].;#Q (+t [ Q Q ^.w t ^.Q B@l+' ' D J@x*8_8<b%/&S$x#A@_$B+<&9#K$s=9<0<]'f*R$$@w.a#r@X.G#( Y@/@h.4$i.~ ~.D ~.o B@p+q@O v&h+G%X@R#R#d'6+f$7$X@p%f+~:r>l=w$/>f+W@'*/-2$y#F.C&j-i-J.Z@x#Z@_+B@n+o.B@l+W#j#r#r+J@t+P&w&.,6-A=0,i#)&n+9.n G _%,%6$ %k%2>)@A@Z@e@J.b.! { * , > > *.&./.; 2.n o &.2 2 n /.z [ ; > 4 | o o | &.l |=a%l.~.T y T S *.-.V$1@l H@~'^@H@C@) u.0.(.1.3+t#f@o#3+3+r+<+[+t#f@f@t#y#g@Z@l+' I@I@O B@B@l+q@$@%@D o+_+;+){[$)*D { n+l+8@o+f$i@a<M/b<|(c<(<m_2(O@|$x#t+p+8.s@8.C q@1$Z@^-O@",
"D q 2 n 1 | ; n 2 *.7 0 7 j 1#..2.[ z D@0%-.0 %.E*x=K,w=Y,.&i*f S S A *.6 S A _@U.S Z 6 ;.;._@=.e#-.` #.[%#*#*-*+*]#a h n S q t z Y+*.D#%%E#F#z 1 A Z 6 S l 1 n D G G G D w o s n G n S S n s [ < - < &.c b #*=*@*]#+*^#j f |#a c c 7 a b h 7 c j E+@.` ....|#'. @).Z+`++@|#....D*`+F*T.T.D*'.d --[*1#` 1#f i  @ @+.).q*x=%.+&g%#*=*V*[%#.f d d E+b )+.@8 h &.&.T `$Y&$>;*z${#(%u q q t v t D n +@f-n@Y@ ./ &.s q t o m | > 8 | | n /#r s p o o m 5%o I+D :%~.G D { l+O { l+I@l+w.p+s@c$0#_$w.B@s+s+s+n#Z@g@2$u+u+2$u@x#t@e@h@J@r&.>A=!!z=Y' %,% %:%I+:%a$z$(%(%^.D ~.G q D G n l+v.o+w.w.' O .+7+7+E%;=@(-=)@h$)@@+G*;-%*k!c!k!B+R$8.n a#/#`;7.r@H@o.`.`.o.C@B+p+v.v.{ w.a#a#v.[+g@Z@[+o#q+<+o#s/,&C%&%j{h]e:n>/<1&':T@6+'&z*5+L#^=2*!*B&S,(.- D@U*C ' W#i#j#j#f@@+)@x#i#y.x$J;z.d>K%x;8.$@u I@,%Z%y.=;6;p%Z@[+t#3+O.M.) '+< , < o 5 2 [ | n 1 l 2.> * < z n > n z 2 U.Z 2.2.o &.|=U$l *.6 V$6 |@2#C,e#k u*d<Y.V%U*0=H@_ k+R.> f@3+y#g@f@<+r+f@f@f@f@f@f@f@f@t#J@g@g@Z@Z@e@t+2$t@[+r#q#p#^,S]g,u n+D ].u Q u 8@;+e<H/.]}$1(f<g<2(S$O@/&2$@+B+C q@C q@%@2$n#u-/&",
"D s < - 3 * 4 | > 4 k.b 8  .b b o 1 2 U.U.> !.%.>.)+^#.& &i*=*f  @o o > o *.l *.l A z = ]+/.A -.Z o )+J+f%M++*@*g%@*a ` *.2.l.x *.X-Y-G=Y+E#Y+&.5 2 2.o.o.1@&.&.D D D t v w v [ Q ].P G+t [ G+Q ; 1 | | b h p&=*]#[%[%(>'.c ,.7  .@.h c k.%.%.%.j #.a @.7 7 1#..D*|#..j +@`+ @` F*2@f k.D*j=e/Z+Y,K,c @.|#%. @|#Z+'=S-Z+1#+.]#+*]#g%V*^#@.a @.E++@$.$.+@+@$.- Q G+(%I+;*;*X#Z% %D w q s o o s o w#8%Z#j.( { D q l.o ~.n 1 | 7 A q C w l.:@m q w  %a$Z$Y%X#H+5%a$D 8@I@9._$v.u v.$@C %@D B@n+w.{ t+A@u+e@2$J@e@e@1$2$@+n#3+t+t@{&y=Y'{'h<6_D(5%I+(%:%Z$x%s=K$x%:%D m m ~.o o p S 9.B@' w.$@v.%@@+E%d%-=|&c%@(t@@+2$x#M&L's=F s&Z$B+c$J#_=<&0#o.r@`.o.^ n C@I#`.B+$@{ v.O B@{ D v.t+s+g@Z@s+g@[+3+L@4+B%&%3(q,3(n>F]/<i<L>J:n$A*z*^=:-3*@,@;L#! V%j$R=x-B@y.I+r&y$A@t@)@s+y$ %>%>%',>-y=G*i$_$O O n _%j#W#u&h+n#3+q+[+b.b.a.: < /.4 2 l | 1 A z /.A /.3 | Z 1 1 z > o _@2#e#Z S | [ 1@S o.V$6 V$s-6 6 2 &.2#3$( m+_ - ,+- u.- u._ g@f$<+g@t#o#f@3+r+3+f@t#f@3+o#q+s+t#<+[+2$g$A@s+J@q+q#q#`)^,p#e@I@O p 1.G+G+_+)*B@w.s+F-|(j<k<T$L@|$,&u+2$++r@<&C a#p+n+x#t+L@#%",
"q D 4 | A l 2.n &.&.h c @.c 8 9 | n 2 | > ; @.#. .` [%=*V*--<%1#k.; z [ [ | 2 &.-.1@5 1 o ; o 3 J+I [=L++&+&h*+*)+ .a 7 2.; C n E#E#& %%E#Y#8$z /.< 1 1.3 /.[ 1.1.G w q v G G ~.Q D Q [ Q [ u o m w n > h +@+*%=7%V-$-^#=*]##. .2.A 5 o.S l l n *.2.; o ; n 5 =.Z+b h E+i d i #.D*`%f @.).2@%.0 h h 9 $.c E+$- &Y,i;`%T.7 f ..%.^#[%=*]#b 7 h !.a +@.@)+*@>.z D G+{#,%Z$a$,%:%Y%Y%a$w G t t q *.Z#L;Y@w#> > G w x l.o C n | U.2 D m v w _#:@6%s&F F Z$Y%R-L]';:%_$$@w._$$@9.B+9.{ n+l+8@O l+$@D 2$t+u+u+s+n#Z@2$2$x#u+s+J@g@h@=+G*{' -A=.>z=I+.%,%X#a$5%5%:%_%z$B w l.Q G B ' $@n+v.D n+' %@U,8=,=n=(*l<M>-=(-z#H%n%)=j%x;~%c$m<n<t-^$D@0#B+a#c$B+%@u@x#H*]@d.F.O l+a#<&%@$@%@{ t+n#[+h@2$e@n#n#^-0-O!R#V@T@S@f+j{z)t:o<f)('L@F&C>w-S)m,_ / ( r@D w!F+I@H+Z%Z% %C / $@w. %b@P&(-/--%{&(-h@.+{@$@u [ ,+u )@h$y#q+y#e@1$2$p+D s s ; 6 | A ;.S 1 > &.4 4 | > 4 4 /.z X A;m&$%$%&.E#F#D#Y+B=G=s*% ~$S 1 [ } 1 }@!+#$/%,+~+,+: '+Z.!+B&d-d-c.2+F.t>j-j-v>d-S,B&t>j-I-f@7$r#o#y#J@Z@h@[+o#f$q+f@n#s+h@n+D ' :+;#}.^.u w.n 2$>&6(!<p<8(,&1$2$u+@+/#r@s@i$q@_$q@1$Z@+,5+",
"G ~.| > &.A S l l A a b h c @.c &.A A &.; n @.c ,.`+i*W* &(>i*k.,.=.6 4 4 n A 2 &.Z -.A /.1.= ]+H >.8 0 7%h*h*+&.@b 9 b &.o ~.[ F@, * F@F@A+A+E#> | 1 * < z > < G+[ D D o D o o G D v q l.l.q m [ s &.A a b #*#*#*^#[%N&W*[%%.f S l U.-.2.n 2 ; /.2 &.< z &.-.3$f E+i j  .k. .i 1#+.E+ @E+%.7 h c %.c 8 7 #.]#-*#*V-j @.%.).|#j +*]#+*M+b 1#f 0 >..@)+g )+$.4 D #@w%H+F$H+Y&a$H+,%H+m G D s ~.2 (@}-n@n@n n q ~.n {.l.C A l k n l.T w ~.S Q+Y%`$Z$a$ %z$R-~_~_Z$u l+n+$@v.l+D O ,+8@B@D n+l+{ l+t+u+h@e@J@y#g@h@s+e@e@e@h@u+s+y#i+.,>%:'d>d>6%x%Z$a$z$F$G$_%,%Y&P+S @@@@r S p+q@8.{ $@n+9.0#<*C#m=/&|&>=d%E%l%%+!&$+)=1*i%~%s@5'9-D@w n i$s@n %@<&c$h$k$f.{@x&M.l+l+$@8.w.1.)*)*x#J@t#J@J@t#n#t+A*A*D%Q#K>F]S@#<$:N(q<r<2]M{,=z*2+>>s<I.C@3#] n B@w.n+v.I+5%_%H+m+{ $@%@J%6%G%w@u&P&-%%+h@u+f=c.l+u o+w.1$J@3+u@n#x#g@[+{ { Q ~.1 n R.3 o ; | z < > - , z n o /.Y+2 m&X B=m&E@%%2 *.8$&.z D#X X-n [ ]+R.,$t<a(t*%$*$}+{ 1.~+D$- t>t>K@B&v>d-d-v>6&H-S,d-L#S,J-j-q+7$r+g@u+e@n#t#e@A@t+t@8=u@.+s+8@I@_+;+F+Q q G 9.w.t+x#4+2(!<9+S$h@e@e@$@q@q@p+n q@C n s+J@5++,",
"o w l | | 1 S Z *.2.@.#. .` %.k.2.l l 2.#.%.k.7 #. .+.|*Z+2@i #. .,.T.d h 8 b $..@!.a 7 b .@+#X*O+L+9 +@9 0 a h 0 $.*@+@1 ; n &.z F#Y#F@* ]-9$&.n l 2 | n z /.[ n G q o q s D v w T n ~.o l.w G t t o A 0 c p&]#p&V*g%[%.&.&.& .2.l o.-.2.2 *.l o ; &.> < > ; &.%. @1#E+` c  ...@.k.7 7 k.%.k.g o 2 h 0 p&[%p&#*+*+*]#.&f 1#|@@@ @` *@g k.#.+@h 1 > < /.4 4 /.].G+C'_%G$Y%)>Z$ %n G o G w B n 1 h#h#h# .B+l n n+n w q B S ;.V$> Q s m G m B G ~.H+X#z$`$Z$ %:%,%u )*' v.{ $@n+B@u B@{ $@_${ n 9.h@t+u+g@y#y#n#J@J@s+h@x#A@.+2$s+i#)&;*J%i%K%j%b@,%F$t [ ~.C x /#{$r s@/#J#>~>~`;7.8. +)@K#I=d@U,A&>&Z@s+=+o%T)~:u<l>y$W#I@{ D ' t T q ~.o./#8.p+1$t+h@l$A*e=K=k$o._$D l+O :+F+l+{ n a.> !*b.!=d./&0-m$('A]=%S@k=1&8,v<$:K: <w<|:(&;.> -#!+l+l+O O l+G q [ Q w%_%- : { n u@s+P&l%l%o%A@A@1$h@D&b.D n n 9..+e@J@h@[+g@J@u+D w.D q ; > - o /.< 2 < < > > /.[ > 1 o 2 A l S *.S 6 k #.9 8 a a E+a H $=R.1.{+{+t*B'R.(.R.D$~+/%}+!+1.6&v>K@J.J.H-I-i-H-I-I-I-H-7{~)d-r#q+n#x#e@o#/,r#q+s+A@h$+%k$2$q+q+r#F+>+u v.o ~.D v.{ x#u+#%#%S$u+u+w.n _$_$w w 9.$@9.n+h@s+P#+,",
"U.{.*.< 1 2.U.2.S *.c @. .j f f *.l l *.%.j k.a 0  .1#+.|#i  .j %.2@2@` 8 !..@g O+J+.@+@9 *@L+L+L++#)+>.9 9 0 7 c *@!.8 o | | &.Y+Y+A+v#F#F#A+& [ &.o 2 5 o /.4 B l.n t o G n ~.p q n v Q t G m q s [ > 0 c ]#+*[%N&=*=*^#N&V*h k.l 5 -.U.5 S *.S *.| > ; &.A 1@E+E+f  @f %.+...` @.8 8 #.7  .h [ /.*@>.=*[%]#%=#*=*@*-*@.` n o j c 7 @.7 7 #.k.Z A ; &.A 2 > ].[ z$Z$H+I+`$Z$z$l.w w l.T {.Q+6 (@h%i i 3#( p+n w t t T S 1@@@o o o G B q o T C Z$a$Z$F Z$X#I+:%n { $@n+n+%@C o.B+9.l+B@9.B@w.{ h@x#t+Z@n#g@J@[+3+f@n#Z@s+e@x#.+ %Y$Y$J%1*K%y$i+:%:%D p [ m G ~.v B 8.R$0#B+'@z%9='@U,I%d@<*@%I%z*,&h@h@=+l%3&r>T_/>*;x.{ D w._$~.G [ t 9.n p+' q+q#x#t@^*e=x<y<:)c$<&a#9.p+n _$0.: ' - t>B&J.2+/&+,M#m$$,S@K>R@z)O%n>e+(*A/z<A<T]4{K)-))*8@B@I@I@)*o v [ v Z%v u.u.v.$@x#[+u&~&P&o%2$x#u@t+D&f=8.T _$%@8=t+g@Z@t+[+t#t+p+B+{.x e#;.k U.-.n -.*.2.n n 1 z | | - [ ; 5 Z A 5 ;.1@7 !.b a !.8 9 L+'#'#;$5/>$R.- ] ~ 1.#$+~Q&' u.1.d-L#!*K@F.t>j-H-S,d-j-H-I-I-d-i-/,f@h@s+o#s#r#f@u+g@Z@u+u+g@[+n#x#2$t+B@D n l.q 8@l+{ v.g@Z@Z@J@x#u@%@%@p+$@~.D B@l+O O Z@g@u-.]",
"; ~./.|.- n -.S &.; a 7 #.k.#.c a h h h c #.h 9 8 +@c j S *.S l ~;u#v+`@m@m@m@U%J$3% # #U-@ U%`@+*7%7%-*0 9 9 8 )+N*< ; z [ , [ 9$* , F#F#v#z F@]+< * | *.z [ > B B G t u s ~.m G+[ ~.~.C Q u o w q ~.o  . .=*]#w,~>P;c)[%]#=*c 7 5 |@1@S &.; 2 A 1 2 2.&.A |@V$@. .f i @.` ). @` j %...i  .7 +@} < 9 9 +*7%]#i*N&@*+*%=c h o o l *.5 S 2 U._@|@*.*.T C {.S l.q ~.n w G ~.m w n ~.m A 2.*.Z 6 ;.h%j.i.Z#~ a.9.$@5%H+q C C T U.Z B T {.Q+q Q m m q m T x C n n T q@n p+n+$@0#R$J#a#$@O O { u l+u )&~%r&I+i+y$i+W#W#*;*;i#9@W#i+Y$i%r&x.b@p+C p+C q m S T n n 1 &.v.B+n 9.{ ' p+c$i$`;I% +K#I%C#++.+A@u@x#o%-%k=w$O%g+s$=+l$A@2$q@q q q n v.n+i$s@t+<+d$d$|&E%d%7+h@k$d@<*:(9(@%8=! ! '+n ! u.9%: A@1$(-r$M]O%v$k=w$l=M]T)h+E(B<m)!{y.' i#*;W#I+y..%F$o G+u [ [ o ' u.: ! A@h@w&X@w&{&L@S$'{{*]*M.s@n $@p+g$J@J@u@y#g@e@t+8.0#:@@@=.1@|@-.o.*.-.| &.-.S z > 1 < 1.z &.5 5 *.U.,. .#.b *@g f%f%+&H ,$= [ 3..#< ! ( 0.D$,+1.(.=$(.k+,+u._ (.u._ 0.- }+(.1.1.}+1.- _ t#u+t+o#p#q#t#g@.+@+Z@g@<+`)7$r+4+2$t+J@I@' v u Q o m G n+w.w.{ n a#0#q@n m D ].R=u l+o+o#u-u-@-",
"z Q 3 3 4 n | * < 4 +@a c h 0 $..@!.!.>.9 8 0 !..@*@9 ` |@2.4 z 7&u!M!+ v+O*~;# `@v+O&w+@ `@U%@ N+h*%=-*0 8 0 !.[=h)* z < * 1.< * * z E#& * & F@} [ 1.- 4 /.- 1 r T G n s t t n l.o D ~.o.n s Q ].o T T ,.k.]#@*@'P;+)!>]#@*[%k.9 l 6 U.2 > o 2.> n *.*.l S l A a b h #.7 @.1#i `+j @. .c @.@.+#z z >.!.%=+*-*g%g%f%+&%=c ` 6 A *.-.X%};o.n U.S 2 l x x T w w l.G n l.o t m w l.n n 2 2.l 2.n 1 Z#h#7 '+'+'+w.{ 5%0$S B x {.*.-.m T @@o.q ~.t [ v G C x B q q l.C _$w.D n C C 0#$@{ ' u l+8@B@O y$)&)&y$)&b@I+9@y$i#y.i+y$x.x.y$y$)&K%Y$s@R$'@/#m.w q n 2 2.*.-.a#s@w.' u v.B+8.B+/#8=l$l$ +@%K#B(C#g$g$/-u&/>U#W@/>=+w&7$g@)@n+v.w C C %@%@B+_$@+u@d$z*-=d%-=P@o#l$C#C<D<E<F<,~3#C@B+'+: : &@{ b.h@{&p%J,J,u$;%A]w$__T)c'G<t#A@)=x$T=~%)&b@r&9@:% %l.D 1.].p o ' : _ ! 2$e@w&G%P&-%d$P#%;+,]=v>B@o w.n+t+h@e@s+r+y#u+h@B+c$@@S ;.|@*.&.; z 1.]+z A 2.> - [ [ - &.o > o o | +@$.*@+@*@g +*h*+*+#*@; | [ ; -.I#Z.> u._ _ u.' u.Z.u._ : ' ) a.0.!+Z.- - m+Z.! ! u.t+e@n#t#[+g@t+u@g$)@g@7$f$t#2$t+u-^-L@s+g@u ' t [ [ t o D l+B@w.D p+%@n w T n v 8@O B@O ^-^-P#u-",
"= v 4 > 1.|.-#;$&.1 +@9 0 8 8 0 f%h*7%h*h*-*a a 8 b ; | 4 4 [ , J$# x+#  #U-U-# 8&v+l;l;v+U%v+8!7%-*%=-*8 8 >.L+< * - /.< - L+9 F#F#E#Y#A+* , F@- } = 3 } > o l T q q C S w q w l.~.D o ~.C {.m I+I+v p g *@%=[%!>0;P;@'@*]#N&#.c l 2.2 2.A 2 S Z A l S l o.1@2.k.>.$.a @.7 a  .f 8 b #.@.>.8 >.< 1 b 8 p&@*_>[>Q;-~h*f%@.#.*.-.A ;.D@|@l 2 w C C C S C B w  % %y T ~.w B m A l Z U.-.U.S n | z Y@7 ) ) a.p+p+n a$;*Q+T r r A &.m C R Q+l.l.n n 2.U.o.*.o z 1 A B+s@q@$@n+O O D v.l+)*:+o+o+v.' Z%F$F$:%X#H+Z%,%G$G$G$F$I+:%Z%_%{ %@n %@_=/#<&-'o.5 _@@@Z l -.e#`;9#/#/#a#%@c$D@+%k$8=g$t@ +B(+%:,g.s+A@!&%+r:V^T#l=#+-%J@x#],C@8.x r Q+o.a#p+q@@+8=d% <|&c%]<m$.+ +++t@A@s+s+t#o.3#B+`.|-4$(@n d#g$#+=+U#g+U#H<I<J<1&A]9,G%1$6;.>q^z..>z=!!!!6- %F s=Z$Q n w G ' { ] ( x#t#'*G%w&(-^-+,{@E&]*6&' z n+$@2$2$Z@3+g@n#u+u+l+p+$>Q+o.2.o | < n A 2.2 4 < 4 * * 4 4 ) a.'+) ) > 9%*@*@r*Q$=@g-i>8%4# @1 |.* |@)#C@) ] 3#/ 3#o.l ! ~ n ; z 4 z | 1.-^| | 4 4 4 l n !+2)K<n{0-L@>&u-@-0-q$q$'>F-#%L@S$m_#%^-r+3+D $@w.P (+P G+^.P G+v 8@' l+B@G l.m s ~.Q ' n+O@L@^-#;",
"= o &.S < > | 5 l A 7 h 7 c 7 a h*-*#*+@+*h  .` 8 | 4 , R..#- 2 &.$%$*k B=O&v+@ @ U%w+x+u# $w+x+.&]#+*#*@.c +@.@- - } [ 1 > /.> Y#Y+F#& Y+Y#A+& | < /.[ 3 | > 2 n G n l.Q+B ~.].G o n C (+t w n B q s z L+>.%=#* *@'D-{>=*@*[%g%` ..d %.h o @.@@5 2.S -.S *.Z S %.9 0 b a 7 b h !.h 8 k.k.7 7 k.@.5 #.0 [% &N&%=>;7%h*+&%.%.A n ; n }.5/1.; m T S w G w x o.F Y%G Q+G l.{.Q+4.V$e#1@5 E+d d f #.w#7 ~ ( %@q@a#r Y%Z$P+y l.l.n < Q m S P+r G G G &.5 o.l.u.* ' : p+B+n+w.p+9.$@$@9.{ I@o+D w.$@u _%.%{#I+X#:%,%,%w%I+G s D l.C l.n 8.p+q@R$i$a#`;Z 6 C+_@U.6 Z &.j$'@c$s@o.r@_=f*@%l$++@+8=h$h$x&_-f.h$g$!&J%-%a,s$6=!&-%h@J@f=5=8.R$9#a#p+q@2$A@u@h$.:f:;=-=L<d%@%I%_:==Z@/,/,3+^ `.B+`.B,M<B,/ u+J@=+G%(-G(!&h<{&c]w&=;P& %J@T=:!S(K_d>A.A.Z=G(X#I+Y%Y%{.B m S | S 3#'+B@I@'*s$h+X@<+P#$;3;3;b.! l._$_${ 9.g@o+x#v.Z@p+n+w.l.y 6 &.> | 2 U.S &.n A o } 1.} z 2 _ / ~ : - u.+@7 (@7@n@(@h.j.5$5$n | 1.< > [ !+a.> 0.' ! { > - _ [ |.R.* ]+|.,#;$| , }.- - z 1.-#A%B]H>5+/&O@5;N<5:s/s/t#<+/,t#5+P#5+F-3+[+l+B@l+Q s D v Q D q n 9.e@s+u+p+p+w.B@u ' l+Z@J@u-+,5+",
"- 2.l l 2.A *.z 7 c 7 w#6#r*H 4]H *@$.n #.1 o /.* , [ D t o w n l.B C w v 4 * < < /.!.+@7%+&+*=*g%=*#*]#[%]#$..@4 < p 1.].o q o z * v#z z > o 4 ~.q o s { B@{ B+u D o R D@q Q n {.B q t ~.l.q ~.| z > !.a 0 +*e%+*p&[%[%]#]#g%-*V-g%[%g%]#@.[%i E+0 *.U.|@;.x m 2.5 A > 7 %.a *@h #.N&+*]#^#i*@.8 #.h c h 8 *@9 +*0 9 +@7 @.h h ] H@{ { _$q@9.9.R$_$w._$q@p+K%j%Y%I+_%z$D /#b=|@j j j N&[*i;.&=*#.S l &.G l.0$h=u%D=X U&X X X m&E@v#o S |@A w.{ D q@%@6$f@B@u@g$l$2$u+Z@2$l$i$%@n+{ m Q q D G Q 5%w;l'w;U a&S=}=G+t /.< ) / C@'+C  %~%)=x;M&R$<&r {.Q+_#r G B {.H#I#q@%@)={{H'{'x%M&j%B+0#3#n ] f=g$i$B+a#].o+.%8@C '@w.J@2$~@O<):R,X@6;#+6=7=R#Q@>=>=7+'&;=E%D%&+H%3>G%^,q+$@%@<&%@o.o.r@> m+'+v.O n l+n+K$j$Y&_+_%_+P v.o :+T=J;U#/>6=o%]&x;Y$%@$@l.o > }.9$E#X+[#~.v D v o+)*D u O [+f@t#r+n#B@s&s&a$[ G i$G 8@G+B@[ z A ;.1@n } z | n 2 *.2 &.1 , 3 [ [ z - ~.G P >#, [ ! u.' ] '+) `.a.u+$@n ^.G+~.1.#@p v * [ 3 [ 4 /./., $.0 n@*@j+1.1.- u.!+!+_ L#Q&r+y#g@o%!&=+<+^,s#3+[+f@y#' Q&!+- o+P#B%C%=+{&x.j#w%(%X#X#,%~%x; %x./&d$,=,&S$S$e@t#<+7$J@J@y#Z@g@s+",
"+#| | > < > 2 |  .h &@r*_.:.|+H !..@3 /.- |.]+1.- 1.u o Q u o l.F$:%5%H+t q < /.< < +@8 -*+*@*^#]#[%--^#]#=*9 !.2 A n ~.G m o [ ]%= E#$%> 1.* o q D Q [ n+l+O { u #@(+l.:@l.~.m o.]$r t q q ~.B a 9 0 b a !.+*%=-*%=.&p&W*N&+*h*2- * *c)g%[%[% & .8 &.2.S 6 r y A n S o.f %.c 9 %.i [%%=#*@*-*-*0 c k.f k.$.+#0 8 `  .0 8 #.c 0 l H@] / a#B+$@w.9.n+{ w.$@p+K%K%s=`$Y%s&r {$D@1 9 #.]#]#{>w, *.& .2 o < o w D=w]#>k'}#W *.6 X-% X 2 n 1 *.*.%@n+v.I@w@u&X@6=H%{&n#u@@+h@h@e@_$8.$@{ Q P ].Q [ P Q%E=1{u;^&V r=o'- z > < 6# .Z#~ D y$6%G*1*M&R$q@r T w x l.q T T o.`.C R$;-;-P<>-Y'd>x%6%l V%~,;.!=1$_$B@w G s (+Q G ' 1.g@)@y^y^7=e'P@>=y*>=M#R#7=M@`(d'Q@Q@d%E%{&%+v@z{n#1$B@8.B+$@_$p+B+0.! ) n '@n v.v ~.}.x!(+G s Q q G #@y!x@T)v&u&X@'*^;b@v.n x m z 3 %%B=U L%U Y+q v P 1.w.I@v.' n#e@f@Z@6$F$G$Z%].s /#m [ G+^.'$- o A ; o 3 [ o [ * 2.- -#!^= > z , | P P (%1.^.} * '+: 0.`.a.u.q@{ 6;(%_+F+(+t [ t v G+[ > [ } 3 * 4 - +#$.w#_.!+' u.{ u.! !*K@@;v>g@g$!&P&v@v@3+3+3+t#3+f$)*D o > 4 u n#M@w&u&x.b@I+{#_%(%w%Z%)&b@r&r$/&2(}$9+@_8+u-5+L@^-#;S$2$@+h$)@",
"+#4 4 4 z | n o ` 7 [.6#7@*@6#h%8 >.W$W$3 [ o 4 z * [ o s v ~.w s D o D G x | * *@)+*@>.+*+*#*=*g%g%S. &` E+@.a 2 2.*.2.B l.G Q , %%$*G=o * /.4 ; ; t }._+1.I@o+1.^+^.T {.l.m q G m.r G T S l.o >.c 7 0 b E+i #..&]#[%M+#*=*%==*c)~>w,@']#V*[%p&E+ .A U.k _@S S o.n S V$ @b 0 k.%.c @*]#-*7%7%+*7 +@b c #.c 7 +@+#*@0  .j h 8  .l 3#~ B+/ n w.n+v.n+$@p+%@C j%J%;*K$K$0$r {.A *.i d ^#p&p&p&2-V*k.| < z o o 5%`$k'`'Y+W+8$r%}!)#*.&.; A U.2.~.[ C o.{&^>h+(-P&z#t+1$.+u+2$t+$@p+<&9.)*' o ~.].1.X+Y+W X Y A+P '$u Q o - ' n n ( 8. %J%J%Y$)=<&p+l.T S D@{${$R T `.`.s@j$`~x%G*j%J%)=L'y$( ( /%{ B{b.] ) q G T m m D n+q@l$l$c=|$x_O!;=;=M#d%R#E%x*P@e'd'm$>=-=y*S:p%E,]>#+l%$@n+$@{ l+D _$l+/ G#m.n.C G n t )$Q<o-].~.G Q l.n y!>!u&G%p%(-z#I@p+$@{ w l.~.~.n s V b&a&@=[ G+'$P o+u p+8@3+t+t#t#I+9@i+i%v.O r@{ u ' 8@R=}+(.m+' [ * 4 n 5 &.< > /.4 2 2 k s-o p [ ~#p v ! { a.: ) B+] > g$t@~&W#o+u u v [ s [ ^.> 2 o * 1.} z /.$.!.w#+@_ { ' ' 0.u.2+F.u@x#A@e@v&F,F,6;J@n#f@<+,+,+' _$n _ 4 { g@Q#p%p%x.x.I+H+`$Z%Z%5%r&i%)=k%y<R<)_T$@-.]P#5+u+u+Z@t+s+y#n#f$",
"3 /./.< > n A &.@. .Y@6#7@6#6#r*N*<)g)g l S l n 4 [ - /.o m ~.Q D D o o G S 1 > 0 !..@!.%=]#]#]#[%V*V-.& . .` %.2.2 &.| o o o D , Y+G=k &.- < 1 ; /.^.;#1._+o+1.G+E.v B n G D o C {.l.q m m m w !.+@8 %.c @.%.|#$-^#^#]#@*]#^#[%!>+)@'~>^#i*.&[%j ` l 1@2#=.S *.A -.6 U. .7 7 %.c >.%=@*]#7%@*@*8 $.@.#.b a E+#.9 9 8  .f @.c 1#/ ~ ( B+'+> p+C $@$@%@a#a#B+)={{Y&s=`$a$r T n 2.` #.=*@*p&[%@'p&c ; | 1 q m `$Y&w]l'Y [#8$X-)#% B=-.S ; | o D s u ' p%(-/--%{&w@Z@e@.+A@x#x#a#8.0#a#_$n G G D s ^&Y+b&@=A+@=G+G+^.p [ = (.u.0.w.i#i#M&d;;*J%s@C ~.l.B @@_#]$D@Q+3#`.0#/#{-d;{{x%)=M&J%_$_$C@( ] t>!*l l S {./#R Q+l.q@p+.+h$,=!@Q#d%E%f)m$|&Q#;=c%E%m$F%x*m$A/O!h+r';!h+6=G%B@I@O x-x-I@$@$@`.C@:@D@<$T m ].1.Q m ~.G G o r M$n {&~&-%$+r$w&{ { 8@>+m r t Q m o U W+Y+V p ^.(+#@-)x-_+0)q#x#e@n#y$x.y$~%D D 9#1.I@v.l+)*1.k+j+Z.< < o < | 1 * - < < } = 1 |@3 v [ F$[ p 0.: 0.> : 0._ : A@8=&+9@1.D q l.n G v o &.*.; > < /.o 4 >.!.4#[.{ { ' u.: : F.J.2$o#s#p#e)'*'*9,7$y#s+Z@I@)*u w.'+0./.O e@Q@=+/-y$9@F$H+z$z$5%:%x.I+x;+<e=!<j<^-5++,F-H>o#[+g@e@3+g,`)|)",
"Y+E#E#F#/.o n l #. .h H e!X]e!+]W$O+W.+#7 #.&.- 1.3 3 } 4 | Q P &.| 1 | - [ g 0 #*%=+*+*+*#*P;P;%==*p&@*` |#2@|#_@U.1 } '$(+].s 8$ $U- $4 < - ]+R.* > 3 Q&Z.O )*v ^.[ t v t [ o B T x ~.s q o r +@9 >.h 8 a b @. &.&+*#*h*-*N&V*0;@'g%[%N&V*]#^#i i 5 *.V$U.*.S < 5 1@l  .E+1#i h h a b @.8 -*]#!.>. .f @.>.7 %.@.c a c `  .#.j 1@1 | A 5 o.o.T l.w l.B l.l.x P+s&s& %s&@@R l o 7 7 j j [%V*V*$-@.*.A ; l.r Y& %w]t%W }#E@B=A;E@6 B=> [ D m w {.p+w.@+@+p%(-z#X@t#g@@+g$u@e@n p+%@n+w.9.{ 8@[ m B=%%v#v#< < [ - 1.u G+P >+1.B@v.W#x.)=G*`;/#B+n ~.w q T 2.6 _@o.o.G@o.o.o.i${-{{#,;*9=j$i$9.( / C&F.0.{ ( ] B+c$8.o.k%]&&+%+x*x*5,N{R#B%;=S<s: <Q@'&-=d%c%;=M@'&z#h+'*F,p%~&x#1$I@-+F+' %@'@9#n+l.n.P+S q ^.u B n G w T Q+].q Q u@u+u@h@s#/,8@v.O 1.F$z$Z%:%5%,%L%V+S w v 1.F+-#F+%'p#`)h,q#[+e@W# %x;b@l+$@^$w.o+O u u u.Z.j+1.1.- Q&: 0.1.m+a.`.'+Z.Q&Q&=$}+' [ ,%l+1.0.) '+{ : : 6&O.t+t+r$k#O B B B n q s m 2 &.z ; n ; A 2.2 ; a._ Z.Z.!+_ { _ t#y#p#s#s#f$s>u&X@'*<+[+D D B@O u u u.u.u.l+e@Q@G%p%I+)&Z%{#_%H+0$k!)=~%r&#+v/T<b-g@n#h@.+u+A@e@v.o+F+:+1.8@",
"Y#* , , [ | z /.J+[=W.6^B-A-N=P]g)[=X*H 9 k.2., |.3 - < z < [ v Z | < > < 4 )+0 +*#*@*+*e%h*a;D-#*#*g%[%d ..8 +@; | | | D t D ; u#l@ $b,o 2.n } z < z | : - 8@o+t o G o D s D l.{.o w u ^.G o l 9 $.+@k.c +@+@ .^#^#h*p&[%^#p&p&!>P;p&g%[%p&-*]#0 h l -.s-_@6 S S S U.U.%.E+..d h @.h #.a c %=b +@+@!.0 %.c a k.7 9 !.k.1# .@.i 2.> 2 l U.o.o.S B S T q G T r x  % %Y&x%n.n.1@Z h @.k.` ]#+*=* .2.2.A *.{.x a$H+v%E=V+[#Y#E#E#v#&.Y+3 /.G G s B n q@u+g@/-=+X@r$2$A@)@t@ +u@O 8@0#q@$@v.n+p+C T n E#Y#Y+z /.- [ Q s u [ u I@{ D  %r& %)&r@0%j$i$m T S S 2.*.6 l n C@8.s@c$9#g>H'G*r&<&a#8.o.( C@N.j-m+/ ( a.a#o.0#%@!&l%-%o%B%Q@|&Q@E%;=K:K:-=;=c%'(@((*.:U<w{'(6=v@w&w&h+r$s+s+)*O $@O )*o+o+v.x l.~.S l.m T {$R P+n q t }.-#o-1)j@n#Z@r#t+)*%'o+u ~#0@~#_%_%W#X+U q n v ^.1.1.R=R=p#q#<+r+J@n#=;)&r&j#' n i$8@R=)*8@O m+!+(.- Q&!+1.' > ] ] ] ^ ] 0._ m+{ : { W#:%a#9._ ! n ! 0.: t>B&t+Z@r$X@B@B q t v m G m n z } | A 2 5 6 k &.' }+}+!+1.Z.1.!+2)`)h,r+<+<+w&'*v@v&f@t#o+o+' B@' o+Z.- _ 2$#;B%w@w@6$I+Z%_%X#,%z$z$W#i+i%y$y#r#[+u@h@e@u+[+o#q#)*8@u n+D v.",
"* 9&v#, {%0&>$;$J+0 8 H J+>.)+O,X*)+L+g )+$.> /., < 4 < > > | 2.k.>.L+>.a  .%=#*#*]#@*+*a;b;0;b;%=a `+q*`+k..@c *.2 &.; o 4 | 2.x+ #l@x+`  .8 +#S l 2 2 - : u.' | l S 2.n 1 2 Z U.} > 1 > z 3 [ b $.0 j  @%.k.` [%[%]#V-S.--[%g%p&+*p&[%g%N&`  .j k.h #.D._@_@6 k o.5 S *.U.1#%.h a a ` 8 c a 8 $.| < /.1 A 2 5 S *.A S -.Z S 1@; o *.2 S U.5 l C x S w B Q+y {.F Y%s&%*n./#@@k 2 ; 8 @.a 9 h b '+) &.S P+R s&H+Z%H+V+Y ]-& & * A+X l.t u v ].s $@D n#e@l$k$8=t@%@C 0#s@c$_${ { C %@n+{ l+n+p+x A h b a o < < > G ~.D o H+:%H+:%n _$B+$@B+7./#y C C 5 *.l A |@5 l o.o.r@9#/#/#s@s@C %@j$7.R$i$R$3#: a.3#{ ~ r@o.~&6=W/o%v$w(':/<Q@7+(*y*D%7=d%>=|&'&c%K:l<|&K:s:9,;!(-=+w@u^E,s>w@/-{ o+)*R=F+D o.Q Q [ [ Q u l+8.<&_$n+>+l+' 8@i-H>'{'{u+g@p#q#k#9@6$(%u=';.)s&G Q Q s t s $@n _+O g@n#y#n#n#r+W#i% %6${ { ' :+,+_+I@B@(.(.m+) D w.D ' I@8@_+a#n+%'{ D )*w._$w.6$i#n n+'+n { Z.! 0.F.F.g@r+X@w&O n $@n+l+D ' u { v.' { '+! ~ l A 3 =$R.Z._ m+m+v.B@g@o#3+n#g@<+s$6;w@u&1.F+R=8@l+O 8@u 2+2+J.x#L@R#u&P&)&I+,%Z%H+G$F$w%V~W#K%I+2$3+<+B@$@{ O I@' I@v.$@$@n w.l+",
"v#]%I$I$* z - [ 7 a b 7 #.#.h 0 j ` c c a 9 z /.3 > < 1.[ &.2 2.k.b +@9 >.0 M+N+@*-*e%f%D-{>!>7%*@!.%.f +@H *@b > | A Z l &.; 2 U- $ $m@+#$.0 $.-.A | 5 ) ] { { U.-.n 1 ; &.l A o &.1 * z A 1 n 8 0 @.` d f %.@.@*%=%=.&.&^#V*p&]#[%W*]#%=@*0 h k.#.b @.;.o.k |@-.l 2 Z k U.7 c 7 7 h @.@.8 >.0 < < o 2.> z o 2.; 2.Z -.o.l 2 S l A 5 &.l -.o.-.T T B T x o.Q+{.s=;*6%l!n.n -.Z l | @. .h b +@+@: ) | ; _#}&j~G$5%z$X <#Y#v#& & X+^&n m T r G G w.O Z@2$@+8=k$t@s@q@8.a#_$D w.9.B+0#p+p+D a#q@C E+ .c #.2.2 &.&.w ~.q G z$Y%:%H+q@_$o.s@0#7.@@@@r S o.5 k U.=.;.H@^@H@p@j$i$8.%@p+0#8.0#'@o.r@8.> _ ) `.o.o.c$9#5{*+m%$+2&l=#:F]7+M@E%D%m$Q#O!`(m$E%@(P@d%7=C%7+V<6;/-p%e);!x@e)u&z#w.O F+;+;+p{*#F+p q o ;#8@i$9#7.'@B+a#$@u y#{=4;W<X<a{f$r+[+W#=;9@x.';t=g;U=G Q ].p ].~.9.' O u g@n#g@h@s+h@K%K%6$j#w.B@;+:+8@_+1.O (.Z.0.n _$n v.9.I@o+I@I@8@,+I@l+u v.i$9.i+y.l+v.^ H@a.{ `.G@{@c.J@p#q/9,1.' D 9.l+O v.%@B@w.! '+{ ' : u., }.(.!+- - 1.Z.a#%@u+n#g@Z@e@s+G%(-(-X@o+1.I@B@u O l+9.!=J.B&b.d$Q@P&{&6%j%H+W&_%.%_%_%*;j#)& %@+t+u ' n+D v.%@B@{ n+p+n+v.n n+",
"= & , ]%9$&.&.2 9 .@#.0 8 0 9 a c c @.h +@a 7 9 - /.z z - - 1 U.f %.c 7 %=N+N h*h*N M+-*+*h*+*#*#.9 .@X*g )^z-L+[ $=1.2 1 /.1 *.# @&e{#&7%f%)+9 8 b @. . .h%n Z.4 o 1 < | n l A [ > 4 z l o.n - .@+@7 f ..h a @..& & &N&p&#*-*%=+*p&[%+*+*]#8 c c h %.%.8 k.2@2@#.c 7 %.l *.6 o.S Z | 1 1 &.2 ]+1.]+[ 1 ; &.2.*.z ; 1@@@l 1 2 *.k.k.l Z S l o.e#e#U.w T :@m.R r $>;*B T C B C B 5 l 2 &.c @.0 )+- - m+_ <&2'p!_%I+I+o [ }.|.z 8$W s%{$l.t n t t D $@u@x#t+2$l$K#C p+w.w.n _$_$p+w.B+C 9.C j$`;B+i. . .i G#^ 3#B+l.q Q v Y%Z$Y%Y%9.n+a#i$D@^$@@;&1@5 S *.-.5 U.-.B+B+^ B+3#^ ~ ) 0.^@<&w.I@p+M&B+,+Z.%@$@.+8=+%k$Y<Z<c%d%o%!&r:M]D%d%P@R#P@Q#&%d'd'F%Q#m$E%M{s:m$e:n>M#5,;!{&#+P&X@z#s+o#>+F+u _+,%Z%W#,%I+I+r&x%;*y=*;W#r$=+]>s#4;H-c.&;o#J@y#r+(%I+I+b@1-U=Q-1-l.v ].^+}.p 1.)*y#o#o#[+e@2$|$A@#,~%b'=;_$O $$l+)*:+O u !+: ' !+[+y#u+s+g@B(K#u+t#y#n#s+2$@+h$x#b@i+l+n+l C@n _ b._-]@H*y#r+9,'*' O l+w.8@o+%@_$w._$H@n Q&1.> - < /.- j+/%1.u :+%@{ n#J@u+u@2$t+(-r$z#{&9.D ~.~.G D I@{ c.M.]*]*#%/&l$u@B@O 1.^.P p u [ v.9.9.D n+n n+o+_+O n+n+_$8.i$i$$@D t+t@",
"= * $).#]%A+A+z 8 h  .c k.0 >.0 9 8 +@>.!.0 8 0 < [ [ /.[ [ o A @.b 7 @.-*+&7%+*@*h*f%f%+&#*^#V* .9 L+X*9 O+O,X*< }.= o z /.&.Z }%^{2%@&#*f%*@b 0 c b c ..h.a.0.*.n ; S 2.&.| 2.5 n 2 2.*.6 6 o 8  .` ` ` 7  .j (>i;i;--g%]#[%-*+*V* &.&$-V*0 b b k.j @.a ` d i  @,.c 7 A &.l o.|@| 3 /.o - o } < - z n &.&.2 2 /.| l -.-.-.S 1  .@.A Z 6 ;.)#2#U.U.S T C r y y 7!k!C n ~.o l.T U.&./.< h #.8 g u.- u.! u w!G$5%w%{#[ u [ ; D#Y#N%W P+w t ~.[ s p+a#A@s+u+x#u+t+C _$$@9.p+%@%@_$$@q@a#C _$%@%@%@B+n@w#h#C@B+~ a.n m o o  %5%H+z$$@n+$@i$i$c$M$0%_@o * o U.S S S o.;.B+B+`.n '+( ~ ^ _$z!J#v.~%r&q@B+9.C K#K#++t@`< [d%D%/-#+w(l=c%E%D%Q@6+6+d'M@M@d'B%F%x*B%.[+[@[-,M@D%P&u&6;X@P&w&[+<+8@v.v.' C'b$G$I+ %E K%j%;-M&0@0@%+-%l%&+F-+,|$4+J@x#1$g$1*K%x.I+o&W-u=z$~.T t (+(+>#F+_+7$q+<+q#3+Z@.]F-'*9@~%K%B+0#D $@O _+8@u 1.1.- 0.@+1$x#s+u@)@1$u@y#f@[+n#e@h$A@x# %i%l+o+> ~ m+R.t>{@B{{@x#t@z#(-w.u D D D 9.B@s@c$n ) : m+_ / n 4 3 j+R.=$}+8@I@n %@)@@+x#e@t+1$6=o%p%p%l+D u G+G B $@w.L#t>|$~@d$S$1$.+9.B@u G G ~.o q _$%@{ I@:+8@{ p+w.O 8@I@v.n+n $@B+0#++l$",
"F@9$$)= * Y#]-Y#v+l@k.7 %.0 X*>.+*@*+@*@!.!.$.!.9 *@, } [ [ < > h >.a #.9 *@>..@9 >.9 8 8 7 @.a !.X*L+*@o } /.< S > [ o ; 1 &.A ^{I(&&f{p&]##*p&#*[%8 0 h%5$9%6#2.2 ; n | | z | 2 z | 1 z l -.4 a k. .E+%.`  @,.[%W*.&--g%#*i*.&h f %.`  @E+c b 7 a h %. @,.E+1#q*D*1#f Z n A l 5 *.A &.Z * p v 1 4 | A 2 n 2 2 > 2 l 5 k @@1@U...k.b @.E+1#5 *.U.o.5 n | 2.:@_#_#@@{.m s t l.C {.G /.4 n 2 > 3 0.! l ! 8@>+W#i#~#F$m q o 2 2.| [##>F `$l.T o G 9.%@u@e@c.e.B{d#p+m w.w.9.n n $@{ $@.+@+u@t+A@l$3#) : 0.a.] a.) D D s o q t [ D _$w.D 8.C a#`*:==.@@o.n *.o.1@*.6 _@1#+.T.f h b 2.-.R 7#+>+!Z%Z$i% %6$K%H%#[S<y*m$m$x*f:d%y*]&m%f:>=-=P@d'd'('e'('D'Q#n$k:$[A:('V@%[l{R@U@z)6=(-X@(-l%n%r$G%x#1.C'w%I+H+`$j~y={{M&y$h+=+ []& <d%,&.]F-!@5+|$++U,.+@+=';*=;(%i#r&~.1.].v 8@l+8@R=q#y#t+[+L@d$u->&^>^>h+G%x#Z@Z@A@y#h@u@x#i-d-i-i-u@2$u@2$1$g@J@[+3+<+f@n#u+J@g@y#y.i%B@9./ ( C&C&M=C:_-:,t@A@R#-%B+p+v.D { n+O %@! !+Z.Q&!+' n a.-#$=D$/%R=>+)*' B@9.u@h@h+w&s$v&M#R#'*h+v.G [ 1.p q _$n 2+4+C/&[c=#;t#J@{ D p ].G G q w n { ' 8@o+8@' v.D v.g@J@g@J@e@h@l$++z&F&",
"]-A+9&z &.*.E@E#~; #j 7 c 8 O+*@#*]#a 8 b +@>.>.+@*@, } - * * [ )+.@!.!.>.!.0 b J+W$*@b +@$.$.*@X*H *@*@o * * /.n < , /.2 2.&.0 |%}%e{*&#*[%#*]#=*]#0 +@[.+@4#j.S Z S o ; 2.U.l 1 n &.z 4 n ; , .@0 h j 9 )+9 b -*#*+*]#@*[%i*=*@.#.9 8 j d ..%.d c a ..q*..k. .+.,.E+,.5 A S 2.2 o 2 A 5 1 ~.G ; 4 o 2 2 A *.2.1 &.; 2 5 5 U.@@'.j b b k.E+6 |@A A ; < 4 n C C l.S w m ~.o w m o s 4 | n A 2.l ~ ) ] a.8@I@9@K%s&H+D l.1@)#_@x L%#>0$F C {.l.C 9.{ 2$t+L#b.f.`.$@q w.w.9.9.9.9.O n+u@A@@+t@l$1$/ '+0.0.) '+) { v.$@B B G p ^.s $@D D 9.%@0#G#;.D.=.@@U.6 5 U.-.V$@@..f E+..1#i U.n @@:@F z$W&,%i#9@~%1*~&*+(*c%M@M#F%-=y*|&H%n%s:'('(@(-=d%B%('M@e'`(B%B%('d'Q@f+f+U@=%F]1&~&{&l%!)+<L/O_W/l$)*b'X#,%W#Z% %i%x%6%i# !]>-%6;O!M#L@^-O@A&c=d$1$l$)@x#j#j#K%j#T=Y$m.w >#P u B@v.1.2)q#3+g@,=,&F-+,'*x@ !s>J@o#x#2$n#t+e@s+K@6&B&O.q+h@u@u@2$y#n#f@q#/,o#2$J@r#f$f$W#b@n+n ! { M.C&e.]@d#f=r+s#z:e)e@q@l+l+:+F+)*)*m+- > ' m+' ) _ $=3 - !+I@O l+{ B@D e@Z@w&6;v&F,M@R#w&k#I@G+].p G o u 8@$;3;*[=[O@4+n#o#)*' G+}.~.s v Q )*F+%':+' O O u 8@I@Z@u+x#Z@[+e@u+O@>&>&",
"E@x~!%x~Y#%%Y+Y#u# $x+# c  .>.7 -*+*]#=*7 a b +@!..@.@.@- 3 } /.!.)+8 0 J+8 i b 1.3 o 2 | 4 o | 4 [ 1 A A n n > +@$.)+>.h c a 8 O^h&{>-[g%=*g%[%^#%=h*7%r*+@7  .-.Z S 2.S S o.6 z ; 1 o &.2 ; 1 f ` @.` 8 8 c c @*=*=*@*#*=*V*[%+.1#%.1#,.E+E+b  .@. . @(>(>$-[%`  .%.d |@6 e#_@&.&.q B o.n s C n z z &.n 2 2.2 2 n | 1 l l S 1@Q*Y*/=8!x+# D#$%$%D#Y#& z D#$%*.n S B T S S {.q t D ~.G G n l -.) > Q&u.u { x;6%0$z$G w Z k ;.Q+L%#>Z$`$6%;*{.B q@{ d.N.F.F.!=] w.q m m 9.9.9.9.O 9.1$1$)@h$A@y#u+x#x#x#t+u+D B@$@o.e#|@A * * n %@p+a#%@`.X.;.r@=.0%7-l c k.j @.k. .f  .%.1#E+i E+6 B r `$5%,;Q-a@Y'G(d>l=z)|&M{;[N#O@d=6:K=:(>[,[(*@(-=d%;='&m$7+ <K:K:D%M#y*F%-,j{k{T@L>T@B%P@'*F,v@^>F,l%n%~%y$~#b$G$G$:%x.j#P&l%n%(-e''[x_6+M@C%d%e'A/5,I=C#s+k@){B@$@%'8@w.u 1.-#I@' I@u R=s#g,q+.+z*u-q$b-^>F,v@e)t#t+)@n#f@q+g,r+!*M.J.L#d$_*,&>&S$P#@-u-^:)[H>S$5+#;>&e@Y$)&n+1.~)t>d-H-I-6&G,![~[{[][^[|)_+%@0#n w.l+B@3#'+_ Q&m+: ) 0.T {.n v.v.v.l+D _$v.w&P&G%w&w@h+Q#M#(-W#)*#@S=a&m Q _+>+P#c.T$=(#;S$s+y#B@q@{.m o G+;#!#%',+1.O 8=t+n#Z@e@s+u+@+A*d$P##%L@T$6(8+",
"E@n~U)o~9$]-%%2 U- $ $O&c  . .#.%=7%#*=*b 0 0 >.>.!.9 +@/.} - > k.b b b 9 +@@.j 1@|@6 n * } - 1., < | &.*.; o n a 8 b a 0 +@a c /[([H^-{]#%=^##*]#]#@*-*&@r*&@7 2.A 2 Z *.2 1 n 2.1 1 A ; z | 2 @.i 1#i k. .j @.[%=*=*]#=*[%^#.&i f  @D*2@E+` #.7 f d i ^#N&^#]#b #.#.i k 5 Z 5 2.S S x w G q m l | > &.n n 2 &.1 l Z 2.2.l Z -.[~8!x+P*/=P*B=A;A;$%m&*.B=A;s*s*r P+r {.r Q+r q o n l.n n w 1 < 0.' ! ( 8.B+G*)=6%a$n G n U.U.G U D=0$6%a$6%x r C $@C&e.]@!=F.! l+D ~.~.D v.v.D n+9.x#t+t+x#h@Z@x#A@u@e@g@Z@D { w.a#-.5 S 2 ; A D n+p+p+n `.G@;.V$_@C+6 c j '.1#f E+c %.+. @,...i  @o./#)>F s,~_>%'!',A=O%T@x*|&Q:L<z*m=_[B:M=:[B:7=Q#m$O!m$7=;=2]<[F%c%Q@6+M@R#f+=%T@z)L>l{5,M@x@e)'*'*O{w@n%x;i#W&~#,% % %*;)&k%6=m%~&D'`(B%C%M@&%n$O!M#C%u+.+d@J@n+0#n+O n w.F+^+1.I@F+R=,+F+r+<+<+2$>&q$^-,=/-p% !E,g@.+f@[+r+3+<+[+F.2+c.c.A*4+m{B]>&O@0-e$j/q$O@P#[{B]#;g@G%)&%@8.x&!=b.H-j-G,I)[[z<}[|[s>x#n C q@R$i$n %@B+' j+,+m+: ] 3#x m v.w.%@_$n %@$@{ w&6;u&P&G%X@m$Q#p%y$[ Q @=A+Q p 1.;+[{1;1[T$!<O@x#1$q@9.[ !#F+#@^.[ B@v.n+$@A@2$2$A@u@t+u+t+O@O@/&P#6(}$8(T$",
"Y+U)U)x~A+E@2 E#@ u#U-l@c #.@.9 ]#%=-*%=+*+&$.!.!.9 8 b +@$.4 ; 2.> z n 2 z ; |@5 2.z }@>#P Q p < 1 2 l *.1 z n 0 $.8 @.8 +@a a C{g&@]@]0;c)W*-*+*V*W*g%}-8%}-/@2 l S U.*.2.| z 2 1 *.-.*.A 5 U.1#d  .b c  .f @.@*[%g%#*7%]#N&[%` i ,.1#..,.k. .h j .&N&^#g%g%N&#.f j  @k *.; 1 2.2.D t q n r w {.G o n l.T C l.D w x C m w {.U.P*O&w+O*P*P*u## m&D#$%% r%-.*.*.r /#o.S T T T D ~.w l.m B r B [ n ! o.^ 0#C  %r&Y$K%l.n 2.1@k S Y 2{s&Z$Y%Y%S r B+%@c.b.f=C&t>' O s G G o s v.D $@w.h@h@e@s+t+.+#+~&-%r$s+u+$@9.: '+1 | k.j #.; v.n+D $@( ] 3#G@@@e#-.5 F* @@.j j 1#k.j i*N&[%N&d |#5 o.E k!!;0!l]2[x]L_>]>]3[&_r_L<9+2<%;~*m,J.^-('6+&%('M#E%s:s:d'&%R#6+Q@.:m$e+K>S#F]R@k{e+S@o%H%(-X@P&s>'*i#X$n*w%Z%5%:%X$y$4[_,d%e'N{e'C%d%b+5[U@U@B%E%w&X@>[ +$@i$n u.> (.].o I@)*l+o+o#o#<+r+'>u-+,G;b-'>P&u&~&W/ +2$u@A@s+u@1$u+b.!=d.!=,=F-q$F-L@#%F-5+/&d=/&S$5+>&!@t+X@6$s+1$d#2+N.6&Y)Y)6[H][{5;C%&+h$8.C n+n D p+p+u.(.1.' a.n ^ X._#S _$C _$w.{ w.B@$@{&s$v&u&(-(-F%F%G%I+Q t X+Y+@=G C B@I,'{7[8[c_A*u@u@n+u v v s G q D ' l+9.%@e@s+[+<+F-L@>&P#@-P#T$1(0_=_2(}$",
"Y+o~Y#Y+z 8$Y#@$R&O&v+l@j ..` @.7 #*h*h*+*h*!.c +@+@b h b > o &.&.; ; 1 z 4 o ; > } ]+]+1.[ v G+o 1 z A |@5 1 *.` 0 c i %.7 8 )+#&g&g&i&@'2-]##*g%V-.&=*}-K;<-6@%.S U.Z 5 2.2 ; > A 6 6 Z U.-.#.a k.#.k...E+j @.@*+*f%-*+*@*V-]##...E+8  @B*E+ .`  @N&[%.&^#p&N&j  .#.j #.1 7 | l n 2 x o.m |@S S ~.D w C U.o.U.Z 2 2.{.C S :@R z+G=X 8$&.&.$%T+7:X Y X S+s*6 X-1@L$D@/#o.r Q+w r y T s ~.r Q+m { n B+I#0#w )&_%i%5%m m | n Z x q l'Y%Y%:%[ G x s@a#!=C&c.u+u+w.G w C C l.n n p+9.9.u@.+.+u@x#x#Y$j%M&J%l$a#p+B@u./ l ) ) ] n@) w.r&J@w.k$p+v.^ G@l _@!$`%1#` @.E+).'=|*..i W* @d k.5 2 _#%]K$,;X=`=6- -3&':z)(*Q@x*|$>&+,t>f.@;1)>!O!v@Q#l%D%;=-=R#M#B%M@'&M@k:k{S@O%#<R@z)#:*,(*{&7+{&7=s$m$^>^;k#v.Y$i+b'6'9,m%#[('Q#C%P@C%Q@E::<O%$,M@F%X@z#I%[+_$/#: > 0.Z.o [ v.1.B@{ <+s#2)o#q$a-5;0-@-n#v&{&z#Z@A@<+8=l$h@u+x&B{2=_-^=J.^-s/0-0->&5+H>/&S$/&|$4+d$O@|$+%1*I+@+t+c-2=f=K@H]|;G,S,5;q+#%+%B+G n [ 0.~./ , (.Q&: ! Z#3#|-G@1@{./ n+)*1.l+D 9.O 6;w@s$^>s$X@F%'&l%r&9.t D o ;#u w.1.H-c.F&c#s~d$3+n#v.l+n+:%q l.B q { { v.O Z@J@t#3+[+s+4+e@#;L@4+!@/&7+^-M#",
"o E@&.1 | > L+h)g g f%%=%=]#.&` b 8 b b b 8 -*-*8 0 7 @.&.&.2 G l ; A > ; ; z [ z /.z 1 1 &.&.z d 2@%.i D*i a 7 !.@.c b 7 @.c k.h*f%-*[%]#f%h*[%[%g%g%g%V-i*[%[%i %.; *./#r q l.~.x -.n #.` j `+i k.%.i .. @+@+@+@b  .j k.b ` @.@.#.+.` ` j @*@*+* &i*N& &i*^#=*g%V*W*W*V-,.[%!.0 #.f o.E+U. @; *.D#*.B=B=<=[~O&l;x+~;m&*.$%$%^&)>)>F 5%0!s,~_9[0[a[t=0!x%L$;&2#=._@1#6  @6 l ; {.B X#Z%F$H+_%a$n s@P+y Q+W D Y+{.Y W W T C $@G G q C T C A ! l C@3#B+$@O 9@6$y.o &.1 | v t q@a#v.w.{ _$K% %i+~%Y%Z$`$ %r&W#T=W#g@1$s+x#n=F&b[S$7+T)7+G%M@w&=+s@%@q@o.;.1@A E+#.|-4$B,B,h-U*p-/ |@=.A | r y Q+:@U*o.a#B+0#8=h$e@I%u@o%o%=+9.9#>+I@i$U,p+l$J#~&P&H%=+z#w@6;x@r/J:M#*<*<]<f_L<R:c[d[K:e[d%N@7+*<`(q$q+i-g@o#^,2)s/^*'>f[g[h[i[j[M#7+B%M@&%-%v&3+y#n C 3#( , o 1 2.> -#R.j+}+R.<+J@J@s#s>v&'*u&'*6;n#n+v.> D$=$~ > ' '+:-e-D;:-k[n,@;h,/,q+s+h@h@A@o#t#Z@x#A@u@u+Z@j#I+6%j%9#{ B@,+1.n 0.' t>- !=3#8$z U%& [=v#E+# h +@@.` ]#c W*j ` *.#.; < z D I@I@1.w@{&2&t$k{S#C%d%>=6=%+ %%@v.: 0.1.{ 6#r* .: H-S,o#r+P&w&p%A=Y$~%K% %l+' _ : v.D B@' 9@y$r$I+o%6==+z#%+~:P&G%",
"4 | 1 o > | 0 >.#.%.[%[%p&[%.&@.` -.j #.7 c ]#-*0 b a a 1 | ~.G 2 1 > 4 o 4 [ ]+z ; A 2.2.A 2 A f ,.1#j E+` b 0 #.j c 8 @.7 9 0 h*-*p&g%#*h*%=^#[%[%p&N&V*=*[%@*c 7 > /.D q w C :@/#5 |@..@.V-V;2,i %.0 c j c h f j +. @ .%. @1# .f '.2@,.+.[%N&g%W*i*i*.&^#[%W*[%N&W*W* &<%V-p&h c h ` c @.E+j 8$X A;A;x+O&^{o=}%}%# # 8$$%s*S+K$l[x%t,);>)m[m[9[n[U=%-Y&{.r 3$F*`+,.E+f j 2.&.o t s  %Y%Z%W# %p+0#o.r X }#[#^&U&Y X U+T {.%@9.q l.T q n *.a./ ( ~ %@n i+6$z.6$q z z | s t %@$@{ n+v.w. %~%y$ %5%D=5%G${#w%T=k#r+J@.]#;C/7(o[c[F%O%z)8,K>=%p%l%a#B+l *.*.;  .c h#Z#4#Z#D@^@l ] | S A 1@Q+y S :@`.) 0.{ / a.D u D@`;x;{{='{~;-Y$0#R$9#a#8.r@K%j#o%P&o%=+(-{&o%=+m$9_a+e_N@Q:a+f_b_p[f_1_i[M#*<i[%;6&6&P#P#0-q$0-y^|$j<2(p$q[r[b_m$Q@Q@f:r(6=u@.+n+B+) 0.|.1 @@)#- =$m+- m+' g@t#J@p#v&w&X@(-h+(-v.$@~ ~ Z.- a.) r*w#1,1,S),!_]c^7{q#n#h@s+x#t+s+r+J@t+x#t+t+u+h@x.6%i%x;B+B@8@D ( B+a.0.{ ~ Z#c x+k~J$8&R&H$U-3% ## [%p&@*g%[%p&f k. . .o /.B@B@w.D p%h+u$o]e+T@7=x*E%x**+n%2$t+/ l '+! :.j*8 !.d-J-o#n#p%(-l=3&z=.>)&b@B@l+'+] l+O l+D b@~%i%Y$K%r&I+i% - -.,z=",
"o &.2 ; 1 n k.%.d ..f c #*[%$-%.k.U.j c h  .[%@*a c a a *.2.n T &.7 8 %.@.$.>.!.+@c c 7 #.@.7  .%=V*[*.&]#V*W*N&K,<%N&[%.&g%+*h*+@c k.h 8 h #. .+.E+d  @ .j  @E+8 c l 2.B r :@Q+r r 5 5 E+ .p&V*2@E+a b @.j 0 h %.#.f k.b E+1#1#f  .f j  .i #.E+ &W*V*.&W*^#[%V*.&N&.&i* &W*N&V-k.%.%. @` k. .k.S w S 5 c 8 a h h 7 7 b o ; T Q+~.0$P+;*j~s[x^s,i^s[c!:@{.A S d ,. &d d 1#` 2 1 - u p [ H+F$,%H+$@n l.C X Y V+U&s%<#^&Y m l.$@$@D ~.~.Q o &.> { { '+n D W#6$.>W#m 1 &.n &.[ ) a.w.n+n+n a#n D s X#t%z$Z%Z%Z%x.i+h@h@[+n#u->&/&'&-=*,C%7+r$r$/-~&q@0#r S 2.z o o G@Y.~ / H@] '+n l z B (#{$C v t j+j+Z.: '+'+C o.^$0%`~g>%_f>x; %i$`;9#%@{ B@6$)&w&r$n%n%o%=+6=(-P@Q@>=c%7=5,5,d'6+n$n$5,m$d'5,d'B&&;P#E&!@4+5+H>H>F-t[!<p[2_u[b_n$O!('x*m%%+K#K#C q@9.v.}@- z &.z | a.' 0.! v.l+{ n+p%p%X@w@h+p%I@n+0.1.{ - ) > _ - N.C&L#l,U~d*C&n#t#u+e@)@h$2$t+x#x#x#u@1$x#s+ %1*$@r@0#_$u ' ;.C@`.( > ( C@1 * Y+Y+2 O* $b #.@.@.7 c [%g%=*g%n@4#Y@h#{ u.D 9.w.{ 9@j#6;w@k{k>M#P@!&*+S:k%.+x#B+0.- n j.Z#0 W$Y)I-f@u+/-=+>%',:':'i+I+O ' _ : )*1.8@v.)&y$)&i%~%i+6$ %.,>%z.d>",
"; n A 2 n 2 @.#.%.%.7 9 +*g%.&E+j o.f @.7 k.[%]#c c b b A 2 ~.s 9 7 9 >.)+8 @.@.k.k.7 7 %.` %.j N&V-<%.&V*----N&i*V*g%V*.&V*g%p&7 c h 0 a  .%.@.1#j 0 )+ . @c k.7 h o o l.o.@@{$v {.; ,#g 0 i=N b j b 0 @.a ,.D* @f a !.8 d 1#E+c h E+f i j E+2@W*i*W*]#p&=*g%^#N&i*(>V-=*]#^#V-j 7 7 #.` c %.U.{.G 2.S h c @.a c @.@.1 > ~.T o.:@y *.n Q+K$C m n.7-{$-.&.a f ^#^#W*i E+j  .*.l *.| p t l.F$X#a$n+O v l.U&X W <#R+U&Y }=[ v u $@D v u [ > 4 - : '+' l+$@y$6$.,x;x *.o &.k n { ! p+$@n _$i$p+B@u Z%`'Y%Y&E s&Y$1*1$u@g@n#.]F-u-^-5,R@F%M@u&{&-%/-q@B+C x o.n > 1 `.] u.B+B+'+( V%7-o.y Q+P+/#y x a.m+: ) l G#_=`;$@/#L'y$S/^;T=v[^$j$B+w.B@o+9@1*r${&l%#+o%G%-%6=c%M@F%d%C%d'C%m$7=x*D%7=R#`(('E%P#&;4;B&4+@-a-B]H>@-g[._w[r_i[1_('M@('M@z/~&t@e@%@q@s@s@*.l /.3 o } }+m+n ~ $@_$O D P&/-(-w&r$X@n+{ { /%(.3#( { `.( M.S,6&j-7{Y)3+J@u+l$u@2$@+t+2$2$A@1$1$A@.+)@)= %' ' )*B@%@o./ ! 0.) '+! ' ,+- D#&.F#U%m@!.@.` 7 a 7 ]#%=+*+*+@w#w#r*m+u.{ w.{ 9.r&y$X@h+f+v$F%d%%+R,S:n%.+[+_ ' m+0.n@4#+@|+j-B&s+u@/-=+.>a@A=z.I+b@{ O u.0.D { 9._$i%r&r&i%K%1*K%J%!!6-z.z=",
"n 1 o | 1 1 b b 8 b a a 7 #.=*k.@.A 7 a a h p&=*a b 7 @.&.1 ~.v .@.@*@9 h  @j #.@.h c k. .` ` #.p&^#]#@*=*[%^#]# &[%N&$-^#[%N&[%c 7 8 0 h  . .@.$.+@>.9 )+N*g b *@+@z o l Z *.Z 2 U.c >.+#)+]#]# .|#0 9 f h h @.k.2@E+k.k.` @.#.7 +@a a @.a a @.V*$-V*+*+*=*g%p&]# &<%N&]#[% @2@d E+%.7 %. .k.n q@1*a#p+n / a.~ ] ( ( n ) n 0#r@_@;.E+l &.s 4 n 1@@@-.f ` g%[%]#g%^#W*N&k.@.#. .l A 1 w C [ v D n+u Q B s%R+^&^&X s%V+Z'1.p 1.D w G [ [ > 4 _ ! ~ 0.{ %@Y$Y$K{`~U.@.< n V$U.n '+~ ) { { C 9.D t W#J' %;*$>E 6%`$i%i%D B@g@r+J@[+7+x*l$)@1$A@8.<&q@_$w S S q n @@`.a.' / ( ~ B+^ n a#R$0#q@8.9.$@B+m+m+{ _$%@0#q@q@i$D ' 6%W#i#;-q@I@o+$@n D )&)&o%%+&+=+-%H%]&~&G%X@(-r$$+m%$+h+r${&P&h+w@v&p%k%f=B&v>d-0-F-#%L@@-H>B][{u[b_2_p[('M@Q#B%h+X@[+3+o+n+I@8@t T B u }@,#1.> G P+;&/#].p C p+W#i%j%Y$D 0.' w.n %@{ n+K#k$e@n#r+a{A%<+[+t+x#x#.+g$++u@t+s+h@1$@+A@g$ +_$p+n+l+n a#8.0#) n !+0./ u.1.m+> 1 > , X*H H q&+@r*+@[.6#h#=&f#@,^=m,m,) 0.Q&,+$@{ v.{ r&r&b@b@-%&+o%r$A@y#t#<+=$Q&R./%e;H 9%1+2+s+h@@+{&/-~%~%Y$i+W#i+{ O s T $@C 8.B+%@_$K%i%K%j%6%J%x;1*r&~%",
"A | < 4 | ; h c c c #.@.#.@.%=7 > 4 >.!.9 8 ]#g%c @.j S > /.s < >.J+L+b %.i k.E+!.+@#.f k.@.#.a [%$-[%[%V*g%N&$-V*p&.& &[%^#i*V-a h 7 7 7 c #. .+@8 %.j c E++.@.#. @U.2 l 2.1 &.S ; 8 b >.>.[% &h 7 0 b 0 @.@.h f ..8 $.h #.@.#.#.#.@.c 9 9 +@@..&g%p&@*%=[%^#%=]#[%[%]#-*]# .j `+ @%.k.%.,.j o.0#Y$a#$@) B+n ) ~ ~ ~ 9.n+w.Y$0#1@%.7 j U.S 2 l  @%.f D*[*N&b;-~[%V*W*V*@.h a a > *.l &.o p G+G+9.v.G C X X U&S+W ^&U&W+].Q O l+B C t G+- 4 ) a.( l B+p+r&J%X=y=*.a z l -.Z l n > _ O B@n n+v.D ,%`'a$s&F 0$s&X#i%K%w.D u+[+s+f@d%'&.+k$++l$<&z%R$q@w C B w q y ( G#n a.'+a.l { )*n+a#a#8.$@D q@n Z.m+a.0#$@n+$@n 8.n i$~%I+x%i+{ D n p+9.$@y$W#-%#+W/k%!&G%u&'*s$p%#+%+]&+<*+r$X@p%X@p%w@x@e)(-2+C&L#d-u-#;+,'>b-H>H>q$x[x[h[q[M#E%M#m$v&u&u@n#C R$s@a#Q+Q+q G+} [ /.4 Q y L$x o G+o+' ~%6%y$I@_ Z.C %@w.i$s@q@K#h$f@s>g,e)u&(-2$.+.+2$)@)@+% +.+u+s+2$A@x#t+2$9.$@q@q@B+s@{ ,+u.0.Z.a.n Q&' : o /.< - L+L+:.[.9%j*9%+@r*w#K;f-^=4*J*^=! : Z.' u B@9.q@x;1*1*x;G%w&e)y{o#f@7$^,{+-$+~=$e;e!4]D$p#^,s#y#r$z#)&I+y$b@x.y.l+D s t l+9.p+w.D n+b@b@~%)&b@i%I+i%K%)&",
"b !.$.!.+@+@8 c c @.@.0 a c +@a 2.2.h 0 0 a p&p&j %.A o } (+P 1.$.-*^#.& &$-W*[%#*p&^#W*V*^#^#[%<%<%N&=*V*[%=*[%=*[%W*^#]#]#[%g%a @. . .#.#. .%.` k.%.%.1# .!.#.|@k 5 2 2.2 1 ; E+!.0 0 9 #.V*.&b 1 2 1 S Z l ; &.&.> 4 2 2.*.*.#.` j E+` j  .#.^#p&[%V*]#g%V*p&+*p&=*@*#...T.`+..i i ..|@S > S s@y$K%~%D q@n ! 3#l %@$@w.)&r&$@1@ .1 *.l o.1#+.2@` ,.'. &g%%=+*V-W*[%@*0 0 a c a c 2 &.| 4 * z D v.m C T&T&X <#N%V+T+<#t G $@n+w {.G t 4 4 '+a.( ~ C q@~%i%A.6%6 %.&.U.2.S ( > ! ! v.n+9.{ O D H+1-U=';a$s&6%H+:%H+I+6${ n $@B@n#g$K#k$s@r@J#J#;*)=)>x%6%6%5%B C@G@a#q@C { $@q@$@o.d;i%M& %~%i+v.v.p+%@_$O l+{ u w./#p+R$_=p+R={ n+$@u ' n )&y$G%o%-%z#G%e)e)s>W#i%i%r&~%Y$i%Y$W#I+y$y$r&)&k#0@O.6&i-v>r+y##%u-L@4+S$#;m$m$Q#Q#6+'&Q#Q@(-o%~&l%=;=;l+D G [ }.p S+}#o'b&Y+[#D ].q D p r _#G ~.n > ' )*O I@9.~&%+n%(-v&o]w&T)2&z#A@u+A@@+u@t+1$++@+l$l$1$t+s+Z@Z@n+w.R$o.n+n+' F+' 8@v.s@`.~ ) k+!+Z.> 0.: - Q&_ 4,,{4,D;@,[-3*4*2*D;K@K@!*L#: a.v.9.T x Q+Q+T w. !>!2)/,f@t#o#2)D$D$D$}+!+/%#$k+<+o#>+1.B@8@>+1.8@n m v ~.l.D P ' D n+D l+l+{ $@Y$I+I+K%b@i%K%)&",
"+#+#)+$.*@H +#*@L+9 b .@0 @.9 +@2 *.c 9 9 7 [%]#k.h - , v D s | a p&g%[%.&g%^##*g%[%]#@*[%^#[%N&i*V-V*#*@*g%#*=*]#N&N&=*g%[%[%^#7 k.` %.` E+f k.1#%.a 7 ` i E+a 5 o [ 1 l l l S !.c b c f #.%=0 z n | &.A 2.&./.- , &.&.n ; | > `+).). @E+k.%.c ^#[%[%^#N&.&N&]#]#]#]#=*#.k.f  @1#).B*%.S o.U.Q+9.6$i%b@D w.{ C@^ `.a#B+6%6%6%C l 2.&.*.2.1@@@)#1#_@2@ @d f b k.N&[%p&@*8 b h c 9 b o < > l 4 - u u ~.B W T&}#A+V V+S+W D n %@C l.x T {.S | '+] 0.! q@B+Y$j%Y=x;_@D*k @@&.1 > { ^ `.$@9.D v.O ~%I+W-=-%-a$a$Y%H+I+Z%x.W#l+a#$@{ s+u@1$2$p+0#o.a#j%)=7!j~;*c!0$Z${ ' B@u w.{ v.%@q@/#G*j%)=1*K%I+_$n B+p+n C B+u R=' n+>+D 0#v.n O >+%@i$C %@I+)&=+l%F,e)P&v&s$h+W#Y$ %b@ %J%~%i+k#y.9@i+r&r&6$*;J-j-!*b.e@f@+,4+#;.]F-P#M#Q@C%O!6+D%E%m$/-{&h+G%0@*;8@O [ ;#'$t X U+W+<#Y V+q u G w B w (+(+{.y ~ Z.l+w.q@{ X@^>e)s>W@k{/>O%v$w$t+s+)@k$u@.+x#u+g$8=h$1$A@g$A@Z@,+_+p+$@n+l+)*_+8@l+v.{ n ] _ Q&: u.m+j+m+! 0.'+w-5*5*w-J*3*3*3*e>3*L#j-v>6&' ) 9.C T D u u P >#S/e)/,y#.+y#o#s#@~/%m+Q&_ a._ { h@t+s@i$a#v.B@O R=8@].[ q q v u v.v.D D O 8@B@n K%i+6$K%K%r&9@i#",
")+)+)+)+g H W$[=$.+@!.$..@+#L+0 | | !.0 k.@.+*h*>.$.< [ u G S S 7 8 #.i 1#i %.b h  . .c c 7 @.f ^#V-V*[%p&]#[%]#[%[%g%g%[%W*$-i*%.#.j d  @i #.$.7 #.#.` ,.f %.1#2 2.2 *. .k.E+f a `  &V* .7 c b Z ; 2 &.o o < 4 /.A 5 n | 2 2 1 /=/=Y*8!u#~;x+O&e{L~O^O^e{C^!~e{l@u#x+P*P*O*~;y+i{$ $*z s*G=r%Q+a#M&x;1*C n l D@r@^@s@i$x%{-x%G*{.r Q+/#{$@@o.P+@@_#5 o l n 2 -. .a #.%.h +@>.)+>.+@4 [ 3 4 > o O O s m V+[#W+}#V+V+Y Y n n n n ~.G m m ; 1 '+a.{ ! 9.$@Y$M&D(6%P+_@5 5 o o l+q@_$_$p+%@B@u n b@I+V#z. -d>d> %I+I+x._%W#_%H+`$Y&n w.{ { 9.n n 9.G*K%s&x%)>)>$>s&o ^.G+n C { x;M&6%i+X@G%p%X@p%w&n+9.C s@o.c$<&o.9#i$a#$@R=_+q@0#B@n+n+C C { )&I+6=~&r$h+o%(-'*v@6$ %6%6%Y$)&6$y$)&;*K%9@i#6$6$T=B&c.H*T,@+7$3+g$4+H>S$y&D%6+&%O!M#`(5,B%{&h+6;w&6$)&i+;-a!)> %:%W X S+X N%[#T w S o.S ~.Q p q B $@B+B+p+ +.+s$v@6;9,n(p>S@R@F]U#e@C c$C _$B+0#C i$C { v.9.0#c$n+{ _ ~ > - 1.F+0)o-l+$@' u l+l+O _ _ Q&m+{ n N.J.B&N.m,w-5*-<E;Q~c.J.c.C&J.C&3#^ X.C@A } '$t G n 0#B+i$8.p+8.D v.2$g$:,_-f.],f=d.9.9.a#$@u v.n+9.t u v u s n o ~.w.D l+l+l+l+B@v.9.%@I+W# %~%y.T=",
"g +@9 )+g L++#L+g .@$.9 a 9 $.+@&./.)+7 1#%.-*7%9 0 /.- | w m G @.@.@.@.#.#. .j 0 h %.%.@.k.j ` %.` =*7 =*k.g%8 =*c p&c g%%.W*i f ` d d '.i ` 0 a @.E+d E+@.7 @.4 n 2.5 ` #.` %.1#` .&N&#.h ` ` 1@@@-.n n z 3 z &.S n /.[ n 5 *.P*l;~;u#l;/=P*O&O^C^y[!~&&%>%&g{l@O*u#x+l;O*~;[~/=8!z+2 X k 6 T&a#J%r& %'@J#^@^@G@I#'@<&a#K%K%1*F x%c!)>y r r R l.C l.o T w w B o @.j 7 +#g 0 .@*@)+} /.3 [ 4 o v.D ~.q Y W T&T&T&<#<#<#l.n w.{ o o D t /.4 ! ] ( ] $@_$x;1* -1*/#5 A S 1 m w.9.$@q@p+q@C _$B+x;6-z=T#d>',.>y$ %Y$b@G$w%.%,%z$Z$n $@9.9.$@n $@9.6%K%6%F E j~x%,%(+v q x 0#B+6%x;~%Y$6=o%r$=+/-G%B@B+q@9.0#/#c$/#B+n $@$@O 9.{ w.o+v.%@C D 8@6$I+-%-%X@u&u&{&p%w&i#y$i%J%)=~%6$I+~%M&1*i+6$b@r&l+B&d#f=F.x#h@s+@+P#b-!@d$O!n$M#M@('D'('6+ !z/O{s$6$K%1*)=n&g/.%a$Y [#}#Y [#[#B x o.R w [ u (+v o { D i$j$1$y#v&q/w@w&u$w$K>1&i<-%u@_$n $@o.i$8.$@_$C %@$@D 9.0#%@( ~ 0.}+Q&}+:+F+;+n+p+n+B@$@n+n+/ ) Z.' { ! b.!*c.2+C;S)H,z[F;C;!=H*d.d.x&T,H@l 0.u.2 o.y Q+x x s@c$q@O l+w.w.s@ +1$t>B&c.H*x&M.O B@n v.8@O O v.~.~.s p t q t o D v.l+D $@_$w.l+8@l+b@x.r&y$)&x.",
"+*[%@..@+#g *@.@$..@- z &.o - * 4 * $.a k.k.]#+*+@!.+#1.> A n G a  .7 +@c ` #.h a @.j %.a h @.7 7 A k.n a &.a ; c ; 0 z 9 o a n A 2 l A o.S 5 Z l 2 *.*.> < | &.o 2 2 2.7 a V*.&$-p&.&S..&=*j j E+..k.7 f c !.0 1#+. .b +@8 @.+@O*l; #b,~;x+w+w+o=g{!~&>D^&{g{}%l;P*x+~;~;l@w+O*X &.A;D.$*X-8$s%i$j%$@_$^ C@( l B+B+l p+n+v.x.i+,;L]L]%- %z$H+H+l.m H+X#K$c!s=w z 2.*.2 z 1 l /.3 1., - |.= /.&.q@C w o L%V+<#<#W+}#V+W w q D l+G t u v &.*.~ a.( ( n _$;*M&A.;*m.y Q+y {.C C 1*r&x;d;{{j%1*#,G*3&T)L>a^2&t$2&m:~%I+y.j#_%:%z$ % % %n m q G q m C r y o.{.n q w o y K$Z$6%{-J% %r$$+r:~:A[i:k=U#b@1*b@i+%@n { C l+{ 9.{ ) / `.0=w.{ n w.I@8@x.r&(-r${&z#H%W/n%P&1.l+n+p+a#C $@w.l+n+9.u )*v.9.w.v>C&@;;)t#3+y#[+q#o#|$b-B[e'Q@7+/&^*@(F%v&^>X@(-y.(%I;m;$^**.)v=z$:%Z%5%B C Q+R w w u O ] a.3#) r+2$B(<*x#J@h+h+l%=+E%Q#5,7+E%(-t@R$$@' n+a#r@a#l+n+n+n+' ' n p+~ : =$R.Q&-$R.j+u v.I@D n+B+$@$@C 9.' : : - _ { H*2+b.!=H,|,w-P~_-B{N.H*] 0.(.=$(.}+0.^ o.] a.! 9.{ o+,+)*' n+n+A@Z@/,o#g@x# +)@D 9.p+v.u._ [ z /.> /., v s G+Q ' { '+{ D { B@8@1.>+' B@6$y$r&W#",
"+*@*7 +@.@0 c 7 h 0 z | &.| 4 4 /.} *@>.>.8 ]#-*!.!.+@!./.1 S S 5 k.@.j d E+#.k.7 @.h a 7 a h l n 2.o.2.o o o 2.Z 2.; > z 1 A l o &.1 | 2 A 2.5 S 2 A *.2 ; &.&.*.S n &.a a V*W*$-g%V---N&-*7 @.@.#.7 ` %.8 8 0 0 #.h ` E+ .,.j  $ $ $ $w+u#l;O*!~;{C^&>C^*>I(%&/=/=x+O*u#l@ $w+2 Y+m&}!)#*.E#%%l.b@C 0#! : ~ `.o.3#/ ( l a#C Y$u=C[s,t=5%F$.%{#t s q z$a$E K$Z$l.T < o n ; 2 /.> z * * 3 - z 2.C C l.q W+Y W V+Y V+W W m ~.B@' Q v t D | 1 ) ) { / n n d;;-P<D[p!L$m.P+/#6%~% %)&)&1*1*i+J;i+o]T@R@3]/<R@/>T#U#r$9@j#y.Z%z$ %5%z$ %m ~.s s ~.n l.Q+_#/#x r /#m.L$]$k!Y%r&J%r&y$G%-%l>1&i:i<3]W@h+r&Y$K%%@%@9.l+B@9.n+v.^@l C@`._$a#o.D 8@n+~%i%/-{&=+/-&+H%-%u&I@l+l+v.$@$@$@q@9.B@n+l+O n w.O t>C&K@L#g@t#n#q#7$y#+,5;6+('n$m$L@>&5,Q#p%(-p%^>j#V~:!a,./~_t=t=Y%5%X#H+D ~.q o S u R=$@o.B+^@0.o#x#e@Z@Z@J@u&P&~&n%@(|&x*d''&#+A@w.w.c$9.l+C %@a#q@n+_$%@C q@$@o.{ Z.0.C@^@G#n _${ I@n %@C D D l+D > _ Q&j+- ) J.H*F.J.:-C;C;1,I.M=!=!*Z.D$#$j+'+> _ '+> m+_ - ! v.p+n+v.v.9.l+g@h@s+n#s+2$1$.+C 0#q@D > > < > , 3 * 4 ~.v G+[ > { ' 1.I@w.$@D 9.w.w.%@j#6$9@y.",
"+*7%p&^#7 c @.+@0 9 o ; | z o ; &., J+$.9 +@%=+*>..@9 a *.|@/#r Z 2 A S 2.n 2.l U.*.&.*.-.S *.o.|@y /#r B B l.Q+x S B w l.T {.r &.S S S 5 *.; &.1 1 o 1 2 &.&.l Z 5 *.Z j [%[%@*0;@'N&N&[%+*b @.9 9 c i b L+c E+a 7 0  .7 L+!.0 w+w+b,@  $l@l@w+*&g{&>%&I(&>%>%>O*x+O*O&~;u#2 8$8$E@2 $*o{*.D#&.B B |@|@7 h %.@.@.%.E+U.l w n  %.)m[.)t,a$,%G+u < D l.S Y%s&E Z$5%0$m S :@q v p ~.n u G+Q o [ D v.v.G l.T&V+Y V+l*T+s%^&w ~.B@O G m m G z z ! a.'+B+_$p+x%f>E[B.[!7!K$s&$>R-.> ,',d>.,:'I;F[G[%[O(H[b+X(E:':K>f+1&w$y.j#6$b@z$z$v=,;H+,%G$_%H+a$B B Q+<$|=4.k @@q .%,%_%y.*;y.b@T)/>K>F]8,O%S@T)/-r&Y$K%y$~%n ' v.8.H@3#r@n n ( a#a#8._$%@C b@~%P&=+(-/-z#(-w@G%g$x#e@2$h@<+<+x#A@y#J@g@t+t@@+u+- #$}+! l$@+t#y#e@n#q#o#e'O!('m$S$#;q$H>v@9,]>c'V#I; ,z.(;/:(;Q-:%F$b@ %i+x.{ O w.$@H*!=!*t>f=c.2$~&z#o%g$J@y#g@|$,=m=y&_[z*m=h@n#{ 1.8.n O B@a#R$R$p+B+B+i$r@j$D@;.V%G@D@~'`*p@q@C 0#i$a#9.6$W#^.s m s !+Q&- > u._ u.0.:-;>I[E>! Q&*$t*R.u.) / a.{ _.[.J*2*:-) : * a.: 0.a.n n h@2$u@Z@u+t+.]J@x;J%9.O _ > +@0 9 L+/.2.m [ F=s _ { 0.u.> ~ _$D w.n+O { 8@B@O B@",
"+*f%7%@*b k.i f h h *.l | /.z 1 | [ *@+@8 8 #*#*8 9 )+>.U.e#y T Z S Z A ; Z U.&.&.n U.k Z A U.@@@@:@o.{.l.l.C :@P+:@y Q+{.B w m S Z o.Z |@l *.n < &.2.S 5 2.A -.Z 5 *.-.$-N&[%+*a;0;[%p&p&-*b 7 k.>..@7 @.c j ,.#.@.h ` h J+g 9 x+b,3% $ #/=[~O&*>D^o=O^%>}%%&%>O*P*x+O*u#u#8$m&&.%%&.$%X-X Y#z r S l Z %. . . .` f f #.o > w Y&s[J[%-X#H+[ 1.3 /.4 2 Q+T Z$a$5%X#E Y%`$y T G D v B m D t s u s 9.D s ~.W+N%[#T&S&s%U+<#n G { D q n B C S l ( ~ 3#B+p+q@#,d;K{h<7!s&a$5%,;o& ,b]V#.>!!Z=A.A.S(K[o$L[L[X(}_&_:_':':O%X@9@I+r&z$z$,;u=I+F$_%Z%z$`$l.T n.^$l ]+}.3 o w%F$F$6$i#)&r&T#M]/<S@q<M[t:S@n%Y$i%~%i+x.{ v.O n+n a.'+n ) B+i$%@p+%@a#B+~%r&h+r${&~&H%/-w&=+2$2$u@@+u@f@o#h@J@f@n#s+u+x#u+h@m+' '+u.Z@t+Z@g$Z@J@f$7$e'B%;=d%,&O@5+@- !q/F,s$P%I;z.z.(;./***- %,%r&j%i%x.B@{ v.%@d.O.6&2+2=4>+%k%o%{&)@e@s+n#/&c=y&!@N[B:c=n#f@)*8@/#9.w._$a#%@8.w.C a#i$8.C ~ / H@3#H@C@n ~ w.q@o.C $@9.r&9@Q D m D _ { _ : _ { l B+5*n,u>k-/%+~E$k+> a.'+n / > r*w#3*#{D;&@] [ ) u._ 3#8.a#u@x#e@e@2$e@P#u@o%i%B@O { n k.c c *@/.2 t P Q%.-m+> '+) ! '+{ ' w.v.O l+n n $@p+",
"N+7%@*]#=*g%#.@.E+j o.5 > - z 1 /.z !.>.+@b ]#[% .%.7 b A S B l.C w n T {.S n s {.B {._#M$q-R(7#^$n.o.o.y :@{$;&]$(#_#:@x T l.n -.*.Z *.6 5 o.*.1 &.2 2 &.o &.S Z S 2 *.V*[%z>~>}'2-w,@'@*-*b +@7 a #.#.h c  .1#` %.f ..,.k.k.f h~Y*O*O&S*$ Q*P*O^!~!~g{%&o=I(}%x+<=Y*~;O*# 2 8$D#m&*.m&G=H=O[7:H=A;2 2 l@b,@&#&e{o=P*P*8$E@%%W+a$t= %:%D o 2 1# .1 1 1@;./#C m Z%5%:%X#s&s&:%C'z$6%F 6%D o q C a#_$o v A+X+W+V+[#}#Y Y n m 9.w.v m r P+o.S ] a.l ] w.n 6%j%D(W=s,R-t,.)f;g;P[Q[Q[G_G_)!6-R[S[y]T[T[U[V[W[X['<8,8,T#=+{&r&r&b@b@u=1-_;u=,;%-a$`$o Q+6 < R./.Y@) m z$:%Z%b@i%a@.,M]3&R@S#V@K>8_N(o%J%G*J%6%J%C D 9.D ! ] ! l ] ] _$a#i$B+B@w.;*6%~&-%o%-%H%z#p%h+O@n=^*A*c=/&u-F-u-L@#;@-m{)[e$t+- { 0.m+[+e@g$C#t+u+y#Z@Q@P@>=>=m=L@u-5+X@6;^>w&:!Y[x$',p;G~Z[**x.W#W#~%J%i%t+l$)@t@]@H*x&H*H*8=+%R,/-s$g@J@2$@+,=c#c.|$y^b#D&!*o#l+n q@u _$o._$0#R$w.%@a#0#' -#-$*@n > ! _ _ 0.O { p+_$y$~%~%x.t Q D s ~.w | 1 ) ( ( : Z.m+/'r*~ *.;.D.|@z - > 6#:.G-n,^=n,:-Y@( n *.1 ' '+n %@@+2$u+A@d$>&,&l$/-~%D 9.*.-. @ .8 $.* z Z'{%X,'%_ - Q&Z._ a.n w.{ w.p+n+n+1.)*' ",
"N+]##**@+@7 A o.l ; 1 z |.}.* 4 > *@J+L+-*%=]#.&V*@.@.`  @D@e#{.T x x r y S n w x r C Q+0%O:-@R(U$|@> 2 k V$D.D@)#;.U.m&2 8$X s*|@5 U.6 6 1@-.n n 1 2.U.*.; o < A 2.; c @.g%W*N&N&%==*N&.&` %.+@L+!.f %.7 %.f i 1#f f `  .#.7 h /=8!^{v+~;S*/=P*}%}%%>[~Q*~;Y*u#O*<=<=x+u#u#m&X B=X-$*`[Y-C=S+X s*D#&.E@v+ #l@ $o=l;l;D#Y+]-Y#[#a$Y&`$o > 1 c ` c b 1 -.Z *.n {.0$Y%5%X#5% %_%m*F Z%_%:%p s w w w l.m s U W+[#W+o [#w B *.l.a.w.o.o.:@/#;.o.] _ 0._ B@B@r&J%d;#,c!s=s&Y&!;Y_1:D[P[l]A.S(P'R[ }}^.}+}@}#}$}%}&}*},:#:#+=+i+x.i+I+:%1-H+%-s&F 6%a$n t | ; < | B+/ T ;*a$s&K%y$z.A= ,t$f+W@f+k=&:w(H%M&)=M&Y$Y$%@w._${ > ] ! n 3#) B+9.s@j$w.' ;*G*%+!&6=$+6=#+=+G%u-/&c=8=e= +@+A@.+,&#%,&m=!@/&>&t#[+h@g@s+++K#B{1>5=!=e@r+u+S$s+s/r#P#g@2${&X@h+9@a,x$Z=z.&*S(J;)&z#X@r$k%]&.++%l$t@e.6&F.K#T,1$g$H%(-o%u@Z@Z@Z@,&5+6&!@P#I*=}j-Z@u B@O 1.' 9.9.0#`;$@8@-#_+l+~ 4#&@&@'+! - ) ! I@{ a#j$%@n+u u ].P - Q o n &.Z G#/ ! n ) { n G@e#Z *.5 l 2 n ! r*9%w#+@G-4#^=r*u.2 /.- ) %@w.x;u@Z@t+@+d$,=m=,=x#r&n+q@U.1@;.2 )+4 [ < ].S=_%[ t _ _ { ) '+w.w.v.n+p+%@w.o+>+1.",
">.@.7 n G l.a$Y&z$X#~#P } * ` a L+f%N+M+a;+)a;b;b;#*p&a 8 i j 2.o.-.2.2 l l 2.2.5 U.5 5 )#X%7-n r*}-=&3@(>X;y(g=_{~~g{M~M~-}+{;}<~i j j j +.|#k. .@. .E+k.!.$.8 7 j  .+@c  .%.#.9 X*8 +.D*l 1 > ; 2 ; 2.2.1 *.Z 5 l 5 U.&.*.*.f .&.&w,^#i*=*0 k.` j `+V$S A l 2 6 &.*.m&l;x+w+S*y+<~>}((X D#T&L%-.2.1 | 1 ; &.&.j &.*.R C [ v l.C x l.&.n A ; &.> o Z 5 2 z [ n 9@',Y'{'x;x.i#i#z$5%w%I+m m /#/#T+U+Y Y+v Q | *.] 2 C@-.h 1 ` |@`;`;<&0#a#C $@B@{ 9.l+B@9.w._$a#a#B+0#C J%!!l>r>,},}'}h:'}h:3&>])}!}~}{}]}^}/}(}8,k=1&T)r$/-b@r&:%X#l.s={$y T x Q+B ~.p P t w q K%M&)=j%1*~%I+y$i% %x.K%K%j%~%6% %i%Y$i%y$x;_$p+n+B@_ 0.a.~ n `.:@w w.C 9._$s@9#4'U*&+n%+<+<*+#+ +t@U,^$h$D w._$_$@+g$h$d=.]s/d$d%d'7=z*^*y^{*6*S)c>4$0.: _ K@Q&G,#$i-' w.B@n+y.P&G%U#u<U#c]_}k>5,#%L@L@|$F&c=,=l$h$2)f@C ~%p+w.2$l$t+g@A@n#w&=+o%(-[+G%r#<+n#n#s>:}z@q#Z@A@v.;+-#o-){$$t*-#&.Z k.#.k.8 _ u.C&2+!*t>3#^ l A b #.&@' 9%1.o@] ' ' ) { l+u B@p+C ( ^ B+( ~ ( ( ] '+> > ' } u.z > '+0.!+,+' 2${&u&U#m$Q#D%x*T(L(8[/&2$_$n w.n+_$a#a#{ { O 8@8@p u D [ p p ^.(+].D D B@{ c.2+F.M.K@t>",
")+c ; D ].z$_;&*&-<}n*W#; A f %.#*%=+)')-~v]')-~z>}'[%p&#.`+|#@.l 5 1 &.*.; ; ; ; *.1@=.!$!$*.),=@r.Q]r.+'f&+'[}G^/{}}|}1}2}3}4}i{ @` #.#.i d E+%.%.` ` #.a a c +@@.@.a A 4 4 l ; &.&.A 5 A 2.|@6 | | 5 ; > Z *.2 l &.*.5 S *.k.-- *P;~>N&N&c E+i  .2 n m w l.q U+W m&%%l@l;l;${h~i{(=# z D#l*R+Z &.o o > | 2 *.> ; q q G v [ o *.S o.*.l Z Z 4 ; 2 Z S A n | G K%Z=z=z=i%y.T=y.Z$5%,%,%G Q+m.h;R+1~R+}#t s a.( ^ `.i h%0 +@ .o.R$0#a#p+v.O v.{ o+w.w.{ D { _$p+] n n $@$@~%T#k=[^,}5}k]6}{^S#7}8}9}0}a})}b}c}d}#:m:1&O%=+/-~%~%m B Q+_#m.o.{.o.n B B D u s m m M&x;i%r&r&~%b@)&z$s&0$s=Y%Y&0$E K%x;y$)&1*j%p+D D v._ u.] 3#'+{ l.t B@s@r@0#C 9#z!-'!]k%O_W/m%%+t@.+R$1._+B+r y <&c$+%.+H>q$@-.]f_8_'&(*e}f}g}o_b~2*7 h#w#- C@o.a'^ h}^ )*' v.9.(-z#O%u$l>f+i}A]Q#C/@_5+L@n=F&P#t+n#<+l$)=9@(%i+x#u+h@t#s+u+r$z#o%X@w@X@'*s$'*{&s$ !r+t#u+u+>+,+>+w!9!h!j+) 5 > =*V-` k.{ { H*H*H*!=) !  .7 [%^#6#[.6#4#+@[.- ' Q&j+;+;+>+I@l+n+) a.a.0.Z.Q&' { }+!+]+|.> l A o - !+o+B@(-v@h]V,S#O%|&x*T$!<=($;u@_$B@w.B@_$_$%@w.' l+w.v.' u 8@D o ].#@(+P ,+F+:+n f=2+F.d-I-K@",
"g b S x v _%&-j}k}l}0@Z$S S q*,.^#[%+*f%h&');~D-+)0;+*]#` D*T.h -.-.2 U.-.&.2.n 2.5 )#2#;.*.n h h>6@ &--[*i*C^;{^{!~m}n}n}&(o}p}[~ @E+ .` 1#,.,.f 1#1#j @.b 9 $.> > | &.l 4 < 2 ; 2.*.2.&.A n o ; S 2 2 U.6 -.*.| U.*.o A 5 U.8 g%P;-*]#[%[%j d `  .A 2.S S l.n Y N%Y+D#m&$%S*q}Q*P*8$A;G=X T+R+&.> ; 2.; 1 2 A n 2 > - < 1 2.o.2.S Z -.n 2.A n 2 1 | l S &.1 q 1*#,i%x.y$b@1*;*S n Q+:@m.^$y V+8$1!X 2 | 1 n ] H@^@H@/ > o A l a#n B@B@n+B@I@' O D { $@D O 9.$@{ > > 9.$@i%H<V(,},}b:_}O%f+;%i}r}s}q:t}o:u}3]a^w(2&(-b@b@b@w.n+n C P+@@Q+B B T m B w o t s q T K%~%y$I+)&r&i%1*X#0$$>K$5%Y&0$s&Y$~%$@0#c$B+_$v.B@v.{ D _$B+0.- B ~.n+r@-'r@B+J#{-g*m%~&#+(-z#$+u@g$o.8@$@s@y 7-s@%@l+B@.+A@#;#;*<v}@(w}2;4+%; ]u>,{N*@~@~,+u o+a.x}y}l ){:+p+D@-%o%w(f+U#T)o];%Q@d%Q@C%d%w& !u&<+q+B@n+0#p+v.l+[+r+f@o#u&h+(-6=~&z#{&X@X@=+{&o%p%=+e@u@.+s+o+8@O %'#$m+B+a.[ l g%+*X*.@n `.N.!=N.T,n ) c ` ]#]#Y@w#h%6#4#&@Z.1.> Q&(.!+1.1.8@u _ _ 0.) n a.0.- k+Z.Z.!+s q t p > !*y#n#P&P&f+T)*,':d%C%F-u-]=]*g$n+{ 9.n p+' ' B@u 8@D q@q@{ u o D p ^.Q v o+>+)*q@f.F.i-7{7{H-",
">.+@2.; '$m*W&@/(;u=_%:@o o j=2@h*7%+*%=@'P;D-~>x>@'=*W*i ).+.c |@;.U.k V$Z 2.-.|@o.o.o.U.1@|@U.|-4@W;[*i*V*C^I(L~%&@:-}z}+{o};}/=j k.c  .d ).D*|#+.1#%.@.#.k.k.| z 2 A n 1 2.2 4 ; 2 A o l 2.> n *.A S 1@Z 2 A ; &.U.A 2.S Z 7 $-z>V-$-$-W*..|#k.` o.|@P+o.{.l.Y+W+v#F#Y+B=h~A}I~u#&.*.8$L%Y X+n 1 A S n &.l l 1@5 o.@@1@Z l A Z 2 | ; 5 l ; | 1 n ; *.-.o.k Q+8.M&M&#,6%I+Y$d;R l.T S R /#o t %%x~Y+&.2 &.'+a.3#^ ^ ~ | G &.q _$w.w.w.' 8@I@8@B@8@o+{ v.l+n p+] '+{ n b@r&3:u<0^~^d]d]v$g+u$T#p:B}C}D}E}F}V^3:r:b@i+r&r&r&n n q l.Q+Q+w n T B B n D D q D D B ~%r&i+y$Y$i%y$r&z$s&z$H+X#6%X#,%r&C `;0#_$_$%@w.' B@n p+_$9.O w.l.G D _$`;C 9.i$)&K%n%!&G%P&o%-%8=+%i$w.q@o.r C n 8@_+D A@h@#;>&b%d[M{x<.]0'G}I*N.C&(.:+%'' >+-)k+~ n j+v.B@q@'@2>(-M]l>w$/>v$g+Q#P@M@m$'*z/G<s$n#t+D 9.a#n ' u /,3+s#2)s$P&(-G%G%P&{&~&-%(-{&w&X@#+u+ +++t+I@:+l+o+1.1.m+) o @@ .@*I [=0.' v>H-f=T,^ G@j E+p&p&4#o@7@6#h%9%(.}+}+Q&!+u.n+v.O v.: ! ( ^ H@3#a._ Q&' _ ! m o s w.!=K@7$y#X@p%f+3&k=1&C%`([{e$H>[+u n+n D { _$9.I@1.' 8@)*n+q@n v.Q P 1.p 1.#@%'-#l+$@b.v>O.S,H-@;",
".@9 z ]+t {#Z%z$Y%:%G+m 1 ; .@6^V.M+7%7%D-!>w,u,Z,`,.&V- @'.e#;.1@S 6 k |@U.*.o.l l 6 |@l &.2.5 Z#h.`+i f h h @.v+~;z~H}N~z~;:z~R*` k.c h j d j #.c c k.%.j i ,.S n 2 ; &.n *.1 < 2.2.A &.A n Z c 7 h @.%.a 0 j  .a  .#. .%.f j (>V-.&S.$-<%'.2@f k.5 o.S Z U.B n Z$s o ; *.l C,l > 2.2.q t [ w%,%G Q+/#y Q+5 2.k l S 6 ` h b ; n l.n m x {.n s l.x T T T T Q+{.D 9._$o.B+{ _$s@_@|@5 -.D@k 1 > w+ $v+l@&.1 ! '+a#s@B+9.{ y$o s $@C _$v.O ' B@9.I@8@I@{ { $@0#C ^ B+_$a#Y$Y$X=1:3&M]1&w$o]v$T#T#/<I}r>m:V^J}5{x;x%w.O o D D ; 2 r {.x T ~.G B B B l.~.D m G t D  %M&6%i%K%i#X$x.J%i%W#G$5%a$_%~#B@v.l+%'I@w.$@$@' { q@%@p+n+D a#~.~.B@o+D v.{ n b'b'~&5{H%{&{&(-.+c@j$q@%@/#B ~.B@$@p+n x#n#.]5+e_1_T<B]c=i/_[F-i@%)R=' 8@K%^;k#u R.g^a'v.' )*C q/w&p%X@U#M]w$f+f+2&2&U#h+6;*;6$O D u p+j$n+; I@s+/-X@X@G%w&w@w&u&h+P&=+{&G%/-(-g@t#y#e@e@e@{ D C 8@1.*$$$Z.U.a=v*'.0 h Q&E$r+<+3+J@~ ^@` !.c W$z-H |+h%Y@H m+1.#$/%!+: _ ! 9.v.! n ( ] { u.' u.- - u v.9.{ v.$@2$S$/&,=d%x*z#o%l%o%p%6;r+[+Z@Z@n+)&^;x.6$6$9@(%T=j#9@j#T=6$)&i#H+W#i+ %l+,+,+)*9.p+n#r#L#6&I-H-",
"W$L+, < <$:@X#Z$6%Z$n m n > [=+##*7%#*-*h&m'K}Y;m'L} &W*,.E+-.5 *.2.5 l -.5 ; 1@2.l S A &.l Z 1 ^@^ ,.1@E+*.#.A v+&.^~L&k~J^N~ $c +@a c 7 f  @#. . .j  @..,.j %.*.S l &.1 } [ 2 o 1 &.l 2.; o &.9  .j h c f %.` f f c k.,.` #.b ]##*=*V*[%N&1#i %.#.o.o.; &.Z C o z$~.{.-.l &._@1 | 2.1 n ~._%I+:%6%Q+x o./#k o.n A n n @.a 8 c n l.S Q+q n B {.{.x C B G t G w w.a#9.v.$@9.w.w.6 k 2 1 S S 2.n v+u#l;O&4 z '+_$/#R$q@I+i+x.F$,%B@n 8.B+p+B+c$<&$@_$C R$0#p+B+8.o.C@a#s@M&M&1:D[M]m:g:l>f+O%k=O%/<M}M}m:!&H%)=)=0#m m {.r S l Z ~.q C x T w w w y o.w v v o D t 9@y$6$i+K%I+i#K%)=y$_%X# % %:%W#Z.u.D %@a#n %@%@B@$@q@9.$@_$ %x;D q n+I@' w.%@p+=;*;n%$+{&9,6;P&)@K#0#%@1.D w o $@0#_$D 2$t+#;/&`:N}n{P>O}P>5+P}k/l)w!T;K%Z=I;i#w.!+m+Z.I@-)C _+'*%+G%6;k{W@o]w$w$W@T)1&#+!&Y$9@>+%'-+8.a#%'} [ e@P&G%w&u&z#X@9,6;w@'*6;l%k%/-X@t#/,3+o#q+f$9.w.%@9.m+Q&G#C@'#,#)+%.!.,#D$- A_%)a{/,- k+s!W$*@Q}e!&@*@+@r*9%u.#$j+' u.Z.- u.u u (.k+R.k+!+: { ) > ) D l+B@l+O D 4+|$n=d=d%D%z#w@F,w@w&P&u+t+2$e@r&W#j#)&~%K%x.i+x.W#W#i+r&r&I+9@ %G$*;)&q@{ 8@B@' I@<+o#L#B&i-[+",
"W$N*= S a%x F$F s&0$B w l o >.8 h 9 7%h*0;M,M,D-w,G{N&.&,.j 5 2.; 1 2.2 A l 2.6 2.n 2.l 2.*.S *.2.{.k o.1 S o.n 2 N%]-A$Y#W+E#z 2 &.2 n ; l o.Z |@6 Z 2.2.S l 2 A A &.1 A * , &.n - /.&.2 1 a 8 k.h i ` b ` E+b  .@.a d '.%.9 $.@*]#N&g%h +@7 7 7  .k 1@&.o 2 B B@i%n $@q@s@^@X.( 3#C { _$_$b@6$ %)>K$`$r @@o.T S 1@1#%.k.#.=* .Q+z$Y%a$ %I+6%s=Z$E K$Y%5%F K$K$q@C { 9.B+'+z o *.S 2 ; 8 b #.7 U-O* .8 m+u.p+s@I=m%Y$',.,>%=-1-i+n+$@a#9#j$<&o.o.o.s@9#R${ { %@l ( %@_$K%i%6-Y=D(Y=J<g:n%~&~&r$r$!&o%6${ 9.$@B+q G n B=-.m&%%&.[ ' ' B@{ _$'@z,>@9#p+O u v.w.{ p%w&u&X@x.j#j#)&)&i#i+Y$Z$5%H+I+) ~ ( l ) a.q@n+n+$@i%y$~%Y$b@~%o o l+' B@$@p+p+9@9@r$w&p%#[S:$+l$d@r@8.o+:+u [ o.n+D l+q+f@S$#;u/1(J=R}O>y&a<G;r$ !(%1<:!x$x$P%_+#$H@m+1.I@I@C U,A@u&u&r$6;o%u<6-P'J;P%., -~%b@H+Z$B x o '$/.^.2);! !e)e)X@u&^>s>w@s$w@J@h@[+A@2$[+f@q+h,h,{ 9.~ -#%$=$0.! '#5/2^s!3 R.Q&o.f$3+2)7$:+t*Q<1.L+)+o z 4 , |.}..#.#, } /.[ 3 , } , H J+W$W$= } u.0.) a.n+{ 9.w.w.p+n=!@!@m=>&.]e)F,w&P&' v.9.$@$@' 6$^;y$1*~%T=m#i# %i+y.b@G*M&y$9@x.y$b@r&y$j#8@w.l+:+,+' q+f@t#[+",
")+L+2 C+:@~.o ;*F 6%l.~.&.; k.b @.c #*@*w,x>2-{>u,.&g%j 7 8 | /.[ o | z 1 &.A U.2.2 *.l 2 A *.A S r x r S R y C ^&W+A$X+W+Y }#W+&.Z o.5 S Z Z Z Z 5 2.1 2 1@@@o.1 o | &.l z < n *.; &.2 Z > >.0 c 0 0 >.8 #.h #.c 9 8 #.@.f  .` W*N&=*@*9 b h @.c  .Z l n | o ~.c$x%o.q@n w.~ 3#X.l 9.8.9#R${-y=s=b!$>I+w o.C m 2.l f %.a h [%k.m `$Y%z$X#H+z$E s=K$s=6%a$0$0$)>q@n v.9.a.{ n A l A o.;.#.b c a @ 3%9 >.m+' %@r@2>H% - -A.)!^)v=i%n+w.%@B+_$9.n+%@q@w.n p+l+' v.{ { 9.w. %i%.,Y=K{Y=k=H<%+%+-%z#=+{&8@)*D { l+$@x x m&2 &.F#9$F#v.{ v.D 9.%@_=S};@r@n+9.9.{ D v.p%F,v@h+W#k#y.y.b'(%6$ %s&5%,%o Q&> a.! 0.n { n $@w.~%r& %b@9@)&n D )*l+{ $@{ _$i%i+r$]&%+T}U}3>K#1$n B@o+o+(+[ p+l+n+n Z@g@u-5:1(L(A*L@S$P#)['[q/6;z=Z=a@>%i'6-O m+/ n 9.D O p+<+q#w@=+p%l%&+/-d>,,V#I;V}P)b'j#5%`$~.o l.@@n _+'*h+9,e)s>u&6;x@s>{&r$/-n#Z@J@y#h@o#[+y#s#g@9.o.G#!+-#(.3#B+> o ),}.} 4 I@_+A%A_|)h,-#F+3 = )+`+z 4 - 1.,$,$,$|.} - z | > * 3 - )+g +#X*1.* _ ! { !+,+I@n 9.l+s+O@|$O@J=@-B]V<u&z#p%x-%'I@D w.8@y$i+j#J%Y$W#(%(%K%)&y$ %i%~%x.T=x.I+~%b@j#*;' l+u ,+0)1./,<+3+e@",
"0 #.V$1@o s o l.[ G n n l | b 8 7 @.]#V*i*[%v,Y;i*g%+*0 >.* [ | > z * l 5 ; 1 l 2 ; 5 2 2.o.1@-.:@C T {.{.r R _#R S X T&l*l*U&:#|@Z o.o.@@D.U.U.o.S 2.|@4.2#_@e#r m G ~.[ n 6 ; | ; 7 7 a b h @.0 b @.0 9 7 c %.%.%.c 8 b @.` i h a 0 +@a k. .@.%.k.a j *.U.&.~.8.x%B+_$1.l D,I#/ `.`.n s@9=W}X}y%Y}l!$>x S T B l &.%.+@!.a p&b D Z$Z$Y%X#s&s&Z$x%j~;*0$K$Y&F `$9.{ p+%@B+n A A 5 ; o.-.#.b 8 +@ #S*E+$.}+: A@+%~&!&r:g:R[G_6-i'~%n+v.D $@%@%@p+9.w.p+l+n+u l+' - * s q r&i%>-Z}>-x$j#b@o%o%t+g@{ $@n C a.'+o 2 A l D#&.Y#v#F#& n { 9.C o.c$p+,+ (-+{ a#9.' u l+e@e@J@Z@y#y#{ 8@D :+$@R$B@$@p+B@1.!+a.a._ u.p+p+s@z%x;r& %I+ %j%~.t w.B@u 9.C 0#r&y$^>r$u&v{L/m%++A@D o+' ' u F+F+o+O 9.)@+++,[{`}1(4+4+#%b-J:Q#~&a^Y=>-6-:'z.6%u : : R.C a#' { Z@[+s+e@Z@t+A@h+J;%-v=W-V=**I+X#i%r&i+f*5.J#O 1.e)k>v$k>v&~&r$^>w@X@3+r+Z@h@[+3+t@2$s#r+s+2$B+H@H@^ ! n C@`.#.b } |.4 t l+{ *++<#+O{%'B@T [ [ | z 3 '#/.z .#,$,#} 4 , 4 4 [ 2.> >.>.+#)+L+b `.B+v.1.1.)*u&X@w&(-F%D%O@_[P#e$n#[+u F+w!1._+R=.%.%i#I+i#i#b@i+j#i#~%r&i%i%I+9@6$i+u&s$w&^>F,'*^>h+t#n#o+%'F+u D v.",
"&.h ; - < n t ^.t D *.2.-.U.h c k.@.@*[%N&p&@'v, &V*a !.[ ; l l &.&.1 -.6 S 2 U.5 5 k l 5 |@=.e#_#:@C S P+R R m.P+@@l*}#l* |O[r^V$U.1@@@C+)#_@U.Z |@k _@U$}*2#V$D@m.D@m.6 o.-.l 1 o 0 b 0 >.+@7 a h 7 b a  .%.%.c )+8 i #.b #.k.#.a 0 b 7 7 7 @.i c $.a 2.o.5 U.{ I+l+_$! D,X%/ 3#3#`.B+^@'@^$C($<7!k!x%y B o t *.| 7 !.$.a =*@.n X#:%`$E x%$>s=x%s=Y&E ;*a$5%5%v.D _$B+3#~ A A -.A A Z a b 8 7 /=W~+.z (.B@8=2>+<.|+|@|#|Q[$| }~%n $@n+n+%@/#^$z%'@s@{ { u u )*} = [ m K%;*h<D[>-',I+i%o%-%g$)@a#D D ' u.'+- o /.; &.&.Y#A+Y#Y+D D w.n+B@D B@1.-#,+u l+w._$v.u t#n#o#o#[+J@v.8@;+8@_$_$_+v.%@w.n Z._ 0.- a.>@%|5'{;x;=;6%6%J%x;o n 9.' p+/#a#9.y.9@s>{&~&s(H%#+++.+w.%@D 8@p >#$$R=B@D J@.+O@P#&|-_>&*||]P#&%M#w(m:z.1<1<>,x$j%$@a.m+}+n B+' ' l$@+h@u+o#x#h$r@i%W-G~o&v=g;`$:%W#I+Y$)=m#=|B'V~;,;,A]t$w@]>h+P&'*6;r+q+g,n#1$g$I%.+@+2$u+1${ 3#( G#! H@^@G#j .@1.1.#@=#$$p{-|;|G<F,w.n ^.}.} -#}.}@*#}.3.5/,#R.- - - /.> | l 2.*@!.0 $.7 f o./ { u l+D G%r${&z#7+F%.]d=#%e$f$J@O >+_+1.I@v.F$F$j#j#)&~%k#V~=;9@y$i#1*x%b@T=j#i+h+w@s$'*6;w&h+G%f@y#8@>+_+I@O I@",
"n &.| 4 &.&.- * /.2 2.l 2.&.1 A k.` @.7 =*$-.&$- &[%0 8 -.e#_@6 y P+y :@Q+o.o.L${$y Q+C {.T R :@Q+{$(#P+y @@/#x w _#R o.n.t-7#0%2#9-X%4.V$k _@6 6 _@_@6 6 6 o.6 R P+/#/#(#(#U.Z 2 | 8 h b !.+@c a h 0 8 c %.` @.h +@8 `  @f c 0  .7 h @. .k. .` f 1#f k.@.f i o.0#n ~ H@7;g! .w#/@..p-`.^@9#J#'@x%Y&S Q+r m > | | < o &.8 7 a 7 w t v n y :@y o.Q+S {.C B C w q { n B@v.i$z%`;B+l 2 2 U.n n 2 o % X-&.- - v.@+!&n%g:T_>|P[`=,|)!J%a#C _$n _$B+s@D@r@o.n l+8@' B@/.} o l.a$$>f*H'#,G*;-`~r@0#^ G#f.c.0._ 0.u.: '+< ; 1 o A+9&Y#E@l+{ n w.u I@O u B+C p+$@C C w.$@s+ +t@s+s+u@A@e@O )*o+1.I@w.l+p+'+~ a#n w.n+a#<&r@9.-)o+r@9#r&)&T ~.v.O n s@w.1.6$X$q/z#W/m%2>m%h$h$D p+{ v.l.B { O B@l+f@s+>&/&1('|A*)|y<c=D%('s>;!T=i#X$y$M&D 9.' a#$@D n+o+F+Z@2$e@y#r#s+l$9#r&{#)&y$I+b@j#k#Y'x$Z]Y[%[!|s>J,$,k{q,n>A]q,m$e'H>#%L@|$+,L@]=$;2$h@f=x&F.!*) '+u.' 7@7@|+&@0 W$$=,$&#~|9/{|;|]|u&l%Y$6%B {.5 |./+[ = >$<@-#t*.#/.1 !.$.9 L+c k.e{%>V-#*c c - ]+B@l+Z@Z@F,e)w&P&p%v@u&!&o#h,3+s+u o+8@)*i#I+9@x.u )*B@{ )*_+' u B@O D w.v.u ' l+w&R#6;u&X@X@p%u&6;w@n#y#u u I@)*",
"1@l 1 ; S l 1 o &.U.2 l A 2 l o.1#1##.$.]#[*(>S.+*#*7 f ~$s-e#S :@{$^$D@P+/#:@7-]$/#{.Q+y Q+n./#C {$^$n.R :@Q+Q+S /#(#<$R(}&u*M$X%^|8-w*D.e#2#4.3$)#1@5 S 2.A 2.C @@P+T {.y Z &.; | a c 7 b b 7 8 h 9 0 h 7 #.8 +@k.+@$.j i b 0 #. .%.%.f  @.. @f |#`+%.b h ` E+H@R$I#G@B,g!..p-..k&p- .h%^@I#R$:@T q n w m n l ; > > *.c b $.z ; o q m S C x {.S l.Q+{.T r B o w.n B@v.0#>@J#p+A l A 2 *.n *.1 E#8$n ].O _$o%l%a^w(5}a:/|R[(|`=;*B+p+p+%@q@n { '@0#_$$@v.v.n+w.| > T C X#0$f*g*#,;*x%L'`;R$^@^@H*c.n a.'+_ n ] A 5 Z S E@A+F#[ ' l+v.l+I@8@' O D $@n+n $@' l+v.t@c@B()@g$h$@+s+$@9.w.{ u O 9.n+a#R$r@'@_=8.%@R$/#_+-+_$/#9#n+_$q w B+_$q@i$%@l+*;.!y{w@z#l%W/m% +@+o+)*I@$@x B w.O O n+1$x#5+4+_|:|,&H>a-5+7=n$F,>!^;i#y.w.%@' 8@l+q@o.v.:+w.,+r+t#f$`)f@k$@%++n+H+~%)&I+W#^;(%d>J; -Y=H<g+<|n(n>l{e+n>e+K>7+B%^-s/e$G;5;'>+,%;J@Z@c.d.L#v>( _ Z.' _.o@O=/!h)@#$=>$[|Q<}|+!s>=+~&H%M&6%o.n /.|.>#}.,$, ,#3.'#; |@;.0 >. .!.8 8 &&!~^##*$.+@- /.l+B@Z@s+v@9,p%p%^>v&/-!&t#i@h,q+' u R=8@y$9@y.y.)*I@u 8@o+8@' D I@B@8@R=o+D D l+7+'&=+#+#+{&G%s$s$u&J@e@D B@O O ",
"Z S S U.o.-.#..@0 7 2.2.2 U.5 D@i k.@.a i*K,W*]#]#[%j E+!$};P$y y m.(#m.R n./#;&_#(#R o.T P+n.Q+R 8#P$y P+P+T C Q+m.(#P$D@@@`;'@|@Z -.k 7-a=u*e#1@o.U.Z S Z S 2.n.k!x R y l.5 *./.> a a ]#p&@*9 8 2 | 1 ; 1 n z U.o.l ; o < [ z #.` E+f i d ..d E+` E+d  @` %.i H@X.i (@||1|h>u_j>=&=&h# .~ l 3#&.o 4 4 o 1 ; &.z [ } n A 2 &.l |@1@|@5 Z n 2 2 1 < 2.o.o.-.A m 8.G*;-`~;*x%#,i%m x B C P+w q n Q ~.q Q n+x;-%-%l=l>b:n][^5}S[Y'6%B+8.a#C p+9.{ C v.u O I@v.%@8.A 1 T B I+F %]g*;*#,r@s@l { a.l F.L#f=c.c.f=B+B+B+B+m q G D q ~.O O I@o+o+u D p+w._$u ' o+_+$@O l$A@l$K# +g$u@2$2$s+D@j$n+l+B@D a#9.9.%@o.B+R$J#/#w.q@i$/#C l+l+B x 0#o._='@v.o+t'9)F,l%z#(-u&w@r#^,)*o+1.O t (+u B@p+%@h$l$,&c=8[8[z*d$F-#;C%e'w@w&u l+q@r@I#^@B@w._+D ' B@^@H@e.c.v>O.N.C:2|@%C q@w._$i%y.s$X@w$U#[^{^A(3|4|6,j{x:q,3]/<e+5,`(.]H>0-u-%;~@c#A&d#N.{@J.d-O.a.! > _ h%4$(@Y@X*L+.##=^+!#6'(%w(l>v$H<x%i%t ^.G+u !#x!F+m /.= .#|@3$2 7 a 9 +@a $.f{|%}%&>b >./.} 9.w.X@X@'*F,;%;,P% ,6$W#I@%'#$}+m+Z.r#f@=+r$g+'*)*Q&j+(.m+1.!+n !+- > { - - _ v.C%8,8,N(d%7+P&u&u&w&X@(-w.w.9.$@",
"> *.V$U$e#*.h $.b b o &.5 1@S Z  @k.8 +@ &(>V-g%W*W*`+1#1@=.u*M$:@:@x x P+;&^$P$;&0%7-_#T r R Q+Q+<$P$<$L$@@R ]$_#_#n.L$]${$<&n =.2#D@@@u*;@}*2#4.@@o.6 -.Z *.m K$)>C y o.y =.A > n @.h p&[%=*9 b 2 n &.n n n o 2.2.S S n 1 2 2.` %.f i f  . .j 7 h k...`+ @ .k.3#G#k&(@5|t.8%=&g-}-=&<-h%h#~ n n ; | o ; A A 2 2 1 < 2 l &.> 1 &.> o &.2.&.n A 1 z 1 n 2.l *.l.#,g*g*{{#,G*6%K%B n {.L$P+w G m w B D ~.Y$K%~&~&m:~:[^k]d]k]P'6-1*a#s@0#q@$@n+n+n+I@O D ' u $@%@-.2 l.w :%Z$x%K$1*6%C n+'+_ a.l t>t>f.s__-d#C 8.B+B+w B l.G o [ o+O B@B@B@O n+a#q@C O n+D w._=`;.+e@@++%8=.+x#u@2$t@n ' w.D l+{ b@I+D n+B+%@C o.C C c$%@s@D - > m T R$_=z!9#n B+G*i%=+#+w&{&h+u&q+7$l+I@w.B@#@p )*,+' O g@g@>&O@)(6|F&!@#%#;E%F%#+{&9.] ( /@k&/@_ o+o+I@I@n+> ~ H*f=c-f.2=2=:,]@%@$@D q@I+^;h+(-/>f+7|8|v(A(b(W{=,q<L>r>n>9|&%&%d=)|0|m=~@~*6&]=B&b.B{F.6&L#: _ > 3#n@Y@n@+]h)}@3 E.!#p 0@T=A];,;%2& %K%t l.m P '$)$/+p 3 } > l n < .@!.)+L+$.8 1%|{B^*&>.)+; > O B@u&^>v@^>t$v$.,c]T=b'w!;+k+k+,+!+Z@n#P&=+v$h+D ) '+! u.Q&m+) n Z.-$D$(.Q&!+' B%S@S@S@B%m$w&h+u&h+p%G%n+n _$_$",
"*.Z 1@C+|#c h h c j  .` o.2.S *.%.c >.0 .&i*V-[%N&[%,.f 6 o.{$_#x Q+T y (#];|'E-];^$;&:@S B r Q+*._@9-b=D@;.3$D@=.3$H@l ( ;.o.;.B;6.|'}&{.S P+L$n.T G B {.r x B 6%;*x y S {.e#l 5 5  .c =*[%g%b 0 o | | A Z A | z n l *.A *.A | Z Z U.o.` @.c k.8 @.@.k.7 `  .%.|#+.'.|#a|[%h&Y;@'{>W*[%j %. .a &.> < 4 o o 1 ; A 2 o l.Q+n ~.D 2 1 o n 2.l A 2 2.S ; > ; A 2.n y=E[{' -L'='f*{-K$a$)>%]B n T T a$)>E Y%b@~%m:r:I}k=1&l>b:k]P'a@Y$p+$@n q@s@<&r@n I@w.B+0#q@s@C Q+B B B 5%z$Z$`$x;6%_$I@0.' n C@d#E&A*J=g$x#8=I=D@`;o.a#l.o D [ :+' n+n 9.l+B@q@n q@n B+_$w.s@<&8=!@1$u@g$h$u+t#u+g@n v.n+n+O ' 9@W#i+6%y= %$@/#i$s@3#C@^@( u.n q w 0#R$D@D@q@{ T=x.%+o%v&p%=+p%q+s#9.C D l+[ 1.8@w!>+I@e@Z@#;#;b|_|>&>&#%F-Q@d%.+h$^@G@7;g#L;8%' O B@$@n+v.3#`.d.H*B{2+f=g.2|d#~ ~ w.$@Z@y#(-h+/</<p:C}y_I_!}c|d|e|e+9|f|j{D'O!#;O@/&#%6[H-%;P#!*{@F.S,H-K@> n 6#_.q&O=O=z-+#} | u C'Z%1*)&u$/>3&v$9@)&G$s&n u !#F+P (+o s , o | < N*$.!.$..@>.|{g|h|g|*@$.| o 1.u 6;9,6;h+T@w$z.=-{#w%F+*#E$/%' n  +l$z#l%8,/-] 7 h#j.i.4$ .[._.r*H |+w#+@:.> Q@S@S#k{d'm$u&X@s$X@P&p%D n p+9.",
"k.o.S o.,.@.h 1 a #.E+c A ; n j #.0 X*h ^#]##*p&i*[*S.@.d  @e#)#6 ;.Z ;.3$|=P^i|j|u*C,o.1@r 6 l 1@1@>*;@=.o.V$_@V$s-4.1@U.6 S 2#R(];{$l.m B @@t-q r n.P+n l.o.o.P+o.{.Q+o.P+V$6 ;.-.#.a @*]#@*%=!.* $.< c o.2 o o 2.1@6 *.2.*.1 2.U.6 -.` %.%.k.#.E+j  @` d  @2@..1#a ,.Z;=*[%V*{>p&g%[%%.h 7 c Z n &.l Z A 2 *.S *.D ~.x m w m 2 l n 1 > A 1 /./.| z 2.1@-.i 6 a#1*)=J%y=%_k|]'s&K$$</#x *.A 2.n `$Z$:%i+y$O%m:a^l>/>T)T#M]a@ %n+9._$0#r@7.z!>@o.9.^ R$o.$@C@q@; G 2.S w G w 6%M&x;q@w.c$i$i$s@f.x&k$8=t+8.q@_$$@%@n p+q D G n+B@$@%@B+B+$@$@s@a#i$a#$@n %@B+ +y^y&t@u@)@++t+D 3+i$'@D w.p+w.{ 9@y.r&1* %W#v._$c$%@u.a.l / B&: 9.p+_$i$z,>~a#n+x.i+o%z#l%u&Q#-%J%J%_$m v.G v ].{ O ' _+e@t+L@#;+_1(&;5+L@F-5+|$s+8=p@G@h%B!8%X~(.{ n i$] : j+Z.e.i-C&:)I..+h@$@V%0%}>C x#A@u+6;O!f+m>%,w_p:l|m|n|=%$,e+3]q,e'm$b-e$F-4+O@4+4+2+_-1>x&O.B&2$J@s+j-7{o|+~j+!+_ }@s W#W&Z%n+9.w&X@v@2)' I@W&,%P u [ /#^$C G s | < &.- |.[ )+< K++#p|q|r|R&$.@.; l 8@O O I+!)S:6=3&Y$Y%,%H+u (+: 3#p@H#:(:)#[*+ <#+r@|-7;T.k&Z#r*Q&o@=$/!Z.w#{ r*0.=+t$B%^>('w@v@^>^>X@G%X@B@9.w.g@",
"L;w#w#5$&.2 Z x *.E#s*$%P*u#O&I(g%-*q=]#p&#*]#^#g%[*k;Y,S.w=W;--$-$-.&.&<%S. @e `%3,Z+4.).2.k.k.f i F*t&[~S*z+=.Y{X{ |l* |S&r%s|>*0%V%D@0%D.F_t|4.a=3$k D#Y+G=% )#P+P+_#y l.{.{$m.:@S l %.` g%]#]##.g%h ]##.#.7 a c f  @f %. .@.6 _@V$5 S S 1 2 E+c E+f E+E+h  .` 7 7 7 ,. @i ...&j b %.k.@.7 h %.E+Z U.5 A l A m w m m a$z$I+s l 2.| 2.| n +@a >.a #.#. .f .&f B+G#<&c$x%K%1:6_f*G*q@r@h.6#g-7;/ D O ' i#I+',x$',Y'1*L'{{x;0#$@'+a.] ^ V%G#B+^ a.! n@u.9%/  .] 5$0.j.o.( B+] v.x#t+-%u&v&v@v&(%n+9.p+B P+r B w G s n x n { _$h$x#l$@+t+2$@+@+)@k$l$u+t+.+e@h@K#A&,=u@t#O D %@t o+p+p+l+Z@x#u+Z@[+J@g@Z@o+I@~ ] n '+c.c.b.!=%;K@t+u@x#<*u|8=1$A@h$.+^*O@c=d$T(%+X#';`'`'G$5%Y%_%y$b@b@x.2$J@h@K@8*o_o_,=4+6&K@e@@+1$3#~ u.&@w#*@*@{ _.^@5$: R.}+-#$$l+r&_+j]i#6$) , j+'+~ V%e.f@.]m$5,n$u[o$c+v|w|h[b_9_Q#7+D%7=u&=+H%2>o%(-y#p+Q&&$2)s+,&B%(''&9|h]`(v@q+O )*O I+H+,%[ ) - @,^=@,n,n@' 1.'$b$:%o {.:@S G+^.n D G v [ u 3 p * 1.+#$.J+; S -.| /.z s ~.~.a#/#%@i+o T B o ^.]._$n w._$g@u+2$g$+++%H#^@] '+a._ j+w!*$O'{+w!!+{ 1._+R=y.J@l+e@' o+' { { { w.x#h@n#3+",
"=&<-(@4#- 4 T r [#U+$*D#x+l;x|;{@*]#+&]#+*]#[%W*g%N&=~v,Y;=~}'}'<'2-+)m'.'Z,@*5)]#[*..d '.+.....[%.&T.).y+Y*C=D.~(y|]:s%U+z|^&c&k n 3#X.D.4.X%1@1@6 4 &.$*8$m&-.e#4.0%(#r l.S y R R |@6 j  .g%=*W*W*^#]#]#[%j ` ,. @1#` d j ` E+o.6 6 A n l 2.Z ` +@7 #.f f !..@k.a b b  @ @ .j k.f ` f 7 b h  .` @.*.2 > &.2 4 G q B B H+:%z$z$l.5 U.1@o /.>. .c k.%.k.=*p&p&c Z#C@^@_={~D(Y=6- -)=s@3#n@K-6@6@i.o.C B@y.I+Y'Z=6_Z}{{b!_=8.H@^@0=^@] ~ o.C@] ~ 6#6#n@9%|+Y@/@k&[.+@7 7 5$/@G#(  +K#-%(-X@w&o]W#q G n B [#L%W+T&W U o n w.w.)@ +.+u@s+Z@h@s+y#f@J@g@Z@u+t+g@s+@+/&0-q#3+l+' p 1.}.q o.l+t#u+P#P#t+e@y#y#D a#^@] u.( N.N.{=+,+,{*L@!@d=h$I%++@+h$.+u@J=y^L(!<C/n=F A|B|B|#>w]~#C' %I+)&y$u@2$x#b.9*C|0*o_{*]=v>F.u@A@] - D$Q&[.r*&@_.7@7; .i.B+0.l+c$j%T;y.^;c](%U'##{+m+B+^@O.~)P#L@/&0-D|p$N}j[r_p[*<N#C%>=-=M@v&r$#+%+=+(-T=y$1.o-r#h+m$6+E|E|F|G|A]p> !(%' i%I+1-,%v.!+|+^=_],!H|[.0.t p W#_%D o D Q 1.Q B t D v t D t s D /.>.b /.- /.z 1 z 3 /.(+G+m ~.p #@t u G l.o s { v.v.I@t#h@t+g$t@A@] > }+k+!+,+0);+;+0),+R=)*D O O o+B@v.B@w.n+D w.q@C C q@x#y#q#`)",
"f-7@$.>.1 Z r n <#U&m&D#$ $ [~Y*@.k.0 h +*#*g%N&.&V*N&N&+'<'u,x,u,~>!>G{<'=~$-$-$-<%,.j d 2@|#d I(~~Q*Q*`+d =.~$&'*=q!@@r X /#^$%@%@9#J#S q &.|.> S 2 -.i{/=x+x+D@U$7-/#Q+@@{$_#Q+:@;.|@j k.=*g%V*[%]#+*+*#*7 c k.7 @.9 @.@.j c 2.A l 2 n S Z Z 1#%.f #. .i h 0 k.0 8 h  @ @ .@. .` `  .c k.7 @.*.&.Z A ; U.l z G G l.w o o Y%a$n o.{.n 3 4 | A U.2.b b h c #. .( B+0##,y=d>Z=G_/|Z}#,0#3#h# .i.n C@B+$@Y$M&x%g>='I|%_b!r@p+C@I#_=r@$@8@D B+C@l ) { '+0.) ;.`*{,i i l A 2.5 B+{ c$i$p+_$)&y$i%i%w D o B X+A+A+U W+A$o T C %@@+)@u+u@2$J@f@g@u+s+2$e@g@g@n#J@s+s+0-F-3+e@v.n+Q o [ w o.D t#s+#;|$>&^-n#r+>+O D v./ B+F.C&4+$;c.F&.+g$.+1$l$B+q@R$0#p+@+g$d=!@!_^*0$R;w]#> %H+.%5%B+0#u@x#Z@n#t+N.o_J|C;9*L#t>J@u+1$u+{ m+=$1.7 j.5$h%^ H#p@V%r@r@J#,@<&_$)&+!j#6%n | > ' { ' [)Y)s+y#0-G;._0_b_i[p$Z:-=@(7+M@M@M@(-r$-%z#/-o%r$(-e@g@#;e'&%A]K|L|q,j{O!F,t#O O ,%x. ,)&Z@r#M.F.w-5*v-) { o Q X+X+1 z - - * | 2./.z 3 3 z 2 S 2.4 @.9 $.$.z = /.} &.A , }.o {.w p [ u m q o G { 9.9.n x#Z@)@I=k$u+o#q#s#g,2)s#q+<+7$f@3+7$t#Z@n#n#1.l+l+I@' { 9.n %@%@p+w.O )*:+r#",
"n@4#b 8 ; *.S B U&T&E@A;T/T/Q*8!%.k.h 8 ]#g%^#=*.&V-.&--M|M|Y;u,b;~>Z,s{<'{>V*V;Z;W;|*Z++.d |#'.3/_{h~y;`%T.@@e#4.b=-&(#<$8#0%R$c$-'4'D@R :@)#;.~$_@5 5 ~;<==>[~&.; ~.q S :@o.B n w A A c h @*@*=*p&#*+*7%+*+@+@0 $.8 0 7 a #.b S o > ; 2.-.5 &.+.T.T.c .@0 8 b j 8 @.%.d +.,.E+E+` j k.`  @ .7 U.5 Z 2.Z |@Z &.T l.~.D n w 5%z$l.l.o s /.1 ; n 2 ; b 7 @.@.` |@8.Y$Y$A.>%N|F['!G_R[X=)=w.) ( a.n ( n $@M&{{{{#,{{d;K%K%C q@( > B@p+p+v.D q@3#] ! 0.{ ) / I#0=X.`+;.; z > z a.] %@$@%@%@b@I+M&J%l.s u t A$N%}#W U V s n p+9.u+t+h@Z@t+A@2$A@g$.+h$1$x#h@J@y#n#y##;,&s+n#o+v.p G+o P >+9.g$h@#%!@L@+,u+@+%@{ o+O _ 0.B&F.]*c.4+~@h$h$)@0#%@{ %@8.B+q@t+2$F&J=o[^*`$v;J(O|%*c!g*g*8.R$K#@+g@A@8=K@P|Q|S~|~J.!=Z@2$.+h@> 0.Z.m+7 i...;./ l G#( '+;.0#q@n 9..!}|6$B+> 4 > - - !+S,@;[+g@q$b-R| _Z:r_r_b%-=7=B%n$6+F%G%u&(-6;6=6=!&=+x#e@B%R#R@':E::<R@V@s$=;I@8@].G+W#W@G%w&m$x#4+.+u+s+F._ D ~.X+Y#z 4 4 [ } > *.A n /.* z &.*.&.* b $.!.9 &.< o ]+]+}.1.= ].m q D p u s o w B w.$@n s@I=.+t+n#3+J@q#r#q+2)k@r#s+n#t#g@y#3+[+Z@J@<+R=u ' _+>+O 9.n D n+n+B@I@1._+r+",
"1#` k.%.-.Z 2 ; l &.B=% %{W~y+y+1#@.h >.j 1#.&%=N&(><%[*X;Z; &N&0;c)G{f&i*=*$-S|[*^#[*X;T.2@2@D*}/}/%{${2@q*3$D.&)D,%|0%6.4-U*o.;-f>;*{-;&D@_@o.E+f j `+Y/;{y[t~A &.&.2.{.{.T l.m m &.&.7 c g%[%V*[%=*p&]#@*a h 8 8 b @. .0 9 c f 7 8 a h #.` @.@.f  @k.| n *.-.i %.E+f `+2@`+F*i ,.`+,.,.+.i E+!$3$6 -.o.6 |@U.Q+C ~.D w l.~.s G n n w m w m G q G A -.|@5 A n $@)&b@ -6-j^q^T|U|Q[E[G*J%a#%@] V%G#q@B@u { y$k#~%I+v.B@_+)*) ! v.)&i%K%n+B@{ $@$@9.n _$( 3#`.( *.s*%%U o D B o.n n {.w $@n+9._$p+p+~.[ G w ^&^&~.q n l.p+n+e@h@1$h@u+2$t+u@t@h$s+u+u@A@e@3+r+g@2$u+3+7$_+o+)*l+B@u ' v.x#u@u@t+C%Q#~&H%_$o+R=w.I@n+O u B&d.E&N.)@p+C s@%@n B s o q _$i$@+t@m=k$s@y P+x v.B@n+%'x{H-]@C&4++,L.&;l,V|^=-<!=2+t+u+p+n n $@n 3#G#H@C@l B+a#B+O 8@w.o+B@n 8@)*' n 8@$$' ~ ] u.Q&B&i-t#J@s/H>+,+,S$^-7+F%M@6+Q#m$O!e'm$M@s$y{=+/-=+6=d'N{9_W|X|Y|,:':B%d'3+1.: /.z ' /-'&$,q,t_M@0+c%7=w&J@l+| 2 Y#F#> ; *.1 * } < z z /.z o o &.*.2.a !.!.a h 8 2 > 4 } < < [ z [ ^.v v n+B+q@p+c$_=j$0#h$Z@<+q#f$<+k:B[.[+[A/7+x*M#P@7+Q@Q#5,M#P@^>u B@O )*8@n+_$9.8@8@o+1.>+)*l+t+",
"7 @.k.f o.2.1 n 5 1 A;X-Q*h~Y*y;B*@.a 8  @` =*#*.&[*S.--[*j;V-[%c){>u,x>V*]#.&]##*]# &i*,.d |#|*]{h(Z|t{ @Z+2#D.~'p@0#o.P:W:C<@%`~L' >X}^$n._@k  @%.1#q*]{&>g{I(+.|@o.U.5 {.C B q n 2 n h c ^#.&^#=*]#@*#*%=b c !.b a b 0 a 7 #.f  .@.%.k.c @.h h b  ...)#@@6 |@E+,.1#` T.`+d |*i  @T.|#+.d d  @!$D@k e#|@|@D@1@Q+T l.w G G G t G l.l.G o m G v D w -.|@U.2 1 G n x;1*.,Y'`|P[ 1P[A.A.D(x;Y$%@a#G#3#B+%@B@O ~%1*b@(%O 9.1.,+: w.i#i#r&x;q@n n $@n w.{ n ] ( B+; * 8$T&[#m n l.B S B r {.9.C $@D w.n q t x y U&V+m l.w n $@{ Z@e@2$t+x#u@1$)@)@1$x#u+s+Z@n#3+[+u+h$2$n#3+u 8@O n+' :+u o+r+n#J@x#|&C%v@F,y#u >+1.8@0#9.v.L#c.s~H*w.I@q@o.B B ~.t D S _$o.K#g$4+@+C q {.~.o+l+B@%'^/@;d#J.3;$;I,@{V|%!e-^=J.2+s+2${ { D { a.B+C@B+( ( R$o.%@w.$@B+_$0#s@_$0#c$%@O ,+~ ) _ Z.1.t>j-3+J@O@O@4+>&L@4+M@m$`(6+e'M@7+E%'&-=/-6;h+h+s$o%d%P@0+.1+1@1,:8,C%P&l+v.| z o : ,&Q:#1d+X($1%1Y(v_F](-$@) o l@b,1 ; 2.&.> > o &.&.1 &.&.o ; *.l ,.c $.#.#.a | o > /.|.3 > > [ }.n v D q@$@a#z%9=B@B@Z@q+^,t]u]e<&1H:x_&%m$Q@P@M@Q@E%F%m$O!m$M@7=x#v.' u B@p+n ' R=1.I@O l+l+O J@",
"k.k.h b 7 h 1 A 5 n # <=Q*<=P*->U$l h 7 ` @.7 E+d E+N&V* &i*g%%=[%.& &W*^#p&.&N&V- &i*.&V-(>K,i;a]*1a]${,.'.I#H#~'2#h$C#W:_[}],~L'f*T*x;Q n ;.|@|#E+W*W*=1 *-1D^+.d ,.|@;.|@C q s s > > +@0 %=@*]#%=-*#*#*+*+@b 0 8 7 +@+@k.,.%.1#j 7 f +.E+c >.4 < ; 6 )#_@;.;.5 5 5 *.k 6 S k l l 5 -.k 5 5 *.2.2 Z o.{.Q+:@B T B S C G o ~.o T o v s D v s G G B {.T q o o ~.{ r& % -G(D(Z=G_Z=d>.,., %n _$9#~.o m w o ].u D 1.=#p r C o o G M&Y$~%)&x.y$b@6$B@' I@v.D { p+o D V+W U U [#}#V+-.Z 1@o.o Z -.> l+O u v S @@h;R+n m O o+y#J@n#Z@n 9.9._$p+{ n c$s@w.' 8@I@B@D ' n#3+f@t#v.n+w.O 8@:+' I@J@@+2$u+7+E%M#s$p%=+i% %_$a#1.u e@2$t@1$B@l+o.:@C V+L%W ^&X+r 0%C 1.2$t@n+)*u ' c.B&I-G,6&~);14;g}>1,1i,&!y-Y@H m+'+r@0#v.{ n+9.] ( ~ ] p+n+p+B+0#o._$%@r@r@] { : '+{ ' Z.B+u.1.1.8@8@l+e@u+)@1$u+s+F-5+m$`(`(Q@d%|&>=;=-=>=6=#+w@s$9,^>S#b+:<'1*}}_x*Q#t@8=n 0.]+}.8&0..])1!1~1{1]1^1/1(1L{#+B+! 4 # # Z n &.> o 2 &.l &.| ; n ; 2 2.2 i  .9 7  .k.&.> 1 - 3 n 2 , |.]+- u.'+a.> ~ `.a.!+_ m+Q&L.o|::u]k:$,z)L>5,&%('R#7+E%F%('('m$m$>=2$s+B@D v.{ l+>+R=:+)*' { n _$1$",
"i ` 0 9 ` ,.l &.&.Z u#8!<=[~8!R*6 Z @.0 +@E+ @F*B*%.W*.&[*.&g%@*^#^#[%[%$-W*=* & & &i*.&W*--[*S.t{_1W~W~|*q*r@}>0%{,C<:1y<A&e=U,]&J%y.<1p o S Z 7 c W*^#g&-1+'[1--i j E+o.Z l.n m ~.> | 7 7 -*+&]#@*=*N&W*g%h 7 #.0 0 9  .a @.%.f  @j ,. @@.c @.&.S Z l 2.*.o.1@5 1 2.*.S *.2 1 > > | 2 S o ; > < | *.; m S l.q m C S B l.G D q q ~.~.~.~.o m B ~.S Q+l.v ].[ Q { D w.Y$J%#,)=Z=)=)&b@ %%@%@n+n p m m s n x q ^.t p n @@/#r o._##,i%y$I+i#i#x.6$O n+9.p+l+o+{ o L$V&V&U&<#<#}#W U._@e#S 1 &.-.| u ' o C w S T&[#n n v.B@u@u@s+g@n $@D D n 9.D $@D u D 9.{ 9.v.-#S]g,n#h@u )*8@)*{ w.p+v.3+n#x#h@M@>=F%Q#G%/-j%x;q@n+I@8.I%g$1$8=q@8.S B T+V&^&U Y+Y l.Q $$R=l$x#l+O )*{ T,L#O.H*J.d-+,{@o_u~E;v-,!}-4#1+j+0.p+-)o-_+B@v.n o.H@3#s@B@v.p+n q@n 8.^@H@> ' - Q&- =$}+m+~+~+,+v.' n+x#s+g@Z@u+u+P#F-q$d'7+7=d%'&E%>=D%Q#^>F,;!]>]>d'#1d+X(&}'<z)d%G%u+{ j+}+R.]+U%4 i[}1|11121314151/1&,/<@+! h =*!~)+3 > &.S 5 1 | &.&.2.A o < 4 /.b 0 *@a  .7 S e#@@1 A o.*.; o | ~ ~ ~ '+~ ( u.' : '+0.{ B&C&C&3+P@/<K>A]('m$m$M@D%M#D%Q@m$7+7=d%t+h@n _$v.u 8@>+u I@u v.9._$%@p+",
"U- $ # #w+P*%.,.f %.%.k.d +.1#h U.2.2.*.l )#e#k `+1# ...2@f %.#.p&-*%=^#.&^#N&.&.&N&W*=*p&[%<%Y,I~->%{61D+,.^@I#}>`*_&F<71y^A&-:X@)&;*81q!R ; [ $.k.]#W* *K'[1 *N&.&1#f 5 Z 2.1 A &.o > 8 b 8 0 +*+*+*]#^#V*h $.a >.>.k.f a b E+,.,.,.@.#.#.E+E+z *.*.; U.;.k o.5 A 2.U.-.5 S 2.2 *.-.A &.4 1 &.B q D o m n ~.v q C *.Z 2.o | 4 t s q G w m T C l.w w o [ D m o > 0.'+( ( C 8.1*n p+B+0#B+) ' !+t w w D n -.n R.| Z k -.Q+B w L$H'~%i+i+r&r&K%i+B@w.D o+>+u { o @@91s|^&Y Y Y <#@@o.U.2.l *.*.| n+q@8.B+S x l.t G v 9.C l$t+u-x#0#'@C I@{ C $@v.9.p+a#s@C w.v.D 8@u B@O u@g@y#s+J@1$y#y#{ D { g$>=H[f+f+'*v&r& %y$ %G*]'j$R$.+@+R$S v p N%X S&^&^&^&B '$-#>+u@1$++K#u+Z@c.@;v>g.F>011>T,5*n,i)@,^=7 :.O,Q&: >+u *;x.D O n+l+}+m+w.B@9._${ I@{ %@] / ( ~ a.: (./%%'-)F+u v.$@n D v.{ C&M.2+!*2+A@y#r+/,f@.+I=_*e=O@b-5;s/@-.]^-M@E:a1X(b1C%M#n=A@n#1.) S o /.3%, N@c1d1e1f1g1h1g1i1j1k1 +{ !.[%.&#.- &.&.o ; < n &.*.A n 4 | o | !.+#!.>.b 0 j f 5 Z > n A > U._@G#s_],f=d#K@I-c.c.H-> ! '+/ '+n#M@K>R@f+B%M#Q#R#Q#m$>&S$#%|$4+A*x#J@s+f@h,a{-),+)*R=%'R=G w ~.l+",
"U%3% #O*O*/=%.i @.c c c ` E+i 5 5 1@Z S -.=.C+V$).).T.'.i a h k.]#]#g%#* &S.$-@*%=g%W* &$-[*Y,W;*>(=((0]'=e T%W%`*l1d@B(K#n=B:,~6$1*G*W}u*@@l _@B*F*W;V;m1({=1$]]#V*$-1#j S 2.&.o 4 /.< 0 8 9 .@h*7%7%%=^# &1##.%.E+%.@.f  @i j h +@9 !.@.%.d +.k 1@2.n U.;.6 U.; 6 k -.-.-.l *.S l S 2 2.2 A ; n o v t G n m ~.s :@V$;.S A -.-.G t v q l.l.w B x n s v D q G /.[.n@Y@5$7 a.n _$C@o.^ ( '+'+w#0.> n n ~.1 2.A > &.5 6 S l.~.w {$y=r&9@i+)&6$I+ %v.l+)*u w.v.' q _#r%U&W }#V+s%:#;.1 1 S 2 *.U.A p+_$$@p+{.B q C l.q p+B+t@u@|$K#I=R$q@_$C q@B+c$7.s@s@`;i$' o+$@$@9.n+O u@u+r+Z@y#s+[+y#B@p+$@X@-=|<F]%:(-u&W#K%M&x;x; /'@s@8=B+C x S m U+Y+Y V+W [#w v 0#s@)@)@I%k$A@f@6&t>H-H-O.!=N.e.S):-F;v-H 4]+]R.m+: ' w.I+y.' p+q@R=(.!+8@{ { D 9.1.9.%@,+! 0.'+> ,+j+k+:+:+O 9.v.u l+D v.o+F.K@M.c.2+L#t#f@y#Z@1$A@@-m{T<e$+,/&|$L@P#R#O($1'<K>d''*r#1.B@B@- /.| < , 8@S#n1o1p1q1r1s1t1u1v1w1)@Z._.}'W;#.1 n | o o * 4 o z ; 2 1 > ; &. .8 b 8 %.h #. .&.Z l o.|@l )#U*C:{@!=2+Y)H]J-v>j-S,}+~ ( ] n O B%F]z)O%P@'&D%D%7+C%S$#;P#>&O@,&e@g@q#h,q#/,-#%'_+%',+)*u v v )*",
"8$E# $# %&;{O^^{[%g%=*N&i 1#5 Z 5 {$x T 5 @@e#1@_@;.k U.@.h b 7 >.a #.!.i*U;i*]#p&]#]#.&Y;Y;x,W;g=x1y1z1Q!*)};_@p@>'%@w.D@d@9(<*<&/#U*z%- o `+ @x=2@[*i;A1/{H^i&+)[%.&E+ .#.2.2.n 1 o | b 0 .@+#-*+*h*%=.&W;2@` ,.d f k.E+i #.b +&N+f%+*7 b h 7 2 o.U.e#l.w ~.1@o.f E+i #.0 8 7 ` k.c 0 7  .%.n q q n T {.C G Q o Z -.5 Z o.e#_@l A n -.Z S T y S w D s G q ~.1 w#L;L;Y@Y@7 Y@o.|-i i.h#[.r*r*0.o m l.n o > h  .j ` n o Q Q B R j% %j%y=n u I@I@I@1.>+B@/ ) { -.k $%V+W+C @@x m T v t T { $@n w.9.{ n 0#S q m B T B n 8.k$)@^*<*c@<&0#a#%@{ v.n s@q@q@8.B+$@p+0#p+{ l+_$t@@+e@u@1$u@s+J@u l+8@X@Q@d+n>S@/>;%P%z.i%d; >B1x%y$1*K%<&z%n.o.T o L%Y Y A+:@C R$j$++7$z@|)q+J@3+t#[+t#i-F.K@K@M.N.2|C1k&%.A ; > D B@D k#6$n p+C q@: /%1.a.n 0#8._$<&_=%@<&9#' !{;+_+F+>+1.l+D O I@O B@- : a.~ H@G#`.( h@Z@u@g$t+7$g,e<D1u-4+>&S$,=>&5,b1b+;[M@^-f@{)j+( z - * - > | y.>]E1F1G1H1I1J1K1L11&D%e@: :.')%=*@b b )+H J+L+a >.*@8 b h +@h h #*]##.a k.+@0 7 c  .|@1@z - @@D@B{~*i-t>d{d{6&M.F.{@d.H*_ : n { E%E%F%C%M#P@d$|$/&>&3;B&%;4+2;D&n#o#7$s+x#s+D 8@u )*G+].u s n n ",
"G=D# $O&!~D^^{e{=*[%^#i*i f l U.@@{$x T *.o.5 A *.Z ;.1@i 1#@.h $.a #.h W*(>[%.&W;S..&]#w,z>}'=~Y/c(*1I~` ).4.C+D@] l+C ^$j$8.u )*C 9#,+}@@@S-g 7 c V*W*g&{>/{.*@'w,V*g%h c *.l Z S *.2.@.7 8 +@+*@*g%[%.&$-i %.E+j %.f f b L+L++&7%@*p&h 9 >.>.4 &.S U.C w B Q+%.E++. @c b c @.@.c 8 $.9 c  .2.{.w D v s o G G > o | &.*.-._@D@1@1@6 k -.5 Z :@y Q+B w B q G l n@<-K;g-5$5$(@i (@h#(@l Y@'+5$3#l.G D ~.&.1 +@9 #.a 4 | ~.~.B G K%)=;-g*$@O I@8@w.D v.{ ) ] ^@}>@@A;&.V+o.r B {.m y y {.n w.u u D $@s@0#~.o T S ~.q { a# +g$z*k$ +0#n D v.B@v.$@_$n+{ p+_$9.n 8.s@p+{ D@++u+e@y#Z@A@.+e@l+n D =+O%c+*%T@O%f+z=.,#,M1T*y.W#j%L'M&B+{ ].t S ~.[#}#o'V s E.{ a#h$h$k$B(@+J@f@q+f$/,S,!=d.v>H-{ B{a.!.0 l U.o.r { u I+y$B@n+v._$) G#H#C@l q@0#%@n ' w!{ F+y'p{-#)*' ' O I@_+o+l+u ,+1.n ] `.`.0.> _ 2$2$x#s+t#s#o#s+L@u-#;/&^-F-@-S$;[1&d%h+Z@n+( B+* > | - = ].v  ,N1O1P1Q1R1K1K1*:S1>=u+O.q&y-f%N+g 9 $.>.$.g !.b +#*@$.g $.>.!.>.%=]##.h ` k.@.h a b 2.*.}@= Z B+6&'{F.C&G,G,B&K@F.F.F.L#! { a.C 8=|&d%d%-=>=O@^-L@!@E&H>6&3;D&{*q+f@x#t+o#1$''0%D O G+F+G+p o w ",
"$%2 # l;g{%&;_/{x>~>@*W*,.|#G#G@]$P+{.{.T Q+*.2 2.o.D.7-4.2#Z o a  .i  .b 8 +&S.S|w=M,c)z>Y;M,Y;*>y(*1(('.q*=.D@_@k :@T x q v n+{ ] 0.{ i t&`+ .1#F*(>N&#&#&;{&>w,z>[%]#h @.*.2.2.*.l 2.@.@. .j #*%=@*g%[%]#a a 7 %.` %.#.+@g )++*]#=*=*c k.%.%.| Z @@_@L$M$M${$).|#` h 7 a b c a a +@9 8 #.#.&.~.:%D o ~.q G ~.> < z ; Z k ;.;.,.1#E+k.%.S *.1 n ; z > m G G S Y@4#4#w#+@6#'+'+> ) ) v.0.9.( C G ~.D t 4 4 !.>.0 !.[ | G q T t %@%@u o+O v.1.m+/ '+_ > / G#G@`.#.Z 1 A &.[ ( H@8@s@i$$@6%i%i+I+e@1$_$_$s@R$x B G B %@R$I%)@z*++ +9.w.C C _$q@C _${ D p+p+v.B@w.G ~.v.r@1$u+/&5+P##;x#Z@o+_$B  %5[T1U1b(H<V1M_>-Y=1:f;V= %j%d;G*$@D { 9.T m w ].(+D ,+$$J@<*W1:(~&~%y$ %y$y.6$y.8@w.w.{ $@C q@/.$.)+1 S y P+Z$5%k#y$W#r&n+_$g$]@/ `.D@V%G@/ ! k+-)F+t*9!j#i+r&~%k#i#I@1.u { l+_+}+!+' `.l ' - R.[+3+g@r+s#f@Z@++z*S$,=O@+,'>t[6(5,O!@-n#L#'+~ - - o ; 4 _+%'R=o]X1Y1Z1`1 2.23[Z:,=c.J.2*r*H;S'Y~)+>.8 E+%.9 +@.@+#9 )++#$.0 >.8 =*%=]#=* .k.j ` $.a !..@,$|.| H@6&X< ]]*N.E&!=H*c.B&M.v>> ! u.$@h$~&.+)@8=t@!=c.L#N.e-G-n,D;+24^c.L@O@S$u+t@q@8@_+R=(+!#t u L%D ",
"u#2 x+<=I(%&C{g&@'@'p&V*E+1#o.H@m.T B C w x 2.*.2.U.@@V$D@)#Z o #.i |#@.$.g +*[*S|@2#2 '{>G{K}M,D^o=t{$2T-E*=.@@_@a=;&{.{.W T @@Y.^ `.I#)...h 9 E+T. &W*&>o=;{g{2-z>[%p&c k.*.2 2 A 2 n a h @. .=*+&q=7%]#@*0 0 !.c @.a 8 0 0 h ]#=*]#]#@.E+j k.1 5 =.9-8#R(;&R ` f k.a a @.@.h a 0 9 @.` f 7 z q z$n w w n q ~.4 o 2 A U._@o.A k.` j a 7 7 2 z [ 4 < /.[ [ D 2.a.> [.'+6#'+] '+: l+O ' ' 9@O ' s s [ G+* 4 0 +@!.9 o > /.D T w w.D 8@u O ' m+> ] ^@H@l ( '+! ( i 8 z < /.&.( a.n+%@%@{ i%y$x.6$g@u@C o.j$'@o.Q+s m p+C g$t+O@)@C ' 9.R$B+p+9.o+o+' l+B@{ 9.n+O [ ~.{ w.y#u+P#+,#;|$g$@+w.$@t 6$b1{1%2v_J}(_.,!!M_K{u=~_g*M&M&x%_${ 9.o.C q q u u m u 9.)@++z&@+^>T;r&;*~%6$W#k#v.D 9.a#R m.L$7-`+#.A n m {. %~#=;W#i%K%B@l+1$A@Y@T.;.`./ ~ ] - ' R=B@n x.6$y$i+i+r&$@w.v.o+1.u m+! o.I#~ 1.+~#$r+e@7$p#f$Z@2$t@|$,&,&S$S$P#!<0_R#7+t#[+Z.(.R.S l [ |.3 u *;u&b:&2*2=2-2B}1&Q:2<4+9*w-C~H;5]t(X~I J+>.%.b H )+g +#*@X**@+@b >.7 [%+*#*^#c 0 k.,.` @.)+H $=]+* '+d-I*3;~=b[b#H*C&!*2+B&B&0.! ' > A@=+u+h@h@h@b.x&e.d.m,n,D;[-;2T~g.O@S$/&t+y#!{l/;+0)G+Q {.B <#v ",
"/=e*~;[~C^&>i&.*P;0;[%^#4$4$C@/ r S B T m B T x &.Z -.-.S *.Z Z f ..d 7 $.0 ^#S.W;w=>2G{`,,2'2['^#g%F*t&T/y;=.o{$*z+r^c&^&x~R+U+=.g!g!/@` ..|#F*`%|*q*`+h~<=$ %>{>2-2-=*c k.Z 5 U.S 2.A #.@.7 b @*+*7%#*]#]#@.%.>.a a 0 8 b a #.[%[%]#=*]#^##.@.=.D.d!]$~./+[ y `+#.h  . .#.k.@.h +@9  .` %.8 > l.a$a$Y%m G ~.o > 2.k 5 *.Z #.@.#*g%[%]#a 7 @.c *.S S ; - * 4 o 0.{ a.p+] %@C B+w.6$9@b@ %.,I+I+[ s o /.g )+9 a *@+@k.n > | q m ~ ) `.;.^ 3#H@l / G#4$7 n@5$h%P-C-r**@_.[.4$B+l %@n o%~&6=-%l>l%8=l$%@0#D@J#/#P+p+n n p+)@g$,&)@8.C x x T r x o Q [ Q D ~.D Q ].t o { l+y#u@P#5+5;|$n#/,,+8@(+X$o$)2!2/}>]~2G[ ,Y'd>1-i^{'.,b@6$A@@+o.B+C $@r q D p+' u g@Z@u-s#z{Y'6_',X#X#W&~#X#`$F Z$T T o 1.H$b,G=-.G q H+F$i+6$x;y$O n+A@h@5$Z#+@1+*@O=' j+I@o+*;M&;*y$.,:'y$)&I+i+v.u O _$B+^@;.B+z * s!= %@n 7$7$3+h@k$l$|$d=S$L@8(8(@_}$>&S$Z@s+G#`.k.3,G]+.Q&- I%&+Q@{^{2]2^2/2(2T#+,$;@{_2:2<2:2a~H +]X*+#g $.)+J+L+*@[=N*W$.@!.>.*@g ]#+*-*^#W*[%7 c s!<)h)[=O+h)|.(.;)]=+,H-{*|$!*K@B&v>d-N.^ n u._ w.9.n _$a.> ! ] p-h#K-m-[2f-=^,!c.>&4+#;3+f@O D u )*Q G B w N%^.",
"X 2 m&Y*/=%>^{&>w,V-(>i*<(P-B*2#Z m.o.x A w Z 1@o.k o.k k o.1@Z '.).E+#.!.%.f f --.&K,L,L,L}}2K'V-W;S-`%T/<~A;8$*.X-$*X & |2A;*.+.k&C- .k.t&!,x=|*x=f~E*R*/=Q*~;[%V*^#]##*#.1#+.d f  .j ,. @%.a ]#p&g%V*W*.&i i +@k.#.b 7 k.@.a V*[%]#g%]#V*,.F*D.6 6 G D p l.*.h #.@.c %.j #.h h +@!.@.h 0 !.h C 6%C T B T C {.1@-.|@U.S Z @. .0 8 +*h h  .#.#.*.n ; z - z 1 /.' 9.] p+~ $@$@C B+i%I+x.)& -z=y$t > 1 | 9 .@.@>.9 a %.h > ; ~.q ! ) H@H@`.G#2#V%G#o.5$7@6#Y@[.j*O=9%*@6#[.) `.3#9.n Y$G*%+x;1&%+c@c@q@C ,@4'r {.s@n 9.p+K#@%)@g$%@/#Q+n T {.w m x w q l.w t p p G v t n $@1$t+g@y#s+g,a{;+)*)*e)<_122232z)q,w$V#Y= -',*-.,>%~% %q@B+q@a#R$c$k C G@p+v.>+/,f@L@x@0,x$Z]a,z$H+G$F$_%_%:%X#s p P , 1.I$3 } ].P .=F$Y$6% %y$B@D @+C ) , j+k+,+j+{ a#a#8.;*1*9@I+ -x$K%)&T=^;u D 9.C / ) k+&$:/;$, /._$8@t+A@h$l$A@A@F&d=,&O@^-}$}$U(>&F-u+q+x#'+( > l ( l )@z#P&R@}^42526272W_p%[+6&#{e>0~<24,4,:.!+0 Z j n >.+#)+a L+X*+@b b 8 0 I s)M+%=g%V*g%>.L+*@W$)+} .@,$;$~+H]c{P.6&P#@;j-B&L#O.M.e.r@^ ^@V%p+$@n q@/ n n / Z#6#r*9%L-8%g#|-F.2$/&2$h@J@n B+q@_$v t D m 4 z ",
"S C T S 5 j k.7 -*^#V-V-i*i;Z;Y,1#1@j 6 E+2.E+i ,.j j d ..d ,. .`+`%U.2.Z ~$k Z ..d F*V;w=$-c)c)%=%.`+..c a c 0 0 $.>.< i E^`+3,/@7 Z#7 @.j 2@#.i '=*)e/%{(=l;x+%.j E+W*N&N&.&$---V*^#.&V*[%[%=*$-.&$-N&.&[%M++&V*g%@*p&[%]#+*]#,.`  .i +.|#+.|#k.7 8 o ; A *.l 7 ]#+*@*.&V-@*f%+*-*@*^#[%g%p&%.U.r S |@;.1@D@3$3$1@5 U.l 2.l A m&*.O&E#8$6 G=B=~;l;u#O&O&v+O&Y*%.l 1#;.E+Z o.|@D@y S {.w z$X#X#o #.@.8 0 9 .@.@; ; 1 < > 1 1 U.A n 2 2.; Z =.@@Z 2 ; [ [ o * 1.[ - n > z w T ~.B T l.]${{ %1*x;8.r@D@D@0%`;C p+8.0#n B+a#a#C 9.'+B+3#/ _$%@;*`~j~`$n B l ; [ &.[#[#}#m n $@9.w.1.n#u+x#h@s+h@O@K:8292A[x*B%r$o%w& %`~{-K%r&~%J%y Q+!$a=C,!$Z#~ 3*J.C&M.u-@-B%P&d>./C'W#H+Z$Y%G$G+D ~.].3.$== 1./.[ 8@o+;+w!8@o+%@C R$s@0#n B@B@'$X!1.p ^.1.v .%0@y$i%Y$z#w&(-z#9.n+$@8@' p+{ v.' )*>+;+_+I@D ' w.k#_$_$u.,+J-J-t>2+!=b.n#>&E%-=M#Q@M>|&>=l$9(k$g$ +K#|&c%M#M@l=>%02a2t;J;>%i+u v.)*Z.u.0.a.a.8@_ C { R=!+0.0.{ n 2 A 2.9 g >..@e%f%^#^##*+*X*+#B+> ,+:+: )*%'_+%'v.s+B@.+B+{ r@{ ,+D I@B@$@8.0#m q s S n n Z /.* = /.z c E+@.( v. %z#~%i%)&' ' { { ! ' m+_ *@Z.",
"2.B T {.U.Z @.a +@c ]#^#=~K}b2<%i*%.a j 1#%.` ` E+,.'.F*.. .j d 1#2@_@-.l s-D@A e#=.B*`+N&#*a;i=J+E+ @b 0 b 8 7 c 9 g >.+.|##.Z+6#q&w#q&g 7 .. .'.).+@W.m@<~y+~;l Z E+1#V-V-u,u, *!>0;!>D-+)@*@*^#.&[%=*N+N [%.&[%#*]#-*.&V-@*--1#`  .f E+` #.c b 0 9 +@1 2 2.k.[%.&i*i*.&^#[%=*V*^#p&=*]#g%]##*f -.U.1@|@1@|@6 o.U.o.-.l Z 6 -.G=s*A;-.s*$%A;k 8!y+<=S*y+8!x+R*2@ @..'.2@2@D@D@C+k o.:@L$y a$n S ` @.b a 0 .@g > o | - [ 1 n Z ; A Z 1@o.|@e#U.> ; 1 3 , > o /.A z > 4 t S S q Q+y S l.F Z$Y%a$n 0#i$s@`;i$a#0#w.8.8.n n+_$a#_$Z.- !+!+l+w.K%)=s&I+s G &.n | o [#V+T&W m ~.o ~.v.8@t#u+g$)@c=z*;=w}l<F%f)Q#h+(-o%6=v[{-x.x;~%z$R c&C,U.F*T-4#r*4*J*!*!*>&@-d'/-0,_;X#I+,%z$Y%I+B q o v R.$=.#R.D _+' p+$@v.D n+j$D@%@q@s@_$B@o+X&c2'~R;Z$b$,%.%9)b'i]<1A#]>w@z#9._$p+{ %@_$B@R=_+0)!{B@J#C ' D K%y$%@C 3#m+7{;)d-F.c.d.u@.+F%C%-=w{U<P@F%d%y*(*E%D%7+d'7=Q@B%s$J;o&p;(;=-*-G$Z%b@~%p+9.9.%@%@n+l+O >+%')*l+: : > ; z o 0 g g *@@*p&g%+*}{p=0 %.^@] ' 8@' u ' n+'@B+n+D %@p+{ 9.8@R=u o+{ $@I@I@m n q l.q q < } -#} [ | < = /.u ' )&W#X$i#6$u D u.m+- !+9%w#r**@",
"&.n l.C 5 Z k.c  @|#V-V-i;S|b2<%W*7 8 j  @f  @2@|*t&|*2@ @1#1#,.f E+n U.e#&=X%&.)#C,`+9 +*[%G{w=D+D.1@*.1 /.- 4 4 1 D@k < o 5 ;.^ ^@) E$]+4 1 *.S 1@o.Z r%~$k &.o 2 U.k d ,..&N&x>c)~>!>%=-*@*]#[%[%=*]#h*]#]#g%]#]#W*[%%=N&<%<%%.k.c a !.)+.@0 h 8 +@+@8 b 8 0 -*[%(>(>[%]#V*.&g%N&V*W*W*i*V-V*k.E+d 1#,...k.$.0 @.` @.9 +@a b O&l@ #v+ $ #~;P*s*X E@E@X $%*.6 U.Z -.o.2.n l 5 |@-.*.2 n B w ~.o 8 0 a k.#.a 7 1 3 [ ; n 1 z 1 2 6 k 1@n - , .#= - - - 1 Z 5 1 4 1 o z s G n ]$w u w q H+z$Z$F %@0#a#p+q@$@$@C _$q@%@{ D n 9.D > ! > ) C a#1*6%Z$`$B B ; n A < A$U U A+G+].D w _$n+Z@Z@J@y#h@)@E%M>M>;=s({:l%(-s(d2e2X}f2g2H';*(#Y-0%s-|=e#_.|-Z#r*!*C&O@#;Q@{&j#6$6$6$y$K%C a#R$n+O v.{ B@w._$O O O R=R=u I@B@u 0))*p+R$B+)*,+o-~.T !#/+}.1.P o+F+>+u B@R=B@_$9.p+9#^$B@F+x-;+)*v.n _$' -+F+' D w.w.O R._ m,v-v-4*6&M.Z@[+q+[+%+5{l%'*u&;!E(>!F,F,x@q/s$w&p%=+A=t=5%I+F x%K$Y&n+$@'+0.Q&Q&_ ~ { $@9.l+l+p+( > n 5 1 z 0 L+L+b i*e%;^h2L+0 >.N*|.> %@q@_$D B@$@s@B@O u I@O $@)*u ' l+u v.9.8@B@P+n.n.C t ].R.o 1., [ < 4 < } 1.D x.W#x.~%i+I@l+Z.Q&' ' 6#5$&@9%",
"&.n B C 5 U.f f #.d K,[*i2j2,2W;..j k.E+ @ @2@B*'=E*2@%.E+`+,. .,.`+S S |@D@7-k D@)#` f ^#^#+'Y,'.=.k *.2 n n A ; o 6 6 &.2.l n r@H@^@r@e#A 2 Z e#4.)#=.k % *.m&2.S 1@)#F*T.i*W*x>v,Y;.&^#g%=*g%g%@*f%]#+*h*]#.&=*p&@*p&[%W*^# & @k.0 +@0 0 8 a 8 0 +@8 a 7 a 8 =*$-K,S.V*[%W*N&]#^#W*V-W*V-W*N&,.j f k.%.f a !.a k.` 7 $.*@>.9 # w+3%@ w+Y*h~Y**.&.m&X D#m&G=X-|@l 2.l *.S o.o.@@1@Z S n {.Z 2 +@a c %.f #.c j A /.o 1 > > o ; o S S 2 < = = }@|.* } 4 o o n 1 > | > z [ v ;&k2t-v D ~._%X#Z$Z$8.o.B+n $@D l+{ D n+$@$@{ %@O I@- a.B+^ R$o.)=y=0$F T C ; &.2 ]+f]n'}=@=].[ D m _$9.e@J@n#g@e@t+E%;=|&O!V<{&W/H%{:l2k|T*{~b!M& >q-91u*};C+l 5$Z#h#'+C&h@d$|$d%F%w@I+x.9@i%j%$@O l+O $@_$C n 8.c$r@n+o+)*o+)*)*v.%'W]8@_+B@n+u 8@Q m.D #=#@P !#n-q{!{%'_+O B@$@9.p+o.4'j$)*)*,+F+l+1.1.o+-#x-w.D v.j$'@v.: ] v-K*m,@,t>6&7$J@y#<+z#e)r'E,9,9,6;=+(-P&w@s$G%{&/-~&M&~_s&6%6%F 6%5%D $@'+Z.-$1.0.> l+{ $@D I@8@m+Q&< o }@$=L+)+*@.@7%m2q'N X*I @#h)= A %@9.B+%@$@o.9#9#o.a#C n+n 9.9.w.w.B@v.q@%@s@{.Q+r q [ p $=4 z o [ z z /.z u n y.j#I+)&y$n+D - : n ~ h#(@[.+@",
"*.Z -.6 6 o.f j i |#[*.&i;S.K,$-` f i f f +.Z+T-S-|#j j D*D+`+j +...+.%.k )#U.6 _@Z J+0 @*]#x>i*e 1@o.1@n o *.6 D@> z k C+5 o 2 B+<&B+%@q '$v T y S o y <#[#W V+n.P+o.|@2@2@V-[%g%.&i*i*$-` c h 9 *@g 9 >.a b 0  .T.D*x=T-f k.#.` c b h c 7 h 7 7 a a h c @.7 a [%S.(>.&.& &.&[%V*V*V*.&^#^#^#.&_{^{}%%&I(o=@&e{O^O^}%#&|%&&L~g{V*e%N+%=k.` E+j -.2.*.Z C Q+{$;&@@e#2#4.@@o.k V$)#1@1@=.a==.i E+..d 1#f %.b +@7 5 4 4 | 1 n &.n 1 &./.} } } - 1.z o [ 4 z > l 5 l *.5 | t m T T o q B T H+:%I+ %%@C %@q@C _$D v.D v.1.1.8@c$_${ (._ _$o.9#R$K%b@0$Y%~.l.l.T *.1.@=A+t o ~.~.~.o { { t+1$g$.+u+n#^>{&/-r$/-!) :O_b!J%I+b'x.i#~%b!7-_#-.A 5 1@( 3#( ( d#x#e@=+d%P@l$u@Z@e@u+f@r#r+n#h@A@x#)@h$&+$+%@D l+w.{ D B@,+o+I@$@l+n+8@D l+> ! Z.- ) (.D$a'/%u.|.,#} l A {.q@k#V~y/T=9@W#)&I+k#0@j#9@I+r&9@D o.D u ' n _.+@G-w-6&K@Z@[+t#x#f@l)l)a{p#/,e@2$g$++)@x#x#g$@+o%J%)=/#/#o.o.a#{ - : 5$5$N*O=r*0.u { v.1.:+_+}+R.u.(.Q&l 3#!+,+H q'5)g $.K+),}.1 3 Z r w l.q o S a#_$B+U*J#B+_$p+p+9.w.D %@i$o.8.T q [ G+'$P , 1 Z l A n &.1 o D { 6$i#y.l+C o.%@'+'+l 3#j.h%5$Y@",
"2 *.5 U.l &.0 !.E+).W;i*V*]#W*$-E+E+E+ .` +.2@T.|#f ..1#f ..,.,.|#1#i k.;.2#o.1 -.2 +#0 e%+&!>$-|#2.1@_@| z l ; *.1.z 6 A [ z &.B@R=I@p+G+v ]$m.T s n!F+^&T&U+T+(#m.1@S @.c =*[%g%.& &,.,.j c a +@b j #.%.b 8 !,,*|#i )+*@*@ .c 8 a c h 9 .@0 k.j  .@.c @.@.7 a @*.&.&g%^#.&V*g%V*[%g%V-$- &.&$-&{!~^{e{^{o=o=!~^{L~@&@&|%&&|%g{N&7%+*^# .7 c 7 A l A 1 q q r ^$3$D@D.7-V$6 5 *.n *.k )#..k.j '.1#j h 0 a a b @.A < | A n 1 | S z > [ /.< | 2.; &.2 ; 1 A -.@@;.e#1@k 2 w x Q+w q R S B a$5%Z%z$9.n n C B+C n+l+D I@%'' $@9#p+O Q&n o.i$a#9.y$i%6% %m B m m 2 4 ^&T&n q o t [ ].I@' u+1$t+[+t#Z@#+&+6=W/$+%+6=W/i#T=i+b@j%j%Y$i#s ~.1 | &.5 o.] C@o.A@h@H%!&E%c=x&x&f=l$)@x#J@J@u@)@1$g@u+.+6=l%v.n { %@0#9.B@' ' { u D B@>+{ v.! (.!+- ) ] > ,++~!+, = | | n z,r@T;m#T;^;j#j% %x;J%K%i%Y$J%~%I+l+I@:+_+> > &@|+J*C;!*H*f$z@y#g$Z@u@A@f@n#t+.+h@e@A@u@x#2$l$)@.+1*i+v.B+o.n w.C : ,+_.h%o@N**@w#a.D O ' I@1.' ( '+{ ! n Z./%Q&Z.+#p=@#N*W$g 2.2.| 2 T l.n l.w ~.B@v.$@D@j$s@$@$@$@C %@w.a#o.8.C x o '$(+F+^.n 6 -.1 2.n 5 @@&.q l+b@I+x.p+B+_$$@B+'+'+a.h#h%Y@/ ",
"o.1@1@o.S 2.@.#.`%D*E+%.g%N&i*V-8 @. @i ` f i `+|#,.`%2@#.j i 1#S.[*1# .1 2 6 -.1@2 ,.T.7 >.[%k.5 y B q Q+n.R Q+B Q+{$y p '$v D $@_$0#0#o.;&]$x S y {.s X V& |:#@@m._@o.#.7  .i f ,.j @. .S A 2 a 9 b @.f i B*+.@.[=I g k.8 k.$.n 1 | 1 8 8 7 %.%.#.7 h c k. .k.V*.&.&V*^#[%g%p&V*N&V*V-.&.&g%p&O^@:x|n2n2x|%(o2M~O~;(p2;( {p2^{0;+)]#p&-*p&j @.n l w n S w X#Y&R B q n n A *.A f %.#. .%=[%.&$-8 b >..@0 7 c #.A A 2 z > ; > 1 ]+} /.4 * 4 l 2.; 2.U.*.n A *.5 S Z S o G C S o.P+y ~.t H+Z%F$,%n+w.w.p+w.9.B@O n+O 8@9._$$@w.$@0.~ q@w.x.6$ %$>`$Y%Y%X#t s 4 < n w w q v G+>+R=)*_+)*I@f@f@h@8=y=J%{{)=M&x;6%~%)&6%d;i%K%d;)&M&n.)#A o Q&k+/ ^@J#s@1$1$%+/-G%e@J.t>B&d.d.F.F.c.t+u+w@u&r$/-u&^>n+$@' D o.q@B@9.' l+8@' o+o+O 1.!*c.C&d#f=F.G#G#'+'+z &.4 z /.n.x H+I+6%Z%b$.=I+Z$X#X#H+:%Y%F$:%w.B+- Q&) { :.|+o@7 i-v>;)v>2$o#u n 9.v.w.B@1.)*p+n+O n+%@c$8.n { D v.)*+~*$}+~ n@o@O=6#S'8%}-+@_ v.0.Z.Q&> / ( ! m+(.!+}+1._ !+j*1+`^e;m+! -.2 2 *.P+@@Q+Q+o.T l.n r :@r P+P+S q x S T B r S l.[ E.o-(+[ ~.2 A < 4 * | l l 5 n n+~%v.v.n B@o+B@~ _ u.: > > ' : ",
"1@o.Z A &.2 ` ,.'. @` #.=*[% &N&!.@.2@2@f #.c ,.1#k.e e ` @.k.i V-.& .%.2 *.-.@@7-F_*)..'.d [%0 /.{.w t Q+]$n./#R S o.:@n B P+C 9#j$9=r@L$u*{$y x x r o }#q2T+s%x x -.6 ,.1#f ` 1#1#h .@> n 2 2.E+,.f 0 2@E*|#W.I !.h 1# @k.c L+- /.> &.7 b h #.i %.c a h c @.@..&g%^#.&N&[%^#^# &<%-- &^#N&^#g{O^%(%(r2s2n2n2O~t2n}M~p2;(u2 {u2a;h&#*+*h*W*D*+.U.U.C C {.w X#`${.{.P+/#5 *.o.;.'...i j  &.&V*V*k.i f c a 0 >.$.2 l Z 2 1 /.|.} = , [ > /.&.|@U.S n l *.A A n 5 *.&.2.S ~.m w :@o.Q+B s H+_%_%,%B@D v.{ u l+l+D v.B@l+{ _$n+C q@! ( q@$@y$6$Z%Y%s=6% %Z%m {.1 4 D ~.o [ 1.(+o+' u l+l+' y#x#I%==~]g*`~K%b@M&)=y= %G*6%1*x;K%6%R$D@)#U.n ! ! B+s@n+8@e@u@(-h+o%g$J.^=N.x&c.J.J.L#o#7$ !w&/-o%G%o%u o+n+_$C B+n n C %@l+{ %@O l+9.C&C&N.!=e._-0=V%/ ) S ;..#}.3 {.G+W#.%E)0@5%,%F$,%F$5%z$Y%E I+a$$@n ! ! C@l i.w#|+H I-6&!*c.Z@g@%@R$0#8.n n+u v.B@w.v.B@v.s@8.$@w.l+B@1.$$E$k+,+*@j*j*[.p,}-}-w#) w.'+_ > ;.p@) 1.j+R.1.!+- ' D$1+H *@&@u._ 2.5 5 o.@@m.R o.r C Q+Q+{$m.]${$x q D q m r m y S [ ;#/+n!^.Q v [ z z 4 /.> &.2.5 Z $@K%n $@n D ' v._ m+u.' Z.j+#$D$",
"k Z 2.*.c b  .+.2@T.+.#.8 a i ` 8 1#F*+.f +@@.|##.$...d c  . @j N&]#9 k.E+|#C+6 _@v27-2.1#d (>$.3 6 U.2 S S &., ]+'#1 _@6 k 0%C+_=>@7.n t 1.-#G+o D w ~.}#T&T+R+U.5 k D@`+ .f k.#.9 9 #.l 1 ~.T 2 *.; _@@@} } n 3 | *.2 ; n 1 - [ z &./.Z S $.h j 7 9 9 @*]#]#]#W*]##*[%V*g%[%.&[%=*p&p&[%[%[%o=!~m}z}m}-};(w2x2n}o2p2y2z2y2p2;(+)c)]#h*@*.&`+q*V$6 P+S q l.`$F x _#L$m.o.-.|@;.F*|*T.i ^#[%p&g%(=R*y+Y*O*l@O& #D#X z ;$f!I$A+]-* 1 *.*.*.l l A A &.n n o | A &.o z o 1 q G l.r P+C ~.t G$.%W#,%u O u O 9.' n+9.n 9.v.w.n 9.9.D w.q@$@p+Y$)&X#z$7!s=F ,%u s v s B S n [ t [ ,+8@D D _+o+w.C o.,@A29#v.p+$@0#c$8.a#o.q@/#n 9.7._=- E$- : D D l+_${ )&I+6% %Y$z#)@N.S)e-:-d.d.c.M..+@+1$g$z#=+#+(-w.%@v.$@i$_$n+C 0#_$9.q@/#p+D _$]@{*F.d#5>2|B{M.!+1.[ &.-#* 5 @@~.Z%b$n&G$X#H+X#s=)>)>s&x%6%W&Y&R Q+l 5 j.[.6#9%6#j*r*|-1>!=f@3+l+D G+s G m ~.D ~.t D u q {.o w.u t#i-d-J-i-6#|+*@+@=@:$f%N i=$.1 > > &.B+`.! /%- (.i-J.@;j-@;L.R.Q&/ ^@a.- > ( ;.e#R r r S <#R+y :@m./#:@B B l.s s G m p t ].-#}.1.G+u ~.G | n &./.} | l 2.2.5 q@q@q@9.B@l+O I@:+:+-#,+Q&R.-#+~",
"&.&.5 6 #.k.E+f f E+f #.a ` b a ,.`+..c c c E+|#+.h %.E+#.#...f #*W*[*i `+B20%| 5 Z [ 2 j d i*c l > } 2 Z - }@}.; 4 3 /.2.> 1 |@q@0#n v.G D ].G+t Q m n L%}=W 7:=.7-D@6 E+` #.` @.c c @.*.S S C < o | 1@5 &.A A *.n 2.2 z n U.l 2.5 | z 2.l +@@.h h b 0 %=@*]##*=*@*]#p&]#]#[% &p&]#%=%=]#=*g%g%g{%(n}o2p2t2;(p2M~;(p2y2y2w2;(#&h&c)%=7%V*V-i '.o.Z B G l.o.K$g*m.@@R _#V$6 U._@2@1#k.h #*#*]#]## w+l@u#~;/=S*l;s*F#$)& 8$E#A+Y#| *.U.5 l l 2.n n 2.&.n z - 1 o ; &.&.| D o G m o Q [ o  %H+{#C'1.u v.v.l+' C C _$8.%@{ u I@D v.o+' l+_$Y$y$ %s&s=K$`$I+s G m D m ~.[ l.:@n ' I@B@v.D _$`;0#n+9._$_+$@9=i$a#0#p+{ l+n D _$C2D28@=$(.m+: D l+B@8@I+r&1*i%J%#,+<B(g._^c>:-J.e.B{!=A@u+g@2$/-G%z#l%{ v.' w.B+0#C l+u v.q@%@n C n c$:,N.{@],{@H*i-H-!+j+{+'#o n - 1.o 5%,%_%z$X#_%F$`$X#G$Z%X&E)6%Z$'$s Z k |-(@w#7 *@e;7@w#S,J-h@$@0);#;#(+-#F+1.}.G [ n B x ~.o $@t#s+j-G,d-d.n@_.6#4#Q$5#f%q=}{X*g | ; > ' k+/%j+=$j+J.x&O.~)S,@;K@Z.0.) : u.] ^ e#1@{.B w w <#X B l.P+@@r q q s T n D t Q v P -#p v q T B ~.o A A > 2 l z > *.2.$@w.n _$p+p+9.l+B@8@Z.n / n a.: ",
"7 @.i ,.` E+%.$..@7 7 a #.h b @.f k.b +@k. .%.` f 9 +@h b 0 c h ]#V*W*=*h ,.|@|@_@*.| o %.`+,.$.2.1.}.1 2 * - &./.|.- } }@} 2 | n C n+B@[ 1.1.F+1.t q D [#Y <#<#|@`+'.,.[%V-=*p&p&=*h 8 ; A m t 5 *.2._@2.o.l 1 S n *.5 A A U.-.P+m.< o ; n 8 c #.7 %=+*#*g%=*@*+*+*%=]#=*g%g%g%g%p&]#p&[%^#^#[%o=!~e{@&1%4%O^e{#&L~&&1%$&1%&&|%+*]#+*%=i i %.,.6 1@1@U.Q+Q+S y |@|@U.k '.f k.2@2@` @.@.a h  .%.l@w+l@# O&u#8!8!*.6 % k $**.2 $%2 l 5 S 2.2.A 2 o 1 > o 1 1 &.A z ; ; z t o q G s t t o X#:%_%w%B@w.p+$@n+{ p+B@{ i$/#s@B+a#0#n O n+D n K%)&G(1:u=g;K$F n q T m n+v.O p+B+w.{ D n _$p+{ _$_$w.I@G+m P+/#B Q+c$a#p+' n+{ c$E2z%;+- m+- 0.B@$@6%1*i%)&Y$~%b@=;B@q@i-i-j-@;!*d#d#c.J.J.n#s+2$A@u@s+_$C p+$@$@n C 9.D { q@_$p+c$a#a#e.{@N.6&P.F2::d--#=$- { 1.-$R.u.r Q+{.C T m t [ ~.o Q s >#;#Q+m $=* l Z 7 ` n@6#1+_.6#r*Q&: ! 0.o+{ O I@8@v.9.D u 8@$@_$9._+O l+s+!@4+F-L#B&L#b.w#_.e;9%h*-*+*` k.z ]+R.1.: _ - d-@;o#3+[{K<+,g@x#g@J@Z@{ _$8.s@/#B n B }#W+Y }#v Q B w u 1.D ~.q r m #@(+u s ~.q m r @@o.m 1 &.&.A A ; 4 4 z > B@v.n+_$0#9#/#C a#_$n+9.n+n+n l+",
"#.f 1#j j ` a g *@$.c %.7 9 k.b !.)+.@7 ,. @E+%.0 !.k.k.@.7 !.a ~>v,7%7%j j 6 6 Z 2.n /.7 %.7 >.[ 1., &.*.4 }@,#1./.n < o Z U.1 > 9.v.' G+1.u v G+t s s V+^&X -.@.@.j ,.W*[%]#W*^#]#9 8 A A ~.v U.e#D.@@A Z 2 1 > | A 6 1@A 1 *.Q+:@* z o o >.+@7 h @*@*p&=*=*]#@*]#p&p&[%W*V*=*]#]#=*[%V*[%p&#*e{g{#&&&4%^{%&^{^{e{4%1%*&2%*&*&-*%=@*p&%.j ` %._@o.6 ;.@@@@x 1 A Z %.j  @f k.E+` k. .%.@.c  .` [~<=Q*Y*O*l@O& #$%G=-.m&2 &.&.m&n n &.1 ; 2 *.l ; < 4 [ A 6 2 Z [ z o z t o G q {.w n l.:%W#I+F n q@p+{ w.n+n+n+$@C C 8.a#%@B+q@I@q@_$$@~%x..>6-_;v=X#Y%:@7-0%L$8.l+u I@)*I@O 9./#8.O 8@8@l+B@p+C l.m T B T %@8.a#p+$@B+s@C l+n > u.' D { x;M&{-y=x;Y$6%x.+!-+R=S,S,j-B&c.c.2+c.C&F.u+u@A@A@2$g@n _$n+9.n w.n _$n 9.q@B+q@O O w.d-d.[)I)G2{_L#J.,+/%{ ;.-#,+Z.> S l.w q ~.T x n C y C q {.P+r B [ 4 2.1@ @c r*Y@q&q&|+r*Q&(.(.u.{ $@u ' n B+_$v.9.w.p+$@' o+I@O >&^-5+#;C&!=d.J.[.w#w#h#=*-*-*` $.;$5/;$D$R.!+u.O.F.y#/,G;H>z*>&u@A@A@u+B@{ q@s@P+l.q n N%U [#<#q D s ^.^.Q l.n s G p /+1.D n n C l.Q+/#o.T &.> 4 l &.z n > 3 z l+9.{ B@q@<&i$C B+q@l+I@o+,+,+>+",
"+@#.i i k.7 7 c a 7 %.E+ .#.*@)+b b 0 +@8 @.c 0 8 #.,.`  .` 8 7 !>x,[%.&S-'._@)#2 ; 3 [ n S 8 9 c +@!.c ` 0 .@k.'.,. @i T.).j ; ( a._ m+> o - z 3 * [ ; X $%*.$* .[%V*=*D-!>=~v,]#g%f 1#Z A 5 _@n.0%7-^.o S T G o ~.q T {.G D T Q+r n T o.l a c b #.i*K,--^#w,Y;W*$-.&g%]#^#V-$-[%[%[%V*N&^#p&%=a  .c b a k.E+k.@.c h 8 0 +@+@+@[.5$(@7 n@ .j. .G@C@l 3#3#`.`.~ @.@.=* .E+i @.9 >.c ` f 1#i j j 8!~;~;~;l@U-m@k*z m&-.G=$*A;m&X A ; z 4 > ; *.5 *.> z [ n 5 > 1 < 4 > | o t s G S {.{.S a$ %`$F w.{ v.w.%@$@u 8@n a#%@w.O u w.n u n Y$~%6$y.x$:'G~1-Z$F c!R]}&}&8.F+-)>+o+8@o+' l+' ,+u B l.t B D G T x m T {.C 8.B+i$_=s@9.u+t+n B+D D 9.x;)=1:h<M_r&y$~%{{/#s@a#i$R$8.~ ~ ~ ( n ] 3#( { n l '+q@%@n %@9.D p+%@s@a#$@D %@D >+x-o+{ W][$p+r@C#t+u+1$8=I%J@)@A@n n 2 &.o 2._@V$U.z |@|@U.k _@_@V$6 | 2 |@|#8 %=+*H;Q$7@7@Q&m+' { - !+Q&_ ! ! ! 1._ Z.u.u.! a.> / ,&5+L@c=,=!@{@f.] ! (@h%1#$.*@8 [=K+H26^~+!+/ p@N.N.#%^-,=m=J=d$y#e@u@g$o.R$i$o.l.B ^&R+^&Y+U T&D l.q P G+v o v (+-#^+F+D ~.G ~.n w S S w l.2 4 > 4 [ > *.A z /.> ( _ Q&{ > 1.8@C $@l+$@$@>+-#-#",
"+@0 j  @k.h @.c #.%.j  .7 b !.$.+@$.)+)+H >.8 a k.E+@.a c j c b Z,I2S.`>J2@.2.U.&.2.n A *.o.+.1#j  .j d ,.!.)+d `%'.2@+.`%'.7 7 (@! _ : 2.l 4 > ,#[ ; 2.D#m&8$~;V*]#f%-*M,x>w,~>p&[%N&` %.Z -.6 r x p n-o /#{.C w q q m ~.D G l.q o l.B 1@2.8 7 9 0 V*S.$-]#b;x>V*N&[%#*%=p&[%[%p&@*%=-*%=%=-*+*%.k.+@8  .1#1#c c c @.@.@.#.k.k.4#i.h%4#n@(@ .Z#( C@~ '+! 0.a. .^#g%[%N&j #.8 $.>.#.f ,.D*q*|# @Y*x+u#O& $v+l@w+E#*.*.m&s*G=s*B=5 2 o > > o ; 2 ; 1 /./.4 4 /.[ [ [ z ; G D o n Q+{.B l.6%6%z$F$B@I@v.w.O O u v.$@q@p+n n p+C p+>+8@K%#,~%x.',c]1-U=$>s=K$s=C C 8@o+v.0#C { n n B@B@C r@;&D@n.R o.C C :@Q+y {.T `;J#D@/#9.v.e@1$o.B+p+$@r&1*D(6_K{Z=Y$;*C(M14-z!9=J#r@R$I#H#I#`.C@H@V%H@^ X.p-l H@i$C 8.0#%@n { _$8.a#n q@_$-+y',+9!-+' D )*s+t+.+r+l$:(c@2$t#[+: &.o z 5 _@-.n n *.*.n A 5 -.1@U.1@k 5 ,.9 @*-*=@R)H _.j+!+{ 0.u.> ! ! > ' n ~ { : ~ > 3#B+! d./&,=n=z*F&F&d.t>! n n@[.9 L+[=W$W.<)T'W$u.u.: > K@t>@-u-L@#%,&/&2$2$x#A@a#8.B+8.l.{.R+U+<#Y+N%U&u {.{.^.(+}.#@(+1.'$u s s [ D G v m B G t ~.n | 3 , - z < < > o { n u.' a.m+-#:+' 8@u %@i$i$B+O ",
"k.h  .i #.h a >.a f @.$.z - &.2 +@)++#!.*@!.+@8  .k.0 h j `+f c Z,K2V-S.|#%.3$k V$Z l l Z *.f a h*h*]#^#[%h*p=+*^#V---^#-- &%=@. .[.7@[.c 7 0 9 9 9 +@@.# x+# w+e%+*b;z>}'x>{>~>@'^#V*c h #.2.n l.m t B m._#w {.o n w G D D D s t [ m m Z | 0 @.7 0 @*V*.&[%~>2-%=-*+*7%-*#*-*h*]#%=+*+*-*@*]#]#k.n z n -.6 5 o &.n A 2.l S Z Z / `.3#] ( l l l [.4#9%+@Y@5$5$4#=*!>p&g%g%-*9 h a @.l -.@@e#;.1@S*x+u#l@U-l@S*y+$%X *.X -.B=D#m&Z n | 1 | 4 - - 4 4 } [ [ * > [ * /.o ; q G q n @@l.o n z$G$W#H+o+_+l+n 9.C 9.w.a#8.C q@B@F+>+u B@B@r&1*y$I+a@A=t,t=s&s&Z$z$o ~.D _$s@D@D@/#c$C i$p+o./#x n Q+y :#S&R+T+Q+x w w r@9=a#{ p+_$Z@g$f.B{)@u@Y$ %',Y' -x$.>!!x%x;_$q@x T l.C x C &.o 2.A %.f ,.` 9 &.^ B+n 8.i$%@n 9.B+{ B@' )*,+o-)*F$r!S/k#9@9@w&z#h+z/m$7+F%P@D%.+0.+@0 h f +...1#!.W$g H *@c #.|#D@_@C+@@i .@N+q'R'm-_._.u.' m+(.K@H*d.M.!*t>d.{@v>K@e.H*e.H*C&c.,&a+M@m$^-#%g@J@' G@o.Q&z-O,g)L22^v'+#+@u.' !+=$;)K@5+.]F-4+8(^-2$g@3+s+0#8.n 9.w S s%U&^&Y X)$%w r S Q u P '$#@B l.m ~.[ v v ].[ q n o s o 1 &.< /.- , , < | 1 > { u._ ( ] O u I@I@I@n+C R$r@%@",
"%.%.`  .c b +@+@c h a .@= o 1 z +#J+[=)+g b 0 )++@.@+@x+$ T/S*x+_{y[g{g=h~T.=.S @@n /.o n -.c g q=f%[%W*g%#*+*g%^#N&.&%=[%N&%=]#j.+@|++@0 0 7 >.a h k.,.x+x+ #1%]#!>z>z>c)K'.&W*g%W*.& .k.` 5 S 1 [ w :@{$n s s ].B w t o D p G+- } 4 > ; *@!.@.h a p&N&.&V*w,2-7%+*+*+*7%+*-*#*+*7%h*+*@*p&p&p&/.1 A -.-.2.2 | ; &.n 2 A A 2.2.o.*.l 5 l S 3#2 n@+@*@b (@%.j.0 %=D-e%+&]##*+@#.j #.S -.l *.U.6 l;# O*x+P*Q*I~(=s*s*X X s*$%&.2 n o > 1 1 [ ]+}@| - } [ /.z o - 4 ; 2 q ~.~.o s n T B t P 1.o S { w.9.$@q@c$n $@j$U*D@r@'@_=D@B+s@9#0#n n q@;*M&0$F B o.y T S C $@9.B+a#( 9.> p+w.n ].'$}.G+[ m S+^&U+S+w r P+S 8./#%@$@n+l+A@<*:,M2 +n#0#)&y$i%i#W#i+K%M&a#$@v.n n 2 w &.z /.[ ; U.1#k.k.$.W$k.N20#o+n+$@%@c$8.l+8@8@_+,+x-O C )>{#(%j#I+b' ! !h+'*m$&%J:k:.[t#3#$.9 c 8  .2@|#L+O,X*$.>.$.+#.@> o A < /.*@L+L+_.j*9%' ' Q&' m+K@c.!=b.d.d.d#F.t>M.B{5=f.C&N.f./&P@M#h+#%s+s+s+] '+' &$~+{+X]U'/%= Z.' ! 9.> O j-J@^-P#.]#;L@!@c=t+^-u@K#c$8.o.B+C {.^&m D#X $%2 l.2.~.t P (+'$o t ].t s q s Q s q ~.o m q o ; S *.; } = o S 2.{ { u.m+'+o.B+O u 8@_+v.p+n+%@c$",
"]#[%[%]#p&[%b L+0 +#+@.@)+0 X*O+/'*@4#_.*@@.w+3%J$@ 3%R/O2P2=!v~Q2P2R2S2`/->y; $ $v+0 8 7@6#+@w#$-$-]#]#p&h*-*W*V-W*[%V*V*#*e%a 4 > 1 o $.h +*]#p&V-^#g%^#N&]#p&{>w,w,w,]#V*f k.d |#d U.l n h *.o | 6 S k U.; &.Z 5 1@o.z o 1 /.b L+)+9 a +*f%%=V*-*V*W*[%[%V*[%{>0;b;P;h&+)P;a;>;_>;~0;a;D-D-%=> w {.S l.w w w q G n m ~.n B G x U+{.W l.V+C ^&| %%; E@| E#- 7 ]#p&-*h*]#[%k.%.i  .U.-.Z Z *.&.w+w+P*R*Q*h~i{y+8$m&$%X B=s*G=X-T o m o G G P v u ].[ t p u ~.q Y V+[#W+A$`'v%J'w;1{W ^&^&m&*.S %@{ { { p+w.n p+n n ;*j%J%g>;*~%++k$B(_-0=Y.H#X%{,G@C+6 > q n S 3#u.+@) X*} c ; = , - | E#8$m&m&/#Q+l.w q C _@|@^ ! ! B+~ ] ~ a.~ `.! ] `.$@w.{ v.l+C p+a#( ( ] %. .c S 1#*.1 &.1@2 W$X*8 ` W*0 B/T],+_$w.n+9._+1.(.!+m+Q&Q&- ' I+J;x.=;x.)=h+]>S:!)|$F-F-#;K=T2<&'+- ~++~D$>$$=X*W$7&U-!~|%|{X*< 1.=$(.,+)*>+,+O { p+' m+Z.n l u.'+`.X.V%}>Y.V%H#^ r@r@) 0.: ) l+%'8@O t#9._$n+I@0)t]t#f$0)v>8.A@u ^,f$h@=+n#=+t+z#/-X@X@n%#+'&x*Q#2<#%,&g$A@Z@H*n ) &.~ %.E+# P*$%l@Y#* 9&z < n A < > | | D D &.| z z | n 2 2 B=*.%%2 m&*.X 2 n@r*n@n@_.: u.Z.1.: l+' n+_$p+n ",
"[%[%=*=*=*p&b 9 $.+#!.+@.@*@g )+w#Z#Z#7 .@E+~;w+m@H$N~V/O2U2V2W2X2Y2Z2`2 3U/Y*  3%v+#.h [.9%r*&@]#-*%=-*-*+*#*$-i*.&^#[%]#@*f%c | ~.2 S 7 8 ]#V-W*^#-*h*[%V-.&W*b;.3c)@'[%@.2.n l -.U.Z S 2 8 a n 2 Z S n ; n ; 2 2.A 2.> 4 /.4 [%M+h*]#]#]#]#[% &]##*+*]#]#[%V-N&[%z>[%0;#*b;-*@'@*0;p&~>@*P;]#2.o s n T n m w m n l.n m B T n R+}#V+N%U&}#<#^&E@m&%%&.2 8$&.8$-*]#]##*@*]#7 h k. .Z 5 2.o > n w+3%u#8!O&l;(=y+$*$*s*8$2 8$8$&.v Q ~.D o D ].q u p 1.s v p ~.q V {%Z'@=b&Q%w]w]t%+3h;T+X $%# E#_$n+w.n $@O v.p+$@' I+i#W#y.^;r&8=g@2+F.h.'=@3#34)P-`+2 - 1 s [ m+*@4$(@H g +@h < - n k $%X s*B=~.B B T B x k 5 ^@G@^ C@a.] ) a.) m+_ B+n > n a.! a.~ ~ n ( B+'+)+]#E+..2@U.Z o.l > [=W$H +#M+I D$)*9.C B+v.,+R=}+] ) 1.> o.^ %@x.J;)&W#i+G*m%l%z#-%,=z*z*y&x<h@t+8.{ j+: ] 2.5 #.H v+R*%&f{|{U%H D$j+j+n+o+i#6$)&K%w.{ '+B+l / l 3#H@G@H#r@r@X.H@3#3#!+!+> ' u.1.P u v.q@a#{ B@F+-+f$r#<+o#h@)@9,q/q/w@h+h+p%~&~&6=&+/-6;{&-%/-M#p$m_L(B:z&1$r+6&b.a.n Z#Y@k.|#h~<=w+  9&Y+< n 1 2.z o | z v q *.n 1 1 2 A 2 ; $%D#]-%%$%A;6 X w#n@6#h#h%6#m+!+_ '+n+{ %@a#$@l+",
".&p&-*#*#*+*0 7 b 8 8 a >.)+!.+@r*[.c 0 +@` u#b, $+ $3.(%3`_&3*3V2`_=3-3;3>38!U-# l@h +@0 9 w#n@+&q=+&7%h*+*]#V-V-.&N&W*[%#*+&8 | n l U.i %.W*.&-*7%7%+*W*.& .-*+)0;c)c).&#.; &.1 2 A l -.Z 7 h A 1 o 5 /.* ; &./.1 1 2.2.o , 4 -*]#=*%=%=p&@*@*=*@*+*f%p&=*p&.&<%`+K,'..&%.[%c @*a #*+@=*0 %=c n ~.o q n n m q G w n G m w w n s%R+<#W+Y+[#^&R+&.A;D#*.*.8$Y+9&f%+*@*%=!.+@8 +@k. .2.*.A [ * 1 b,b,b, $l@x+-.% ,3o{-.%%%%D#Y#$)}@[ 1 2 2 o 4 n < = [ 1 &.> | 1.& Y#Y#Y+}#V+l't%1{u;h;s%W+[#F#9$9.v.D _$9.O ' $@B+n+y.9@W#I+j#K%s+q+3+f@Y.M'L=i p-4$; > &.o p (+m+_ B+: | 1@o 4 &.2 2.Z m&A;s*-.w x S x x T 5 -.H@^ / n { ! a.( H@l ( ~ ] n n ( 0.l a.'+n '+( C@c d T.E+2.| 1 q C o - /.L+X**@)+`._$B+~ ! ! u.!+0.) u.!+Y@T...! 1.T;^;X$=;T=u@t+h@@+s+g$_*+,q$s#3+v.' m+0.0.- 4 .@O+k*w+v+U%d)k*9%Z.- u.' l+6$k#9@Y$B+_$) ( / / ^ H@G#^ o.~ ~ C@G#C@_ m+a.) a.) (+v D v.p+D ,+1.>+1.g@Z@y#s+[+o#O{O{F,P&X@=+o%{&~&6==+v@'*w@F,9,H>5+>&A*g.]*B&t>u.u.7 h.).+.f E+ #x+m@'39&Y+2 o.l &.|.} ~.o Q t $@w.w._$8.s@x C o.o.S {.{.{.l*$*n@(@6#4#j.5$> > ] ) { p+a#p+D n+",
"^#%=+&h*+&f%!.7 a #.#.c a b b >.7@+@b 8 k.%.~;l@@  $)3!3>(H}~3X2]~*3{3=3]3!3Y*u#O&w+>.!.$.+@7@7@h*h*f%+*%=+*p&^#N&$-V-N&[%M+g%` o x |@o.i #.^##*h*h*-*#*]#@*8 $.P;~>w,i*d f &.A &.A 2.5 ;.|@ .c *.5 l l < ; Z | S @@;._@k l > 2 h*=*#*N++&%=7%+&f%+&e%i=+*@*#*[%d _@D*D@E+A 7 1 @.&.a | c 1 h *.o w T n m n G t o w q o m n q m V+W [#^&V+r%s%Y 8$*.Y#z F#Y#Y+]-%=+*+*+&g 0  . .k.#.1 A Z 2.2 2 v+S*<=8!x+U-v#E#$%*.%%v#* z Y+]-4 A 2.*.2 4 4 o < = 4 o &.2.z o &.s*&.Y#[#W E=D=u%2{S+R+A$@=, * ' o+)*{ { v.' v.8._$r&y$~%Y$M&K%g$g$h$c@}>H@Y@:.h%^@; n ~.'$G+^.8@u !+;+A )#&.l A 2.1 2 *.X 2 D#r ]$n.:@R o.2.o !++~(.'+G@;.~'~'^ l 3#H@~ u.0.~ a.( ] a.3#a.`.D@....E+; < v (+F+[ G+< n 7 7 c > _ u 1.}+!+' Q&,+: Z._ ) 7@_.9%(.F+=;^;(%6$0@x#g$A@x#7$/,@-b-[{k)B'[$' m+}+k+'#= N*[=R^. E] =4%O*' (.- 0.n O W#T=T;I+%@' ) 0.a.~ a.C@G@G@~ / B+B+C@3#' : > '+) m+q m D o+1._+)*B@w.n u@c@t+[+o#Z@6;h+z#!&r$/-o%(-%+z#]&k%6=G%r$p%|$F&m=K=y^2+M.( ^ o.B,l&i ` h J+ =R&  J$E@A;;.U.|@2.3 < ~.q q m _$%@q@B+B+q@n ~.B x S C m o w l.A j.h.h#6#w#_ - > a.9.D n+9.9.p+",
"%=-*+*+*7%+&>.9 a h a !.9 a 7 @. . .9 b #.7 +@#.w+O*`_-3>(k~^3/3V/`_(3^3_3=!w+# ` ` c h 9 8 4#Y@%=]#h*-*[%p&p&[%V*W*^#[%V*+*V-E+z 2 *.*.%.7 [%#*]#]##*#*!.9 8 h !>!>V*<% @E+*.A l.S x P+D@@@*.| S l l 4 z A 2 z A -.Z A > o | A 7%+&f%7%#*#*%=+*%=f%e%f%@*]#-*b 2.S 6 Q+&.s z v 2 o z ~./.Q < s m l.l.n q G t p D w q o m n q m Y T&X :#:3:3)#$*k A;*.D#Y#%%E@B=@*-*0 +@9 7 k.h 0 +@/.1 l 6 ;.l c %.f j  .c n 2./.* , 3 /.; T {.n l z 4 > 4 n 2 A &.; U.D@7-&.A c 8 | o m o z$`$,%:%E ;*F$.%1.s : 0._ '+9.%@9.w.q@9.p+B+x;x;r&x.;*C(X'F:D@n _ : > ~ 1 D G+(+_%~#*;*;o+i+P+/#S n.y ~.< *.&.Y#Y#m&P+(#P+P+{$Q+| /.a'K)}+] H#Y.2#H@~ n u.'+n _ ] C@3#0.a.n n / H@H@V$6 l n , G+!#b$.=n*].~.*.-.l z m+j+~+-#e;1+H e;q&9%Y@i.4#q&<.*@-$v.D@>@_=q@^@m+d-i-K@v>K@H-H-K@I#'+(._ ;.k .#-#+#L++#s!M!b,w+3%j+(.m+Q&o.O b'0@T;i#' ;+B+n '+a.{ / H@G#] a.> ' ! ' : 0.> '+Z.: u ^._+1.o+O n+{ p+%@u+Z@f$f$J@s+h$l$8=C#g$h@e@A@2$x#B(B(@+A@@%I%],C:c-C&^=C;C;j...d f @.c @.L~U%3%]%A+2 l 1@o.Z U.2 t m { n+n w.x#A@@+.+t+l+I@o+v.w.{ w.{ Q v u &.S @@A ]+3 > 1 z 2.w t t G m m ",
"e%-*p&p&]##*9 .@a 0 !.)+)+*@!. .Z#(@0 a  .+@9 @.<=->R/.(<3k~m~[3P/R/$3}3_3w~3%~;%.c h 0 h c h%j.#*]#]##*N&N&]#V*g%]#=*[%=*V*V*j 7 -.o.&..@+#h*7%#*#*7%%=+@8 0 @.p&b;V*.&E+l S n D n S P+=._@*.| U.1 A [ Z U.*.6 &.A n > , /.| 1 @*[%@*#*]#@*[%$-.&e%e%-*=*%=+&>.z s G G Q [ t t ~.v Q G [ t s s m T T ~.t t t [ s G ~.s o q G ~.V+V&V&R+s|l*8$8$9$9&&.A;8$m&E## @.p&c c 7 c b .@g $.* [ [ o S 4 c #.#.j d f o - ; [ 1.- n 5 r {.z | 3 3 z | 2 &.| &.1 | U._@;.2 k.#.@.n &.o Z%Z%G$,%H+X#G$F$[ t ! ~ ( ~ $@_$_$_$B+R$j$D@i%~%=;K% /v[6.r@q@9.> Z.{ n G ^.1.w%{#`$Y$b@x.y$I+Z%G G S n > 1 & 9&A+B={.m p m Q+t 1./.0.3#H@^ o.;.~ }+> l n / ~ ! l ] ] / `.l : B+B+l *.z * G+P ~.b$X&W&w%v o *.U.| 3 Z.0.a.) &@4#4#q&7 9%+@ . .5$f-*@Z.9.C 0#9#B+{ k+b.!=],T,C&v>M.G#0=3#k+(.n ;.1 |.X*N*+@+@+ + |3|^- u.Q&j+O o+.!j]W#6${ O n ) '+{ '+~ C@`.^@n > > ' ) 3#l ^ ] : 0.D G w.p+%@$@w.l+{ 8@Z@o#s#p#g@h$+%+%8=k$g$x#h@g$1$g$l$g$1$A@l$2$d#5=e.6&S)])Z#Z#f |#@.$.+@9 e{O*l;E#%%8$; > > 1 z | o w D v.D u o#t#Z@e@s+g@O O w._$$@n n+O t Q 2 *.S 6 -.l S 2.2.Z B G q G t Q ",
"+&%=p&]##*%=0 9 +@b >.!.+@*@.@+@/.- 4 4 &.- &.1 C=r%A;-.$%D#m&m&x+O&m@3%~;b,b,l@7 a c  . @i %.a +*]#[%p&g%g%#*[%@*#*=*]#M+@*=*,.@.A 7 0 !.b +*+*%=-*+&7%h b o #.]#]#[%p&k.A *.n G l.T r @@P+*.n &.; 5 - 5 ;.U.6 6 Z A n z | o z ^#[*[%e%+*]#V-X;W*+&f%M+f%f%e%+@- , } * 3 /.; &./.- /.| | | | &.n l Z 2 1 1 ; ; ; &.n &.; 2 2.&.R+:3s|:#k % Y+F#z Y+*.$*8!8!O* #%.%.a $.$.!.!.!.!.c 9 !.)++#+@*@a  .A ; ; < 1.- < 4 t v D m B B [ o < 4 ; 1 < , '#/.*.o > | _@-. .f h z [ D F$,%I+I+V=W-W#F$F$s [ < > < < < o ~.D S t-u*|'M$n.l!g2h<d;~%B@$@q@p+l+n 9.l+I+y$6%132333W=',@/&-I+F$t r S n E#z A+D#/#y q m {.w ; &.< 2.~ n ! ^ 3#] n l 0.{ ( ) > ) `.r@3#l C@H#`.) O 8@$@n+w.Y$W#V~(%9@)&y$n w._+1.l 4#w#*@h#L=h#4#:$#)m-S'Q$g-<-5$: { a.( p@}>H#>'i 4$])Z)L=n@q&O=> }.>$]+}@> o 4 I N*J+s!@#>.h)W$0.j+j+1.F+w!X$*;9@6$_$a#{ : > _ ) n ] ) ! !+Q&u.n B+( C@( k+Q&!+/.o 0.a.~ ] B+/ =$~+d-v>t>L#c.N.@+ +++g$2$1$.+h$c@2$t#h@x# +D<E<2#P-7@9%Z# .j*.@e%i*=*+&1%4%O^b,#.; [ | o - /.3 u S C %@n+D D { 6;d'R#C%/-o%/-r$/-l%z#{&6$y.i+{ ; 2.A l 2 < | l S P+x o t s ].P ",
"-*%=-*7%e%+&0 h 7 k.H H !.0  .c | o ; n o ; ;.U.X 8$]-E@A+& %%$%~;b,8&O* $v+ ## h @.k.f k.7 .@+#+&p&[%[%#*h*#*#*]#7%h*7%h*]#p&%=a 3 g @.j f #*=*+*]#]#]#E+7 | 2.@*[%]#a &.l w B P+P+x C {.C n n l -.D@2.k _@5 l k l o &.A 5 5 E+@.V*%=%=[%W*--[*%=@*[%+*7%+*]##.0 /.[ /.4 A 6 |@2.*.Z Z |@Z S U.-.2 2 6 ;.5 A l -.U.6 o.5 6 k U.^&O[r^<;m&s*6 )#$*k $*H=y+(=i{/=|#D*'.,.1#i f 1# .d k.#.@.0 #.#.b 8 > - }.R., [ &.*.B D v D o v ]+[ < > A *.| /.1.; 4 4 * = 1.U.@*+&8 h 1 q C a$:% %*-v=:%w%G$Y%/.3 } } > z G q D u n @@];R M$j~J%.>j#I+$@u { B@>+u B@a#M&J%i^u=h'4353Y[o&=-I+ %T :@1@-.m&m&D#X q-t-x D o q 5 1@6 n a.~ 0._ a.~ - - { ) { B+C@> a.`.l l C@H@C@> -+$(o+B@r&x.i+i% %i%)&*;o+o+I@o.7;O=7 7 9%4#w#/@5@63<-X~y-Q$:$5$r*- _ _ 3#`.R.#$N*7;p-7 Z#7@1+o@H ,$.#, ,#|.3..#X*X*N*O,H2h k.L+k+k+Z.m+%'x-T=(%T=*;o+w.B+n - ' m+{ '+: -$R.- ! ) a.u.1.*$D$_ - o z _ ( C@C@C@{ }+j+!*!=]@c.!=!*t@)@x#u@@+k$h$g$+%<*l$t@+%++J@7{H k-O,/'A'P]),##p=@*i=+&g{1%@&@ , , o &.| 1 o z o y w.O $@_${ { Q@Q#M@7=%+]&$+l%/-{&w&w&x.I+K%K%B n 2 ; &.2 &.*.r Q+B D ].#@#@u ",
"[%+*@*-*e%]#a  . .0 g $.>.k.j ` *.A > 1 < z 2 ; > > & v#Y#$%-.-.l;8!l;O*# u#k.#.%.c 0 !.+@8 8 0 #*]#V*]#V*V-(>.&+*f%7%+*V*.&e%f%g a !.h [%%=@*+*-*7%-*[%E+0 n n -*=*#.8 | 2.B G s&s&F s&B T x *.*.j E+,.+.E+` ..+.%.k.j `  .%.%.7 h h  .|#F*2@,.|#d ` i E+`  .d j i T.2@|#d d q*|#S-2,E*|#'...f o.S S o.5 2.*.U.o.1@k |@S _@1@@@k 4.3$Z 2.C+V$;.U.k ,.`+,.|#2@E+B*F*1#j +. @c a 7  .c 8 0 0 a j | o > > ; 4 > 3 m S l.D s [ 1.1.[ 4 3 R.,#4 U.&.| k z /./.3 4 2.p&[%a k.e#{.B Z$(%,%_;G~X#Z%{#W&3 .#, z 1 4 > < Q [ ^.t ~.t ~.I+T=0,6$j#:+)*v.v.u { q@8.;*{{Y=z.m;73V}:',;U=`$`$G [ Z S X-G=m&X {.^.#@v ].D &.n S 5 o.l ~ ) ) { u.) ~ l > o./ !+u.B+r@~ 3#l I#3#-#9!>+{ ~%i#>%a@.>0,0@*;l+' O I@&@o@7@+@:.o@H 6#L-:$:$=@:$g-K;4#9%Q&}+: !+Z.]/O,j*r*Y@Z#(@B,<(j*N*I +#X*T'H2W.@#-#$='#,#< 1 [ = }+(.}+Z.1.u W#i+y.b'1.O a.> ) ~ u.u.0.!+m+: !+~ n 0.(.j+m+: _ a.Z ; 3#C@n > u.{ !+! {@H*c.f=x&f=_$v.O %@s@^$7.i$s@w.n C ' -+9!+~e;Q=6]R'V.}{f%p&#..@g !.9 +@+@>.= [ 1 o } * Q u B@u ' B@B@{ n+l+C%Q@P@P@E%d%=+h+X@s>w@z#=+z##+r&~.o Q (+p ^.].t S l.w o P '$t l.",
"=*=*[%f%e%]#k.f #.c c 7 j j ` k.| > - z [ < o /.| * , F@v#E#D#8$ #l@# u#l@U-+@a a +@>.!.0 a 7 h 7%V*S.i*^#[*$-N f%#*V*]#^#$-+*e%*@c 0 b @*-*@*f%+*+*-*#.j b A 2 #.[%#.a ; B l.G z$a$F s&C o.R x i i @.` '.,.j D*`+%.j |# @k.#.` ` k.j ..`+|#+.+.d #.h f k.k.f `+#.%.d ..E+@. .+.B*`%B*F*'.'.+. @o.U.1@1@l 2.U.o.U.;.k n 1 _@_@;.l 6 |@6 |@=.o.S Z S  .j j j k.` k.8 +@!.*@!.8 9 9 0 +@+@8 h #.j A < ; A ; z z &.Q+S T T ~.1.P D > < = R.1.*.;.Z A )#l 1 ; | Z 0 a h 0 1 ; B `$K$Z%X#u=G~_%I+,%P - } [ 1 4 z > z t D t v [ G+G+P x.',i#i+B@8.8.n _$8.8.8.#,y={{E[h<6_{'{'g;g;K$K$C B -.e#$*6 &.%%t [ s v ].D < z 2.|@G@C@{ a.( 3#~ ( ! ^ H@^@n > n o.C@^ 0.Z.(.(.>+' q@_$i% % -.>G[Q)+!9@w.w.l+_ ,+/!|+j*/!9%_.1+5]@)5#L;L;B!=&6#7@j+~+j+(./%+]1+O,/'P]v'/!i K;;^N*J+N*O+[=K+<)v'*#-#R.3 | n < ]+1.(.}+Z.I@O W#y.j#*;o+u > ) n n ) m+- : ) `.3#) n n > > u.- n / Z 2.l ) !+- 0.: ) ~ C&L#B&H*e.H*9.B@_$D@R$q@9.$@{ w!1.p+u R=u : _.H;S'p,+&q=f%]##.)++#>.0 8 a b < 1 z } /.1 G ~.B@' l+B@O B@n+D P@7+Q#M@Q#C%h+6;s$s>'*P&p%(-{&6$I@s q ~.].G+[ D l.n q s Q G S B+",
"N+p&.&f%+&[%h 8 0 c k.#.E+@.8 0 .@$.>.@.7 #.#.b b $.X*X**@g +#*@+&+*%=#*7%M+f%+*-*+*7%+*-*#*%=%=[%g%]#.&g%^#%=-*@*g%.&%=e%+*]#i*a 0 >.#.]#N+e%f%+*%=h #.j *.Z *.%.@.a h 2.T w :%`$ %Z$F 6%s&S T E+ .` i i  @..1#a 8 #.1#f  . . .%. .1#1#c h ` i +@+@b @.b h 8 9 f%g%.&[%+*+*p&[%p&h*h*#*[%]#p& .A S A &.A &.; Z U.S ; > A )#_@l | *.U.5 A z - -.%.7 #.c @.9 *@k.o * [ [ ]+* a b a b 7 @.c h %=>.3 1 5 5 2 o q D@@@q t C x q ~.l.A h h b k.`+|#`  .,.'.E+7 !.0 *@#.c c n 1 D {#Z$s&Y%z$:%.%_%Q #@,#]+> Z A &.> 4 1./.G o o m m m ,%`$q o.P+{$;.B+] n $@B+o.6% %1*)=x;)=)= % %Q+:@o.o.Z k 2 2 &.E@l.G s T o ~.*.1 ^ ^@^@^@( ] / ^@/ / u.B+^ l ~ ^ ^ ;.^ 3#Q&+~E$D$a.C@'@R$~%9@6$j#i+y.x;x%%@v.u.: Q&' ' =$|+&@w#Y@Z#[.w#7@1+O,83q)N*=$E$R.: !+: ) o@k-O+g #.` H I!I!Y^.$U^v'z-s!h), 4 2 &._ ' m+1.} [ > < Q [ I+H+,%F$u Q z &.n 2 > a.^ G@G#G@l =$k+0.{ '+! ( r@( S 1 u.Q&/%}+{ { n ^ f=H*J.M.d.C&B@$@9.C 8.9.o+B@9.B@B@w.$@w.B@Z.7@i>n@6#+@+@4# .6#&@+@w#n / / '+&.| } - m s 8@w.B@' l+B@i#x.)&y$.]u-#;#%n#[+g@t+g@Z@Z@g@B@D B@I@=;W#)& %o+8@O D n+D n+w.n o.I#G@",
"h*+&p&%=+*p&*@h 0 @.@.k.7 b >.9 +#*@0  .7 c h 0 9 g )+>..@.@>.$.7%-*+*e%M+f%+&+&-*+*+*+*+*+*+*7%]#-*+*]#V*p&]#^#W*V*[%f%N +&+*=*b 0 +@h +*f%h*q=f%7%0 8 &.2 A &.c b 0 | ~.o 5%`$Y%I+5%z$5%a$B B A f f #.7 7 h b 7 c j E+k.c @.h >.>.a a !.c j h g c  .` f i 7 9 L+c .&|#N&@.=*0 [%+@#*c g%$.+*c 5 *./.- 5 ;.S 1 Z Z ;.3$)#S 5 /.z 2 2.| | 2 | &.h $.9 0 @.0 b f z 4 /.- [ < !.0 9 9 a 7 0 9 +*$.>.&.} } - /.p ].t p s B n ~.G m n a c 8 a  .a !.!.b ` b !.0 0 )+.@9 Z n t v H+:%z$Y%w%{#X#X#p q ; z | | | [ z | ; n {.B w T m n Y%a$s G n G `.;.'+> a.%@n+u 6$)&b@b@n+b@m n G D w w S *.]-A+2 m&q q s B ].~.U.; _ : n l B+'+/ ^@3#G@~ `.^ G#X.G@] j+$$=$Q&R.u.~ ;.l w.n+I@^;y.x. %i%j%#,C p+B+a.: : #$-#j*k-e!4#h#+@7@9%6#[.Y~|+m+- - m+Z._ a.! 6#Y@ .j ` a .@>.b,R&M!93z-g)),H |.|.* /.u.! a._ } z n 4 v [ z$Z$ %:%v q &.2.A Z X.G@^@o.3#u.Z.> u.B+C@`.^ ;.X.a.} * }+k+D$/%u.> a.l f=!=!*i-c.e.9._$8@,+B@w.O D I@8@v.D o+_+8@m+6#8%h#h#4#:.q&[.Y@&@7@] 3#/ ] n o > * - G t I@n+$@D D D 9@9@9@s$s#s/P#4+Z@y#Z@A@g@2$u+n#B@{ l+u 9@9@6$i+u B@n+$@C n p+C / l `.^ ",
"@*+*#*=*]#[%b 8 0 b h 7 >.>.>.>.0 8 7 c .@$.$.>.8 c a !.9 +@6#7 f#f#+*+&h*-*+*+&7%+*+*+*+*+*+*+*+*#*N&V*.&^#N&]#%=+&+*-*-*+*+*]#+@+@+*%=h*h*+*f%f%+*0 +@o A w ; 0 .@[ | m ~.,%F$u=_;u=W-_%Y&;*S l  .k.#.@.7 @.j k.h k.f k.h @.` h >.!.0 a j k.J++@7 h 7 7 c 0 8 9 A  .1@c &.h < >.- +@| 7 > @.U.&.z A -.n | l o.V$;.7-S^C,2 l l o.2.S 2.n A @.@.b *@)+9 @.h ` #.4 1 4 [ z < $.b  .#.k.c +*#*W*,.h.n : ~ '+~ 8.B+0#9.B@l+' D ~%n+| 8 #.@.k.k.!..@g a )+9 >.*@7 h n { - ' $@D )&)&j#6$o+n+0#C - 0.%.#.7 0 ; | 1 | 2 | n 2 B T G n x S m l.2 | Y@ .&@0.'+a.Z@J@e@h@n+B@! { [ z 4 R.1.< 6 S E@A+%%2 x m T q D q < 4 (.: ( ~ n ) B+^@I#o.a.X.H#3#( ] _ Q&+~(.0.l l n u.- Z.D ' o+I+b@i+)&D w.'+a.B+/ _$D j+-$: ! '+{ - m+! ! 6#4#7@:.H-e@n { { : u.' Z 5 5 n >.)+.@*@%>L~m@J$ =E]O+I }@.#,+Q&u.n n O , - > [ t D  %5%z$X#o B l 6 6 ;.X.^@l - { ' Z.3#a.l 3#B+l ) ' !+- > }+R.Z.! / n 0.: M.K@B&c.C&H*{ ' _ ) ! u.!+}+!+m+: ' Q&' ( o.4#6#9%:.q&1+1.0.M.J.F.F.2+u@h$'@S ~.Q t { B@l+n+v.B@)&b@X@w&X@w&o#q+r+J@s+J@I@u n+B+%@D w.p+9.w.z#{&P&h+=+z#@+l$g$x#u@@+x&x&d#e.",
"7%]#]##*]#[%i L+>..@b 0 >.*@9 $.j k.k.h *@9 b #.E+j  .8 .@0 5$n@g-L-+*#*]#@*+*+&%=#*#*-*+*7%+*+*#*V*$-W*[%]#+*h*N+-*=*%=h*]#[%#*$.8 #*h*+&#*@*e%-*@*7 a 1 l l.w 9 .@/.| n ~.Z%,%';=-_;W-,%;*$>R Z c k.E+f f f  .>..@+@7 @.f |#T. .0 !.9 0 @.#.9 k.#.7 b $.8 b 9 4 r e#n.o D | s | D 4 Q > q 2.*.l z o ; , |.; e#D.3$a=033$1 2 5 @@1@Z 2 _@3$+.d 8 0 0 a +@>.c 8 > ; &.| z > h ` T.j b 8 p&V*V*c [.' > '+a.o.0#%@p+w.w.n %@B+M&8.2 7 @.k.` h +#W$T'H [=+@0 *@0 i { 0.,+>+I@$@K%i#j#1*p+B@v.D { C@,. @#.8 | *.2 &.A o > ; w n G n l.x r {.< 1 w#w#4#n@: !+t>g@g@Z@n u.Q&: ; &.1 o 1.&.k 6 m&E#Y#E@w v Q+m s ^.o l ] / / B+n ~ / o.;.I#3#o.G#n u.!+Q&Z.1.~ 3#^ ( ) !+1.j+) $@$@K%y$~%)&$@w.0.' !+_ D n+u.! a.C@B+! !+u.- 1.j*9%&@> g@J@n+{ ' =$: Z.&.1 S A H W.I H d)1%3%8&7&  X*>.- } Q&Q&- ! $@{ 3 z &.o ~.q Y%5%I+z$w B U.V$)#@@) : a.: ] > - l ] l 3#3#`.'+j+/%,#}.D$k+> ( B+l ) { F.6&M.f=b.M.~ : > '+! m+' ' _ : u.m+- ( ^ ( n@[.q&1+|+j*k+R.C&T,_-d.t+)@ +I%q@p p w %@9.{ B@l+D ~%b@u&s$X@P&g@y#[+J@e@e@v.v.$@8.%@l+l+B@' u r${&r$X@o%/-1$)@s+J@g@h@!=T,M=B{",
"-*%=-*]#[%]#@.9 !.!.8 +@8 +@h h #.b a a +@#.#.%.7 h +@7@w#5$5$Y@i>:$Q$f#i>f-7%+&]#]#]#-*7%h*+*#*-* &$-g%%=e%i=f%e%e%7%#*]#V*N&@*b 9 7%%=@*+*h*@*%=%=b 8 z n D G !.0 1 > [ t Y&l!5!R-U=Q-I+H+F$n l  @j  .1#7 H L+9 9 8 b 7 ,.'.+.E+f k.0 .@!.b b 8 h a b !.@.k.; ~.H+{.)>v G$v  %n z$D Z%~.6%C n A U.S n n n | | [ , 4 = , Z 7-D@Z l n 1 k Z $.0 >.8 h c 0 9 #*7 o 1 2 A ; n  .` j f ^#[%[%[%=*#.Z#{ '+l s@{ 1.B@n _$n n+y$I+)&p+; a !.+@h 0 8 @.0 #.` #.%.` 0 7 ~ i$q@9.n+I+i+Y$b@)&n+l+) ^ ..j.k.` 7 c A 2.; 2.&.; > | G q B T {.w S S b  @h#*@_.[.[._ B&t>3+r+: j*:.r*L+*@2 5 n k -.S m&&.E@D#t o r B G n D.k '+{ : ) '+~ ] ( a.~ a.! ) 0.' Q&1.(.R.R.: ! { k+1+:.' `.q@{ { u n+O { 9.! > q&Q&' O D s@o.>+%'' ' _ D$=$_ : ' m+[+t#{ $@p+O D v.} 3 4 3 .#{%z U-|%L~g|$&W~h~*@9 &.1 ' 1.I@B@B@O ; S l &.D w Z$Z$5%`${.C o.;.k Z - 0.'+j+' { ] `.C@^@`.l ~ { Q&+~$'3.: B+] ) ] C@l / H*J.!*b.H*H*'+) a.'+( ) { { _ { : _ ~ n > n 4*L*K~e>M.M.F.f=9(@%++++_*n='&/-)*'$v S 0#o.a#v.8._$~%i+'*^>s$6;y#M.{ ! a.( B+3#l ^ S o < /.[ u p%U@7+7+Q@Q@7='&4+#%L@4+~*{@~=b#",
"7%h*g%--S.W**@b *@>.N+M+e%+*-*g%7 9 a #.k.1#@.a +@g |++@Y@Y@w#7@f-f-:$o,o,+*+*h*%=%=%=&&7%4%p&^#V*.&N&]#f%p=f%g%p&+*h*9 +*h [%b b a 8 +*#*%=7%#*@*%=b 8 !.; < | [ >.> | w Q+D@[!c!I+:%:%H+z$D B 1@,.i  @1#> +#> b /.$.> o n 2.2 k.1#E+7 h  .@.!.7 c 0 a a 7 #*k.q {#Z%0$Z$s=z$_%.%F$_%~.m Q+{.B o.k e#;.Z o > 2 2.| A - [ D@+.V$j Z  @2 > < z 4 #.7 b c #. .h*0 c A l -.6 o.` #.7 @.#*%=p&]#+*+@n *.~ ; ~ q / n ) ( ) m+u B@D w.A %.a b +@+#>.#.h.+.L=#.h >.*@> ) _$_$8@B@I+B@r& %b@9.n+3#G#r@4$` @.k.f U.3 }.[ 1 2.1 z < s A w o p 5 l > *.7 : :.(.d-O.O.[+F-f$J-: ) (.D$[ l l U.=.2.&.*.&.8$2 ~.S :@o.q w 2.; m+0.) : > ) '+_ m+Z.6#! a.H@o.: _ u.Z.)*v.O l+R.Q&: m+n v.O { u v.$@B+C@) { 7 *@: 9.' B@B@,+_+$@' n+' 9.a.8@: u C w.a#8.p+a#D O }.1.o < F#Y#D#z g|1%4%|{H$w+%.k.> S 3#$@{ B@B@9.1@6 &./.].l.T `${.{.o.5 6 Z 2.| ' > : ,+> { l H@^@^@~ ) 1.D$Z.}+, }.a.l 0.! n ! 0.> { 3#d#) H*l { ! `.o.`.'+) 0.] { _ _ ! ] ! |+,{4,[-G-b.x&T,(&_-g$d.t@g.@+A@ +~.D l @@R$B+_$w.i$w.j#*;j#x.(-h+r+K@0.) ( ^ `./ a.~ 2 o < s | n+r$P&M#{&#;t+d$x#/&s+4+2$c.d.{@T,",
"+@c @*.&]##*#*=*@*p&0;')j&-~+)b;e{ $l@u#8!O*3%u#w+7&!.+@* | 1 /.8 +@$.g )+$.9  $O&b,`@w~O&H}<=8!O^I(^{a3i=+&b c +@0 b ; 4#'+w#! ; 4 n h +@0 7%e%-*@*p&@.7 &.n 2 2 &.| 4 | 6 =.m.w o q n G w 6 _@I#n ( 3#( p+n %@2 t > l.T l.q Q * 2 <=w+x+l@ =v+#&#&o=O^|%L~h&r|/.G v {.%]c!F Z$H+,%[ ; z o.` > l.o.P+{$r D , | `+#.c k.1#7 N+a [*T.V- .*.4 1.u o.o.&.-.F*B*b k.i E+j k.k.` f ` h 8 k.@.a $.+@>.; X 2 2 2.X j | 7  .b !.[.w#r*7@&.E@o < - - : > K@a.d#a.: : > *.2.-.2 &.2 m ~ q@$@w.9.q@a#q@n+u.8 H H j c *@H J+o@*@&@6#n@~ n@_ ;#^.B@{ B@l+!*t+i-o#F-u-P#m$N}`(q/h+~&)&l+w.0#B+T R u D X U&B=I$I$&.m&2 m&E@A+F#&.S A *.6 A 4 A 6#+@K-..b3C*`.Z.#@P ;#.%.=0@W#Y%%@9.{ p+O I@! ( l ~ 0.6#4#[.[.9%/ ( n u.$@p+D B@{ y.B@6$>+W#9.0#r@1 A |.4 ; |.}@#@#@s t ~.q w , V.y>N&+*7%W*a ` 2.; w q o {#I+H+D ~.].Q G B C x l 5 o.7 >.7 a I )+.@)+b .@9 9 @.5 l &.1.3.-^3.R., z * < n o n y n ~.q D B@v n+D n+n+n v.B@w._ 0.! ' 9%6#6#+@9%k-d*[-4*4*_.[.h#(@+@^ |-3#7 a.l D@G=E## s*; 4 w.n+u :+(%i#c]V=.>i%D > 0.{ %@o.s@%@O )*1.o+I@I+%@6%9.D t+_$!=/ x&) 2+) F._ L#_ x#_$",
" .#.+*#*M+7%-*]#z>v,x>!>~<:>N;P;}%@ U-O& #w+O*Y*O&l@,.a 3 z } - h 0 .@g .@$.@  $~;O&>:$3>(!3.(2~e{1%d)$&@*-*+@7 h 0 > 1 ) > > '+s p /.n b !.+*%=%=-*+*+*8 h 2 2.A 1 o z > A 5 S n 1 A Z l 5 ;.V$C@/ C@^ w.O { 9.o s D m Y%H+:% %E#&.l@O*P*u#/= ##&L~}%O^C{i&c3r|>.* z <$O:E s&s&a$B U.&.@.c [%0 w 6%m D G+^.- *.a J+%.9 ]#^#g%[*w=K,<%%.Z 2.C m r x *.U.j  .!.j T.d i  @..,.1#,.#.T.q*E+@.j ` 7 E@A;*.%%b, $u#O&+@E+#*+*=@o,6].@+@Y#3 } m+- b.d.M.c.2+F._ > &./.> l @@o.2 S ^@^ o.q@%@_$w.9.n n+@.0 8 +.!.*@!.8 7 w# .h#P-+@:.- [ ^.R=1.o+B@x#g$P#/&d%M#b_p[b_d'/>3&T#2& %~%r&Y$~.G q w x  |&.%%A;s*A;$%X 6 % $*0%;.n > /.* 4 &.n@B!<-n@Y@6#}+,+'$E.h/d3m/<}**Y%0#{ I@1.8@I@> l ^ B+6#6#4#4#7 6#u.0.Q&~ n { C v.y.j#I+)=L'x;b@i%R.#(e3f3z S - 2.y x o v #@Q G+R.7%#*+*+*[%k.+@0 } - Q o a$,%{#F$[ G+o G w B A Z 2.4 J++#b 7 >.X*8 +@>.b .@c k. .4 |./.}@$'-#]+/.A S ( 4 ' < { B n+D w.t l+v { O { D n+O l+w.u.Z.] ( *@[.(@&@=@S'J*n,G-2*&@+@[. .(@i.4$ .w#+@` B*61>:U%O&- 1.' o+I@o+i#6$V=W-1-z$l+}+R._ q@' >+{ I@1.>+O i%~%)&Y$n n+! ) ! ! 6#_.7@_.u._ > > { n+",
"7 h h h )+b ]#p&p&.& &[%a;v]D-~>O^b,b,U-`@O&[~~; $ $P*v+l@h~l;w+#&L~*&2%$&f{2%^{D^&>%>_{r2&(-}y2f{2%*&4%7 8 +@h c 0 o n a._ : ! &.; | 2.7 0 ]#-*7%h*$.9 a c n ; 2.| o 1 1 &.2 &.*.A l 5 l A *.S '+`.( / a#w.D w.G G D D :%Z%Z$$<G=F@9&Y# ## Q*[~4/&>^{#&#&}%}%e{9 *.k R(d!y :@:@m.(#D.V$2@ @ &1#n Z$G Q G+Q | l -#4 E+0 +*=*[%i* &V-f k.U.@@=.D@P+r -.-. .#.#.d %.1#2@q*B*'.i #.1#|*D*i k.,.,.d -.k s*%%U%U-` i a 8 h*]#K-g-5#)+X*A+3 4 > u.C&!*F.N.f=x&'+> 4 }@U.n 5 *.1 U.I#X.a#%@%@$@n+B+o.$@+@h 9 %.a a 0 a 8 #.7@N*P]O,e;u.< u 1.u 8@u 3+f@g@x#d%P@F%|&L<7+T#c]T;(%1*j%Y$ %_$$@n u o o D D %%B=-.$%A 1 z o }.;$-#.#(.> n > &@r*7 [.+]%${++~^+:{g3t'b$X#F K$o.n+O I@_$_$a.3#G@^ 4#[.w#w#7 w#' - m+( n n+w.I@l+n+ %Y$i%W#j]T=o ;.| D@6 o > 2.~.;#;#].#@1.[ } 9 @*q'@#X*$.a > < , p q n ~.Q v s u ].[ ; V$)#Z /.R.W$>.+@h h L+0 >..@0 .@k.S ; - R.]+}@= z 4 o ' '+B{'+L#'+b.a.H*'+b.0.M._ c.: }+1.' Z.!+' - u.u.a.l ( 7@7@4#7@J*J*J*4*6#n@5$7 7 [.h#7;.. @+.).6 E#F@v#> - :+R=I@' i+x.y.W#I+I+v.> ' 0.p+D )*I@D B@n+%@i%)&)& %p+p+) ! a.a.w#w#7@*@u.a./ ] $@$@",
"0 b %.c g 8 ]#[%p&[%[%]#-*P;0;]#9 `@b,# b,v+[~P*b,w+l;u#l@Y*<= $#&#&|%L~e{1%&&~~;{C^;{4/x|o2z2h3&&L~@&$&b 7 b 0 7 b n l / { : _ o 1 | ; b 8 ]#%=h*7%9 8 a h 1 o 1 4 z o | n 2.&.l n &.n ; | 1 n ) o.( a.a#n ' ' ~.D t v _%,%;*Y}$*I$F#Y# #O&w+P*q(%>L~L~#&o=I(;{ .` %.V$2.T n S @@n.=.1@f #.=*0 w `$T S Q+P+|@1@;.3$` j .&N&V-i*W* &#.j 5 1@-.C+@@Q+o.-... @f @.0 #.` @.8 0 8 8 7 #.h 7 h c h #.A;s*B=A;Q*y+%.9 g +@]#g%A!L;f#h b D#1 1 > _ d.!=J.2+b.N.`.n [ 2 | 1 U.Z o o 3#V%%@' o+B@n+w.n+l+L++@!.a b H +#7 c #.r*j**@j*+]O,}.].t q B@v.t#f@g@n#7+7+F%d%b%d%T_Y=y$x.W#i+j#T;,+v.l+B@n+t n [ o 8$8$8$Z A o o - > > | l B+'+0._.7@&@j*#${+{+a'x!=#P G S E Q+x p+p+q@8.a#w.> ] ! > :.9%+@w#(@h#] ~ l ) C _$D 9._$J#d;y$)]j]i+i%2 5 o *.> |@_@@@v n!F+G+P -#^., +@>.*@H L++@; z ;$<@F+q w C m w n ^.1.[ | 7-A > = &. .!.+#)+9 0 .@.@.@0 $.9 } R.,#,#,#1.[ < 4 } B&2+H*B&i-c.!=!=c-f=N.c.J.L#J*K@_ Z.Q&Q&m+: ) / H@l !++~N*r*[.7 D;4*m,^=&@Y@Z#w#4#[.(@L=f i d _@&.z F#]-< [ o+R=' ' 9@6$i#W#G$[ 0.> _ u.l+B@u >+8@O w.n+9@I+K%Y$q@C n ) ] n n@h#7 6#) B+C@] 9.n ",
"> ; S n - z 9 0 k.%.`  . .^#=*#*!.a b a b  .i +@8&3%O*x+^~]3V2H}m}-}n}x|C^%>%&*>&>I(%>O^f{@&@&1%O^^{v+ #7 8 0 #.c @.2.l ( a.! > *.1 1 &.h +@+&@*@*@*b 0 z > | ; [ [ /.- /.n *.1 o.l 1 > z < > &./ a.n ] a#c$q@O s u v D G$_%`$x%o * 4 o #.`  .7 #. .f f [%#*]#V*]#@*V*..#.1 < [ 2 ; n |@!..@*@a r B T Q+m.D@)#@@D.|@k.7  . ..&.&]#N&c k.a b /.2.o.n 9 >.k. .W*^#U- $w+v+`@7&R&m@l@3%`@H$J$m@v+v+$%8$&.&.k.j #.a 0 b +@)++@r*L-c 9 ]-> , R.k+j-J.c.c.x&B&/%Q&z 4 .#z 5 U.> /.( B+n+u >+8@w.9.{ $@c E+` c >.+#9 h j b #.@.0 g 9 $.3 o | > O 9.n $@)@h@h@h@Q@M#M@7=k%f>y=J%T;=;b'*;Z@x#h@s+h@w.l$n 2 o 1 n ; n ~ ) : > _ ] o.a.: / { Z.(.,+*$O'&$D$= &.6 U.Z r 5 C 8.s@( I#l { > : 0.> r*[.5$h#4$j.'+B+~ n q@n+%@8.8.B+){9!<1b'W#y.| o } S 6 - }@;$3.,#}.P p 1.'$p R.= /..#-#> 2.A 4 /.4 &.; > |.- v m ; S n *.-#U's]$'W.g +@)+g b +@b +@b 9 H >$*#>$}.-#|.| o t v u@A@e@s+F.2+H*!=C>w-m,C;-<:-,!m,h#Y@w#+@a.`.p@Y.r@n a'E$- m+' Z.> / ] : : ! a.( B+/ S @@; 5 -.-.]-V s m $@l+[+[+g@f@r+y#O 8@1.o+u.' Z.Q&o+I@I@o+O n+D O )&K%1*j%%@C $@D { 0.r*6#(@7 ( o.o.B+a#<&",
"&.n 2 &.&.n 8 0 k.E+,.1#f  .h !.&@w#h @.c c  .k.O& #O*u#)3)3H}2~s2%(%(;}x(q(_{;{!~#&e{1%B^f{2%*&4%#&# u#@.8 a i k.k.2 ; ) a.n n n > > [ *@L+q'N+#*]#7 b > 4 z | < 4 z < 4 A l 1 o.l | 4 z < < | > _ ~ n n o.s@8.l.o ~.~._%F$X#X#[ ]+- | #.%.j 0 8 c  .f .&[%-*+*.& &i*.&]#b E+S A | o.|@>.s!.@l P+S C {.r S l ; 4 A %.h a  .=*[%f%%=#.7 a 0 | > 4 /.!.0 h !.]#p&u#l@ $b, $ ## ~;/=~;8!O* # $O*l@E#%%D#2 h 7 a 7 h 7 #.h _.&@K-+@* v#n z !+!+I-6&c.B&;)J-D$$$'#,#, = - &.o o B+'+8@9.D )*' O 1.1.3 >.J+g !.a b 0 >.+@9 !.I .@a k.&.n ; 4 { $@n+I@1$g@[+r+d'Q#Q@~&y$r&r&b@ %~%~%1*x#s+Z@g@s+3+s+y#0./.> &.1 1 ] ] a.] B+G@I#( _ ) '+(.R.}+(.u.'+_ n &.U.o.6 *.; &.] 8.a.p@/ ) n ! 0.{ r*&@+@&@w#6#~ / r@T%i$$@c$o.{ !{q{:+k#=;V~w!,$.#-#3 * ,${+;$>$}.'$].[ ].'$].< }@'#$'{+}@[ 2 5 2 A 1 z > 1.- } G Z z * , !^#([@D!i3.@ .7 9 !.h c 0 8 h $.|.} o } 3 /.| *.C m 0#g$s+x#N.d.d#f.>>-<C>>>j3k[,!C~h%4$h#h#G#Y.V%a.(._ '+C@( u.0.) 0.> ! ) { _ ) 3#/ ] 2 6 ; S &./.b&Y+s D %@n J@n#J@3+q+f@n#1.>+I@(.- }+=$1.8@o+O ' l+v.{ b@b@b@~%9.n $@n+{ > +@w#5$n@] / %@n q@i$",
"Z S > > 2.2.2.5 Z Z S *.l l ; /.u.> a.a.k.1#i j ~;u#A~A~^3;:k3l3x|}}m3n3o3p3-[;_/[q3P;+)-~j&j&h*&& #v+v+#.` k.#.k.h 0 +@+@6#4#h#> | !.)+e%+&f%h*+*+*8 b | > t v z > ; &.n S Z &.1 | > ; l 2.n *.] ~ n > D n+q l.x S l.G I+:%H+Z%> = &.l A 1 /., }@> @.#.@.h h [%S.x,2-=*%=0 %.f h 8 +@$.* > 1 [ u t C {.5 S 5 n z 2 >.a @.j b #.h @.j k.f k.@.+@h 7 c b e%7%V*]#O&l@ $b, #8!Y*/=8!u#O&w+3%`@b,w+2 1 A 2.l S b 0 ` ` 0 )+h %.a *@Y#z ; z ' ' d-v>[){)K.7{R.-$R.= } .#|.> | z { D 8@D { D D I@1.u m+Z.k+> n m+]+z | z > o ]+- 1 n n z o ; 6 S 9.)*8@u u+s+t#q+/,7$n q B+%@o.D u+2$h@u+^-,=4+S$,=.+~ > m+' > _ ' - / B+d#{@d#H*M.6&R=F+%'u B+C l e#k 2 k.k.@.$.*@2 z 1 [ 6 5 2.n | | 1 4 z 9 9 h a S r T m.^$o.v o ]./+P Q T o.v P , T'K+[=1.}.1.o | = = [ Q ].v o t (+!#!#Q x 2.4 - |.9 9 8 k.b /.3 , 1.= ]+,$;$;$,$n A < &.S n 1 a b /./.n A n 2.A *.m o D D q C a#_$C c$o./ Y@7 i Z#6@6@^_r3{(:$Y@j.(@h#h#w#!+a'#$m+o+>+{ n+I@w.' 1.O p+9.D n a#B ~.o m v Q u 1.w o v.I@f@h@/&s/+,%;'{v>6&d-1.0.: : Z.' n+l+O q@O l+$@q@i%Y$x;K%9.$@%@q@] ] / l ) { _ u.I@)*)*o+",
"2.5 | 1 Z 1 o A S 5 S n | ; A *.( a.`.`. . .h a O&# N~>(2~H}s3t3 {u3p3v3}}u3.*q3L:w3!>h&>;-~P;p&b,l@v+b,h k.k.#.7 9 >.0 6#7@+@5$&.&..@!.+*M+f%+*+*h*.@.@4 > s t [ - o 2.*.S l &.| n A o.V$;.5 U.I#r@^ B+w.{ S {.m S B G z$z$,%W#> > 5 l ; o 1 ; | l k.@.j j c a N&z>Y;+)M+N+>.c ` c 8 >.z z > o ~.x ]$@@S &.; 3 S A a a #.,.%.#.c c b 7 E+@.$..@0 h h $.N+.&S|.&x+O*O*~;x+~;~;x+<=Q*x+~;x+8!# O*A A -.*.1 | +@#.B*2@+.c f ..|#b Y+& 3 ]+j+k+L.7{G,Q.x{~)=$k+}.|.1.]+1.1.[ /.1.' O O ' I@8@)*)*u : _ ! ! > !+| o /.4 [ /., [ > A o.> | 2.D@1@s@%@C { s+g@g@n#<+1.D Q D q@_$n+J@f@.+1$,=|$P#L@O@x#b.- _ a.> 0.! : G@`.b.F.J.6&J-Y)x->+O $@_$n S V$_@l #.9 b b +@8 @.S n o.o.A &.*.S l 1 o 9 !.h n C w w B n Q D t s D G+s S r B 2.+@H H g * ,#= 3 * R.$== s o D s G+#@[ (+#@w S A z - +@g 7 j 0 $.3 } 4 1 z 1 &.1 o *.A o 2 1@1@l h +@* 3 | l l n A 6 G ~.m v G n x q s@P+/ 2.Y@c Y@h K-h*^(~>x3o,L-&@q&9%|++]-#E$=$' _+1.I@_+u O v.O I@l+n+{ w.B+r v [ G x C T ~.Q u 8@8@J@e@#;H>H>$;B&'{d-@;m+a.- 1.Q&_ v.u O 9.w.%@p+w.Y$M&K%i+_$_$0#s@/ ( B+( _ u.- - O l+' 8@",
"4 | | 2 | - * A &.A l o 4 &.; ; '+] l ( 1 n b @.O&l@=!2~M~m}y3z3n}m}A3r2z2B3B^|%&&|%]#p&p&]#@*#*`@3%w+ # .` h  .@.a !.8 4#7@7 4$h 0 7 c p&7%e%M+e%h*$.+@4 * t D > o o z 4 z 1 2 A *.2.&.n Z -.5 `.^ G@G@s@c$R C B {.l.{.E Z$I+`$2.k 1@2 ; | o 1 1 U.o.A 2.2 2.` V-}'x>v]+&]#V---0 E+T.`+_@Z 2.1@l C,!$l < [ n A o &.|@2#2#)#,.k.-.2 < 4 8 L+X*7 ]#7%M+-* &W;--g%8!S*x+P*y+<~->Q*h~R*/=(=t~<~(=h~7 4#i.4#( C@Z.0.e#S > 3 /.2 *.&.D#& 3 z '+u.j-v>v>7{~)@;D$/%,$}@}@,$]+]+R.}@:+I@1.:+>+I@v.{ ' >+(.- > - u.'+u.(.- 4 /.[ z o E@$%1@2 > 2.|@S &.S ^$s@C B@O _+,+>+~.C l.n C p+w.q@+%2$2$u+/&P#^-s+c.'+! / ! 0.^ l G#{ j-j-~)o|[)j-n+n a#w.p+w.*.2 ,.i  .h =*V*g%1#c h #.k.b +@h @.f i | | o 1 U.2 G w B C D 1.^.u } - o Z 1@5 o * +#*@.@L+H *@z > - 3 , , ]+|.- n Y+[#W+[#<#<#8$*.2 %%U-O&O&l@*&8&1./.| 1 1 &.2 A ; &.o &.4 > ; /.= } } [ o o o &.S m B n {.n C r {.T&o U z %%7 # h v+#*1%h&c3D-#*h>+@o@+]`^A-%$D$u.{ { O l+w.{ I@8@v.$@9.{ v.u ^.l.p G o ].l.{$n v [ u O 2+!=,=~@]=4+4++,K@J.r*w#> u.Z.- )*9.8.o.7.a#D n+Y$6%Y$i%b@x;%@{ ! n ] n { ~ ( > l+9.1*1*",
"o z - /.* - o o.-.2 2 > z 1 4 1 a.3#G#l Z n b j [~l;z~V2n}O~C3y3s2O~o2D3E3F32%o=4%#&[%^#[%p&@*#* #l@l@l@ .i i ,.%.*@>.a n@n@ .Z#7 +@`  @N&#*#*+&N f%9 ; 4 | {.n A | /.- /.o ; n A 2 A *.2.n &.n / '+> ) B+<&y w {.G w /#0$Y%5%Y%*.; > > A z | > 6 u*&=D.-.n 1 -.i*N&@'[%^#i*=*+*b c Z++.5 6 6 *.2 2.]+> &.[ ; 4 2.|@5 o ; 2.7 2 1 | /.- >.8 #.#.-*+*+*%=[%.&.&[%l;P*S*[~8!# l;R*S*u#b,b,u# #v++@[.:.7@4#] _ =$}+|.>${+$=$=|.4 | & E#; 2 n Z.I-v>6&I-@;;)D$,+|.|.'#'#|., }.,#x-F+,+' D D v.l+' O !+1.Z.!+u.! u.Z./.4 /.* [ /.z &.4 n A 2.S *.n 2.`;9.8@%')*8@' 9.l.n w B C i$j$_=:)K#g@x#A@@+>&s+' _ a.( / C@^ / - #$^/H)H)Y)t>L#w.o.J#C w.O n 2 7 @.k.7 p&g%]#W*|#` k.f f j k.a h %.* ; ;.5 2.> C :@T v [ B t #@[ - o &.< - < 4 !.+@b b 0 9 > | n z [ [ * 3 < n V+Y N%}#R+U&m&D#$*s*# #  $b,d)H$>.4 o ; o [ 4 ; o [ z 2.1 z 1.R.= - < z n A n A G q B r y C {.x Y+[#X+S=v#& U- =+ 8&^{o=h&h&$]}%+@+@j*O,N*H m+3#/ a.w.n %@p+{ l+n+{ B@O { %@S C n t t [ v Q ].!#q G w.$@N.{@^*~=~*$;%;i-2+f=7 4#! ) u.Z.' n+n+9.s@n n+_$J%x;6%j%)&I+l+B@{ _ 0.~ ^ ;.V%G#q@9.~%Y$",
"a 9 *@9 | Z 5 Z A *.*.o o A w q %@R$6 > 2.o.j ` ~;# O^o=-}@:s2G3z}t2F3H3r|1%|%o=}%}%O^O^O^^{L~4%v+D#m&*.S |@'.|#k.)+0 a 7 6#}-4@+.#.[%^#p&+*]#]#+*-*b &.> q r w q o v v s ~.~.~.n ~.n o.o.l.q B ) : ) B+a#s@s@p+q w o.R  %a$Z$5%2.> > l *.4 G B {.:@w l.{.B n =.%.+@N+i*w=p&5)f%<%V* @k.} 4 z [ - ; }@2.6 z [ > z < [ 3 , > n z [ G /.[ +@@.^#7%+)b;@'b;@*p&=*p&+@@.,.,.#.+@9 7 7 b $.*@9 8 )+L+|+7@[.w#m+j+' u.!+{ |.} /.3 1.~.N%V+B m v.u Z@u@f@f@e@3+_+1.'$-#|.}@1.4 /.3 !+j+' l+{ { B@D D ' d-d-t>i-!+m+- ! - > o o E@E@&.*.1 2 &.> 1 &.> [ 1 |.Q t 1.p m n > * [ | n U.^@3#n _$a#q@_$n+n#B@~ R.} z < 1 0.Z.-$-$,+R.R._ / '+D i$7.0#] '+C@C@8 8 7 a =*]#+&e%e%f%h 1#d 1#` 7 b @.$.b o.*.&.2./#{.o [ o q , , ]+} A l > z o 3 g )+!.a b >.*@>./.[ - /.4 4 4 z Y+V+W V+V+Y D#A;X E#H$H$k* = =+ L+.@!.!.>.!.1 2 o < | 1 < 1 [ u < ; 1 z 1 n q G D l.B y x m w m Y+<#W+Y+F#2 D#Y#U%U%3% $$&4%#&}%r*:.k-4]!+! '+C@( n ] B+^ C@] ) { ! 0.u.4 o z [ * * 4 > %%F#A+9&* v#/.< _ { b.!=J.6&K@L#J.a.! ) ~ > Q&(.O O { C C _$$@w.y$I+y$b@r&y$l+v.v.I@u.( / / C q@p+D W#*;",
"8 *@>. . .Z 2.; | n A -.o.l l.o S l.; | &.6 `  .~;l;%>%>@:@:z}t2I3J3K3y2O^L~e{%>&>O^4%@&&&|%4%b,D#G=r%r%U.-...k.I X*+@9 [.w#g#s.E+7 #*#*=*7%+&%=]#c c 5 x q D u Q t D D s D ~.m G t G x r m o n '+~ '+{ _$a#_$n+T B C :@F z$I+Y%5 *.2.U.1 l T x y t ].n C l.T Q+n &.A ).f 7%%=]#[%i*D*,.-.4 /.|.* z &.*.- | > - A n o - 1.]+3 [ (+l.&.2 ` 7 ]#-*0;~>c)!>p&p&@*+*)+b  .a .@$.8 k..@a #.k.h #.)+$.[.Y@4#+@m+> l m+u.) * A 1 > ~.o A$W+Q+S u I@u+h@g,r#3+/,%':+#@;#]+= 1./.} = : : l+v.l+O l+u I@v.i-O.K@t>m+' ' > z 2 l Z A;m&E@&.| o 4 4 < [ * [ }@3 G m t p P }.} - 4 o o o ! { 9.a#c$P+{ 1.9.t 2 = &.S < 1.=$R.k+- ) ] ( ~ '+> n+B+<&0#H@G#V%G@` #.k.a p&g%[%N&.&p&h k. .%.j  .#.b 8 9 * < &.Z w o.T (+~.l.2 4 4 n U.&.z &.; R.J+X*)+!.>.g H X*]+, , |.]+* /.- A$W+W+N%[#W+&.$%s*A+K!R&U%b,m@U%$.!.>.*@>.b &.; - z 1 4 , < v o 4 &.o * < &.w n w r T x C o B n l.U [ @=z Y+> Y+0 @ g w+ .<=p&9 e;N=N**@{ ( ( ( ( n ] C@H@C@n { ' 0.0.u.[ 4 | 1 4 > ; ; E#Y+Y+Y#* A+4 z _ 0.c.d.L#j-M.F.' - - _ ' j+(.!+D n+s@'@l+{ D ' W#i+b@b@~%1*p+v.u 8@u.a._ _ l+l+n+n )&i#",
"=*+*p&|#` 0 8 j o.A &.; n 2 &.A n }#W ^&m&X w+l@P*l;%>I(!~1%L3M3r|+ @ U-# O*w+O*P*u#w+b,N3m~w~k~$%% r%z+6 -.i +@X*$.8 h :$:$j>f#f%f%+*%==*h*+&@*#*c #.U.C D ,%G$[ Q v Q v D m T S T C r {.w q n ( a.] ( n w.w.w.S {.S P+F _%.%Y&V%'+~ X.I#p@%@a#8.R$#,r&6%x;;*x;S ~.~.1@3 g 8 E+#.c .@!.z , ]+]+< *.)#o.< 6 Z *.&.| z < < /.* , D {$=.=.d a p&c)b;!>c)~>!>0;7%q=*@9%*@q&*@w# .j./@h%4$..Z)L=5$5$4*^=e-C;J.c.B+! ! 0.].Q+G ].Q Q X+X+n n O ' f@`)r#q+f@r+R=1.}.1.3 }@$== 3 } { _ u _+8@B@8@>+)*I@B&B&2+M.u._ ' : < &.8$*.*.E@]-z 9 >.!.+@[ ]+|.1.]+; X D#L%N%V+V+; 0 z 4 z | &.n q :@R T&q A+Q T&m&X A;$%2 4 - 1 /.; Z 5 ~ '+n / l 3#^@G#r@G@L=k&1#` 1#%.f f E+i $-[%[%V-$- &d i d  .k.@.< n k 5 :@]${.^.w {.|@1 [ 2  .)+L+!.7 >..@!.9 9 9 9 $.g g !.1 | 4 /././.F#E@&.&.&.Y+]-Y+9$I$]%v#@  $U-w+c 9 *@!.b a | | ; n z > ].^.Q n > n | * < &.n n {.y x S r m s={.S z ) 4 : - 1.> Z.}.(.1 '+*.+@,+a'#${ / a.a.( `.l l H@V%i._.9%5$0 a b >.*@$.9 9 ` E+x+# x+/=# U-+ `@3%3%>.>.&@6#! Q&- u.' l+v v 0.' ' : o.<&C )*_+o+' B@)&i%Y$Y$b@1*~%i#u O : 0.> > B@O I+K%J%M&",
"%=@*p&V*a +@9 h &.| U.1 z 2 > l <#R+R+Y s*X v+v+O*P*&>o=L~f{O32%u# #/=O&u#Y*w+u## ~;x+# k~N3w~$3E@2 E@2 *.Z k.!.b d #.b Q$K-A!i>M++&#*+*+&N+%=^#]##.Z *.[ u  %H+Q u u Q D G q q w w n n m G ~.~.'+'+) ( 8.9.l+$@T x {.x `$Y%:%:%}+!+B+3#o.V%r@`;a#i$;- %y.m#I+x%F F$D ~.* 2 !.>.k.)+O+i3{+} l o n 5 o 3 < A | Z 2 &.| 1 &.z > l Q+]$C+_@` h !>h&')b;!>0;+)')f%N O=+@&@9%_.n@|-j...n@4#5$P-i. .i.v-w-C;H,c.c.( n : '+o S G [ v G X+N%o Q ' ' 3+q+r+[+n#n#_+R==##@} = 1.[ - [ ) '+O l+v.$@p+v.u v.M.F.H*F.u.: ' _ /.> Y#]-z F#F#Y+0 0 0 .@}@}.= , &.k -.E@}=X+X l*%.#.l A < 4 2 2.G <#N%Y+S=T![#T&%%%%v#F#1 4 4 | Z 2.l *.a.l o./ a.] B+3#( '+(@|-b  .B*T.,.c @.#.N&=*[%$-i*i*+.d k.k.a c 4 | k 2 Q+q *#(+w l.5 l ; 2 #.$.$.L+>.!.+#)+)+g $.8 8 !.8 0 ; n o < o l D#m&D#2 8$E#v#9$&.*.2 Y+8&b,w+O&k.b !.9 b a > /.2 2./.4 s s q n o A n o ; n G o C {.S w {.G Z$:%a.0.J.0.M.n 6&m+F.> C&'+O.k+~)$$~+> o.~ 0._ > C@/ `.V%p@j.7@6#j. .@.0 .@!.c %.` $.+@v+O&u#<=l;3%*&1%U- $+@9 &@+@{ 1.}+}+o+s D ~.! ] _ - a#s@$@{ l+o+)*O y$)&r&K%~%~%I+x.9.$@! ! / > I@' x.I+~%x;",
"@*[%=*]#[% &` a a !.l l 2 &.| 6 S&U+T&W+s*X l@~;P*Q*W*]#@*@*b;p& ./.&.2.n z F@Y+&.D#W)X)U)L&L&x~E#Y+z & > | >.>.,.j=V*e%H;i>i>o,7%#*p&7%e%f%#*g%7 #.Z S D t  %,%Q Q v D ~.~.s Q q G q q q G G G - '+n 0.O B@{ w.q n {.R F a$X#:%u.' ' Q&v.D %@B+l+%@M&6$9@T=6$r&L]t, %:%R |@b a ,.i ` @.2.U.6 U.` E+@.#.A ; 2 2.6 n S @@1@Z 5 Z r /#|@-.f 1# *!>P3~<N;{<-~;~e%f%&@H,^=J*n,C;D>w-M^D;n,2*L*U~4*K*>>#-#-K*2+!*) > u._ o ~.G+].s u U W+t [ n+w.e@u+g@Z@Z@[+o+)*1.~.< ]+1.* [ 4 : ' 1.I@v.v.' ' l+B@u@g@J@J@v.D ' l+~.q U @=}=Z'F^& +#>.0 H >$R.Y+m&-.-.8$m&W+^&:#S& @,.,.i S 2 E#F#N%W+A+Q3z|R3S3T3* ]%P!{%@$]%z 2 *.S 6 -.&.A 5 2 i 4$i.j. . .i.h.@.#.).`++.f 1#E+W*]#=*V---<%+.1#h 7 %.j > 4 *.; r S '$u n Q+U.> [ &... .$.K+8 ,.+*+*9 8 c k.k.@.g .@4 z 4 4 > 1 *.X 2 z & v#& %%k $%]-F#Y+$%*.m& . .c 0 !.!.} }@3 4 u Q o n s [ - > o | w l.m n m m G t H+F$W#T;B&c.E&F.E&N.F&t+d$1$|$y#e$A_O/A%)*p+q@' ' D { `.C@B+Z#4$/@|-i. .0 8 0 +@b @.@.h *@*@v+P*l;Q*8!3%z2y21%&&-*+*r*9%' Z.8@>+p s ,%~.> n > a.o.q@u v.v.' o+)*W#I+ %1*b@r&b@~%%@n ) ] C@! u B@y$i+i+b@",
"g%[%#*]#W*<%,.1# .#.n -.k -.S 1 %%<#B=D#E@6 8!P*~;l@e%e%#*@*%=p&b 2 A *.> /.E@z m&E@]-S%Y+U)Y#& ]-Y+2 Y#o o !.k.'.f i=+*#*h*5]q'+*c +*X*+*8 ]# .k.@.1 A B m n G D o o s Q [ Q t G o o H+D _%].u n ! _ a.a#9.O n+D s n m.@@s&o ~.B@n : ) n O n C v.l+K%Y$i%y$y$*;X#~.p G &.> @.%.S.'.+&g  @i 1#,.#.i #.#.6 S 2 | 1@k -.2.2.A n A * 2 2.; c h +*b;D-b;~<v];~v]+*+*Y@]@C&]@D>H*C;v>S~M=U3j.@,[.v-H,^=5*H,P~d.L#a.~ ) ) 4 [ G o Q ~.D W+1 t ' l+) C i-l+F.8@- )*, > o , } } 3 - Z.- D D I@_+' p+p+v.u@[+t#y#O ' u 9.Q t u Z'^.r=S=v#* *@.@X*.#3 E@&.Y+s*]-E@S+^&W+s*U.k i U.1@A * 9$V V Z'x~T&F^a&f]^%@$I$9&z D#*.D#2 -._@@@o.C l Z H#G@h#n  .i h%7 E+k.|#,. @f E+k.[%g%.& &V*g% .` c !.+._@a.| u.[ {.y T w n l.; ]+[ o |#1#[.J+4#@. .7 a c #.h +@9 8 *.A 4 4 2.*.| 1@W 1.P!]+& ; $%s*Y+v#l@O*# w+O*b b h a 9 )+, } > z v Q t D p o /.z 4 z G ~.D G s v u p G$,%~#x-c.{@w-d.N.{@c-.+A*e@u-G;n{[{M@p%w.n 9.' ' { a.^@^ / (@4$/@B!=&i.c k.#.a 8 a c c b 8 >.u# @R*a m@@&$&h*+*-*L-r*:.u.> n+l+~.n t X+v o < q l.%@D n+l+$@w.].W# %6% %W#b@K% %w.l+l+9.) w.9.9.)&i+I+)&",
"9 8 k.@.a d `%2@2@,.O*~;<=S*# l@7 5 ,.f |#.. @f H [=)+c  .#.@.7 h a c b !.@.i ,.@.8 b O*c 3%)+U%# l@3%H$R&`@U- $l@U- $ $b,O*2@e ` o b o 8 *. .2.1 &.2.*.&.z z G ~.t G+o u p G${#,%W#5%R-a$u={#,%v A ; 2.2 ; > | ; | Z _@6 m.e#x /#S q G o v [ Q v.v.C o.D@0#8.s@7 ^#V*=*.&^#[%N&u,w=+'[%W*<% &W* $-.k %%Y#X *.$%$%2 E@D#*.*.D#D#Y#u#~;S* @,.7 %=+*]#+)p&|%@&1%U%n _${ a#`.l+- u ' %@_ - 3#e#^@p@^ '+7 7 h#Y@n@ .+@- ) ~ C >@b!B &.; b < g < +@/.k-4 &@< 0 4 g [ u.u.{ ) C@) - - c.L#j-d-i-J.c.C&y#Z@s+y#8@' l+O - 0.: * m+, = - z n [ = [ 4 n }.S 5 1 -.n A z ; ; m 2.n 1.[ o v '$].(+N%s a&#@Z'a&r%<;:#V&s%W }#Y+V+U&E=U+O|S+Y q B 2.m 5 -.l e#_@|@ @+.+.,.V-i*A1-[.&W*[%V*h.p-o.B+'+0.F.<&<*_=U.*.'+a.: o./ Q&(.m+> m+6&u.6&' L#] { ) U.2.o < /.*.A D )*s@_$n+O ~#:+Q D D a.> 0 .@!.[%#*+*]#f%<-p,H;i>6#7@:.+@a.n A > o n G w > n > { ! : ! n n+D n+' :+u D )*h%i L;w#j.L=h.'+K@u.@;i-h@)@l$x#n &.n | t n {.B Z *.i 2@i*v,{>@*0 &.A A A 2 &.| 2 *.2 &.3#1@n }+*@|+7@7 7 4#w#[.: > '+! : o 2 W+U w;}#`'.- %o G m n C W+A+W+T&R+I+ %s&s&Y%z$Y%`$G Y%`$z$ %,%,%z$",
"+@#.` @. .'.e B*2@`+l;~;O* # #O*7 j  @..%.%.+@N*s!*@8 0 b a b a b h 8 +@$.9 @.k.>.8 c @.c a +@>.U-v+U-8&H$8&@ b,`@U-v+ $l@l;y+i{6 -.Z A > 4 1 ; o A l 2 1 ; n n {.G Q D Q Q ,%_%G$:%u=*-*-1-1-G$t ; > 1 o > ; n 2.l 6 6 ;._@;.|@m.:@l.t u s l.x c$8.$@8.U*^$<&;.V*M, *w,=~v,0;2-z>=~Y;2-u,v,~>[% $D#m&%%z F#& E@8$*.8$&.B=z+r%B=V3[3$ I~|#%.7 k.g%@*@*@*#&#&}%~;w Y$p+v.I@' v.D u O 1.].k o.&.&.a.( Y@[.[.4#7 [.&@w#n n p+q@9@B@o 0 *@H g )+g *@.@9 c k.7 8 9 g _ { a.~ B+> (.}+B&L#L#L#M.F.C&d.e@g@t#3+8@' ' I@u.'+a.{ : Q&(.m+> } [ n 1 > | | k A -.S ; * } &.C C B q G q G v (+u ].].1.u ~.m ^&X X R+^&^&X L%Y+W+D=t%w]u%w;l'{.T l.C S T -.e#l S  @'.d c %=]# *G^.&i*.&g%h#h#o.I#1>M=A@k$+%{ (.}@Z.: '+3#k+m+~ u.B&O.H-K@B&L#2+L#n a.*.2 &.| ; 5 x D { D g@7$b'k#i#x.v.{ l `.` b +&%=h&h&!>-*K;K-6]H;n@&@ .4$o.a.| = D T S n ) ' ' '+) > a.~ 9.n l+1.u D { ) ` .&#*[%d ..7 r*u.j+Q&1.t+t+x#%@0.o ; &.w C l.D Z o.`+T.M,u,8]{>b U.-.U.k o.1 4 A 2 n n a.! 0._ L*e>3*S)w-@,*@_.{ ) 0.m+m+: o ~.}#l'F=+-W#G$^.t w.w B @=r=X)1!Y a$`$Z$6%F Y&Z$z$%*c!Y&s&F$I+s&s&",
"7 ` 7 7 i j j F*W~i{~;x+# w+3%v+i i 7 c .@N*H2K+g 8 c a +@.@$.a 9 $.L+!.+@h  .*@J+!.@.#.@.@.7 8 `@v+ #b,m@m@@ b,m@b,w+# ~;O&O*Q*6 |@*.2 &.> 1 | > n A ; o 1 2 2.q v o D t Q G$W#_%:%F$,%=-=-u=_%~.1 o > < [ 1 | ; A l D.D@V$@@6 T w l.B ~.[ o x o.9.C R$c$8.a#! %.[%]#V*V-^#]#V*[%[%p&^#.&p&-*[%[~% $%8$m&2 &.2 2 $%m&%%m&z+=.X-Y*O*c h @.b 5$5$Y@[.@.b #.u#w+Y#D 9@1.-)o-,+' o+q Q - ; S U.l n ! / n@4#6#6#Y@7 (@i.l > 8@1.T;o+/.!..@g g +#+#>.0 h #.c 7 h !.H > ) ! '+! : Z.' !+m+L#!*F.2+2+2+$@{ l+I@1.:+>+1._+O > _ u.' > ( n+F+].T B Q+*.-.6 S 5 S o 3 5 l B B B s o o w l.G (+P [ ~.m n &.Y+8$8$8$8$8$U+X T&T&U+s%W T&Y X S w q C l.T k 5 [ - +@h 9 H f%g%^#=*[%V-V-V-i.h#G@^ H*c.2$g@3+_+k+}.Z.: n '+a'm+'+- S,~)@;t>6&t>K@M.B+/ | /.z 2.&.1 t w q@9.t+g@O { o.8.' ' ] 3#@.b .@$.e%f%-*@*y-|+e;9%r*7@] ~ Z._ /.R.2 U.2.1 ( u.' > { '+] l w._$B@>+o+O w.H@..8 f #.a !.o@o@,+k+'+0.Z@x#g${ m+| 2 2 w n q q 2.2 %.`+6{Z,W3<'y+r%-.$%Z n z &.2.5 Z 1 u.0.'+) _.:.[. .6#1+k+Q&' : 1.k+Z.: > $@T G$_%W#W#i#' D s+$@%@v v U&U+X+;*Y&Y&K$s=E Y&0$s=K$Y&0$,%.%0$F ",
"7 h h @.k. .i `+(=[~P*<=l;l@@ x+q*j 9 W$)+T'N*b 0 b h 8 9 h k.c )+b $.9 b a  .+@h ` ,.1#` @.7 7 b,l@# w+b,U-v+w+3% $O&x+u#3%U-8!A 5 A &.&.> 1 A | | 1 1 z < o 2.o v w v G+1.W#I+H+I+G$F$*-*-Q-X#s 4 o > 4 * ; 4 *.;.)#-.-.; &.2 m n w ~.[ p v m { $@B+$@$@n+n+Q&L+7%+*%=+*p&]#]#=*@*-*]#[%@*#*j 2 8$Y#E#F#$)A+8$8$X s*X D#%%E@2 P* #a 0 !.9 5$7 4$..T.%.8 >.U%[ D b@$@i$B+l+{ B@m ~.1 &.o -.|@l / l 4#n@6#+@n@Y@Y@(@~ a.{ l+i#n+/.L+>.7 7 b 0 >.>.8 b +@a j ` a ] / ) ) - !+!+- m+Z.i-!*b.H*C&!*w.D D v.I@>+:+)*' B@0.u.' u.! ( _$9.l.G w L$_@U.&.5 !$1@- } A | w D s [ ].Q q o P G+G n C R 2.[ E@B=E#E#G=k *.U Y Y X ^&Y }#V+W C Q+P+x G l.|@Z 2.A  .%.a $.-*V*.&=*-*-*[%`+..4#a.,+I-d.)@J@s+p+0.1 { > 0.u.=$- m+m+S,J-i-B&d-@;t>d.( o.z /.z 1 | 2.~.q o+n+2$h@p+{ a#q@O B@) ] @.b .@.@9 *@N X*1+k-r*6#w#&@u.j+#$_ &.; 2.; /.; ~ '+0.Q&' ) ! ~ v.{ n+B@o+8@n+B+k.@.+#)+$.J+/'4]R.o.C@) s+A@h@u = - /.z l.B n w 1 S f 1#--M,X3=~<=6 s*$%&.o o &.U.S *.A ) '+n '+Y@w#5$h#7@k-R.,+m+Q&R./%1.u.{ n G%e)r$(-C%P@4+/&O@s+e@l+{ x {.[#m 5%z$Z$F F `$z$a$a$Y&$>a$(% %0$",
"0 8 +@0 a a @.1#l; #8!<~y;R* $l;+@#.+#T')++@$.8 c b h c 7 7 c b c #.c ` a +@j 7 h #.%.#.h a @.%.l@O&l@ $U- ## O&U-v+O*x+# O&#  #2 2 &.> 1 1 < | &.; &.; z /.> 2 w m Q+m v [ ~.w Y%H+Z%G$,% % %a$q q l.T C B R o._#n.7#~.(+n!;#].^.Q G w m D t s $@9.{ 9.B@9.n l c  @@.*@g b +@+@b a 8 +@8 8 8 h < 1 > &.n > 2.1@o.Z l *.&.> A k 2.n 2.*.Z.j+K@H*s_H@! ! ; 2 n > B@r@9#0#w.O $@9.[ m n < A *.2 > 5 S 2.A a #.0 0 c ` 2.1 n G X#B 6  .#.c !..@9 8 >.L+.@$.)+0 7 .@1 A ! a.- !+m+!+u.- t>M.C&H*b.F.' 8@O w.n n+O u n+D D v.l+O O ' v.I@o+o+B@I@G+t /.2.C+Z 1 = } 3 '$G+t q v [ G+1.!#r 0%4.V$!$V$_@a c a 7 #.Z Z o o | 2.o.S 2.l.G D C @@y T l.> 3 *.l  .@.a 8 @*]#g%g%@.b 8 k. .> !+: y#e@h$B(g$-)%'[ l+n+B@8@)*_+o+u [+t#Z@u@u@s+d#T,G@r@< A @@o.n 2.m 1._+o+f@[+l ~ _ k+- ! : '+l / ; 4 < 1.O+]+j+: ( _ ! k+1.1.' ! n &.a %.` 8 ] ( ( 0.{ ~ a.B+D B@n %@{ v.D O 8 @.J+K+X*I -#{+' ^ ! ! ) 3#9.9./.o 1 2 x C m w *.*.k.j .&]#D-w,w+@ 3%w+3%H$8&l@@.!.+@#.@.a 8 +@9 >.!.!..@$._ u.Q&}+v>K@L#B&J@f@6+O!O#Z:}$8+8+T$2<+,5+J@{ *.2.n o n m s s l.x x y {.r _#B D m r ",
"9 9 $.>.9 $.9 #./=~;y+<~W~R* $ #J++#)+#.a #.h  .@.c #.f ` !.H .@c #.%.2@|#c #.%.#.%.k.8 !.b k.%.O&O&v+@ 3% #O*#  # $# P*8!S*l;U-A o > < 1 2 < < n l S 2 | | &.n q q S B n B {.C z$F$:%5%a$Z$X# %m n n w w n o.Q+o.7-n.^.(+1.G ~.u G+[ q n D D m 0#9.p+R$a#0#i$o.&.E+` b !.b 8 9 !.b b 9 !.9 $.g /.1 1 A ;.=.D@@@S 2 ; &.; ; 2.U.2.U.-.U.0._ F.H*x&e.] H@( 4 4 | B+B+w.l+D B@8@)*~.C 5 l l ; 4 o *.2 l |@1#..@.k.j k.*.2.~.].q S A c a a c b !.+@$.+#)+9 9 !.+@+@4 1 : 0.- - ! u.m+m+t>K@L#B&M.!*I@1.:+:+>+1.I@l+O )*_+_+_+)*8@1.)*)*R=>+n+)*P ^.} > | -.V$4 , [ ].~.s v ^.(+'$o C R @@4.~$a=)#)#k.0 >.b +@b 5 l /.< | e#S A o t q T y S n G > S k 6 k.8 0 7 g%=*%=>.8 %.E+E+l { Q&: s#q+[+<+p#^,%'p O B@B@u I@B@B@9.J@t#s+u+A@.+b.F.( ) z S S /.}.2.{.F+I@l+n#t+a.^ / u.> ) ' - ~ > 3 |.} * 1./.u.: a.0.- u.1.u.C@^ 5 > +@!.@.!.> { / B+~ ~ / / %@q@C p+{ D n+n+2.#.d *@O+I (.: / { { ] / o.$@O 1 n 2 2.B n n S n n b b p&p&@*%=l@O* #O&l; #m@3%g K+H 8 +@>.!.>.+@>.$.g +#$.0.' 1.}+K@b.c.J.Z@+,r_M#Y3Z3h_7<<<p<9+T$|$2$n 5 S 2.C B {./#(#n.:@{.y w T {.q n l.o ",
"9 4 2 1 } 2.@@2.$%k }!o{Y--.Y#]%= < 2.; 2 &.*.A 4 *.5 l 2.; z 4 9 h ..|*+.#. .j b 0 !.*@.@8 k.j l@#  #b,b, #u#x+l;x+l;8!/=/=~;w+z z 1 1 > o 1 ; ; l 5 *.n n 2 A q n q q D w r {.~.Q v n C B G G w S w l.n G n l.~.];B 9^}.].D 1.P G+[ s q T r y Q+:@C %@r@j$R$o.-.- /.Z 6 A | z 4 4 > o > z < /.7@7@6#Y@i.i.i.k&_.:.q&:.r*[.5$ .l |@o.n 2+d.c.L#h@2$l$'@'@s@B n p+$@D l+O l+t o S l U.;.A z ]-2 q q n |@1# @` ,.j #.-.;.*.u l.T | n 1 4 z z 4 o < | < - < * 1./.| 1 [ [ * * a.' - - ' ' u.' K@K@- 0.) { u.m+)*1.O _+,+x--#%'o#<+w&u&v&w&Y$i%n+D s t U._@|@1 $)& v W#;#!#^.s B D@_@)#@@=.D*B*T.+.j @.b h 0 !.7 @.h c A V$2 n n n q ~.D ~.m ~.> A < /..@.@9 a 7 h *@g +@S 3#/ ] '+t+C#<*-:d$[{'>t+i+Z%i#X$b'b'T=I+b@Y$u&w@(-'*F,J@;)t>3#a.1 < = ;$1.; q t _$w.Z@.+f=v-:-4*+@w#] n Q&k+R=R=^.u u G D O _$B+l+%@' ) B+n 9 8 E+>.!.h } - z ; | o q s Q+:@C t u t m C o } #$=$(.: 0.{ > ! n ~ D@G#) ) 0.Z.Z._ ! '+] ( n ! 4#Y@w#&@[.@.b,y+<=`@ =+ 3%l@+#T'O+$.$.$.a c `@m@& A+} < ) ) J.L#J@s+L@L@O@d=8(<<`3 4`3`3.4+4$_@4A&x&'+5 1@% T T o.(#(#y C S C w l.n m D q p ",
"4 *.2 < o *.Z Z 8$Z-s-A;%%9&X $%U.Z 2 2 *.S A 2 2.*.5 Z n n 2 1 c ` +...f ` %.@.%.8 $.9 0 +@7 E+l@~;x+l@v+l@l;S*Y*%{I~~;O&u#O*l@| | 1 2 | > 2 o | ; 2.S A ; &.*.n x T C t D n ~.G q u p t w {.q D C n C B m D ~.;#Q D }.P T B S x S {.r S m m B S m I@B@o+O %@z!&'F_C,o , 1 U.A o - [ 1 ; o &.l n@+@&@*@7@[.6#Z#&@6#5$h%h%5$7 h#A U.C@! b.c.F.!*u+2$t@A@8.<&P+Q+n { I@D B@l+Q+P+n o 1 A *./.9$F#s T 1 n >.7 @.c d 3,}**.1 A {.].&.| z - 3 4 1 z z A ; } , 4 | > } [ } /.> 4 l - '+{ > ! n n F.u.: > 0.u.' ' )*F+' )*8@o+,+:+t#6;p%=+p%w&9@K%p+D P+l.o.n * ]+D#@=}.b$Q G C G G q Z ;._@@@ @+.).i 8 #.j f 7 8 k.7 @. .2.*., - A n B l.~.q m D z - | > b @.k.#.c @.+@> 1 o Q&j+(.1.s+K#t+1$5+u-+,s+Y$0$G*x; %I+6$k#k#k#v@r$-%6;F,6;!*H*B+'+}.;$= }@< z ~.n p+' h@t+5*@,u>^=/@(@{ ' }+=$)*u s o ].Q ' l+l+9.q@n+: - ) n !.7 i %.c 0 z A > /.o &.n t Q+r m ].u G w G } s]$$Z.Z.' ( ) a.3#`.G@Y.( ) l '+0.a./ a.{ ! { ] > [.7 4#7 (@@.b 3%m@J$R&R&`@w++#W$J+J++# ... .+ + z E#4 z ] B+C&b.t+x#O@L@L@,=!<0_<<C/#4)_#4$4%4J=I.^@A $%s*$*~.{.:@r T B n ~./#(#r r l.Q t D ",
"o A l A ; ; 2 2.-.*.8$A+A+*.z+$%S > z A l l o.@@1@5 | n S &.n Z k.7  .d d %.@. .` c a @.0 b f c &>%&#&|%o=g{!~D^;{~~L~*&L~o=o=x+k 5 A 2 l Z l 2 5 A &.S Z o /.n w n n w *.n > ; *.2 < - > | 4 z n B Q {.m D s G+;#s q m q r _#D@L$r r :@T l.r Q+r q v.)*D %@v.n =.4., }@R.[ 1 o 2 &.* | ; > n k (@:.+@6#w#Y@+@w#7@Z#Z#j.|-i.Z#Y@S ; > 3#H*c.C&2+t+u@u@x#$@C x C p+$@t o G ~.; > 4 | F#2 &.v#O&& D q > o A n h f ,....@X*2.| o ].< [ *.| /.3 * 1 A S } , } |.- } * 3 * /.&.; 1 > _ u.0._ ) ! ' '+' ; n *.' !+a.0.,+' s+y#f@3+]>h+u&f+W@v$G%P&9.$@n+n 6 o 9$A+;$o't W#F$ %v s < [ 2 -.j ` #.f %.@.>.a @.8 k.c 8 %.b 0 /.]+[ 2.4 &.w t s ~.s t o 1 2 o.` ` a h  .%.U.z n [ O 8@v.D o#`)`)r#'>[{s/2$b@{#W#Y$i%=;^;y$i#=;z#z#-%{&]>u&d#e.B+~ 4 1.1.* /.; {.~.' { A@++C>K~S~@,n,:-- D$1.>+o+n+6%1*)&W#~%K%K%i%n+p+)*8@^ ^@n /.g g a ` o } o ; 2.n q S r m [ q Q [ u l.O x-D n+n+q@l B+^ H@B+n ] a.> { v.n+B+9.] ~ a.'+'+{ > a.B+~ ) 2.%.u#m@8&*@)+N*+#h $.L+9 +@5$n@0 Y#z Y+B=S A B+a.s+e@t+1$,=|$d$!@d=O@'_|$!()|&4z&|$d#I#@@D#x~e*z;l.0#s@8.8.%@w.w.D@D@_$B+l+w.%@{ ",
"2 2.n | 2 6 k o.-.E#E#*.k )#o{k U.2 2.5 Z U.;.)#5 U.l o.k l l o. .0 b j ` h 7 j  .h 0 #.%.f  @#.;{3/4/q(_{&>O^O^g{e{2%f{&&4%L~l;)#k Z A A S -.6 k U.S A o o 1 > G n {.o.2 > ; &.2 &.| > z o o 4 ~.t s P+~.Q D u G :@m G D [ o l.y s t l.n q Q+D@o.G { ' c$<&{ u < U'H!}.*.o , < 1 1 2 S U.2.-.4.h%[.+@5$n@n@7 Y@Y@L=B*k&..i.[.n@2.| : B+e.N.N.x&x#A@2$D v.$@w q n+' s C m Q > [ 1.3 A+F#Y#z b,A+D v 3 - o > h ..c b *@L+; > D m 2.n 4 /.A o 4 z ; 1 }.}@[ , , = ]+]+1.3 R.1.3 1._ _ - 1.- : - _ = [ /.o > l / ( I@' [+J@3+[+w@^>p]f+M]M]/-G%u v.l+n+2 >$*4;$.#=4G!-4W&0$S {.l < [ U.,.,.c !.+@$.+@>.g *@8  @j  .$.h 1 /.; l z *.C P p q B S 2.Z o.l b +@b +@#.k.z * T P+a#' 1.1.3+f@Z@q+a-j/G;q#m#+!7'T;^;^;i+i+y.i+l%P&p%X@u&g@J.!*! ~ *.2 ; &.> z o ~.{ B@x#K#C>e>2*v-4*2*' -#,+B@s@0#b@9@I+x;;-x%i#j#:+D /#n ( { 3 ,#L+9 h d S ; A *.2./.u D s G+(+].p 1.'$1.)*l+c$i$a#q@! _ ~ C@/ a.l `.n ' v.n B+B+o.o.) a.{ { : ) ~ ( 3#n 0 v+u#k.!..@*@J+*@g 9 [.[.r*6#[./.& & z 4 > n ] u@A@1$1$/&L@S$,=d$n#4+u@A& +n=2$!={ > %%n~=!;4S%B 8.B+a#s@%@9.q@9.C { _$n+$@%@n+",
"+@>.9 #.i E+%.#.b,`@ #$ ->i{(=<~o.5 U.Z 2 2 Z U.2 l 2.U.5 &.2.-.b )+$.a b a  .E+7 7 h  .j f ,.f D^%>!~!~!~%&%&O^|%}%e{*&|{|{$&# z t Q ].G+].v D D D s u G+v ~.v u t | U.S | | - [ [ 9 >.*@+@h z D u u o #@^.v v l.o.q o v Q [ (+^.].D l.S r o.o.{ n q@9._=`;C i$o -#3 [ &.&.n e#z * &.S k U.U.C+..,.` i k.f j  .j E+..j a a b a h  .@.f 4$i.B{]@d#N.9.{ { ~.m B Q G+< 2.z 1./.< F#& v+ $ $k*8&* ]..%o q - < a !.9 g 9 $.1 2 &.U.c a .@L+` c J+)+8 9 !.9 *@X*g !.4 > 1 > }@- 4 = o | !+j+Q&- - !+J+.@>.!.| A > }+%'o+o#3+s>v@w@'*n>r<=,m>V,v$z#z#n 9.3 B'*4>4,4'4~{)4b$a$R y S 2.i |#B*|*(>]#7%+&+@+#>.@.1#,.l *.z < < o > ; G B T ].m B w {.2.A *.2.c #.` h #*)+}+)*l+B+9.1./,r#g@@+,=^-'>s/^-s#0)u u l+v.{ %@w.9.B+h@t#s+J@t+A@H*C&] 3#-.S n | z /.G+[ u )*A@:(;>l,b.d#L#j-L.Y)>+v.0#_$9@j#T=y.n n { 8@O p+_$' :+R=< - [ * z A 4 1.} ; A , = 3 t Q u ^.1.(+'$}.B@9.w.)*I@D n $@u B@4 z ; ; > z n %@$@%@^ o.! n '+) > B+q@9.s@C A n *.a.' (.!+Q&j+R.!+t>L#B&b.a.[ /.> &.*.2.9.n q@_$2$u+Z@J@u+g$x#I@y#{ h$D L#m+Q&}@]+v#S%o~!4~4}.n+%@q@B+_$p+R$i$c$s@i$%@q@c$q@",
"$..@h  @,.h $.>. #v+w+$ 61Z|i{[~2.2.l 2 1 2 S 2.| &.; 2.n 4 o &.0 9 8 0 >.b c 0 b a 0 8 h @.k.%.1%$&&&@&2%|%%&%&}%o=#&@&@&L~}%O** [ v t t t t s Q s t s ~.t ].[ q G = < n > > - - [ >.*@*@0 h 9 G Q (+}.}.G+1.q r m u 1.1.s ].1.q T o./#_#P+x T 9.w._$a#'@J#0#B+4 4 o * > &./.|.= o U.2.*.-.|@k |#2@`+ @j B*+.`  @f #.k.@.k.f #.8 @.+@a Y@5$^=!*N.B+( $@w l.w w ~.Q+o.*.; 2 6 6 $%& + @ v+U-~;&.G ,%S {.1.}..@)++@9 h 9 ; Z A Z #.9 @.8 *@$.*@b @.+@>.9 h 0 L+9 4 - | o < [ o < o A ! u.Q&}+: 0..@.@*@X*/.; I#a.8@%@l$1$6;^>w&G%T@h]q,':l=3&!&r$$$,+}.s]* .#p|]-Q :%,%G$T G o S k.E+e T.[*S.[%@*@.b #. . @l &.S 2 3 1.; z 4 o o l.o S x m w &.4 | 2 c ,.i  .@*!.3#0#)*' D _$e@s+y#3+5;#;5+H>+,s#%'o n+O ' F+0)_+C 8.u+u@.+2$.+)@d.c.'+] n o 4 z n &.o q B@I@x#@+J.G-M.H){47{d-M.w.I@-)`]}|b@~%i#p+n D )*)*9.I@-)8@D 4 * n > , <@$=1 2 [ > S |@| [ o Q #@P D u -#u n+v.o+O { a#C D D < 4 ; &.A o.%@B+C C ] ) ! 3#^@C@~ ^@i$p+_$w.0.' ) l H@'+0.0.'+] {@e.L#M.J.K@: /.- 3 ; Z n+{ _$p+@++++%++t@a#B+n 9.u w.)*(.1._ < > 2 $%z;n~R%< a#0#%@%@$@p+/#P:,@i$$@n { { 1.",
"$.$.+@8 >.H X*)+O&~;l;h~->61%{$ l *.*.A 2 5 o.*.| n A 5 *.> z - >.0 7 7 b 7 h $.8 7 k.@.7 c  .1#%&g{O^@&a32%#&e{#&4%&&&&*&d)2%U-o D s s s t Q [ v s ~.l.S m D q l l - < > * z z .@!.!.9 c  .p&b s .%W&G$5%_%b$0$;*H+~#W#X#5%_%F ]$_#r T l.l.C y B+C p+{ $@q@C c$[ * = |.z = ;$-^< 2 l 6 5 -.@@)#8!S*l;~;O*%{R*x+Y*Y*3%U%~;O* ## O^&>]#=*]#9 &@7 4#/ l l {.w U X+/.2 *.*.; 1 S -.&.F@U-O*b,O* #Y#}#c;A$U Y+E@l@w+U-O& #@ 3%U-F#E#0 !.+@a 9 .@.@)+>.W$>.0 $.*@)++@9&F#o } , } z 4 Z A : : ' m+! '+c w+.@[=3 | X./ q@$@~&!&F%>=D%Q#*%]4w_o:/<L>P&6;{ 1.o |.{%& O*& t G$X# %B ~.; o a +@.&$-W;W;w,-*7@) `.G@] - m+o.$@v.O $@9.{ O I@s D B o.q v S 6 o.Z 8 7 b c i*q*'@y$j#J%i#y.G%P&6;F,('m$m$>=+,s#a.Z ~ '+'+1.R.> ( ! H*C12=H*b._-B{N.a.a.; 1 ; 2 2.> v m n+B@s+f$Y)d-H-v>y#f@g@t+x#Z@l+' B@9.$@q@] 0.- Z.$@l+$$>+n o+P v ~.u s u 4 n > , [ 1 l < Q Q [ n t p ;#}.y$r$P&r$p+$@a#$@$@w.- 3 | S U.o.q@w.9.n '+_ 6#+@n@j.o.H@o.C K%K%9.t#t#Z@.+2$u@x#g@2$>&H>5;#;>&Z@m+u.- k+u./ D 8@l+O D %@0#8.6%1*_$w a#l+) { F./ ) n 2 2 l@w+v+%%2 ^ 3#/ `.3#] / l ~ 3#( ! Z.Q&a'",
"a $.g *@*@g >.c u#u#l;R*I~y;->i{5 l l *.*.U.-.2 A *.*.5 A o o [ *@>.b k.` #.h a 7 b k.` i d i f #&O^O^|%1%|%L~1%h|B^@&1%q|g|2%w+[ Q t ~.q m G o o o m n q n l.q > z /.| 4 * | > +@8 +@a %.c +&g (+b$G$5% %F${#E Z$ %Z%a$s&a$ %K$T m m B B l.S r <&_$C n n p+o.C 1./.} } * = }@z /.o < A 2 5 |@-.Y*8! $~;# x+S*u# #u#x+8!$ Y*3%4% *({[%^#[%[%L; .h%7;U.&.n [#X+V } 3 > l | * > 4 A;F#l@u#w+`@P*% N%F=a&b&D#% 8!U% #l;l@ #3%H$* E@>.g !.+@W$H *@!.X*[=)+.@$.$.*@a v#v#|.}@1.> > z -.; - ' ' : n 2.+@ #0 >.> 2.'+- n u s$w&B%7+6+^4/4%2>]4(m>9|^>]&(4`;z - F#m&U-9$t C'W#I+].[ &.z >.j <%(>W;W;K'+*7@1.) B+: }+u 8.9.$@$@D 8@D l+o+~.G v m n l.V$)#Z o.%.a 7 k.$-` _$;*y=;*)&~%z#u&p%s>n$5,m$Q@@-n#_ < R.j+Z.Z.! { { > C&(&(&d#F.],c-d#n a.n ; ; &.2 - u n $@v.g@r+x{d-2+{@@+e@s+s+u+.+%@$@D D n+{ ] - m+_ v.R=y'8@{ l+Q ].v q t [ R./.> , } [ 4 ]+1.(+/+/+y!}.'$^.w&P&=+#+n u $@p+p+$@z z 2 *.l -.q@{ 9.9.{ : h#[.Z#j.C@3#8.$@i#6$t#h@A@g$I% +1$g@r+h@+,[{#;d$S$L@c.> : - : > v.w.$@{ v.{ 9.p+J%y=o.r '@a#( ] F.f=2+~ / n 0 U%$.8 : : '+^@p@o.( B+! '+a._ : Z.Z.j+",
"+#K+N**@9 $.!.7 l;u#<=I~%{->=>(=n m l.B l.{.r C T S {.{.q s n | h c h c  .a >.a +@!.k.%.@. .k.#.}%D^~~L~2%$&4%e{L~#&o=#&$&1%4%U%&.w l.w G t Q Q s o m q m Q+@@y o - } [ * - 8 h j @.a h -*q=5)s!'$w%:%:%F$_%I+Y%Z$a$5% %z$Z$Y%X#n ].u ~.o q r /#<&0#a#n a#%@B+%@k k ; /.3 > [ z - = } 1 > 4 1 n 3%$&d)#&@&B^@&$&|%4%%&C^C^&>#&^{_4|}{>K'2-#*%=#*E+).-.* A+E@Y+& < o o 4 , [ Y+{%J$J$8&3%w+. [~=.T&c;Y+N%9$A+ $`@U%b,m@U%k*  9&Y#!.)++@0 !.b g 8 $.+#>.+@.@9 b 8 A+9$Y#-.*.&.-.U$l < * /.) B+/ ; 7 l; .k.| 1 m+}+:+o+v@v&6+n$h]S@]}.2:4$1q,e+s> !-)>+, * m@3%m@A+].W&~#_%].v | 1 9 @.[%(>f&Z,=~=*m+v.c$C l+I@{ { C 9.~%6$=;I+I+6$G T ~.s G T k ;.Z D.E*`+` c $-,.M&a@)&0@=;r&$+~&{&h+`(d'Q@d'b_>&~ ; ,+D$Q&n ^@n ,+> F.b.g.]@H*x&B{e.3#o.6 U.Z 5 Z &.l.o.8.v.3+Z@|$L@g$2$n#u+u+t+A@)@C s@$@:+R=F+u.(._ Q&1.,+,@z%R=>+Z%Y%,%5%W#P 1.4 n [ - } ,#<4#=^+>#E.>#^.v m /-=+r$=+K%i+n s@o.a#*.U.o.*.*.|@q@n w.p+( B+7; .h#h#~ 3#p+i#6$r&l%m%;=D%-=c%F%Q#m$Q@9_u[9_Q:a+d=c.B&B&d.n+8@I@B@p+9.$@q@j%J%;*)>o.s@/#<&d#e.~*|$~*d.F.0.w#+@*@:.! B+o.B+/ H@^@] ' 0.( a.' u.'+) ",
"),O,W$$.0 b 8 0 w+l@y+$ y+Q*(=B=2.B {.{.2 2 *.A n Z |@|@A 1 *.A A j h 9 7 b !.h #.a i f a @.[%[%4%~~;{%>I(C^~~~~~~g{%&%&L~$&$&m@o G ~.Q ^.^.v q q T l.q B Q+o.y 2 n | 4 < - - 1 i 1 +@8 .@J++#- v Z%5%X#:%,%,%I+ %5%l.s&n.p!B w D Q ].F+^+p m Q o+{ %@8.8.%@%@C 1 1 4 /.- 1.< 4 1 * o z | &.| * R^k*U-x+# b,v+ #v+l@w+~;l; # #l@!~&&%>[4V;p&>.7 j l o s %%a&$)z |@U.z 3 , * z & B=<=3%8&v+P*x+z V V A$9&$)A+w+3%b,@ m@`@7&b,2 &.> } +#> >.1 0 z 8 o a o *@[ +@z Y#Y#6 H=1@5 ;.k z - 1 n / ^@B+| b  . .l * }.- k+D u ]>6;d'e'T@*,}4!2|4149|k>q/24o-F+1., `@7&O*6 o ,%,%z$t s 4 z b 7 ]#.& &--x>=*`.9#D@a#O D n+n s@n r&)&r&1*x.~%m w o D w w n S A S E+q*2@ .@*7 D j#Y$x;d;6%H%5{#+r$C%7=K:R#N}F-w.n ' k+- n 0.,+$$-$3*H,;>4*e-2+2+!=_-V%k 5 l A;Z &.o o $@' H-x#>&+,u+Z@7$<+t#Z@Z@e@B@s@%@F+R=_+) j+@~k+_ { 1.-)-)G+t F u (%(+P s 4 2 | o - }.,#>#'$p ^.1.G+t { K%#+/-{&x;r&n+a#%@a.z 4 b | >.z ,+B@D %@] / j.h#5$h#'+~ n+B@C i%n%%+;=f:|& <f:F%#%R#+,Q#R#C%C%L@!=b.M.B&m+I@{ u n n+w.B+c$x%s=;*8.s@s@c$f=B{N.J.d.H*J.' u.[ 9%{ G#( ( 3#~ '+) 0.: ! 3#B+] n n+l+",
"R.[ &.n 1 ; 2 2.n A $%s*6 G=$*G=A *.U.S  .j =*]#=*[%N&W*` @.a | ; 2 - ; z , 0 @.]##*[%W*g%[%v,!>@'b;;~<>+*]#]#]#%.k.7 +@*@)+>.> ; 4 z o < /.z > &.> 1 2.A n 2 n V+U X+V Y+A$[#W &.V+9&9$& v#&.Y D D t u ^.1.^.p ' ' n <&D@R$a.C ~.].D B q s < = * z ; 5 U.z A ; &@*@Y@+@|.1.4 z o | < o n S G D ]-X-)#A;Y#B=Y+v#Y#%%m&A;X &.Y+E#E@| S ;.u*_@Z x w G+].z$o I+G G B T C q p p o w x 1@A *.!.b a 9 A o | $.g 9 h  .n 4 3 [ |.2.1@-.Z.1.- ' : v.! l+o v o ~.[ u < /.} /.- 1.- < } < ^.o B n s q m t 1.' 3#B+< G+1.G+P 1._+o+w@!&y*d%m$e:J:E,z/ !7${ B@1.|.|.$)^%9&E@{.s@%@p+9.{ ~ ] ] > n@Y@ .Z#g-h%_@P+B o ~.o n+%@n D $@%@{ l+p+o.^@l n / ) a.a h a @.i 2@'.T.R*q*s@9.8.R$_$_$x#x#J@Z@^-z*A&@-t/d=g@9.G@^ ~ a.7 +@n@9%=@6@L;B!K;3*%;|$c-^@5 ;.% J^E@E#%%[ 1.> G-K@s+f@g@n#<+o#t#e@w.9.{ $@O ,+O _$k$8=t+y#8@-);#!#,#$=R.p Q&,+#$' _$v.' v.v.u I@v.D 1.>+D D n+n+n+w.{ n n _$l+u.: : Y@4#9%Q$6#<.O=- q | | | ; ! ( ! !+i-!*M.L#B{t@%+a^(-r$.+K#2$f$v>h@L#s+e@J@x#h@l 5$w#{ 0.u.' ' _ 0.( a#p+C R$s@!&=+w.B+{ u.!+!+n `.3#Z 2.T&1 n Z < - < 1 3 6#q&_ a.u+s+n#h+9,34",
"n ; 1 &.A S U.6 U.Z $%G=-.6 C=$*&.o &.&.=*^#c)2-c)c)c)c)=*]#+@>.l w o 2 [ - #. .N&N&[%%=v]h&@'{>@'D-v]_>f%%=p&p&@.@.h +@.@)+[ 4 * [ z < 3 * - , > } - | ; ; o /.Z'}=X+W+V+[#[#[#b&X!)~d/S=}=V A+D o ~.G G G q m ' 0.~ `.^@{ m+Z.o l.{$(#m.m | z 2 o A 5 -.; 2 5 *@9%w#j*1.2 -.A 2 > o A &.2 n D S+:3l*U+[#T&W+V+T&W V+V+W+X+X+Y+q o v Q+Q+l.P+(#%*w%W#:%Z$k!l!_%p ~.D p ].v D m /#(#S 2 +@+@a k.9 0 a b .@*@0 8 n z /.[ 3 z o 3 ' %@w.w.9.v.w.%@T D s m G [ ].u ]+o } } - , , - v l.S D Q s o ].(.1.> 0.].Q u p ].[ w.a#=+s$&%&%n$x_V<c'e)s$u q@' >#.#}@= 0&.#< w.n w.n $@{ n n ) 0.+@+@&@6#Y@H@2#{$B u v B %@n+O { $@p+_$%@B+i$H@^ ^ H@C@{ h ..`+#.+.D*1#7 8!3$: R=I@' ' 8@q+p#7$y#S$^*d$a-6(n=u+8.u ,+u.m+l ])T.(@L;4@f#f-44V|]*d$f=3#^ @@6 U)X)e*E@v#+@n@w-J.b.x#e@h@h@s+h@t+_$n+x--+_+B+j$R$m=x<@+f@1.u B t 0&{%.#R.-#~+R.' n ' o+' l+I@8@' I@u O ' I@{ O D O B@p+_$p+v.'+( 4#7@K;g#f#H;Q$6#4 ~./.} /.|.*$t*a'@~G,b.:-n,H,f=6=k=G%F,f@1$!*x{/%> n ) $@{ v.p+/ +@&@h#^ ( > u.: _ ! ) { n 0#i$l%/-n 8.n { u.0.S U.)#0%q2V+b&V < } ]+$=1.1.&@7@m+~ u+r+c'v&v$T)",
"6 A o | &.2 l U.6 s*B=r%$*6 H=$%o 1 l *.[%V*g%[%x>w,g%[%^#V*k.c 2.1 o 2 8 #.1#.. @ .-*7%-*%=+*7%-~a;=*]#+&7%]#@*+@+@+@>.)+L+L+L+= .#$=}.3 | &.< |@S 2.2 > 4 | 1 [ v s m w w [ #@;#}.u t [ v n S S -.R /#P+y y :@9#8.n $@_$R=' n y /#G B t G = > 2.-.1@* |.4 n 5 #.b 0 L+- | 2 2 1 | o o C x T ~.W [#a&}#N%N%L%W }#W+N%N%L%X+Y+V+> * [ 5 n u :@0%;&:@~.o :%Z%w%{#p o s t n w m C Z U.Z o.Z A @.7 @.k.@.k.b 9 c b 1.]+, ]+[ } } R.l+)*R=_+B@%@l+{ B w q q q s p G+< n l 1 o o 4 * D w ~.p o s [ Q u.6&' !+#@#@!#-#t Q u >+q/A#+[k:f).[54x_h+#+2$a#>+w!, }.]+]+K+, B@B@l+v.' 1.' { { 0._.&@+@7@6#! 2 {.S t P p l+u >+v.p+8.<&o.q@%@w.{ v.l+B+~ - -#$=1.[ 2 k.%.d Z ,+o#r+p#t#s+t#f$q+f@t+A@H>a<H>S$r$j#b'j]x->+9.n { { 4#6#/'`^R)D;3;u-[+n+'+n &.A+x~2!-.$%5$7 w-F.K@1$2$A@1$h@s+J@_$l+;+;+O %@$@1.+,^-y#J@o+1.#@t*@$0&$=1.: _ ] '+n+o+R=o+l+O 8@o+,+o+l+)*' %@I@I@' ' D 9.%@_$3#^ n@Y@7 r*=@L;=&&@| o < } { !+/%~+,+m+H*f.e.e.{@2$/-2&{&X@[+3+Z.m+_ !+) o.%@n+9.w.`.~ > 0.'+l 3#l 8.p+B@l+n+n p+_$p%G%D p+a.! ! B+*.;.e#n p P 1.}.^.=#R.[ u.m+j*1+!+m+g@3+9,w&v$O%",
"5 S *.2 1 o ; *.X $%m&s*s*X X E#| 2.-.n a V*V*V*Y;z>=*g%V*.&j  .l /.1 U.k.1#,.1# .8 @*g%]#+@+*+&+&h&#*-*h*+*%=7%>.!.9 !.$.*@L++#* 3 [ < * [ 2 U._@S 1 z /.z ; | w S B w s s ^.}.P s u G+Q s ~.Q ; S 1@:@{.l.w B r@_$B@l+n+>+l+C P+@@~.D 1.v 3 n 2 5 U./.- 1 | | k.8 >..@> - 4 *.n | ; n {.o s m [#A+b&A+b&[#W+W+U U N%}#}#N%[#W o < > > S y n.@@:@y o.^$0$_%+!~#w q l.Q+Q+T B x S 1 ; Z U.S  .a k.E+,.1#h 9 c @.[ /.4 3 o - - * p+$@w.n+n { u O o B l.G ~.t p ].[ 4 o |.< > o 2 r m [ ].t D p >#K@t>Z.=$x-G+G+1.D u :+w!e)y{B[z:x_n$N{D'6;s$f@1$o+:+!+}@* z L+|.> 8@1.' ' 1.1.Z.{ { *@&@6#&@[._ ^.m r G p s D :+l+D 9.a#R$a#9.9.O O v.' > ] ; |., < n 5 D+e~3,Z s+u+J@t#h$1$y#[+t+[+n#q+q+s#b-t+Y$i+9@+!V~W#:+!{-#_ '+Z.=$1.&@] #;0-J@$@m+< 2 I$R%q%s*k &@w#w-J.t+@+u@t+x#t+u+Z@' 1.o+n+n+8@8@B@g@^-n#r+I@B+q n $%D#5 6 / - _ u.8@_+_+I@O ' O B@{ v.l+1.o+w.I@' { v.D n+p+_$( ~ (@(@&@9%g-=&L;g#E+n | | / `.;.I#u.Z.i-C&F.d#!=A@r$1&#+u&t#t#Z./%j+{ ( G#a#9.B+q@] ) > _ - - '+^ i$p+v.D w.9.{ l+w&p%' ' u.' { `.< | &.[ [ (+!#y!P #@&.;.~ - 1+&@k+- Z@x#X@'*u$V,",
"n S U.*.; ; A S m&2 %%F#Y#E#& Y#| &.2.| a j V*V*S.V-[%g%^#V* .c f k.j  @,.` >.7 c c #.#.a o 8 +@+&]#g%p&]#@*-*%=-*%=b h a 8 9 >.[ } /.o z z 1 &.*.| 4 < /.> 1 z n+w.l+O I@v.u 1.)*w.D u ' v.n n ; A S Z *.n ; 1 l+O l+l+i%6% % %Q G m o t Q > n &.2.| | &.| > o z o 4 [ &.| 1 n o * s G l.q m t [ o C G n ~.D q n n l.T w o s ~.| ; ; 1 |@s-};~$S A y /#o.w T C o S l.T P+m * l Z 2 | ; Z 2.1 n c 7 j ` h b !..@/.| 1 o &.> 4 1 D %@c$$@a#O u 8.B@{ { { n+O I@v.| > &.*.4 - 2 > 1.].p u [ D t v 2+f=x&(.,+D n p+u 8@p#1)k:n$q[64'[O!D'5,5++,o#e@t>!+m+Z.9%q&*@' { >+F+8@{ v.!+Q&!+_ : { ! ! l l ~.D m n D t D l+l+l+$@0#s@q@{ 8@i#6%x%;*9.s@z%P:''c$o G ; 4 S 4 l$u@s+f$.+u@1$Z@.+y#o#p#t#u [+/#(%b]0,V#a,G[+!T;0@w!R=1.:+8@! n++,O@s+o+)*t &.& Y#X n *.m+) d.C&Z@u@++@+Z@Z@s+e@B@u u l+v.v.l+v.t+[+g@g@p+4'n.o.l [ 4 z > * 1.R.8@>+:+I@{ 9.n+D v.' ' v.o+8@' n+n+$@n $@n+{ > { C@B+5$6#_._.p,S'h $.+@ .4#6#u.j+=$-#r#<+u+u@C#I%%+l%l%{&2$Z@_ u.{ / / o.^ B+{.t m+m+u._ ' 8@l+n O o+v.p+y$i+)&I+)&~%w.B@_ - _ / / > > } ;#)$+!n&t w C@^ 3#`.u.m+/%1.u+g@h+(-X@t$",
"- z o 4 < 1 A 2.E@%%Y+F@v#F#= Y+-.2 2 *.f f p&=*$-N&[%g%^#N&`  .,.f ..2@j 7 .@0 h  @,.n 1 o 4 z  .[%+*f%-*]#]#]#-*-*0 b h a 0 !.= ]+3 /.> A l &.A n 2 &.| 2 S *.$@v.u D q@i$%@B@9.' D ' o+l+B@a.k.c 1 o o z - , F+R=8@v.j%d;i%r&G ~.s ~.o T *.n 1 |@&.; 1 4 4 3 z &.o 4 *.2.n < | A n u t r D@n._#S l.T T [ o ~.S T B l.q s s ~.n &.&.1 | 4 |@-.4 1 l.D {.n w l.Q m B w m D [ /.o 1 A *.2.A | &.7 8 k.h $.$.*@$.2.A 4 - * [ 4 l s@R$:+B@u )*I@B@l+B@O ' v.n+D v.; 1.z |@} ]+z A v ;#'$t Q u v I@t>H-J-S,n+a#n+' I@,+h,a{n$&%i[1_m$M#('5,.]H>3+Z@K@6&1.(.*@:._.m+> o+1.>+R=R=j+- n ~ '+{ _ _ 0.u.u n P+/#S q v.u B@v.9.$@9.q@_$' ~%{~%_b@F+n+8.i$4'U*S P '#4 [ }+t+`)g,t@Z@t]|)`)/,t#)@`;7.q@l+{ W#x' ,:!b]A=x;r&9@.!,+' B@O $@q@/&S$n#g@' s l %%8$k o.A ! ) d.!=1$u@l$x#t#J@e@2$' w.%@n+v.{ u _+g@e@g@u+8.8.~.q * [ &.< } - - : I@)*)*O w.n 9.D 8@_+u q@9.D n+n p+9.' o+o+w./ `.] l 4$h#_.9%f-f#g )+7 4$|++]E${+-$:+p#[+A@g$I=6={&r$=+z#1$x#'+) l ~ C@3#) n o.Q+: - m+u.9.%@_$9.)*R=v.C ~%)& %b@r&K%B+q@/ ) ! '+] j+|.|./+/+_%Y%r t '+C@- Q&!+Q&0.a.s+n#Z@s$u&w@",
"} * - [ < o n A &.2 2 & A+& * &.2#6 5 5 ` #.a %.a b @*]##.` f f .&.&.&W*[%N&k. .5 |@S &.*.n u , !.+*h*f%f%+&e%f%+&e%*@$.9 +@!..@< 4 | ; ; *.Z A n o > > 1 S Z &.' u.! ] l n ) > n Q&' - ' ! > ] %.@.0 *@+#X*]+]+u [ ~%#,b!{{a@i%l.q o D o l.2.| 1@D@> 4 > 4 | 4 [ o z > 2.2 ] : B@n+v.{ n %@n C q G B x v 1.o D l.n q G o s ~.l.A #.b *@9 *@Z &.A o 4 | A Z *.o o n B n | o $.X*$.>.; n /.&.G &.f h +@$.*@!.0 9 < < /.n l Z 2.S `;w.1.1.l+O { l+B@D B@I@' $@_${ !+'+n : ' > >+u D 8@u )*' %':+o+O. ]L.B&R$c${ ' )*R=q#f$D'5,2_j[O!m$D'e'0-F-s+t+v>O.B&j-j*q&*@' _ v.w.o+-)[$x-l+a.> u.1.!+0.> 0.t D G n G u 8@v.I@{ n n _$B+p+l+z#g+9,v@h+P&)&x;C(]'n+)*l+B+' >+ +P#>&O@y#r#1$2$' B@n+{ v.P G+[ I+i+)&y.y$ %w.{ o+l+n { a.3#;.C@O@S$g@)@o.w C w 1 -.;.2.a.) C&N.1$)@++l$u+g@h@.+' l+$@$@n _${ { Z@u@D I@{ D O u t q n ; o o - 3 1.l+9.w.l+u B@w.O I@I@' 8@' o+' B@v.' D $@0#l a.~ B+( ) 4#Y@7 6#Q$Q$(@k&7;(@{ : u O l+6%M&i+K%1*6=z#w.B+H@^@l n h%])k ; 4 z w /#9.I@o+w.B+C p+p+b@i#i+Y$i%b@b@)&p+_$s@a#l { : 1.-#!+O 1.x-I@b@b@w.%@l+,+-$,+m+) '+n '+O n+o+=;)&",
"; ; n *.*.A *.U.A;B=8$z * A+&.-.@@6 k o.k.a 8 %.h c g%[%j E+,.d --N&=*]#@*<%D*E+6 S 2.T w v p Q 9 7%-*+*+&7%7%N+e%f%g *@!.9 !..@< /.; l 2 | > 4 z > 1 o /.< * R.(.Z.) n n m+Z.m+'+{ ' Z.: _ u.> a h 8 )+N*K+, 4 q B M&y=b!)=A..,m G t v D B 2 o < -.z < < /.> > , | 1 z o 4 ) - 9.{ { q@9.$@n C r l.l.r q G u ~.q ~.o ~.D t ~.l. .%.!.>.7 E+;.~$k U.&.&.1 o.6 S T B w m &.> L+I .@+@4 /.3 | p v  .h >.!.$.>.b >.> * 3 | S 5 l 2.)*-#R=8@9.n ' n+n+D { v.u D %@_$! !+1.!+! - { l+)*D p+-):+;+u 1.@;'{t>t>n B+v.' I@>+q+y#('5,q[74'[D'6+B%+,F-y#3+t>H-B&t>9%q&H 0.- { B+9.I@)*>+u 1.Z._ Z.!+u.m+m+].s t v D v O { B@$@n p+B+%@9.b@G%U#l%6=%+~&j%K%i% %%@)*9.n+l+l+z&5+e$>&g@s+@+1$s@_$v.x-}.P G+Q n #,9.r&0#n+_$w.1.>+] / n C@r@) L@!@[+g@_$$@T C 3 * o < m+n !=!=A@)@A@A@x#y#g@x#B@u D v.l+O o+B@e@k$s@)*l+l+I@n+v T A Z n 4 /.| l+v.{ D B@O u 8@n+q@8.{ O n l+9.9.%@p+p+9.%@) 0.] / B+`.|-i (@4#L-K-Z#i.i.r*m+> n n Y$1*I+i#:!x$!&z#{ B+`.^@G#p@/@/@A Z Z 1 l.T B@' u u O l+D w.~%I+i+b@y$W#9@~%0#C s@%@> (./%t*V]R.,+I@w.x.b'9@O u )*8@Z.a.G#l ] / : (._$w.i#9@",
"4 < | 2 &.&.2 &.B=E#E#*.&.m&G=z+-.l 6 1@2.2 l U.@.h  .1#|#d S.[*=~=~$-=*%=W*`+,.S 2.T {.:@5%_%D 0 0 !.!.9 )+N M+h*+&=*+*K f%+*!.} * > S &.; > z 2.z - 4 1.-#$=-#!+u.{ : m+: _ }+Q&'+! 1.Q&_ { { *@7 b L+O+X** 4 v T {{I+d;G*Y'z=G B D D q D | | [ 5 l 1 < } 4 ; ; ; /./.2.> _$u i$8._$v.J@u+s+a#m.R S w t t ].q n l.B o o o w l.5$n@w#[. .Z#^@D@X.`.l a.'+l C@G#T l.> 5 j !.+*f%)++@*@$.< 2 B D i f a b 8 >.0 0 ; < * } z z n S #@-#1.~.8.<&n a#{ n+e@t#r+g@u@u@' : 0.' u.0.q@n+D u 8@F+1.v.$@o+6&O.!*2+q@O !{>+:+R=/,7$R#5,r[r[d'w@7$o#g@f@S,i-@;L.l,L*2*K~@,H*u.o+D $@n l+v.l+{ $@' )*D B@I@v.l.q B B D T p+p+n+q@9.%@p+n+{ )&h+T#84@|2:M]]&6=s$^>{{~%j#k#8@O 5+[{u-|$2$h@u@.+q@O 1.' ^.].].].u '@H#$@n '+'+C@n@m+(@6#+@Y@ .=$^-#%f$7$1.o+9.B@t w > > > n ~ { s+u@l$l$u@t+u@g$n { w.B@v.8@O v.D p+p+C B@>+{ s@C n o 4 2 o [ * u ' v.B@$@w.D 8@v.B@w.O B@n+$@_$_$%@v.o+w.a#B+'+] l ] ^@3#`.H#I#h.i ..C-Y.l ' ( _$i$C(M&I+)& -A=6%K%B+r@G@]  .4#c  .a a n o > z Z.'+%@D I@l+n+w.n 9.w.9.)&9@6$b@%@_$l / - $$q)N=/%=$D v.y.i#^;V}^;i#w.9.n n H@l o.) l n B@$@9. %",
"2 &.o ; 2.*.U.V$z+Y#F#F#]-D#z+$*5 n S 6 o.|@6 2 c #.,.,. @,.[*[*G{ *[%^#g%#.1#2@1@*.B :@b!)>6%C &.7 k.` #.b #*]#=*[%[%+*e%+&+&9 b Z 5 S l *.; &.2 4 - ,#{+$=, 4 ( ] ( 3#C@0.u.a.' : _ : 0.'+n ! $.8 !.W$$.!.*.D@l.m f>J%J%#,Z}M&l.l.q n l.m 1 o /.&.A ; o * 1.4 n ; > o n > /#9#i$%@q@o.@+g$.+@+a#Q Q+o.q m w m w r l.n m C t G+{ [. ./@Y@5$) ' j+}+- ] a.( `.C@r D@3$)#j 8 p&V*j >.!.a } ^.(+^.o %.#.+@9 b 8 )+} * > [ z - > z v w m ~.%@)*o+l+D O y#t#J@A@@+h@C&{ 3#^ ;.o.D ' p+B@1.B@>+o+>+_+@;@;O.Z.v.{ 1.%'-))*t#f$n$&%N}5,s$s$r#n#n#y#6&v>I-L.K~#{G-@,@,2*!+1.D q@0#v.)*_+8.C v.I@D n+D $@l.Q+/#R {.m ' B@B+8.n p+v.D n+j#P&/>u<J<2:3&(-%+G%x@x;)=b@x;$@y#^,'>L@k$I=f$J@t#%',+;+o+p ].].P R.'+X.o.u.(.:.|-&@H 1+/![.+@Z#> r+H>t#y#l+D B@B@:@o.! ! n n { { h@2$.+@+.+1$.+g$' o+O l+B@I@v.v.l+v.p+a#B+C c$%@u l+z 1 2 5 5 *.O n C _$w.9.B+9#8.I@o+O n n+w.a#<&s@r@_=z%<&~ '+~ ] ^@G@H@r@Y.H@j.i.p-i ( 3#~ : O { K% %y.=;', -Y$x.v.{ ! _ r*|+9 h +@+@> } , 1.' a.C p+w.$@_$%@%@B+B+n ~%x;x;r&D D _ Z.1.u.w#6#- u.l+o+X$j#I;P)=; %_$B@0.n C@`.'+'+H@3#v.l+l+n+",
"q x S s G+p D B [#A$V n'n'W <;$*S #.2 &.&.6 )#|@;.e#`+E+ @..S.i*i*[%[%$-,.j ` U.U.Z o.P+)>`$6%/#-.@.k.%.7 a h b p& &V*+*+*%=]#7 %.*.A ; n 2.2.; > * } 1.- 2.*.&.( B+( B+^ `.] '+l n ~ ~ 0.- : : +#L+[ ; 2.*.-.=.%@p+J#0#Y$j%;-`~n.Q+x x T m o | &.&.S 1 < | z > | o < , v {.5.;'a#B+.+l$-%6=(*W/'@m.G l.M${.x B y n o S D q G G ( n ) / ! ,+~+Z.}+' B@{ n o.q@C Q+y U.l f N&p&[%g%.&i c 5 Q+[ S ;.d `+1#7 a b 9 1 -.n 4 } < [ 2 l.l.v [ $@l+n O @+c@g$g@n=n=>&2$!=x&e._-{@C&K@t>[+f@[+<+J@h@h@7$}+m+=$~+>+p #@n!p s O )*'*s$e'&%f$>+F+n+8@u { ' _ ' q&9%r*6#K-h#> ' 0.'+_$9.w.n+D l+8@I@i+b@b@)&o S y n._#u %'O v.n+l+l+u $@%@i+X@K>d%|&|&'&=+H%-%&+8=h$h$ +@+I%A@g$K#t@Z@%'_+F+F+_$o+%'R=_+I@I@- r*n@7 :.w#6#o@e!o@9%r*(@&@w#] h@{&l%(-u+.+B@)*$@C w.B@) / '+/ u+2$1$@+@+@+g$)@w.n+%@%@n+I@' O w.v.O q@q@c$l$y#/%> 3#o.5 =.H=D#G S B l.q l.B R C o q ~.~.t m :@a#B@n $@D D I@F+:+)*_+o+q@D )*l+i-I-I-G,o|^/$$%'_+%@x.V~S/V~.%H+y$k#o+w!=$m+>.>.X*!.!.+@> - [ /.) ) '+] / ~ > Z.C@H@i$o.8.9.' u }+=$}+u.7@+@6#9%K@i-J@g@'*9,A]V,=+%+n%o%h@u+{ n / ] > u.) { (+F+",
"v ].p G+^.[ ~.G }#U r=X+^&7:U+[#j ..5 | z 2 -.U.A 6  @%.1#E+V*N&g%[%V-<%|#i *.n ;.-.{.l.6%`$0$:@&.a #.j k.h a b [%[%#*]#]#7%p&N&E+1 z | S 2.&./., [ /.o | o &.| ( ( l I#G#r@3#a.l ] ] '+' !+u.! >.1.]+< [ > n 5 v._$/#9.i+x.1*]'a%R /#y w q &.Z ; S 1@S 2.S 2.n S l 2.| ~.T <&v.8@B+1$)@&+*+ <m%9#{$x C ^$B l.x l.s n {.~.l.r B a.n a.: { '+] { j+- R={ %@8.0#a#y :@U.%..&^#p&$-$-[%j &.- o F$m l j d j h a +@a , 3 = * o A 1 z G+^.[ w { v.)*>+g@y#[+3+'>5;F->&2+b.!*d.J.M.F.J.y#n#g@[+y#J@s+g@'+(.D$.##@o C v v p _+1.'*v&d'P&_+R=,+' 1.)*Z.=$Z.(.o@&@r*9%S'&@j.a.{ Z.>+w.R$8.{ O ' O i#i+r&b@D T B C C E.-#u u n+O I@u D B@l+d'T@C%Q#E%M#(-%+n%s()@u@x#.+g$h$x#%@f$$$x-' _+!{o+<&p+>+8@{ { 1.m++@7@6#9%h%B, .i.i i Y@&@7 h#^@I%]&6=r$x#)@C $@p+8.0#%@n B+) ] x#1$)@g$A@2$1$)@n %@a#0#a#9.D w.9#o.B@n+F+w!z@t]k+Z.{ / n 2 %%F#~.q ].G+o C w n D n r q D t [ p O B@n+l+w./#n+o+8@l+v.8.0#8.B+w.J.d-O.v>;)I-_+8@l+%@b@6$ %J%:%Y% %b'F+x-(.Q&g 8 +#0 0 b 1 4 | 2 ] ~ / / ( / 3#o.G@H@^@8.D I@u u D$&$-$_ q&+]O=6#!*v>t#q#y{O{h]f+u&w@{&z#n#t+) ] ) { _ _ 0.! ~.[ ",
"2 Q G+].[ o n m X+W+Z'}=X+U+}#[#%.|#l &.r Q+r T ~.w -.o...E+[%#*%.%.i +.,.#.A -.|@|@:@B B x @@_#1@%.h @.E+j @.c [%]#f%-*]#%=0;]#@.&.z z -.&.1.R.R./.o &.1 4 1 ; 2 1 1 | - - o 2 o | < * [ < < > * [ z D B ~.D s 9.l+v.1.)*l+v.8.7-B G w S o.l 2.> S l *.S n A -.{.x P+r G D C w.g$t@{&/-d%f:f:z#8.w.0#_$v.n+'@>~C 8.C n %@0#B+9.! ) ( ] $@w.8.9#s@%@C _$I+1*Y$p+n S h h ^#g%{>x,c)]#h 2 > ~.X#T } g )+>.i d 0 $.; 1 , 3 o n 1 S ~.~.].1.:+$@_+1.n#t]@-A*>&.]d$!@!*B&t>6&@;j-d-d.x#e@J@u@u+g@<+r+,+,#|.}@^+d~U!)~9404^+'$b'+!x@'*)*1.D Q [ [ /.4 $.L+X*+@%=%=f%)+&@- }+E$q{;+' 8@8@)*i#6$k#W#I+i+B T [ }.[ Q n+B@o+D n+w.{ w.{ _$Q@F%P@R#B%'&,=^-d=e=8=)@@+@+d.J.n n w.R=D 0#%@o+x-n+%@D v.%@a#9.: ^ H@l / G@U*~ '+'+~ a.Q&: _ { t@l%~&H%H%6=.+h$.+e@n a#%@a#n _$.+)@l$@+2$u+x#A@n+n w._$o.B+w.p+~.~.$@_$t#/,s#n#K@B&{ ) A | F#& r y B u ~.C r S q m S n B T l.w n+w.n+w.D 9#p+w.n 9.<&4'0#B+o.$@Z@@+)@s+J@t#:+O n+v.9.C n B G w n+9.p+' !+j+J+H g 0 9 +@8 8 X |@/@j.j.h.P-P-|-(@ ./ { Z.}+/%=$Q&: '+a.' j*+@^=d*j-|;h,^,N{D'q,L>g+Q(v&w&h@@%I#3#5$(@a.'+*.Z B G ",
"1 D ].p D ~.s s U U U W T&[#Y+V+0 ` &.U.^$(#@@o.D o U.Z 8 !.]#-* .f 1#1#j 7 A |@U.Z {.w B {.Q+w ; a 0 8 h >.J+X*M+]#%=e%+*]#!>]#0 2 | [ | z } 3 n 2.l A Z U.o - - 1 A * > 4 1 o * | z , 3 } 1.1.R.|.p u Q v Q ^.n { n+' o+D { 0#m.S w w q s * 3 }@/.n Z &.> &./.s D q ~.v o p+{ s+f$s$#+P@c%.:~&t+' i$R$$@%@0#i$J#9=s@$@p+a#p+$@C@( ~ B+v.B@p+R$_$w.I@o+x.9@j#9@n 6 %.b %=-*P;0;h&]#+&- , D s&w z L++#)+b ,.`+`+&.[ 1.> 4 A S U.t q o ^._+n _${ h@.+F&4++,>&,=!@D&L#L.v>2+t>I-F.A@e@n#n#.+2$t#p#!+n z }.o')~+$A+@=f]>#}.=;*;6;(%u ^.s }.} } |.1.X*g *@!.7%+*M+W$1+: 0.) 9.{ o+)*:+>+W#x.i#6$y$i+u q n o o m 0#0#C a#<&<&_$p+n g$7=f:f:w}'(.:A*^*c=z* ++%==U,C&( T B n (+B@o.<&n O u ' l+q@B+C 8./ ! ) ) 3#B+`.R$'+n / B+] D ] n P&w&z#l%/-=+u@C#.+h@$@%@B@D { { h$)@1$2$x#t+h@s+n+q@p+%@%@$@n+a#t ].B@D r+g@h@x#F.6&m+! *., ]%& v G l.Q s w y x @@T l.q S {.w G C 9#R$o.B+'@_$R$R$$@a#8.s@n O n+g$k$k$g$)@x#' n 9.p+n _$m B x w o.i$o.$@{ - L+L+.@c k.j j h E#Y+h%j.4$i i i.(@4#1+|+' 1.$$@~-$(.=$Z._ > 5$(@4*K~L.G,r#s+'&T@m>S@p]k>h+r$x#l$C@3#n@+@! { ; -.y l.",
"[ G+p D D (+(+G ^&U&W T&T&V+A$X+a #.n e#^$P+o.S T w A | a k..&p&a 1@;.Z l Z S l A 1 w w w m w D *.2 h h h +@>.!.-*7%e%h*c)Y;{>%=h *.&.> 4 | 1 2 l 2.n o n 2.1 2 z Y#Y#F#D#2 2 &.= F#z 9&]%I$= = F+E.'$p ;#G+u (+Z.1.1.,+R.u.!+! G m o ~.~.Q [ [ * * 1 o 1.< &., D ~.G s t q 9.B@g@o#'&(*'&d%y*!&Z@l+s@a#a#o.n+n+i$'@i$a#D@9#%@$@q@i$0#o.8.p+n+0#g>Y$81{~1*6$I+K%> n @.>.e%-*h&h&_>e%q=z [ t z$F$, .@8 8 9 f ).1#> < &.o | o Z U.v ].t v 8@u p+v.f@o#e$5;#%d=7(z*~@{=P#s~s_|$]*~*,=/&u-F-P#+,@-f@{ o F@, A+b&a4b4)~94d/n'b$.%W#X$P Z'A${%= 9&* z *@>.>.H p=N f%>.H u.Q&_ C B+v.w.x.k#X$^;b'*;P%W#m q n w o o _$'@D@J#U*D@8.s@a#h$B:c4:*_[>&,&m=z*z*,&c-2=],d#d.C@C }=u m R #'J#w.9.u [+x#h$2$2$2$n+O l+B@%@q@v.r&a#6%_$y$B@j#v.j#p%(-z#r$w&'*r+t#x#A@.+@+l+l+n+{ l$.+x#u+u+u+e@Z@9.p+_$C w.$@a#'@/#C { o+/,x#.+A@c.F.0.: /.* & E#s v q n m l.C ~.{.S @@@@@@r B T / o.R$i$n 8.0#<&q@9.i$C n w.D p+{&G%*+#[6=6=i$s@/#r@{.m o v w {.B+c$j$p+&.2 +@+@-*]#8 8  # $%%E@w#p.Z>3@8%=@S'#)1+q&H k-q&[.w#&@0.l h%4#r*e;4^d4G,j-+,+,7+z)F]7,V,o]{&%+l$u@l l 4#w#z = /.n /.Q ",
"| '$}.[ s D q B l*O[<#s%l*:#U 2 |@c /.5 Q+n o.o.{.y A < j  @#.$.1 k ;.*.l o.5 2 1 o {.o.T G 5 ;.1@6 +...#.0 b a p&+*g%=*]#.&2-+*b l | 1 &.> 3 1 l *.z o | - o 5 U-U%8&&.@ Y#F#z F#v#* = .#$)F@$)#@}.(+}.;#!##@}.}+D$=$=$D$_ 6&' v m s t D v o 1 n o > * - 4 [ z q D D m B l.{ n+i$C#R,5{]&$+r$o%7.e49.1.<&p+D n $@{ v.i$f4z!_$i$R$B+8.0#o.B+n u l+)&z%1*' i+9.n+{ [ ; >.*@+@f%h*@*=*>.2 l q Z%:%4 *.5$n ) } - o 3#~ C@( _ > / { { q D F+)*w._$)*f@t#<+[+,=c=z*_[5>D&{@A&2;|$~*$;u-5+F-P##%+,'>f@(.} ,#F@[ r=V A+o'Z'V b&C'w%W#W&w%'%{#_)(+@=t o z /./.g *@H f%$.' { u.n c$`;%@D ~%i#b'b'y.y$)&I+[ [ o T l.w D s@7.z!z%r@H@V%H@c-g4&4h4)|~*z*h4_*A&A*e.]@!=M.b.) y r%].Q+D@t-0#D@$@;+7$u@u@x#k$f@D j%8.6%$@)&*;k#i# %d;i%X$*;j#=;9,v&`(h+7+s$g@t#n#J@n#1$9.O O B@1$A@2$u+s+Z@J.F.B+> _ ] { B+<&/#u o C O O n B+8.{ n / B+| 2 B=A;C t s S w S C G {.n Q+R /#T l.o.^@^ s@0#$@B@w.n 8.$@p+c$a#{ R=;+=+=+~&%+6={&n+c$s@p+{.T T w q o q q <&S -.Z , .@g >.g *@!.)+)+g _.5$Z#4#r*r*_.q&:.Z.&@/ h%~ 4#) B+H@n@H 1+N*M^2*v>d-5;a<&%F]=%e+o]V,G%-%t+h@C@0.9%[.; , /.o R.#@",
">$]+R.[ ; |@2.; 4 n 1@@@l n n k C@' Q&: ! 3#I#I#V%p@r@I#I#~ _ ~ U.k V$e#-.n &.S &.n $%X D#E@O*X S Z 1@o.Z 1 o > >.9 @  =H$3%$&U-- - o > o ; 1 A S 2 2.|@z | 6 7 L~}%&>/=^{l@L+g }.* z ,#1.u (+v u t t Q D _$p+v.n#J@t#s+u+e@/&Z@n > [ o o | l *.z n z | n 2.4 o q D o ~.~.l.r o.y <&<&s@c$R$/#'@7.5'v.o+9.o+1.l+0#n $@s@p+l+C j$2=M.i-N.T,K@i-e.F.e@M.q#]@@+F.D l+D n+u.: 0.7@h#Z#[.! a.! n n { n j$_-n u@n t+o.C<k$H*x&^=K~K~D;2+> 6&i-C&!=! _ u.) n u.O.'+( I#i4%;4;4;4;5;'{{=j4|(|(=_j<0_8(O@u+B@u p ' v t v s ~.G o t u G+w%/;** ,_;9@~#y.B@O 8@o+: { 0.+@a.> 8.n+_$_=R$T s G ~.o o Q+R w ~.< ~ C@B+/ G@3#o.H@;.C@5$p.4@63k4s<h4l4m4k,n4>1c#,=g.{=3;H>1;4;!*r@b!$>a$j#)]o4T;i+b'^;W#{&$+R,X@6$>%I+a,y$y$y.j#0@(%9#o.u v.I@v&R#T@E|e+b_7=2],(l<@(z#-%1$.+h@l$y$W#$@_$) n i h%6#7@Y@5$5$H@' !+3 A+$%2.o.5 D@V$l l U.|@5 2 l ; s o l.G D m S n {.:@{$P+~.l.B x G@H@G#3#'+^ V%C@'+> D l+I@)*F+o+{&P&s$u&v&s$I@8@' $@x o.r x [ ].z * * o n G G 2.'+: > { _.w#h%(@b.F.C&t>B&J.2+c.d#+%d#2$c.k$d#F._ 1.~+,+' { u._ d.F.h@t+t+#+/-#+-%G%/-o%)@_-/ { a.> 0.'+_+9@m S ",
"} = |.[ &.|@; 4 * > 2.o.l 2.A -.'+u.1.}+!+'+`.`.] B+^ G#;.^ ~ a.> ; 6 k A n l n n 2 %%%%l@U% =H$n 1 2.2.; [ /.[ H $.v+l@U-U- $k*}., 1 &.&.A 2.-.-.C+X%D@2 &.- h L~.*g{%&}%}%)+L+< * ]+-#p v [ v m s [ t D B@l+v.h@J@s+1$d$S$,&u@! - /.o o 1 1 | [ o n ; *.*.l A Q+C B m D ~.l.T P+{.o.w T l.x q _$D B@9.$@p+B+{ C q@_$q@a#i$j$c$F.L#v>i-b.c.d.T,B&d#C12=d#c.2+B&l+D O 1.>+' ! 0.' _ ! { { ~ l ] g@u+.+l$n%#+(-s$@+A@B&c.o_p4q4i,L#C&M.!*b.H*' Z.> u.l / 0.m+; ] ;)%;~*4+H>6&6&=}r4&|=_m_0_j<0_P#y#I@u l+v.' (+!#G+].^.u n l.~.:%c]I;,,I;0,.> %9@=;k#)*l+] ) > B+C o.p+0#`;0#o {.Q+q y B Q E.@=1 6#+@L=Y.^ u.}+}+o.G@B+7@p,Q$Q$s4I[7*0*i)<,F;G&d_,='{H-I,1;I,%;3+y._%z$ %T=i]o4m#r&)&(%j#z#l%$+%+A.',.>0,:!I;6$W#j#)&C D@9=0#q@8=l<E:c+|<*<t4|&c%@(f:H%n%u+2$A@t+r&r&p+w.] /  .f#S'f#L-h%i.h#Z.* Z $*8$*.2 X A;% Z l o o 5 U.*.< (+q l.S Q x S l.x o.n.y ~.Q+o.l.G@n C@^@'+'+C@~ a.o.8.o+)*>+o+w.%+r$F,6;F,v&u _+l+B@[ u E.#@>#G+= `@& z q s ^.G+F+O ] ) 4#(@m^D;2+u+g@r#y#e@x#t@@+t+h@h@u+u@u@Z@1.R.!+) a.{ ) a.c.M.g@.+1$u+e@A@G%=+z#l$k$B{`.G@C@~ ! 9._$#,0$q ",
"z , /.< n -.z * A &.o l 5 5 n | ' ! u.(.' ~ B+B+l B+3#( { > '+] 1 z 5 _@S S -.n 4 o 2 E@Y+$%B=Y+[ | o 1.3 [ 4 - U-x+# # # U% =p|- - o ; A S A 2.*.C,2#&.2 2.]+[=&&&&#&o=}%^{)+X*}@|., - ~.s D t m s D w _$D O B@n#f@h@t+[+f@t#o#O ].m n > z < o | | | 2 ~.v Q G {.m ~.o o w {.S R r C o.o.{.n n %@B+w.{ l+_+n B@q@o.c$9#/#r@/#%@H*C&2+b.F.M.!*d.b.u4v4i-M.2+O.L#u { { v.o+u n _ : _ ' Z.m+- ! 3#q@D C c$P&w@(-{&o%l%x#Z@B&|$i)L*d-6&O.c.x&C&!+' 0.0.! '+{ o.;._ L.6&@;t>K@!*{*%;+,%;.]P##;+,+,5;o#<+:+:+>+)*u l+u I@#@^.B T t {#z.:^>%:'J;',6$i+y$x.1.)*$@C l o.w.p+p+{ B@' F+{ s@p+(#^$S o n 1 +@S'i>[.' !+l+D B+s@C >+=$j+(.( 2+2+B&!*N.f=!=d#6&1;.]H>>&d=^-r#T;y$)=d;y$i# %)&{&G%G%/-o%m%W/-%G( -6_{'6- -W#(%I+y$l+R$s@v.q@u+d%64742_'&(*d%F%P&n%l$.+u@)@+%8= % %r&9.C@) _.6#[.h#:.9%r*0._ | s V+U V u T m w x {.t u %@B@l+{ 8.%@D { ' _$8.s@/#C q@s@c$D@s@{ `.( ^ 3#) l ^ _ (.) n ~ l+8@>+>+r$X@o#r+q+o#[+Z@O )*:+)*n!G+p ].3 > < } u p p G ' O `.0=C-/@%!#{v>j-I-7{J@u@2$@+g$:(W:C#K#u@J@t#> - > _ ' }+u.> _ u.3+u+Z@r+3+t#w@/-h@u+A@A@l ~ n n q@o.`;9#E Z$",
"A A S 4 > | - - &.A A k @@|@A < _ : 0.' 1._ > R.R./%R.m+! n ( 3#k 2.-.)#;.U.Z A 4 4 & z 2 8$E@Y+n 2 o * | ; *.6 S*O&# l@b,m@H$8&o > ; > z | o n A , s]}.o - , .#|%&&@&@&$&$&g +#= , z 4 [ [ ~.G ].Q ~.n p+n n+B@J@Z@1$h@J@x#u+O B@t B C | z z 1 n 2 &.| {.o ~.x y :@{$]${$m.@@y P+/#_#P+P+{.@@P$r@z%_=n+8@>+>+l+v.n+{ B+B+0#C O B{],x&M.i-B&B&H*c.u4w4x4S,j-F.C&n+n+w.%@%@$@) m+l '+Q&Z.n > _ { j$<&0#s@6;o%%+6=z#-%x#7${*y4z49*2+B&M.C&x&2+' ' 1.j+$$k+> 3#n |.j+@;I-O.v>t>K@4;%;B&F-#%+,s/|$|$h@g@f@1.1.1.>+R=_+I@u ].[ G+P .%J;S(.>>%.,G( %j%y$x.B@v.9.C ~ u.o+;+>+,+_+,+;+o+u l+G w r S t z O,#)<.N*/'}+u _$i#+!S/V~k#k#i#j#] 2+F.B{f=B&O.i-P#,=,&F-H>@-5:s/w@K%j%y. /L'X$i#G%z#=+#+o%-%z##+*+P<d>Y'E[W=X$^;.!V~D _+_+$@)*f$('Z:b_i[M#y*s: <r$6=x#Z@h@x#u+n#i#x.I+~%0#> 9%(@Z#Y@5$' - 0.' m+t b&L%A+p G ~.G G n [ ].a#w.8@,+I@' O 1.8@' B@o+{ C %@{ w.q@_$_$~ `.^@l : m+u.: n ' j+Z.l+u O >+t#{&t+[+s+1$u+@%e44-c$w.B@o.Q+{.-.l o < t [ [ ~.$@a#^@^ h# .A^[-e>d-6&v>g@u@2$x#1$+%B(x#y#Z@h@<+Q&u.u.Q&' - m+!+Q&Z.7$o#r+J@J@f@r$P&s+u@2$x#~ '+{ `.j$/#D )*z$j~",
"2.Z l z 1 z 2 1@|@U.A Z 6 k 2.4 ' ' Q&}+!+- }+#$~+m+a.( / '+] G@X.^ G#X.U.2.l 2.3 * /.1 m&D#D#A;2.1 | 1 *.*.o.@@Y*O*#  $`@m@+ 8&]+}@= }@|.3 , [ z = }@1.* 3 * 4 f{$&@&1%.@H J+[=*.o &., :+' B@u }.G+' u O n+n+B@D 9.x#y#s+.+x#9.n ~.o w m ~.m o q o C l.T Q+_#T =.o.2.n &.2.S 2 < 3 = ]+[ l 6 *.n j$,@/#q@o.$@O n O u D $@n+a#a#l ^ n - j+> n ] 0.! p@C@,+Q&_ : { 9.p+n _$p+! a.o.H@'+> ^ ~ ] a.9.o+B+U*s$P&l%h+u&p%@+Z@M.c-A4d_b.2+C&j-d-@;' j+/%/%-$u.H@n z < !+Q&}+-$Z.: - i-H-K@[+t#f@J@g$h$d=2$J@f$h,a{2)q#3+>+_+:+w!F+8@i#x$:':'P%.,!!x%K%_+8@n+$@B@u !+R.3+t#y#r+t#7$r#f@F+w!u ' 9.n+_$`.=&A>5]1+w#1.w!*;n;B45-h'h'h'h'J;B@> u.{ ,+;+r+7$b-5:.]S$p$C4D4n$f@l$7$q#u+3+J@s+e@)@>&S$!@,&,&*+%+c's$G%v&l%~&6=n%^>t#r#q+s+2)S]5, <F%`(Q#Q@=+~&h@s+t+Z@e@A@Z@/,0@6$)&i+%@q@( ( { a.`.R.}+n %@9.~.n {.w o m %@9.n+B+q@p+B+p+C 8.h$h$2$h@J@e@[+o#u+)@.+e@2$@+g$@+! a.~ ( ) ' 0.3#G#n !+: ) 1.Q&' t+/&d=L@r+t+h@u@@+K#+%$@' w.8.8.*.; G q s D $@n B+C !+1.r*_.w#[.K*n,6&S,v>c.F.J.)@@+x#s+s$X@u&7$}+[ - _ ) ] 0.- 0.> J@3+y#g$x#y#w&w@t+A@A@g$3#`.~ ( _$$@_+B@a$6%",
"5 S *.2 S 1 l ;.6 -.-.Z 2.S z /.> ' }+}+: ! 0.: ' 3#`.~ / / / ^@o.o.D@V%&.2.|@5 n > | ; E#*.% $*A o l U.U.-.;.Z O*S*w+8&m@+ + J$/., } * 4 1 4 < | < A o } [ - ]+J$*&1%1%$.J++#J+*.o A } )*D u >+'$^.' O l+B@v.v.w.$@u+u+g$A@J@D m G s n G s w m s m w B T x w v A o 4 /.- /.z /.o ; 4 z - ; > [ _$C 1.l+8._$l+$@$@9.%@u n+{ D@'@{ l ! Z.0.( ] n ] ) R.!+3#_ 1.- o+w.%@l+O _$`.Y.G@^@'+'+^@'+'+! D ' n a#p%p%{&u&u&6=@+t+B{f,>1^*f=!=H*d-~)~)m+m+: { { n l > } 3 Z.=$- u.{ ! > : i-L#y#<+x#B(l$e@,=|$h@n#3+7$q#/,^,2)r+' >+)*B@O i#x$:'A=.,z.y$y.l+u u O u _+(.m+s#h@[+3+J@J@3+g@u R=)*>+8@O O m+*@Q'<.6#! ){y/m;h'h''!:^s;E4F4q^m = D$- ;+F+3+r#F-F-'>>&r_G4H4D44+@+/,q+r#q+J@o#s#<+b-u-#%L@d$#; !x@'*v&6;&++<W/X@^>1$h$Z@f@[+s+m$F%Q#O!m$`(9,w&s+e@u@g@x#t@A@n#k#I+)&W#w.p+'+u.=$! `.)*D _$a#0#m o.y r R n i$0#w._$_$a#_$n+q@i$@%<*K#K#1$1$u@ +)@u@t+u+t+u@8=1$n '+a.n ( 3#`.3#H@( _ ) _ m+k+-$[+,&O@#%t#t#r+3+y#u+g@[+n { n+$@: - v s t n n )*O D k+,+|+9%5$Y@5*K*N.C&H*N.B&J.1$y#q#o#w@r$r$r&&.4 ' ) : 0._ 0.( a.x#e@h@@+J@r+F,s$e@s+A@h$~ / n ~ C C ,+_+G$,%",
"*.1 2 1 | 2 S l l &.2.; n 6 o > ] ] m+(.> ) > ] ( ^ B+~ ^ r@^@`.Y@4$D@r@( ^ )#|@U.2 - [ n 2 ; l &.< 1 A 2.1 | < U-U%8&`@H$+ v+@ z /.z < /.4 [ 4 3 &.A < < /.o /.!.!.)++#)+L+| o | 4 '+m+8@O l+' )*I@B@n+{ B@B@{ O D v.p+B+n+O v.o ~.l.T H+Z%a$0$`$z$Z$F x w m G n z 4 | &.A &.< 4 1 o < /.* o o.&.1 l n 4 n n | 1 U.o.} &.@@X%;.' ! _ (.> o.^ { u.'+0.I#^ 0.Z.> u v.v.I@O %@o.G@> ) '+B+^@!+Z.' l+u D $@)&i#i#y.X@-%/-z#k$:)F>B{B{@+g@r+q+r#R=l+C n v.{ B@v.u o 1.[ A 2 /.1., , ' - O ' n+c$<&2$u->&,&d=,&/&S$S$O@y#t#y#y#g@g@r+T=y.y.r&y$k#b'i+n D ' u l+B@l+I@o#@-[{H>s+n#o#y#3+<+3+<+r#f@I@u j+k+- o+)*+!J;G'i',,I4J4i':^h'd>Z$A+^.t 1.E.[$t+Q@7+r[M#8<9_K4]<,=7$s#r#u@[+F-s/'>.]G;5+#%G;L4b-e)q/F,;!$+M4S:=+a{r+C#g$q+/,g,J@^>s>v@;!A%S]<+e@h$t@1$g@2+M.i-3+i#(%=;*;x.=;F+)*;+>+)*>+I@X$X$6$b@K%;*g*b!i%r&r&;*#,=+r$X@o%%+$+U*z!D@<&<&'@/#r@<&0#%@w.$@s@D@p+O B@w.q@8.8.o.r@`.! ! ' 0.( ( }+H-O.S,i-f@f@g@Z@t+A@1$.+x#n#e@v.1.' w.w.l+v.l+,+>+,+/%/%!+a.( a.w#|-T.B*h-P-u.(.u :+h!$$x.~%y$1*2 [ - o 4 - - : : : ' B@O B@t#t#n#g@h@.+t@.+n+$@$@D v.n+1.1.].Z%",
"o.&.*.= 3.4 2 < 1 > 5 l l k /.* ( ] ! _ { ] l l B+l ~ n n ~ ( ~ 4#j.^@o.H@;.;.|@-.e#C+;.A &.n ; 1 2.1 * | z } 1.U%7&J$@ U-+ k*b,4 1.]+R.|.} 1., 3 4 | ]+,#,#- 4 )+*@)+$.h 0 2 o z 4 0.u.B@I@O u o+I@' ' u O { n n %@w.w.v.I@B@v.m ~.{.{. %Y%6%s=s=0$Y&K$~.w B B A 4 * - 4 2.6 o.l 1 * 4 [ n n A | 4 z 2 S 2.o.&.2.2.| /.- | 6 -.Z.1.1.m+B+( _ (.! : Z.!+}+: 0.! v.B@O v.O I@u.}+k+m+u.'+^ u.{ : )*n+$@B@k#i+~%i%{&h+6;(-t@ +T,]@1$@+o#3+e@1$B@%@C 9.v._+8@u [ w > | A 1@> } * |.'+u.' 9.R=_+<&2$@-5+>&4+#%+,0-'>.]@-[+t+l$8=1$s+i+=;j#k#k#k#9@~%$@w.w.' _+D 9.:+[{j/0-u-t#3+t+1$s+J@r+r+++u@8@_$B@n I+j]7'>,l]K_'!L_)!P'',G(G(';m V p o-t*m D 9.-%5,j[e_t4r_N4/*!@e@u@@+2$r#,&d$d=O@n{a-'>n{j<G;n$F,w&F,m% :#+v@q#r#)@_:)@/,x#e@u&c'z{r'q+<+g@h$I%@+2$@+f=L#L#v>-#i]i]T;k#7'$$l+R=>+F+-)V~I+x.y.y$b@I+T=6' %y$i+G*)=X@{&r$#+~&H%'@@@i$n.z%<$'@_#q@l.%@Q+j$@@i$)*{ %@%@0#`;R$3#r@I#n n ( > ) p@m<(&C&@;t>y#t+g$)@n#+%,~4>u@g@t@I=9#c$B+D _+%';+w!-)x-!+!+] ^ > '+h.L=P-..h#5$Q&j+1.[$%')*j#k#~%q@2.| /.- | [ m+- !+u.o+u >+:+f@t#f@t+)@++1$h@n { O v.D O u 8@^.W&",
"n , U.@@} z 1 < - n S l |@_@&./.1.C@( 0.u.~ / > B+B+/ ~ ( n a.( _.h.P-4$..7;{ '+; o 4 z D G+D ~.n 3$k ; ; ; 4 }.+ @ v+U-3%# P*# *.C+4.6 < = 3 [ /.4 /.- | * } [ z = < 2.|@)#U.| > 0.: - 0.3#0.!+O D w.1.>+{ w.9._$8.D ~.r q Q D n > o t Z$c!h{@>K$7!%* %D Q 5 Z c 0 >.9 f  . .f f #.9 W$X*` %.`+3$n 1 | 4 z * * ,$}@, , /.- /.| Z 6 6 *.< = 1 [ /.* [ } * * - Z /#q@9.D O )*1.Z.' Q&- - j+u.! `.~ u.B@B@y$6$*;G*{' -#+G%x#.+u@n#s#t#n#e@h@s+9.p+{ u o+I@' u o T k B=*.m&, Y+}@, } [ ].1.u Q n t+O@!<@_t[#;/&|$#;#;+,>&d=u@g@J@Z@.!I+6$x.r&9@O 9.)*8@B@I@o+n o.x-0-e=_*c=s+[+<+f$n#t+J@h@t+h@' j#9@A.G(,_)!O4P[K_)!)!Y'6-~%i%$@Q n!P404X+S o.c$p+{&(-R#m$O#L<t4t4n=g$C<k$l$@%_*!@#;q$u-/&>&.]._+,#%1$s+u@x#g@e@k$k$8=s+h$+%c@ +[+F+p+o.{ D O ) o.a.! - H@l 0.- m+o+' { $@i#i#~%i#i#I+^;(%k#(%V~b@i$q@B@)*D w._$n R$`;9(U,k$)@l$B+P+h;C s||']:<$Y-}.V+@@X L$c&x m p+$@$@q@C B+C@G@r@'+{ ] Y@7 7 h%M=f=x&H*M.t>J.!*u@B(8=k$h@g@K#I=6% %v.8@R=;+%':+k+R.: n ] u.a.H@h.|>|-6#7@/'~+/%-$1.I@I@v.D O B@n < Z =.U.| 1 > ! m+u I@_+O n { e@h@s+J@g@h@9.9.{ D { l+v.I@]..%",
"-.l -.6 o z &.< | &.2 1 &.A n U.`.^@( : a.B+( ] / ~ l ] ] 3#`.o./@/@..7;Y@O=D${ o < = [ [ D x T | 1 | | o | 1 <  $w+u#u# $ $~;/=Z o.e#D.-.> ; z &.2 3 3 4 * - < A | 2 l 2.; z z '+> 0.!+_ ] > ' v.u l+u O { D $@_$n+~.s G o D w 2 Z 3 D L$Q4x%~#{#`$x%s=B G | R.#.` i ..B*i 8 9 ` 1#b h #.7 j=R41=> * z } [ } 3 , ]+1.z - z ; S _@X%>*2 $=-#- &.z * z 1 o 3 R.* 9.D w.8@:+8@- u.(.-$/%u.' m+!+'+0.0.q@$@y.i+i+b@ -d>%+6=)@x#s+t+t#<+o#)@@%)@l+>+I@I@_+)*v.%@B B s*X 8$&.z E#} - 4 1 o Q Q p O 3+#;C/j<L4L@#%S$O@#%>&,=F&x#g@Z@s+ %y$i+i+j#T;u O >+_+w!,+u O 8@%'x#,=/&#%g@3+o#t#q+q+n#n#e@Z@v.~%c]F[h'G'S4T4k^,, }A.K%p+p+_ H , .#S=A+Y+v Q p+$@G%X@7=7+f_8<U4d%h$g$J@+%B(8=^*,&S$z&A&A&:*F&@__[d@K#x#x#e@Z@t#r+1$)@h$ +U,I=.+r+:+_$j$s@8.v.! / n { 3#X%X.' !+(.!+u v.{ $@1*K%b@y$i%i+y.k#j#i#x;R$o.n w.:+F+q@<&o.%@e@2$t@8=g$a#L$<;Y-V4r^U&U&R+d~Y W4S+T&S&U&^&9.%@q@q@9.%@n l o.> '+C@..7;Z#|-`.]@B{d#d.F.b.C&e@n#x#.+u@J@+++%W#*;x-R=w!R=R=8@( `.o.'+{ > 3#r@Z)h-r*|+H e^-$!+m+(.{ 9.D w.n B+5 2 &.*.S l *.2.'+Z.o+O D a#/#0#s+Z@Z@u+x#2$_$C q@%@w.u B@o+p D ",
"z > A n 2.2.2.|@e#S S 2.&.&.2 l B+/ / 0.( ] ) l H@3#G#^@( ( ^ V%])/@Z#7 _.|+: u.{ Q&;#o s G S w z < > [ 3 1 l A ~;u#u#O&v+O&u# #&.w P+@@t F+u o G }.'$l.v ].].(+z ; &.n ; 4 : 0.] 0.'+: 0.) a._ v.I@' O l+l+[ o q v D o G v G l.; S *.{.}&Q o*.%b$:%:@<$_@&.0 +@).'.1##. .a 8 c %. .#.8 #...9{T.N*h).@!.+#)+.@$.!.+@@.@.+@$.b c o 6 V$k |@_@e#z [ < &.o } 1.= 3 B@)*u w.{ v.' Z.Q&m+- _ Q&Q&' : = - o+>+x.I+x$d>M_D(6-V#v&]>q#J@e@/,g@,~U,u+v.B@n+u F+u n+w.v m $%s*B=8$S 1 ; &.1 A l.~.D 8@O t##%P#@-'>F-4+L@P#.]'>f$f$7$n#u+h@F+_+' o+%'%'n+$@9.n+:+I@l+8@:+l+3+Z@J@s+[+<+f@J@w.8.%@{ n v.{ I+X4Y4Z4`49[9[C[9[0!)>l.} !.%.^#%=Z U.2.> ^.p D B@t#s+,&'>Q@92.:7+I=:(x#8=@%s+g@.+h$2$L@d=y&^*^*e=H*x&e.x&t+h@f@q+p#2)8==:d2R,!&*+i$B *.S 5 z { n 0.'+/@B,5$*@Y@{ !+> a.D n q@)&K%y$W#j#^;x-)*B@>+G+n ~.m s o %@q@9.{ _$c$C B+C C o.S+S+^&}#[#[#n'04A+]:h;s%U S&S+r&)&_$8.9.q@l+I@n n Y@5$5$(@j./@..4$w#Y@j.h%`.B+<&c$u+r+f@q+H%u&]>x@x@G%.++%d#x&~ B+! 1.{ 0#r@'@C@! &$~+-$D$I#0%I#a.C@^ C@G#3#~ o.6 5 A A A 2 n 1@n w.p+%@B+%@l+J.d..+A@.+h$M&6%)&y$v.' { n+| o ",
"} ; 6 2 o.6 *.;.*.< 2 *.2.-.6 A '+l G#3#( a.'+] ^ / ( C@l ] / ( Z#Y@n@4#4#w#) /%0.1.'$o q ~.p E..#* ; * , n S U.u#l@w+ $v+# w+9&> C T ].Q u ;#m ~.;#^.s G+}.y!>#R.> z /.4 /.u.!+Q&_ ) m+' ) ) Z.' l+l+o+)*u [ [ s v m t v t o } 7 j '.-.Z )$}.X#z$6%y 7-2#h 7 F*j f E+%.c b b 0 $.$.L+@.` #.7 .@9  @@.>.9 +@b $.)+a 7 .@$.*@)++#}@z A 1@5 *.U.* &.Z ;.l /./.> < { l+I@B+n o+: 0.u.> 1.1.: '+l 3#| /.D 9. %~%P<Z}G(',x$x$n%5{++@+y#f@h@t+f$r+R$/#p+C w.p+{ { t {.&.]-9$9&2 n 2 > 4 ; n q { 8@O 8@#;q$^-#%s/@-F-0-5+F-t#n#J@Z@y#f$[$_+O I@,+u %@8.C u 1.u ,+1.l+' [+e@f@.+.+K#d@:('@'@/#7.`;s@p+)&&*9[ 5.5+5i^9<@5 %1..#, 7%#*@'@*%.5 S 2 o o 9.w.s+1$_*>&y*1]f)x@9(I%l$K#2$3+n#@+++u+5+d$|$/&O@f@t>c.!=L#t#[+r#q+h@3+s+<+>!v&p%b@Q+m - &.2.U./ > > 3#+@H (@(@/@j.Y@/ a._ ] %@v.y$9@j#k#k#w.0#0#{ q n n T {.T ' ' { l+%@j$_$C R$r@D@h;m a&>#X!;#94p L%y W+B X+D m 1*6%_$p+o.j$%@_$^ B++@7 7@o@4#&@|#+. .i ..T.2#D@8.%@t#q#q+o#s$O{x@v@u&G%@+k$_-{@'+) Q&(.%@s@%@$@}+-$~+,+k+- C@C@o.( l a.{ a.+@m+&.1 1 1 ; *.*.; A | { v.)*>+)*)*i-c.1$2$1$8=M&i%i+6$w.n+B@%@1@l ",
"- U.k l 1@5 &./..#}@| > &.Z S z n C@/ a._ l G@C@( `.( ^ ;.I#X.~ C;,!B~#5/@..^@- : C@r@9.t [ C'}.|.= z - , /.o S  $3%w+O*v+U%`@A+n R L$T D v 1.m q Q D }.-#/+t**#-#Q [ p I@I@O u =$u.Z.!+L#!*t>M.l+D u >+1.D G v v ~.G u V+Y W+% W*.&^# .2.D n T C {.l l 1#h*+*[%f%h*]#p&7%]#^#]#]#-*7%N&p&=*^#i*'.1#*@!.0 )++@$.X*b 8 .@H $.!.a X E@* $){%= , 9$]-*.r%6 F#9$2 U.%@C o+o+F+%'!+m+`.G@! ' ( ~ ~ B+2 -.D@m.y$r&B.$5z=.> -!!o%r$X@r$l$2$s+2$h@t#{ q@a#o.n n B@D 1.1.3 z -.-.A z < /.< | $@$@$@u O 8@^-'>@-#;Z@g,q+q+q+o#y#y#:+R=o+' m+Q&1.I@x-8@l+D ,+u w.l+8@%';+,+l+B@{ o.s@s@D 8@D $@r T :@L$B Q+F ;*;*[!o!x%)>k!:@D < *.^#p&g%W*i U.B+a.> 0.a.^ ^@3#C# ++%g@q+g@d.! }+k+j+j+u.!+H-2+d.J.L.|;L#d#b.> 0.: l G#%@{ 1.u v.%'9/=;b@I+T E#F#X A 1 o } 4#w#e;6#i.5$w# .Z#Z#6#_ ! $@n n+K%r&_$C 9.%@l '+< v#8$2 o 4 [ /.o z > S 0.{ '+`.a#G+' 1._+#@-+;#%@:@a#[ D v B@$@M&1* %(%)*n+_$n ^ 3#7@7@O=H /@Y@.&;{<=`+f i 4.w*1@< F+>+>+)*=;e)A]=%m$O!t#u@H*M.J.C&> ) C w.(%T=%'R=:+x-:+o+k+1.n@4#+@+@r*+@}-+@| F#- } = , /.4 , |.1.O u )*1.>+v>6&J@e@h@s+9@W#I+k#I@v.B@9.&.- ",
"} 4 2 *.6 *.[ } } ; U.A ;.k *.| / G@l '+' ~ H@( G#B+] r@~'W%U*~ %5@!#5&5 .&@( G#'+H#z!$@G+P G$Y%> } 4 ; 4 /.4 o U-b,O&u# $`@@ ]-* q x S o u s o u p G+E.^+>#[ v o s u [ D D n+9.!+m+Q&' v>L#J.!*D B@_+_+O $@T q s q u D W+}#h;D.N&P;@*..f n B B l.n 2 > -*q=')j&N +&=*^#@*.&S.V*$-=*p&=*g%--Z;[*a $.9 #.c 9 >.$.*@L+)+>..@>.+@9 & F#v#Y#Y#%%]-$)A+8$A;8$* = z %%n+p+u _+o+n+' > ( ] a.a.( n ~ ) < e#@@m.)=)=a@Y'A=P%:' ,s>s$w&G%g$u+3+n#s+g@n+9.0#o.B+0#s@r@C t | A ;.1@1 4 o ; 4 /.I@I@l+I@D D o#.]P#.]y#r#r+t#7$o#J@n#R=;+>+8@1.' 8@>+-#,+-);+_+I@_$9.{ I@)*1.9.q@J#%@v.u x-:+8@_+q G l.w ~.T 5 S Z 6 /#x m B /#B l =.2@9 f%i  @;.r@3#! - : C@^ ] A@t@e@p#y#,+/%m+/%+~0.-$,+~ f=N.J-Y)J.t>K@],C@' - > l G#/#a#o+B@1.$$b'y.b@,%; m&*.D#2 &.o.1 *@Y@ .C-..Z#n@&@H;5#S'*@Z.u.%@n i#x.I@1.;+$$@~;$< E#8$E#o /.4 3 = > 2.l { l C@l Z@f$h@g@2$s+e@n#u@x#p#t#u+h@x#Z@;*1*j%x.:+%'9.C ~ H@i 6#k-&@i !.I(D^[~i{,.d 7-^|4.- F+R=w!R=9@T;^4=%('n$i@o#6&i-J-i-u.0.v.u ^;b'F+R=>+:+1.:+-$j+:.q&9%h#f-=@=&@*3%& } 1..#>$$=* > 3 _+8@I@)*1.o+@;d-t#J@g@y#k#*;i#y.u n p+D 3 [ ",
"/.* &.*.2.1 ]+| A n *.| *.< , [ / { R.k+l 2#W%~'X.] ;.0%X.H@;.^ @!m^%5*5 .Y@`.`.~ G#%@' p p I+H+/./.4 2 2.n n ; O*w+v+v+U- $U-v#* 1.u q ].P v '$E.^.>#>#G+u B _#Q+D u v n+9.{ v.{ ~ n > i-H*]@L#O l+)*8@' l+q G D o A$Y }=W r%9$;~@'@* .h 2 l.C w s < < M+}{j&<>7%V*i*(>i*W;[*W*W*V---K, &[*U; &+*+*+*7%%=g%p&#*=*+*]#]#]#+&h**@F@& * E@& Y#m&9$, Y+Y+2 B=A;$%]-o+{ O l+n+$@!+3#l =$j+0.'+> > - 1 n Q o 5% %z.J;d>Z]b].,6-.>v&h+u@u+y#f@<+n#q@_$%@s@<&s@%@<&_#C - - - 4 o 4 > - : Q&%',+o+_+O O [+3+J@<+y#Z@f@f$_+_+I@l+l+B@8@x-/%> a.j+=$R.-)%'u D n+)*o+B@n+a#8.0#<&I@D D G+(+].l.w n T v A+F@g h*]#h*H ]+1.2.n 1 | n 1 1.J++@n@j.h.7 *@j*u.o.~ '+! B+: }+m+_ - [ } > ; z Q&{ n (.~+R.: _ L#!=j*O,(.! ) ' a.'+p+C ' :+x.y$ %s&&.&.E#Y+2 ]-j c 0 9 |+j*Y@/'o@*@m-m-Y~j*Z.0.9.v.)*R=o+8@Z.1.*@)+0 @ + J$@ + R&m@*@0 h !.L+a h (.b-b-H>P#d=d$d$@-H>H>j/e$e$+,5+#;o%d;J%Y$i$$@B+/#C@3#7 +@7@n@h>p&^{x|m}m}O*P*X-=5^|]+p '$X&~#T=k#q,k{&%f)a<e$H-v>H-v>1.Z.)*)*0@T;m*E)n*(%P P * o 0 *@N+]#z>z> *@*8&$)= & 4 < < z - < ~.G 8@x-R=B@H-d-6&g@s+P&i+i+6$i#=;O 9.n 4 8 ",
"= ; n | 1.|.|.4 z .#1.|.R.*#* 1@C@a.: : G@^ 0.) h#}+p-Y.9%H 6#5$<-f#-5K-7 n@'+u.) G#9.w.v D 6%t A A 3 , /.[ n k <=v+`@b,b,@ @ U%* 4 4 o n ~./.].-#'$3 t t m m o ].F+P ^.8@{ D v.1.O 1.:+K@<+H-%'_+v.l+' >+F+u [ [ q A$[#]::3r=& j&-~+*#*0 o |@;&(#P+A l  .]##*h*#* @ @i .&|#N&O&.&N&$-i* &%=N }{M++*-*+*N W$a j E+` b 0 0 9 +#, = Z'= A$E#T&E#b&I$z Y#m&s**.A;:@}&-'8.p+%@w.1.8.^@9.0.o+{ n+> n+4 q Q+{.0$:%y$z.6$I+y$b@y$x.9,o#f@r+f$r+[+n#n+n+9.1.o+B@l+w.x C 2 A - /.2.z > 1.] > O { p+l+' _+Z@n#r+s+u@n#f$s#o+8@l+9.a#R$n x-w!x-O x-x-,+u v v.q@n o+o+{ _+1.%'{ $@u o+[$!#^.Q s '$^.3 , 9$9$+&%=h&N+*@9 4 4 = > &.[ 3 z * {+j*_.+@q&:.9%j+Q&Z.> n H@^@a.L#0.1 | | *.- y!O'){t*f@t@f@;5e<B]x#x&B&J@q@s@{ C P+i$c${ l+B@Y${ { Z U.n E@*.$%Z+Z+d E+k.#.c &@7 |+y-o,n@+@: > B@D 1.:+B@l+) u.+@)+8&J$ $m@  v#9$Y+; &.o 9 0 $.+#|+S,H-1;F-+,H>L.4+S$,&[{e$._u-L(n=d;f>#,o./#7.z%{ l H@7 7 (@n@h>.&y+)3 #v+ =B$8$>5;.[@)$[ H+X#*;T=s$p%F%A@,&u@N.e.b.2+_ ! ' I@T=*;i#{#i+_%' v : l @.c >.e%=*$-i*S.Z o 2 5 1 o ; [ *.*.l C ! 8@u./ C&L#L#c.h@r+:+I@B@w.D n+n H@S 7 ",
".@k.#.h 8 J+$.J+X*W.Y^7&`@b,O&O&7 g @.+@H ),N*g N+K+p&L+e%i*$-%=f%i=Q$+*+@#.7 *@}@3 - 3 t Q+:@G , * /.- /.4 !.#.k.>.X*L+.@*@+&%= .9 8 ; h _@ @S '.1@)+[ A Z &.Q o+b'^;y.i#y$W#x.y.*;F+k#)*k#_$n _$G u t W&w%C'_%(%:%n }&,5o.<@>.@*P;+*p&[%c %.Z 6 S 2.l *.2.; [ : ] A n P*8$S*1~P*# S*m@9 8 +@&@h +@*@>.9 ; 1@D@-.; ;#v Y%z$(%W#w%.%].G$B  %D _%Q Q o t t ~.G T P+6%z$X#5%`$5%.%#@z$G+{#l.a$Q X#m C <&0#0#l+{ K%O B@n w.Z@f$f$H-Z.!+m+!+' : Z.) S l - 1.3 S D.D.l ; l U.2.l / u.- ^ 0.1.u.' Q&u.t#3+f$r+e@r+y#J@J@7$[+y#t#s+n#n#T==;9)6'C'+!W##>:%I+[ o D )*)*>+y{s>l%=+b'T=o+1.!+u.| - L+g +@!.!.)+%=g L+h 9 >.]+}@}@- 3 < /.'#}@]+Z.: a.n Z.}+t>f. +g$t#^,u-s+B@m q [ ;+9)s>'*'5=%n>q<J:D'L<v}o$S@C%r$~%M&$><;x S B $@0#@+M.H-c.n@(@f E+f S*<=A;X--.Y#A+|.< z 1 o - - v u [ ; 3 = | ; o 2 #. .w+ $% C=*.A$b&[#[#Y }#2 8$%%v+ .(@[.J*b.2*v>,{2+L#6&Y)I-n=1$>&.+8.r w A Z Z z - o 1.*@L+@.f F*|#-.D#z < }@n!P ];;+;+%@c$_$C 0#C n+a#k$>')5H#^@l t+u+u+A@e@C#9(h$1$q@@+0#A@$@u@0#B+H@n &@w#5$P-^@3#8.<&j$D@i$'+'+o.B+^ 3#Z#C@b .@7@6#7 4#u.(.(.- 0.n 3#o.n@Y@Y@h ",
"$. .k.0 *@+#I g H +#.  =J$U-I~k*M-K+$.>.$.T.W*N+@^q'+*+*g%i*!>-*#*%=h*K )^L2L23^5/s]$',#Q m m G |./.n > /./.$.c 0 +@>.$.>.+@+*+*h*V*+.E+#.h )+%.t&F*7 9 Z =.5 1 O )&W#6%b@y$6$x.i+(%(%6%{{H'J%k#u [ w D {#(%C'_%.%Z%n {.A k | b h*b;]#^#V*g%@.0 /.o | ; T n D ~.O B@1 - * ]-W)e*e*J^l@ $a 9 6#5$$.+@b !.-.l Q P+{.1.r!s&g;';,;Q-H+I+_%Z%Y%:%I+s&H+H+m t p u v n q a$5%:%a$`$Z%~#~#(%W#Z%m*w%F Z$:%F s@u I@o+O 8@v.O !+-$Y)~)S,S,- ! l n '+n > { ; _@Z [ /.U.|@o.U.1@Z U.2#4.;.C@'+) _ ! - 0.^ ) x#t+t#<+y#h@t#y#n#g@3+o#f$`)h,q+=;I;n;a,u=(;_).-#>`'^.1.o+1._+-#^>U#l%P&=;W#l+1.!+u.0 L+J++#+*>.9 )+!.L+X*W.N*g [ $=$=| > } * , * .#Z.] ~ n '+/ x&c.k$@+|$L@S$Z@' G+u (+^;k#!5~5{5]5^5/5(5E:_5:5<5v_S#T)U#,;X#k'A+L%r x H@c-{={*C;#-h./@,.+.(=h~K^2!W)n~,$^%}@, t ;#!#t C G , 3 /.< | 1 | | !.!.b,# % $%X+Y+#>w;c;E=}#V+$%*.# O&h*[%|-:.:.9%/@ .D$: t>Y)q#o#x#n+w.x 5 2.< 3 ]+/.1 ;.E*q*`%2@j .@4 v ^.}.o-:{o-G w.9.`;9#B+C { { _ : ~ r@> (.Q&m+t#u@g@h@2$h$K#J@t@l$g$h$A@e@3+r+( H@^ ^ 3#] ~ ( t@)@t+g$s@$@! ' ) B+i  .j.Z#$.*@H &@[.|+N*O=o@O=H r*w#4$i  .5$h ",
"7@Y@q&H /'1++#+@*@*@+#W$[=!.d <)>$o +@L+$.)+<)O+I .@%=]#[*[%M+q'[5J!}5|^g)Q}##!.} *#'#3 [ s G D 4 A 5 ; > o < | /.4 >.>.h E+ @1#g%[%i E+!.>.8 k.d %.1 A S ;.z , %'%';+w!_+w.n w.8@w.B+_$u O )*x-u t m p .=X&C'{#W&.=D n-< ; < g +*p&]#]#]#]#@.0 < /.o n o ].u o w.{ Z A Y+F#|5L&y~q%/=/=c a [.+@2 | 4 1 Z Z q n v 1.W&E Z$Y%K$$>6%5% %I+t o T m S l.A | > &.2 {.q m s v q l.w l.T P+m Q t n w G x C n u O :+Q&u.Z.(.k+/%d-i-K@O.n { ) ! > ! { ! *.&.n 1 } 4 [ 1.&.-.-.k 2#;.B+V%~'C@_ C@'+> 1.a.@+n#n#y#s+l$y#f@J@^,s#<+o#t#<+r#6'V~X$.!o*n*X,15X!}=(+-#[$%'!+>+e)>!A#e)v.F+-#v.: (., } .@*@$.H |+Q&Z.{ 3#a.H@^ a.) w.l+O v.a#w.&.< _ { B+G#;.H#f=2+g$1$s+J@,&A@)*{ ,+w!y.i%T)T)2525v(35T@m>P(|<45B_%,y]g+**_%Q%N%[#Z n 7 D>0*j_P~H,Z#4$i %.8$D#q%1!$%B=$%D#- 3 P G+; | o ; [ 1.z > !.8 c c h 8 w+~;% $%U N%S;h=w;t%U+s%G=% /= #.@a 5$:.m+R.l D@0.u.2)7$u+f@g@p+D B S o.U.Z A S =.|=f~D*i b .@N*, [ }@,$,$* o o a._ B+C@B+'+Q&l 3#B+3#a.Q&R./%k+u+h@u+t+s+n#7$[+c=,=t+u+g@g@h@1$'+0.u.a.] '+= Q&[+J@[+g,k+' m+n G@~ j./@k.0 >.>.r*7@*@H :.[.w#7@j*r*y-y-H;X~5#5$",
"9%q&o@O=|+o@6#*@s!W.J+.@$.+@g >$= - $.$.)+I s!+#W$#.[%.&W*+&s)55b^)^L2)^g)I Z+t&}.*#-#3 D S C u &.S S < * < * [ o [ H g 8  . .c 7%#*g a k.+@0 E+f  .U.|@- }@*#-#o+)*{ ' D { v.v.p+u >+,+F+:+u I@Q m t t F$_%a$H+~#W#s >#2.4 < #.7%#*+*+*-*]#` ` | | &.| u [ ~.~.w.$@1 /.2 6 z;=!W)e*P* #g 0 [.+@2 4 , l A A {.l.q m z$a$Y%6%H+H+`$I+a$5%m m x G m | 1 < - < >.| 1 s G l.l.C Q+o.{.C o m n D D o B ~.Q ^.' _+(.m+: Q&j+1.K@K@t>i-) ' _ ! { ! n ] 2 n ; | A _@@@C+U.S &.1 A 2.n ] a.m+=$}+'+] - ! r+[+.+u+u+u+o#s+s+Z@<+2)h@g$q+r+0@7'S/^;w%w%7~Z{f]r=F+-#R=D n 0.n#9,/,[+u ' n 9._ u.> [ *@+@h *@: 1.,+> ! > `.`.`.B+q@p+n+n+R$<&n 4 u.m+> : ' n c.!*+%y#f@o##%q+r+B@:+:+9)0@g+2&}^n]B}65S@V@=,W($175n|85V#',a$w;V+T&l n (@7;#-E>U3>>i /@`+|#$%F#4&4&2 %%*.& }@]+].].A o /.2 n 2 l Z a b b a i d y+l;8$8$T&W l'w;2{D=U&S+B=B=u#3%.@+#:.Z.Q&_ u.m+0.Q&<+e@2$e@u@$@l+G 2 5 l S Z |@-.5  .@.g H I h)}.$'!^1.1 &.&.z : { / n ] ] ) I#H@B+~ ' m+Z.1._ t+1$x#@+A@A@2$h@>&>&Z@n#o#f$f$<+u.1.Z.! ! ) z 1 w.Z@o#t#0.0.l D@U*H#|-5$7 h >.)+:.1+/!/!H 7@&@_.q&+@H;R)Q=Q'L-8%",
"a.@;|;L.I-- =$a'D$-#!+_ - ,+'#}@.#s -.&.3 |.z o &.1@ .#.X*<)h)T'9 L+),K+W$I 6 3 95-^]+- 2.U.w o ~.C x o Q o > &.; z - /.| &.| $.M+7%h ` 7 k.i ,.8 c &.l [ = }@|.2.;.Z ; < 1 &.[ < > [ 3 4 = [ ]+u D p [ :%X#Y& %F$5%n B 3$-.@.a #*]#@*p&a 9 a 7 1 U.l [ Q q G v w S 2 *.X D#&.2 %%E@~;l@h #. .%.2 q G y _#S C @@o.P+/#_#{$/#o o H+a$s&a$l.o.1@*.> g L+g +@7 7%.@; 1 &.; o 2 Z l U.U.; ; l | 1 S z - ]+}.* * m+' q&H O=H j*H H q&(.' ) '+0.a.^ o.l o.6 l *._@@@=.U.2 o A S < (._ (.'+- (.' k+' j+f$d$|:A*0-H>L@F&_*S$5;s/u-s/q$3+:+:+)*O t [ ].~.- , |.}@' ] a.: a.w.~ B+{ ~ H#I#X.3#2.z } [ 2 | Z.@;6&i-7$3+g@r#n#h@s+2$o%]&+<#,n >+o+l+9.D u 1.n#I%)@7$y#o#f$2)M.L#g@[+c'w@W@U#l=U#2&3:l%/--%8,05(1a5b56_G( %5%T&X -.c (@(@#5*5;>i.i.7;T.'.X F#9&= z E#< 4 D w | * 1 | o *.2 *.h %.+@+@k.c #.` j #.4 /.m S l.t {.B {.Q+A ; h b | 3 k+j+: O R=:+1._+x#@+h+'*h+x;C T 2.S n *.k 4.1@A +@K+z-2^|^z-<@$=|.z [ > &./.- ! ~ C@^@`.n { D$!+l ~ { ) { 0.s+A@l$u@h$)@t@x#,=O@#;+,+,u-6&v>0.Z.[ 4 4 1 k ;._${ > n { 0.B+G#H#X.%.+@!.!.)+W$!+m+!+j+k-|+9%9%f#L-=@S'S'#)c5Y~",
"e.!*I-S,!*Y)K)n)+/~+!+{ ! }+> - #@m > 3.}@A ;.&.4 &.b a !.X*9 8 !.N*I L+X*L+;$#($=1 A > | | t o q B T D D o * } |./.&.A 2.2.1 [ -*f%0 0 *@#.@.7 8 k.o ; ; < - < 1 n 1 | z o < 3 /.-.l ; > U'<@= [ ].t p I+H+Y%Y%a$Z$_#a%V$; 0 0 =*[%=*[%7 $.+@b n 2.A ; m m D u s w n A E@m&s*2 C=Y-[~l;d i +.e#1@/#m._#(#_#];];]$];q-}&]$P+o.:@K$F 6%s=B z,|=6 7 +@8 +*%=#*f%M+$.2 &.- /.1 | < ; A 4 [ *.l 2.1 - R.>$,#, ]+(.: :._.:.|+H _.&@[.) ] ( / n ) ~ a.U.&.n l | 1 ; n ; n 1.3 l z -#1.k+Z.m+(.-$}+! t*5;s/B]+,u-/&s/a-m{n{s/+,.]+,F-o#q+9.v.8@u o D D , 3 [ * Z.- m+: - ( `.^ ^@V%H#X.X.0.* < [ - n n B&;)K@O.<+<+s+g@J@f@r+3+!&H%m%(-O )*D D B+a#8.0#1$J@.+f@t+g@t#y#O.v><+[+s$P&T)M]2&k{2&r:6=(-l%M]t}b}>|d5e5D(Y%`$W *.1#a 7 7 #5%5i.j./@P-2@E+&.Y#2 E#Y+8$A l o t 3 [ &.> > A z 3 +#c 9 9 ` a L+!.h k.o /.o w C B x C S {.A 1 7 l ; [ j+=$%',+v.v.D n t@u@p%G%h+)=B+l.A U.l U._@4.=.V$9 i3)^f5i3!.o *.U.o.; ; n o : n l `.a.1.(.}+!+3#r@( u.0.u.- e@t+)@++t@x#2)3+d=,=!@O@|$O@2+L#0.> A n | 1 |@o.~ C / ' u.'+'+o.^@_ H >.X*@#J+$.m+- - ' 9%9%r*7@p,R)m-y-S'H;c5H;",
"B{<*)@u@/,j@k@z@z@<+p+n u %'9.w.p o G+(+)$*#>#F+w w - - 1.< }@;$-#* ,#} n A 3 4 - 2 6 6 S &.; ; ~.D D o S :@B w Z 5 Z A &.2 Z 6 .&+*g  .d ` !.+@i f A o 2 S 5 2 &.5 @@S 1 ; [ * 2 &.l A ;$$=A 2 }@R.[ [ Z%H+I+z$0$R]L$s z > c h +@h a 7 a b 5 6 n < | 5 S m q G G ~.< [ }@< 5 V$D@2#E+ @..i E+l S n.^$@@C B @@r | l o.n 4 &.S T F E m G [ ~.z &.+#W$N L m!>;L:L b c 9 H *@a @.@.#. .%.j f !.*@L+- * J+J+)+$.)+)+w#n@7@9%#)=@f-7 ! ) ! ^ V%^ *.| !$=.2 o z - 3 > * , $=- U.[ E$(.R.E$k+(.0.' '+! H>b-[{+,G;0-0-+,j/'>L@.]s/e$n{[+M.!+- l < 3 1 ; /.- 4 - - : - u._._.(@j.n a.! ' m+=$j+k+>+n+y w r#n#1$7$^,p#<+q#F,y{E,y{-%o%!&w@1.o+l+_+{ { { w.h@f@y#A@B{b.!*K@+,3;^*K=r$v@w$l>d> ,r&~%a#o._$(-7,g56}{^A=A.;*E n.=.`+` <-}-h5%5h%h.I#G#5 2.| [ > 2 m q T n o t 4 o n l 6 1@A > j D*q*d f a !.j l S 1 n l 2 A l S S 2.n &.1 | &.> u %',+u l+y$i+;*6%$+~&p%z#l%G*<&T 2._@@@k Z 2 U.4 )+c !.j +.`+3 > U.@@U.5 l U.|@-.! Q&,+,+(.1.0.C@~ ] { ' o+$@ +g$u+t#A@n#J@[+F-m_#%u-{*4+d.c.: 0.&.&.@.h J$R.] a.D$R.! 0.0.a.4 [ $=,#|.R.3 1 u.' : a.l l 5$4#=@#)o,Q$^(9;c5:$",
"2|I%n#n#t];5i@z@<+7$w.$@9.9.>+%'u n F+y!E.;#B |']$v ,$.#.#}@.#, * , 1.}@A 2 /.> Z U.5 6 ;.U.1 z w G o o T r B {.1@Z *.S 2.1 ; S [%W*0 |#F*E+%.0 9 @.D@2.| k =.&.&.o.Z ;.l 5 n ; z ; 2.U.> l Z Z 2 ; v m I+Y% %0$x%s&'$[ o 4 +@*@!.c c h b 7 o.6 *.*.*.l S w G m m C *.n 1 S n Z o.z *@,.%.`  .5 k T s :@n<i5C G+, } o |.]+; 1 1 D ~#G+'$;##@} }@I }{y>L Q;y>j5-~@*>.9 7 #.` 1# @%.1#|#`+ @$.*@*@= < .@+#*@!.H s!k-o@j*6#Q$Q$H;_.6#n : { / ] o } 1 z 1.- ]+|.[ > < 1.* n &.} Q&{ m+}+k+- - Q&- _ #;5+L@d$^-#%.]@-P#S$u-+,/&+,[{r+c.!+~+!+, - 2 n | [ - = !+_ Q&}++@w#Z#6#k+#$+~k+n !+j+-#,+n Q+8@r#u@u+^,i@7$r#a{s>V<:}q/u&F,c'z/h,B@o.o+_+v.D w!<+@+.+u+2+6&K@v>B&{=#;F-{&#+O%2&K{Y=K%x;s@R$C J%}^k5l5n].,d>H+z$7-~$ .7 f#f-m5g-|-/@G#^@5 2 1 | S 5 m [ P p B T | n 1 n S A o z @.k.`++.%.7 >..@, > o l o.2.Z |@1@k 5 n 2.2.| > G G+8@>+w.%@K%I+i%6%{&(-P&=+=+)=a#{.;.3$-.; z > , .#g #.@.8 !.*@| *.1@-.*.-.2.2.S } -$,+0.> Z.: '+C@a.] !+1.' p+g$u+u@[+[+2$h@n#L@m_+,0-4+b#],c-`.^ Z 1 8 b p|*@0./%-#k+' 0.!+,+]+[ 1.R.]+| *.} m+'+/ ~ l o.Z#6#g-Q$o,p,9;Q]M;8%",
"T,f$i@q#p#h,q#o#n#[+q@w.w.n+O 9.F G$_%E)*#q ]$:@'$t p /+'#,$$=$#*#s o.S ;&G &.n o.z ; A n > 1 *.m o q m D o &.o o.*.| n > > < o +&f%9 %.i k.8 8 8 %.A - < 6 V$6 *.z /.-.z 2.2.5 Z o = z 2.2 [ /.; n n s Q o .%Y%S [ Q n o o !.@.; 2 2.; 2.o z z o z < 2 l n > A T l.|@o.D@;.S > o 5 .@8 a 7 ` > -.7#(#Q+Z , - o &.*./.- 3 - >.} p n&F+#@,$, )+)+f%f%a;!>.3~<P3j&h*9 #.`  .` 2@j=D+d %.f  .@.f a 4 [ +#*@a 8 +#W$J+N*9%&@p,H;y-9%7@: : u.!+_ < ; /.= .#* &.; *.|.|.* 1 2.z 4 !+}+}+- =$-#/%#$!+`.y&u-#;4+L@s/q$.]|$^-O/H>#%P#^-<+L.!+(.#$/%: _ Q&0.{ Q&' 1.1.Z.{ _.+@&@H +]/!~+m+) B'!+: j+~ / 0.y#+,a-.]4+.]S$y&>=6+'&E%M@&%D's>z#$+&+r$q/9,r+o#a#9#<&8.{ u.0.b.|$&;5+F-X@~&o%%+b@ %w S P+P+U.0#J<a5l5n5z.A=i+i+Z *.b b Q$:$K;i>w#l *.Z S z 0.n s@1.o+$@B@w.o ~.O )*$@a#G#l : ) u.a.a.' |+r*6#7@z n 2.6 D@k +.1#E+c *.-.*.S @@_@y 5%y$y$x.Y$r&W#b@j#q#t#t+)@@+a#o.n 5 1@o 3 = | * 1.9 k.c +@9 9 *.@@V$)#o.2.4 z 4 ]+R._ '+_ { ! ! '+_ ) }+' n _$+%+%2$u@k$2)A%g@D&b#c.$;c#b[T,:,H@3#` #.k.h )+9 { ' { l 3#u.R.-#$=* -#<@}@- /.3 n ^@H@C@7 4#j.j.j.|-h>:$o,B!i>S'",
"e.[+7$Z@u@g$J@2)y#t#v.v._$n v.v.s `$Y%_%q n G u ~.Q+o-L^$#t*[@s]t l.m ].t F+/.*.A > ; < /.o A *.n o n n t s ; > [ - 5 =.; } < 0 M++*$.g .@$.g g *@9 < 1., > ; > o | *.o.o | Z e#-.> < ; U.5 o.1@; > v v o p I+[!D Q s ~.o 1.*@a 2.1 ; o | > ; z l > > o A 2.l 1 q m 3$3$1@*.*.1 /.*.+#0 b b 8 c o.D@o [ , 4 &.|@*.l z * z o 8 * ].Y%y q 1 A c a ]##*c)w,.3o5p5P;^#@.d ,. @d  ...d c  .1#` 1#%.8 ; S c >.!.>..@9 $.*@w#+@<.Y~#)*@m+' Q&- - u.> z /.< * *.=.U.U.5 o./.n 2 A o.0.'+Z.0.Q&Q&0.: _ '+t#0-L@S$5+5;0-5+5+>&|$z*@-m=,=Z@}+m+> > : ~ !+D$- ' Z.u.a.! a.) 4#[.|+o@j*|+j+(.}+%$}+( l G#C@{ d-H>5+|$/&>&n=m=f:(* <c%E%x*|&;=!&6;u&s>e)F,g@h$D@c$i$c$l / > ~ T,~@d$^-s$o%m%6=b@I+s q w ~.; 0#H<o:y]T)d>>%x.{ n 2.b b K;=&B!i.-.Z l &.z , R.m+B@v.D n+O B@p p 8@R=9.r@l ] - (.u.n '+!+j*n@Z#Y@; o.U.2.U.U.|#'.j i |@1@l | > D G+Z% %y$y$~%I+)&k#(%Z@g$g$Z@J@9.w.v o - } |., * 1 | 8 h c h b a A ;.=.D@5 z , * , o 0.0.{ : ' !+!+1.' ~ / ! D 8.)@h$k$d@1$h,^,g$A&b#2;c#s_g.C&C&3#n 7  . @%.$.0 _ a.n ~ ! n 4 * - ; * - A A 2 *.C@X.G@B+Y@j.L=/@h#+@o,5#p,:$#)o@",
"M.H*B{!=]@f.( j+R.u._ _ `.G#6 n w t s m n v o B v E.U',$} 1 5 |@q G+;#(+P ].G o m o n 4 o 2 2 | 1 > &.n z > ; o b X*$.c H W$)+L++&g%a H X*H +#$.8 0 > o > 4 4 z | 1 A ; 1 z n *.2.> [ = 3 1 1@o.&.z > z t Q Q+]$G ~.* /.7 >.9 9 ; > 1 | o | A 2 1 o z z 1 U.-.2 C {.1@*.n ~ > }+~ C@4#Y@@.%.#.8 A > 3.[ U.u*e#S A U.o > A o } < G m l.D *.Z h 0 +@0 +*-*@'!>c)v,$-%. .,.T.,.@.j %.1#,.0 h 8 c +.% 8$A+* o A o 1.!.0 k.h *@9%_.&@Q&m+' { a._ - ,+* > [ /.< 1.o A m v m o G Q %'l+1.n D o+8@I@)*x-s#f$f@u+g@n#h@u@A@x#.+2$<+g@n#u+'+; / l ] B+N.J.Z@3+1.O :+u l.~.4 o } } - |.:.9%w#|-9%n@i |-|-a.L#L#C&d#x#J@u@t@t@t@t@l$k%%+(-'*f+V,k{o]'*P&h+X@O D j$4'H@~ n ) M.d#g$.+u@x#j%x;p+s@P+Q+2 [ )+> ~&l=w(H%J%K%_$B+^ 3#Z#h%4$Z#n@h#S 2 1 z { 0.)*8@n#h@l+' 1.o+I@I@i#X$x.y.)*8@_+w.n+$@w.O m+0.( `.1 2 2 &.c b E++.d j ,.` * 3 - F+G+5%1*y$D 9.{ n ' O 2$u@b.K@!*'+9.Q < < > .#/.S A l h 9 0 0 8 @.b c a +#W$g 9 $.n@7 r*_.7@9%_.9%1.!+'+> B+l a.'+h@@+l$2$/,f@Z@1$2+K@F.t>L#d.J.B&*@O=o@9%7@|+O=_._.7@&@:.W$I } o z [ }@- E@* A+5 ) Z#(@n@4#Y@(@6#7@*@+@q&[.n@_.6#",
"2+T,:,f=B{^ 3#' $$m+> 0.3#G#k 5 n B Q+B G S o.B F+/+, n n -.2#5 C v P [ t T {.n B G n 4 /./.z &.o o o | ; ; | o 0 )++#.@$.+@+@.@+&+*>..@>..@$.8 0 >.< o o < /.> 1 n n 4 2 &.n ; 4 < , R.,$[ 1 | > }.- [ }.v x s ^.v - z +@!..@.@/.> > z 1 | o &.[ z * < A ;.U.A w C U.2.~ `.) Q&> { 7 7@>.!.b !.9 < } | k b=!$|@2.;.V$7-o.Z 1 ; T l.T T 2.U.a 9 h a +*@*^#@*b;--d 2@i ,.'. @i ..+.F*..8 ,.#.,._@G=*.Y#2 o.Z 1 1 0 b k.b _.+@[.[.> : a.{ '+0.!+}+3 3 } o > } < /.v B Q+Q [ ~.n+u l+v.' n+p+{ v.O x#I%8=2$J@1$t@x#q+q#f$^,/,S]7$B+&.| > _ > 0.c-u@e@q+u l+)*1.B s z ]+.#- | |.*@[.4#[.+@i  .Y@i.:.c.x&T,B{1$1$)@8=t@h$d@C#+<2>-%(-k{W@;%U#G%/-=+P&_$n w.9#o.;.I#B+2+@;<+s+f@3+K%j%w.C {.C A &.h l 6=z#o%l%i%1*a#%@/ a.h% .n@n@6#+@2 B=A ; { > w.l+e@J@8@u o+$@<&K%r&)&+!7'j#>+>+1.9.n _$$@O )*u.] 1 2.S Z E+0 !.c 0 >.+#K+, o o 1 S 6%Y$r&' w.l+O q@n+e@e@c.2+2+' u s /.o 2 z 2 U.2.; >.$.b c #.%.[=N*W$I )+>.c k.h%+@9%w#[.4#7;P-B+! C@~ ! 0.] ) n#k@b/t]s#f$t#t@j-J-d-;)d-@;d-O.k-N=z-N=z-N=k-_.[.9%9%j*I @#< |@2.1 - } * F@}=]-|+&@8% .h#6#*@1+|+_.6#r*7@+]9%&@",
"h%../@h.j.h.5$9 [=g a @.E+%.%.|@/#Q+l.G z -.k , -#}@1 k j f `+1@s _%{#G$w r T q B v /.3 [ * 3 < b c +@9 #.7 .@$.+&h*+&7%p&]#+*+&p&f%g 9 +@!..@L+L+J+|.1.3 3 - z U Y+V @=T&R+W N%X+U X+[#L%}=f]o'} |.- 1.#@x x ].;#^.1 2 +@8 h*$.4 t ].u D ~.t t 1 n n | *.A *.l U W+o 4 0.Z.~)v>I-S,9%+@ .b `@U%@..@c +.T.`+j ,.e#k 2 ; q R y r C v z A &.&.&.o.U.A c %.#.9 -*%.j 0%s-Z A -.2 | 5 @@A o k o.*.A $%Y+[#R+X V+&.1 [ } /.3 1.z o z ' - ) _ { 0._ > - 4 - [ /.z | 1 S P+R G S y <&^$R${ _+9.i$i$8.w.q@<&9.1.:+D v.%'[$R=$@w.{ n+u ' = ]+1.o+u+1$c@2$h@h+P&z#x;i#~#+!!#1.z /.} 1.'+l j.4#])7;*!:~_]n,_-T,c-]@!=e.]@d#d#!=8=c@<*C#n#w@U@R@f+t$T#2&l%G%_$C _$o.`.'+1@_@~ '+D C p+O p+0#_$w.{ ~ 4$(@]#@.g$A@A@2$s+u+q@q@/ / C@{ } o &.&.2 E#> l ( : J@n#h$1$e@t#)*0#]'j%{-q5h<6_A.i%)&I+K%1*i%i+y.9@w.%@a.'+{ _  . .}-<-<-g#(@:.u.0.' / r S p+_$o+v.Q&m+r@'+i-B&2*D;[-Q&;+s n U.1@2.2 &.o - >.h c k.i +.*@I $.+@8 1#F*#.+@*@9%7 Z#])'=~,;.n l ^ : (.! 0.f@r#q+s#<+<+e@I=m+}+1.(.u.R.1+X]2*L*,{u>4,J*S)i.4$k.!.g N*X*4 l )#A & , n'b&X+A+<.=@&~h><-K-=@5#6#q&a.n m+#$j+- ",
" .h% .i.Y@(@7 h >.)+h %.,.E+1#|#6 :@m S &.< z .#4 ; 2.-.d ).F*5 x H+H+,%G l.B q s D 1 - < /.[ z c  .b +@#.8 H +#+&+&7%f%N q'M+@*V*#*a h 9 +@a !.)++#]+= , * z ; L%W+A$V V+^&W+A$}#T&s%l*h;[#b&V &.n 4 3 {.t-B ].G G+z > c ` p&>.- [ t D u ~.S y )#U.2.2 ; 1 &.1 N%}=/.- !+m+K@B&K@K@r*w#>.8 l@8![%=*i ,.j j k.,.1@z 2 *.l.m q ].;#G+2 | z z | &.| &.7 7 8 9 +@&.2.Z *.Z 6 *.z < n < &.< } * /.^.a&b&A$A$@=r=, /.z [ > > > ; > [ u.> 0.0.u.Q&u.' * /.- /.o 1@6 | t n Q+D@]$R s@$@l+O O B@8@)*)*0)8@v.O O ' ' B@w.n B+C B+p+q@p+v.3 /.n+D s+8=c@I=r$(-X@o%K%y$W#W&u (+, > ; o ] l (@i |-7 -5&5B~*5S)H*x&T,g.T,g.f._-b.o#Z@x#[+7$u+R@k{;,A]f+T)G%/-D v.B@_$' ) *.A ~ }>a#s@^$/#0#q@{ v.: { Y@5$]# .3#A@.+++8=.+n n C@~ : ,+,$$=]+| Y+&.k @@C@'+3+f$J@2$l$)@8.0#x;k#>,b]5- ,:!Q)b'j#y$y$b@ %Y$6%x;6%9.Z.o.G#r*_.g#g#L;i>[.:.0.] ! ~ l.x a#_$1.v._ l C@{ v>d-<{d*3*[.C@n &.U.k n o 1 n } )+h @.@.@.7 L+*@$.>.+@*@.@a O=r*&@_.j**@n@[.'+0.- ) : ' m+#$7$r+y#o#t#2$++B(( { 0.0.] > 5$+]3*H,n,D;:-n,4*e-n@>.W$K+[=L+} } *.[ & A+T!W!f]A+5#^(9;^(L-}-L;B![.Z#3#l `.}>`.) ",
"h !.8 0 a #.i  .$.g 3%O*P*/=i{y+o.;.)#4.Z * [ S '.q*..'.|# .7 6 G _% %Z$s&z$o w T T 2 } z &.; &.a @.p&]#]#+*M+M++&M+>;<><>L:')P;q'}{L++#[=L+0 0 0 .@3 } * } /.| V+J(r5R;w]`'k'w]2{h=s5v^O|I]I]S+U.5 2.2.R x u G D ~.2.1 9 .@%=#.z u ^.t ~.r R R @@Z &.n 4 | | 1 Y+}#2.- : _ L#K@F.M._.4#H 0 # l@g%=*^#W*.&.&j 1#z 1.C @@^$r  %~.m o *.&.1 n ; * * o ; 1 ; n *.o.2./#x x w v w q C v G Q u ^.p (+a&7~b&X+r=n'Q s n s &.&.o > [ * 0.0.!+Z.!+- ) n < /.> 2 > ; | /.t m B _#r u ' v.n v.l+v.1._+B@u ].t G ~.w m G B n C D l.r w o._#Q+n v.O g@++c%@( <@(l>T)P%J;%-F$].Q [ n o < ( ~ Z#4$K;p.t5u5v5%54#Z#4$k&T.k&I#l ) : R.+~R.1.: 1$e+L{f+e+;%w$s$e)8@D p+$@} > Z z ] D@j$U*z!_=j$q@8@D ! ) n@[.o,_.{ a.f=]@e.F.!*H*^ n )*_+1.'$u l.& Y#Y#.#,+%@)@g@H>L@l$ +R,$+I+i#J;G'i')!{'D(z=I;>,P% -W=x%M&Y$i%u { H#0%B,j.L;<(j><-4#_.] l D a#T r c$n Q&a.C@C@|+H [-L*l,J*H|n@a.B 5 Z ; ; o o n z !.8 8 >.g H +#+@0 7 #.9 W$g H :.9%_.|+q&6#r*u.' Z.0._ !+D$E$t#t#<+3+t#e@A@1${ } } 1 n z &@k-S~G-p4p_|~J~F~*!&@L+L++#*@I R..#&.1.S=[#<;c&S+E@8;w544/_c58;=&p.T.C*r@,'5'R$_$n+",
"*@.@a h h 1#). @h >.b,/=S*~;->$ f .@D+|** }*t|n s-'.h `+8 +@g &.P+Y&X#6%$<E ^.T C {.S 4 | 1 z o $.+@=*[%-*h*+*+*f%7%#*e%+&f%e%M+q=H +#* $.> 8 | c 4 - < [ = , 4 B S+m.S+B c;X#t%;*u;j~x5 %X,].D 2#6 l *.S m n m w C ; Z j @.+@!.} t u t s m n x n o - * n 2 ; o }#}#1 }@_ : ' _ b.n n@i  .c l;[~c a 7 @.d i ` l < [ w o q q X#~.s * n 2./.S l , < - 1 A | n 6 k y x m s Q o r @@r m G+v [ A$o L%u o'].[#o Q G S S G n A A -.e#4.5 2 { : m+_ !+- } ; 1 1 1 ; [ o l.m T G P Q ' v.%'u B+i${ l+n v.o s w q B s u n v v ].v T r o v D t l+D x#@+-=f:K:k%w$u$a,.,u=/;{#H+{#z$v Q _$O m+]  .h%5*-5k[4*h.] n@H@C;f=f,C#O.7$d-3+k+{ Z.I@U#H<3&W@w&u&o%(-l+<&$@9.z * | 1 ] q@o.9#'@G*C p+/#a#) n Z#m,V|D;{ _$2$B&t>i-F.B{C@l D l+v.w 8.G < , ]+o n _$h$g$)@++I=k$c@ +w.I+Y'.,d>Y')=`~d; %9@K%j%~%i+)&1*M&a#B+J#}>2#r@j.i.Y@*@n@~ ( H@i$r@x B /#9.- B+^@Q&H /![-n,5*C;K*w#- B *.< '#*.|@)#&.a.&@7@4#6#|+1+4#$.q&8 &@9 6#Z#j*j*r*w#*@7@h#9%! ( H@( Z.D$-#m+y#x#y#r+y#P&G%3+-#}+}+- : ) 0.! H,!=o_~*8*p_E;9*o@9%[.5$7@H }@, > < t W+S&T+T&$*^#;;o,p,5#L-Q$7 h#l&y5z5z!8.B+C ",
"` +.i ` 1#1#f @.7 2@W*]#]#V*S.[%}'m'--^#9 !.1 ; ! +/- X.( n j.B+w x P+r y R y n.C v [ 2.&.; /., _.q&4#w#*@+@a b 3%@ U-b,J$H$w+; * m+{ _$~ _$n v.' B@' I@B@_$v._ Y@.@> z !+u 1.~.u -#B+~.1.Q m+o &./.| 5 6 o.D@U.S 2.2.| | 4 1 o G _#r ~.s t G l.m ~.R x w w s u s Z$t o l.D ~.~.p+C -.6 -.s*6 $*o.2.2 A 2.*.~ D { 9.$@w.n+n+D O { { x#p+B@%@_$u v.n+n %@C o.m.]$0#_$v.v.p+q@l -.-.E#8$-.s*W)E@B=l z a.; n ) a.l ( 3#C _$9.q@_$m [ 9$1 | ; n } } > o [ [ > ~ : { S 1@*.[ | > |.} D r P+R _#{.G T ( ! ) _ ' }+!+Z.> ! 0.a.l 3#) > A z < Z 0#_$Z@s+l%G%w@=;T=6$u==-a2X4X4s;X4X4I;x'W#K%-%s$v&<+o/s#9.B@m+s+H>!@'_8<}$w['>e'f@*;1.C'6$b'b'~%n I@O { ( '+u._ - > 0.> D W#~%I+d3$^W#_%0$Y&D I@!*P#u~B&e@r$/-h$h@3+c.t>Y)i-F.H*t@$@/-9.a.@.l ;.q@l+w.u n+v.w.8.n+R.' ] O  %n l+w.$@u.) C&b.A@1$A@x#x#g$x.i+Y$q@u v.H*d#d#C&C&t+.++%I%K#C@A < < o |.3..#Z.+~1.Z.0.! o.G@S 6 5 1.* )#> ' ] L#d-!*t>t>B{!=f=3#b.'+L#- c./ j+Z.7@_.&@7@7@:.i-<+x#g$2+j-Y)O.e.]@2$u@(-w$v$V,>&+,t+@+x#w._$o.H@B+{@g$$;P#b|P#%;M.2+H*B&Q&0.: > 1 /.1.z m&r%s*)+)+*@*@g g g , n ^@G@a.l r@~ ' ",
"s-'=D*i #.a @. . @E+M+f%g%V*V*=*['A5x>]#@*+#} -^B5[$G#^ ! ~ 7 i 3 ;#].B y n.m.:@S G+= 1 | n | * +@5$[.7@7 7 !.g Y#]-&.z %%= X H=n+l+' D $@9.n+$@I@9.9.' B@8.B+B+h#h>Z#9%! '+D q@_+R=%@8@}+'+n / /.2 A Z U.o [ } /.} } * z * 3 3 T y q o o B l.~.u B x t t D s G+Q `$G s Q G+G x Q+Q+-.-.s*s*A;A;n m ~.m r r n n+%@n n+D $@B+B+_$e@t+@+g$B@$@_$n+D 9.%@a#8.s@:@/#B+)@p+n %@p+1 &.E@X B=G=|!2!y~B=o.H@B+] ) { ) ] { ! D $@p+q@O F+R., Y+E#z /.- < 4 4 z ; '+a.' a.*.*.| 1.3 - - 2 t {.C o o G G m '+' { a.0.m+> > _ !+: a.C@~ n o 1 v#= z p+q@h@J@9,6;i#6$6$*;/;o&C5D5E5F5G5H5S(S(.>',W@h]V,o]e'G%$@s O s+P#T$I5J5K5N}1_('s>6$0$Z%G n w l.l.v :+1.n { > ) u.] / n+j#x.I+i#*-t=';G~+!,%{ { {*B&L5~@z#/>p%X@r+r+t>S,Y)O.6&M.t@2$(-e@> _.u.: O I@O n w.B@8@l+m+D$/@2#: w.] { - Z.&@i I[K*b.!*d.N.h@.+;*1*I+6$b@)=+%4>:)t@k$g$K#<*M5U,) [ } } , = , 3 (.!+: ' _ 0.Z.!+> ;.n -.V$|@> (.v>@;'{P#&;{=g.c#t+2$N.{@C&L#d-O.,+R.O=H 6#w#+@!+6&q#t#u@b.d.d.B&]@B{u+h@P&T)O%U#Q@|(^-S$g@J@v.n q@C x#g@5+P#2(=_4;B&B&%;H-@;_ 0.u.: o ; 6 z+)#A;&.)#;.; ; &.> o ~ _ 0.a.B+l ! ~ ",
"-.V$_@;.f 7  .i ,.a .@!.+*%=[%.&x,0;=~]#]#7 2 , { s@`.! _ 0.+@[.o k 6 o o Z U.; w Q ].o s s t /.7 Y@(@p-|#%.A o o o D#%%Y+E#N5O5u O D q@o.p+{ p+%@C p+w.$@8.$@n w#s.4$Y@o.( %@n n+)*:+!{/%) '+> < S U.A 1 n n * 4 } |.1.; > , ]+|.} [ 1 2 Z l 4 , &.z | 6 A 1 [ S y r n t t S V$r%$*s*B=s*s*B=$%:@x m G C x C B+_$n n+{ $@C q@n Z@J@s+2$v.n p+{ n+p+8.i$:@o.Q+r v.n %@q@{.T &.&.o &.m&A;m&2 $%z A / - _ { n ( l '+) { n 9.9.D ~.]+A+z z * 1.- 4 < < - * 0.l n n 9 0 h >.1.[ 2 @@1 1 4 - s n m s '+0.0.{ u.{ ! _ Z.,+k+0.'+> 0.n &.E#X+N%t [ _+_+^>s$u&P&b@i+W#J;)!G'P5j^i'q^z.z.',z.b@i#{&r$p%z#{ v D A@c=4+!<C/u[p$N@M@(-J%j~g*a%U$<$P+x y C 9.$@p+%@p+{ q@q@v.9@i%I+i+i^j!9:X_F a$s@q@{=3;0*F&~&g+F,9,<+3+@;@;;)O.O.6&e@[+y#y#m+4#] / w._+o+{ D { w.l+Q&a.4)^@~ B@!+: ! '+5$n@:-D;F.B&M.!*3+g@z#p%s+2$.+8=1$1$u+u+++I=I%K#C<C#C@n * 1.[ /.* - 1.) ] u.' u.j+k+n |@| z }.;$,+Q&i-i-B&d-W<b-H>+,e@g@M.t>v>K@}+1.}+}+q&9%+@r*r*u.6&n#s+e@2+N.d#f=!=F.r+3+{&1&l>g+e'4+A*d=e@n#' n %@n Z@s+#;#%d$#%6&P#H>H-j-O.B&M.) Q&o A *.1@_@l o.0=Y.C@! '+B+`.H@( / / ) { ( V%",
",$- &.o.+.+.T.T.i +@0 +@h*^#(>i;6{v,}'<%E+H2}.*.'@9#B+H@`.n i.j.n &.o A 2.2 Z *.o G t v o v u q w#7;..4$#.!.1 6 S 2 %%Y#%%v#Q5R5O n o.r@i$w.B@n n+n+{ 9.q@0#w.'+&@K-Z#i./ ~ B@v.R=-)%'8@: Z.1.!+1.}@z A 2 S |@A - z /.- o < [ ; | > 2 2 6 Z Z o | 2 > U.2#5 2.Z P+o.y :@P+R 6 U.G=G=k z+H=X-s**.P+:@@@n.@@R s@%@w.$@9.{ { $@p+n u+n#n#h@n+$@$@B@{ $@C 8.r S B w G p+$@w.w l.2 A o 2 &.%%z 9&= = > : Z.'+a.! { ) ] { { C n l+o+v > ]-& v#* [ /.z | o &.n ~ / n B+k.a #.h > A l 2.n &.S 6 {.m s ]._ ' j+' 0.Q&~+R.!+Z.!+m+Q&> n 2.Y+E@T&S+n u :+)*]>'*{&#+1*1*i%x.z.P'6-i''!>%!!~-Z}M&i+I+/-X@P&o+Q p u { |$#%1(!<j[p[Q@$+l%#,)>m.k 1@;.o.y {$<&n n a#%@n+D w.9.$@K%#,x%i%Q-l[S5f;Z$7!D@t@b.$;p_$;&+W^6==+s+f@;)d-i-O.i-i-f@r+h@Z@' w#_ > v.1.8@u n p+n+I@!+] &@t*8@l+- - (.}+&@+@G-l,t>O.L.d-u+)@-%/-l$1$s+1$J@f$7$A@ +x#.+/#)@C < [ 1.1.} } * z _ > '+1.k+k+Z.> U.* ,$= = = R.}+O.j-H-v>{*B&&;$;q+f@K@i-H-v>(.Z.Q&m+[.[.7@H *@! g@t+g$h@2+N.c.H*c.!=x&x#g$$+]&~&|$F&F&^-t#u+B@8@u p+t+g@+,^-,&>&{*]=&;%;J.L#K@c.x&: : 1.}.}@|.m+a.- J.n 2+/ B+- u.! 3#/ : 0.( `.",
"2 *.2 2.f ..`+f E+b >.J+L+h g%.&Y;c) &f%+#h n ;.^ o./ ~ 3#/ '+) )+.@b ,.U.&.l *.o ~.].^.o o ~.x h#i /@5$8 8 n |@=.; ; &.&.&.W+L%C p+_$q@%@%@_$9.>+O D v.w.8._$l &@_.+@h%! : v.O x-o+O O Q&: a.: z /.5 V$D.1@S &.< ; ; n 2.o z -.;.1@k *.Z n Z 1@2.Z 6 3$};~$C+V$V$;.1@l 1 | ; 2 S*8!8!Y*[~Y*~;%%B l.C T q q _$%@n+n+v.' l+$@B+a#9.$@q@_$n+D $@_$o.o.y y y r S B {.B s Q ~.n n 2.> * }.$=1.4 [ ' _ u.o.r@B+0.u.u.' : { C n { ' v > 9&v#9$< &.4 > &.1 *.*.( / ( C@+@>.a b 8 ` %.8 A 2.S 2 | l 1@5 ) ! ( ^ : Z.' 0._ : ) _ - u.( l <#M%r=Z'(+'$F+>+g@s+=+{&p%G%{&p%w$l=M]~:D(z=i+)&~%l+D 9.n+n+I@I@D ~.n %@d$d$C/T(8<L<P@6=~&x%0$T 2.Z A S 1@U./ a.B@n _$9.r&I+i+~%z#=+~%r&x$P%a,T5V~*;k$K#c.t>Z~~*/-m:/-w@g@u+F.L#F.6&d-v>[+[+Z@<+R.1.> 0.n %@6$9@k#(%v.c$H@] !+(.8.C B@v.) ! 5$n@[-d*j-K@o#r+x#t+e=,=,&L@n#u@y#[+_$0#:+D )*S o.p ,$* [ /.A 2 | S H@'+{ u.' !+_ `.)#Z } 3 ]+R.(.> j++~M.5=d#O.'{H>u+2$i-j-v>c.'+- !+Q&_.r*&@q&.@z O x.8.q@! '+_ 0.7@0.n ! '+{ p+@+5;O/g,s+1$1$B@8@' o+/,7$g@u@y&B:!<T$4+S$4+5+^-)@c@9.l+B@D _$n n 2+K@%;J.D&f.e.L#2+L#> / / ~ l / ",
"6 -.2.A %.d ..7 0 $.8 8 8 c [% &v,P;m25)c ..i @@G@^ ] C@;.^ C@B+` 8 c E+2.A 5 2 ~.D Q P 1.].w y ) 7 /@Z#$.9 A k U./.< o m&X :#x s D p+_$w.9._$9.l+l+' u B@%@n a#w#7@h%l ~ ] w.w.O u 1.' u.n 3#) 1.* 2 S k 6 Z l 5 l 2.|@k 2 < 2.l &.&.*.5 U.l o.1@k D@1@5 2 2 S l A 4 [ 4 | A l S*P*~;~;l;~;w+@ 1 w m o D t D n { v.u 8@l+9.9.D l+$@8.%@9.w.a#c$'@/#:@o.Q+{.T w <#Y o q T m < < o &.|@5 &.B+~ { ! _ G@H@'+> ) 0.: ) { O )*u I@G+A+, z & z ; * - < - o 4 ) C@H@^ >.!.+@L+J+.@+@c 1.]+[ ; 1 o z } _ { u.0.l `.! Z.!+! { : ! 0.u.| R+U5r={%}.^.%'[$q#f@P&o%~&/-r$o%w(r:V(J<1:M&)&i#n w.u n+D n+> : z w C p+Z@4+9+9+N#D%'&r$J%L')>l.@@ @2.2.&.> l ^@_$p+q@p+ %i+i+x.u&X@x.I+J;a,I;A=;*Y$A@d@B{d-Q~B&{&M]G%6;n#h@c.F.O.B&t>K@2$s+s+g@0.: a.) v.9.)&x.j#i#O C `.Z.-$-#a#w.' 9.( { _.r*@,D;S,d-<+s#3+f@P#H>4+4+Z@)@u@)@<&9#n _+}.o n 1.$=, | z = 3 &.5 ;.~ 0.B+o.C@{ o.;.2./.= .#]+u.' /%(.t>O.L.7{I,H>2$A@M.b.!=e./ > 0.u.r*7@[.&@+@z n+~%$@n+0.' ' _ r*4]=$u.l ~ > 0.e@e=d@h$u@u@w.q@8.l+J@e@t++%J=F&2<T$S$L@#%L@S$n=+%l$h@B@D D O 2$|$3;{={*{*$;{=H*N.t>}+{ ~ '+n ] ",
"-.-.S Z l l l < !.$.h k.7 h @.N&M|u,s)N #*b j #.2.1 ] U*:=G@G@l d V*c 9 !.0 4 [ - /.D ^.}.}.H+x U.e D@| o 2 l e#U.| D o u B R :@m m l.B m v p 1.~.].'$^.t n G {.&@7 ( l / w.q@{ (%y.>+8@O %@C@l /.3 - > | k k k -.1@k )#1@*.1 2.> [ &.6 Z U.2.-.U.l U.2.&./.} [ 2 2.)+L+!.8 f +.h~u#U-O*y[3/^{k*< ~.~.G n G B@v.B@B@O ' B@D ' _+v.n C $@_$B+<&/#@@R y y y y r S X Q3Y U+R+U |.]+! ^ H@l l x&c.a.( o n ; - /.; o 1 &.D t v m ~.v ]-& Y+Y#> o - - < 3 1 > Z.,+j+1.X*N+.@>.a +@g b g +@> , , &.S ; Z.j+j+{ o.) (.Q&: ^ ( '+B+G@] z V5W5X594;#].o+_+7$g@-%6=l%r$=+$+l%n%m%$+-%A@p+{ n '+*.o z 2 a U.2.*.{ ,+7$r+^-L@S$4+>=l%J%{{%*G _@d ,.` h k.p@2#9=<&1*i+r&~%d>z.s$'*/>w$m;P%K{W=k=1&*+@%2+F.B{C&s$F,v&X@u@t+j-d-K@F.L#J.K#+%+%+%G@r@a.0.q@D *;I+d;g*D >+'+! ,+-#{ _+8@n ~ 0.(.R.t>F.6&O.o#g,7$n#H>6&]*]=A@:)++2$s@c$n p n!)$r=X+'$^.D S C Q P u G Q O a#s@s@D 9.~.}.v o 1.^.' O I@)*)*R=q#q#3+@+.+n#1.a.] { : '+! ! a 0 h h c &.x 6%u (+s o * [ L+h)I !.#. .9 > )@C#@+<+t#s+o+' o+-#Z@A@t#o#o#@-8(0_8+!<O@d=,=n=O@s+n#2$2$l$+%+%U(@_8(C/C/L@#;4+g@t+v.w.p+n w G ",
")#@@o.5 1 4 ; z +@ . .b 8 9 7 `+i*Y; &i*$-N&h  .o 2 I#D@G@G@o.3#1#@*i i $.J+,#>$$=1.[ P p 1.,%l.o.|*;.1 | &.5 @@A /.t ~.{.r S Q+@@{.~.D ~.u P ].].u G+1.p ~.D A *@7@Z.0.o+o+n+l+k#i+I@l+D $@) ~ < &.| 1 ; >*4.o.1@D@=.D@@@D.=._@A } o 2.| A U.e#1 | | z ; < - * > S 9 8 k.c f ,.x+ #@ U%&&e{e{w+* ].~.{.o.y C { B@D D l+l+D { v.B+i$c$%@a#s@/#R$B l.l.S Q+o.r X U+X)N%V+V+b&3 | C@n ' : K@6&B&i-> 4 [ &.[ * 1 2.| ; G G ].p [ q %%Y#F#]-o ; &.; o < A 1 ) n B+/ h @*9 9 7 $.L+1#@.+@[ z ; ; > /.'+: { a._ E$j+C@> =$}+_ ! ! > R.Y5Z5`5f]^.s D n+g$A@{&h+6;(-6=$+-%o%=+w&f@t+C $@'+] -.| 1 n a %.n z x-W]2)^,j/5:4+u@{&/-{-H'E l.;.2@+.7 a f ^@V%7.D@j%y$d;y=Y'J;G%o%3&W@:'G(G(P%W@J,F,e)y#],T,n#f$>!^>X@A@g$M.2+!*x&x&b.u@h@h$@%C@1.{ w.R=F+b'k#k#X$O l+-#! B+( ' o+q@0#! : u.u.d-6&t>t>3+q+3+Z@{=~@{@c.t@++<+h@O $@[ v p ;#Y T+y G G {$^$o >#1.[ ^.9.q@9.p+n+I@F+>#^.t [ Q { B@%@n+n+u u@ +u@A@h@s+' =$$$=$j+u.- ' !.$.h k.j *.w H+o p v n [ [ +@+@8 +@$.7 +@; ^@h@y#f@o#<+,+1.{ I@[+q#/,p#S]n#L@L46(!_z*z*F&y&,&/&s+l$.+l$t@4+2( 62<6(T$8(>&#%A@I=i$p+$@n n v ",
"V$-.*.2 | o ; 1 ; -.i $.9 h h %.+*@*V-.&^#]#k.k.i ..^ ^ B+G#/#0=j !.9 )+J+K+{+}.- < o 1 u ~.l.B *.o.*.A > z Z n B@D O v.D v.' 9.V$A /.3 ]+1.- [ , , 1.= 3 4 = * q&+@: 0.w.D T=*;W#9@(%T=O o+! a.} | S n |@)#2.1 o.V$2#>*7-=.1 < 2 4 > | 2 2.n 5 2.-.D@-.&.| } - | * a  .c k. .k.w+v+ $3%$&f{o=u#2 m m B S x o.<&v.v.' n+a#$@' D $@c$9#c$9#8.C G Q o n ~.l.C o W+Y M%A$A$r=S=&.4 _ ' 2+C&2+B&]=j-(.4 - 4 [ z > z A z G+Q D v D r $*$%F#F#4 > 1 } &._@A /.) ~ l ) 7@n@4#6#4#r*Z#L=0.- u.^ G#] - { _ Z.^ B+(.}+m+~ : k+: { / 0.=$}@X+/].6+6w%Y%B+B+++h@n#Z@s+u+u@A@-%%+.+u@u+u+~ n n l ` 9 a c h 8 n 4 : ,+Z.~+q#<+7$o#s+w.a#q@Z%o *.h #.!.c ).G#l a#D I+ %g>{-a@.>/>3&v$w$U#l=y]n5Q(v$6;s>s+1$H*3+[$X$_$j$3#( C@3#w#(@^@/ 0.( w.l+-#*$)*_+-)y$b@i%i#X$y.y.8@n > ) J#G*D n+- > : m+j-i-j-O.r+r+w&[+$;,=~=y4H*v>1.1.u O ].G+l*91R5h;~.l.B B ~.Q ^.o o D I@w.$@D I@I@1.;#G+Q l.w $@n o.c$s@q@9.u 8@{ v.O !+,+=$1.m+j+z , $.0 a b +@*.s 1.[ o G p ].^.|./.4 < +#.@!.; / D ' 8@8@I@t+:(C<C#B+1.>+_+9.u@@-P#>&d=,=d$u-.]+,d$|$|$h@<+f$0-:| 66(T(@_@_!@d=h$l$9#o.C n+x /#",
"7-; * 1.} > 4 ; 1 o 0 b 0 7 +@$.f%+&@*]#+*#*.@0 j k.C@o.^ ^@/#R$; k.!.J++#W$]+2.2 > ; n A ~.n A &.n > | > | A < ' { l+O ' D n+C ; [ [ 4 - 3 - /./.1.} * * - - 3 9%Y@~ ) { o+9@9@*;i#i+9@O O ' ' > z l )#}*=.2.2 ;.2.; };w*)#2 [ | &.n 1 Z 6 A A | < *.A 4 - R.R.]+4 k.a +@@.k.` O*l@ #O*|%@&%> #; {.R :@C n p+C I@I@8@l+$@_$9.n+n+s@9#j$^$/#Q+l.v [ o n x {.D A$L%x~N%W+L%W+&.]+0.] B&d.d.L#%;B&m+4 n 2.z 4 - &.U.| Q t D o D [ 2 8$F#F#; | o 4 2 1 | < _ { u.: h#i h.Z#|-Z#Y@h#n 3#^ 3#/ ! > '+m+' B+a.- a.a.: a.] ! m+0.u.,+;#J'@6F=X,,%a$$@{ u@Z@s+J@r+t#e@A@{&]&:(c@+% +G#G@p@2# .c c c #.9 [ ,$m+{ u.'+2$x#)@J#/#$@a#R$Z$S n 8 9 >.a ..X.^ q@B@V~)&M&W#J;z.l>H<1&l=W@u$n5#6W@v$w&(-e@e@d-h,%'x.n+1.=$k+D$/%+@7 a.> '+( 1.-#-$u.B@o+j# %r&r&1*x.y.9@p+D u.n+_$9@1.>+(.(.-#1.H-K@v>K@h@o#w@2$]*2;{@x&K@!=n u.B@B@p ^.V L%T&Y w S Q+T ^.v w s _#s 1.v.l+1.v.n m T w q C n p+{ p+n w.n+v.)*F+F+l+' 1.1.u._ : > /.4 k.` j  .0 > z G q [ ].1.G+G+E.1., } $.>.+#= u l+B@O o+8@s+u+u@.+O ;+)*p+n ' t#|$O@4+/&!@^-s/4+/&,=/&[+7$q+4+c_U(C/6(6(S$4+d$t@g$C _$n 9.B q ",
"1 ^+]+/.A 6 n U.S &.o A a c c +@0 E+V*#*N p&N&i*P- .l ^ r@0#o.o.n e#A * - * b %.#.a a h @.> +@&.n 1 > | | ; 9.u B@$@{ B@v.p+p+q@< /.> | /.[ > | 4 , } [ 4 3 < * w#|-l n n u b@r&~%I+I+J%8@' l+l+A 5 k =.C,C,n e#Z 4 >$7-=.-.< > m m o ~.Q+Q+D t G [ m D u o 1.*#[ ; 2.o 1 5 l n U- $# [~u#x+R*O*U.(#;&o.l.{.0#C w.v.B@w.q@s@R$o./#r@c$/#{$Q+S l.G G B l.Y W L%@=W+^&<#V+n x V$)#0=G#K@M.M.i-$;2+/ 2 2.A > o 4 n > [ o B q v Q v Y#A+* Y+o [ o 2 * ,#1.S G#( > a.^@H#`*H@B+B+] ] { ) w.l+9.B@I@>+w.u 8@v.w.B@' B@$@{ l+v.)*R=,+}.k'w]a$X#6$b@{&r$e@e@n v.u D v.D %+&+<*B(a#_$~ ;.I#`*h%(@w#+@n@&@1.< * - = /.n `.9=D@`;P$L$/#r Q+5 i 4 [ ; 2 3#( n w.w.s@G*K%r&j%O%k=z)l{p:W{Q_L{r<=,p%/-I@1.k+F+v.6%a#l+m+1.*@4$j.7@j*_._ _ >+_+R.) p+D j#i+)&9@j#I+j#*;O )*: 8@-#^;1.u ' >+m+'+i-6&o#f@J@n#$+.+b.5*^=G-L*4#o.( q q v t [ ].F=J'@@(#D ;#u m.7-:@R$p+w._+' n+)*D m w m n l.Q u ].1.G+s G D t G B O D a.> Q&- ; ; o n #.0 !.b 8 > &.S {.m X#{#w%G$W#t ~.Q 3 } z o t ].u $@v.)*Z@e@n#f@x-1.w.l+p C  +u@1$k$x#[+y#t+.+2$A@h@[+n#e@.+!@S$#;F-^-P#S$e@1$A@' I@o+v.B+p+",
"1.;#2.k @@@@2.o.;.U.| < 0 8 #.+@7 %.[%--V*[%--i*Y@7 5$] s@n %@/#Z D@*.- * z %.#.E+2@d j #.` %.i 4 z n 2 ; A 8.0#p+p+w.n _$8.p+w.n &.&.> * [ > z - } |.- | 3 [ 4 7@6#u.( %@9.y$j# %y.~%y=p+B+v.a#_@~$0%} ;$'#]+2#1 R.$=< ,#>$.#z u D G G G s v q o.s w T n G ].]./.1 6 U.; 2.o._@y+R*(=%{S*R*[~Y#T B T o.(#a%^$'@8.9.D p+0#o.R$'@r@/#i$<&o.q w C l.G ~.t b&Y+T&W X l*s%<#~.~.S )#r@~ d.c.!*!*,=x&3#l 1 | | n S &.1 o o w T D [ o *.E@z ]-| Z 6 2.1 o | *.~ - Z.~ C@B+~ }+-#Q&'+/ m+B@l+1.o+)*u v.R=l+,+-)o+B@{ n+%@O I@B@1.u ' )*.%W#s&Y& %r&u&w@h@f@n+%@n t P v r&P&x#x#I@_+) }>^@H@7 |+j*:.7@w#1 ; - 3 3 z }>D,'@v.G+n _#G D G+&.*.- < A 2.^ H@0#q@'@o.;*x%K%)=$6W^z)S@b(&,Q_u}8,T@/-r$v.)*- $@I@G*0#{ > > (@|+O=1+|+r*1.k+x-,+u.: p+$@W#)&r&i#b@r&y.i+B@{ > x-9@x.o+O ' D `.l t>v>Z@u+.+d@%6l$H-J*@,n,4$6#'+3#o C T n ~.D l'#>n m.L$L$/#u*9-m ;+0)%'o+C _$q@I@[ p v ].u D Q p [ u o m s t m l.B@0#3#{ { 0./.| l *.7 !.0 #.@.8 &.n m m z$_%.%G$G${#F$t n 2.S 1 D G D v.w.B+l$g@r+3+w.C s@a#/#D@/#++h$)@n#g@u+u+y#e@h@h@u+l$I=k$2$g@#%.+,=u+.+t+J@s+I@B@w.q@7.D@",
"~.p o S ;.=._@;.n n &.l  @i E+0 8  .]#]#N+]#--]#:$5$7 a.a#_$b@K%l.:@{.l.l n 1 A ,.F*i*=*%=g%g% .&.4 4 o ; l 8.a#_$w.e@1$@+g$/-n+U.&.o z * 3 } 3 1.1.,#- 4 * - z _ m+) H@%@p+K% %i+y.~%G*<&,@6.,@2 A ,#U'|.]+/.2 z {+- * = |.< [ P ,%a$a$I+:%Z$Z$s&Y%;*E `$Y%z$$>S T y Q+B l.l 6 k G=s*m&&.k s*&.B {.y /#n.n.c$a#_$w.' v.B+C C c$w C x :@l.s S D@{.s L%R+s%^&^&^&n T G ~.G n { ~ ) C@M=x&J.L#!=]@l 2.n n 1 ; 2 /.> 1 s [ t s s ~.m&A;*.E#&.l Z 6 1@; A &.0.m+!+G#c$C o+:+o+' ' I@O l+:+V~X$i#*;X$_+B@)*I@n+n+_$q@a#' ,+%'>+n+u ' I+r&b@i+(-P&X@(-h@e@$@{ t Q * D i#9@k#k#' n r@_=o.'+' (.J*v-D;*@< 1.&.1 - 3 1 Z #@].~.r m P p D 1 < > l.w S <&o.R$q@c$<&j$R$o.#,o]g+L>O%Y(m|m|&6N(*6=6(-)*' < 1.,+T=C n l `.r*k-r*+@o@o@' ' (.- F+1.l+' 6$y$',6-A=A=x.)&{ p+D R=r&)&9@i+8@O R.&$;)F.+%h$l%-%m%q+4]R)j*w#5$w#u.a.n l T D m m s&:%*#l._#;&P+x p -63{3{$(O 8.r@a#{ [ F+#@(+P D s G+].].o n ~.B {$0%`;i$'+_ { { /.[ 1 2 c c 7 7 # 7 ; ! { D 6$y$.,A=V#x$ -i%6%$@n+u t Q v s q@8.e@t#t#r+1.' w n x D@6%j%i+y.i+~%i+)&u&r$/-=+G%-%]&!&8=n+l$9#l$B+n D p+{ ' v.p+$@`;r@",
"n ~.o n n A U.Z * /.n _@d  @f 7 k.#.g%[%N+p&[%]#j><-Y@/ l n+I+i%l.G n l.2 z < Z 2@|#.&@*@*-*#*%=h | | o - } { 9.D l+Z@u@u+t+/-Y$I#1 - z 4 * - < , }@R.[ * [ /./._ _ '+/ R$%@b@K%W#(%=;y.c$3-R$u 1., .#1.3.,$|.}.= 1./.- [ &.| Q q H+a$s=F Z$0$`$K$Z$F a$a$a$I+a$m S x n w B n -.E@*.G=*.z E@E@2 S R @@y R {$s@l+$@_${ { 0#i$8.R$S T w x n o C :@o.B Y U&S+X R+U&C {.G s ~.x { _ ( D@F.6&d.!=d.3#C@4 | 1 ; &.1 4 > 4 o G o G q D *.&.8$m&n o o Z k Z ;.1@0.(.m+'+l+B@x-' s@%@8@1.)*1.V~=;W#I+k#T=' u B@a#B+{ n+O v.1.)*F+R=D O n+b@r&6$ %l%X@z#/-h@w.9.n n A$* V n ~%6$b@%@8.`;J#^ '+}+- m,;6v-Y@] 1.| 2 z -.U.- =#s :@(#m.m q y 1 z B S l.C B+C i$C C n+' x-9.o.u&>6,6f+U1'6)6'6e+*,=+s>_+l+/.p 8@b@9.p+^ / [.:.7@6#H j*Z.}+,+m+R=I@)*>+x.9@P%P%:'J;i+y.n+w.B@l+1*1**;9@' v.: : b.N.8=g$(-F,^>r#o@R'r*4#Z#Y@1.u.B+( l.l.R x F F$t {.{.r B l.u :{){8@'@7.`;U*u l+G ^.'$q q s u F+;#(+v D [ v x (#s@n+) _ /%1.1 [ * /.>.0 9 .@U-w+) ) $@n i+ %G(Y':' ,.,.,i#6$)&o+#@u o u u u 7$r+t#f@_+B@Q ~.~.n 9@)&W#y.y$1* %i%r$w&p%X@p%=+/-Y$/#8.i$9#q@a#_$l+>+1.D p+C B@C p+",
"v v o T q v | 1 n |@D.e#1 o @.d ,.7 7 ` V* &~>~>g-K-5$'+~ l+i%{-7!K$Q+{.w s * z ,. .[%g%!>a;+)-*b o 4 1 v p n+{ B@v.t+1$G%=+o%Y$G#1 /.o | > o > [ 1.3 - * /.[ * ] `.~ B+4'9#)&j#k#(%X$x._+B'B'w!, [ &.z 3 3 } /.2 -.S /.< z o l.l.:%z$)>E X#6%E a$0$g*;*Y&g*%*$>Y%;*r o o ~.v m Y+N%E@z ,$=4v#m&w C o./#_#P+B+$@a#8.C a#/#/#s@s@Q+B ~.C m o D [ t B Y Y T&<#R+T&q %@p+n $@s@! 0.C@0='+: b.F.B&{ ! ]+[ z ; 2.5 2.n 2.:@@@{.n B S m&m&$*X z > &.l 4 &.1 ; { / G#_ l+B@)*v.i%)&k#x.r&I+j#y.:'V#b]=;I@I@B@q@p+O 8@)*' w.8.D ' p+B+q@z#U#{&%+6=P&o%/-8./#C l.2.&.*.T&m a$X#I+s&g*'@_$' B@O.b.!=c-N.B+) 2 2 Z @@}*G=]-]-A;/#S }.;##@v P Q m n C x C o.~ _ : m+' : n $@!&r>!6~6{6T1B_%2]6l{^>w&9.l+< [ n+b@>+o+'+> 1+o@&@w#|+j*Q&m+m+Q&8@R=>+I@1*1*',.>x$ ,6$k#_+-#F+w.G*#,=;k#u O ] ) L#O.n#[+'*^>G%++j.N p&=*k.+@z ; a./ i$9#;-1*i%i+Q+@@/#{.p p t u u B@r@0#0#s@0#w.%@_$G o.:@B [ #@G+u s G q Q ^.G+w!l+a.u.]+1./.| /.[ L+0 O* # $m@) ~ n 9.y$1*6->%G',_>%G'Z]>,a,V~].U D G+R=>+f@g@f@g@O n+[ G W+T&.%{#Z%Y%)&~%i%K%Y$6$y.W#)&r&I+~%'@m.y /#y S {.G O { B+B+n O w.{ ",
"^.^.s C q [ 1 Z n 6 ;.2 5 U.+@*@$.9 8 8 i W*p&%=7 Z#h#- G@c$<&#,o l.G+>#Q G /.o a b @..&]##*@*=* .2 4 A w s $@l+n+$@@+l$z#~&l%u+) > o 1 ; n > ]+z /.4 , < < 3 } / D@G#o.~ 9.$@9@:+d;{-T;B@>+l+1.} - - /.; o > &.k /.| 2.1@S 1 [ t ].^.q T  %r $>@@m r R _#L$y w s&s&C o v.~.B@D m Q [ n |.!^3 < m q n B T T a#i$o.q@q@i$c$a#n 9.l.~.[ D G+].o G C :@T&W R+R+U+m m 9.$@C %@c$( 3#B+n a.! '+'+b.0.} [ n A 1 o Z 1 | 2.l.n S o.y |@X $%$%Y+4 | o l 2.1 z n ^ <&^ 9.$@v.$@q@I+I+i#I+K%J%)=1*#,{'x;b@%@'@c$n 9.n+O l+s@c$0#n B+$@p+0#!&#+H%(-u+u+g@w.)*n &.5 8$]%R&A+n 9@y$6%$>K${ O >+o+K@!*!*C&K@c.3#o 2.5 V$=.,$$']%A$o #@1.n&o*~#u G _$w $@$@$@n '+{ > ( ( l o.l l%/-3]A[v|^6W(t_o$K>#+P&$@p+D.{$q@p+v.$@] u.-#1.h#l q&: ] n+> q@u >+p+n i%W#0@d>J% %6$y.>+l+9.p+u 9.w.v.)*1.: j+;)@;f@f$F,w@s$p+n@8 -*h +@W$3 z a.l 8.R$j%I+W#T=Z$`$Q .=;#.%O b@$@J%c$)&y#b@t+a#a#n D S o.n '$s n w q m l.q o w n / ) ' - } 3 < /.1 8 c h U-a 1 C@p@)@' G%{{k=:'g+!!/>0,g+ ,v@)&x G G+' v.9.@+h@J@v.8.a#v n <#p w%W#i+i%9.)&l+6$u x.8@6$p+Y$j%)=`;:@y x P+w v ~.p+%@a#q@9.9.v.8@",
"*.o.A n 1 [ *.)#6 Z D@5 *.V$2.9 X*i=8 ` i 2.5 l {.x p {+1 )#V$o.l *.&.} 1.* > |@[ 2 l @.h 1#,.E+$%2 E@D#*.A &.; ) / g$1$A@ +F&J@'+k.b +@)+$.+@9 +@8 .@*@k.h a j b h 9 +#)+|., G Z.l+p{-)9.9.' R=^.#@< * ; o 4 /.> - -.7-'.c 8 *@o 1 2.> < r e#_#=.o.2 Z |#i h &.8.n u+9.s+l+J@' B@w.u 9!B@u >+%', [ n A l n n 1 2.2 &.S k -.2 2 1 z [ < m q Y%Y&%*7!x%s=o.x o *.S 5 Z S o.;.k o.-.*.Z Z Z n 0.Z w }#Y U&<#X T&Y U [#G n l n l C+%{w+g >.$.9 | < l.m C 9#'';-9._$r :@m.{.c$^$/#/#7.9=4>++c@#[g$ +a#a#q@$@8.w.O { i$q@C 8./#R$s@a#8@u q@u '+! { 6 l j  .1##.O+K *@f@s+c@<&n ' 8@{ m+R.m+n f=b.$;H*/@k.D*B*Z 1..#,$o o [ Z%5%=-~_t,i%K%=+r&u+x#1$e@N.x&H*C&M.{@H,b.f=t@h@f@P#P#u-4+'&>=@+t+<&9.)*8@#@; &.n D ^.8@v.a.R$H@n n+I+u )*R=8@_$q@v.o-:+M&f@e@f@y#s+1$C#%@Z.} ) a.i-L#i-{)B]'>t#u+r$r$b@$@> n 4#n _ ) ! { 0.0.B@l+8@O l+b@~%J;V~/6S/:!'*W@6;g+X@v$d'h]('!&r@B+/ > > 0._ ) l a.a.~ n { > > / &@6#[.&@:.j*[.9%_.B+/ { | o.C@f=l$#;2)5+l$Q@u&Q#=+P@P&'&p%5+u+h,%')*g@Z@[+I@D D _$9#m ].D {.y %@9..+A@d.h@J.r+B&s+t>x#H*g$l$q@] { C@'+) > > B+o.I#o.{ (.a.! 9.",
"D@7-*.[ &.*.;.@@_@k _@.#;$&.2.|.}{}{7  @Z < B /#)>z$1.)$; k @@e#z [ | &.| > o l 4 > 2.z | *.2.A D#$%X m&2 2.*.*.( / I=B(k$h$F&t+7 %.a 7 #.1#E+h *@H 9 0 .@b +.%.#..@b 7 *@[=| 5 ] !+v.8@'@r@;+F+].'$* 3 [ ; 1 [ ]+]+S a=c 8 >.9 .@a b /.} 2 D@D@D@e#i @.=*V-X;(6>'k$@+1$q#s+g$g@J@y#.+7$t#n#g@$$R.3 n -.*.z z 2.S l l -.6 5 *.l 7 b | z y m ,%,%6%6!_6:6E-m.Z U.Z 1@S 2.@@C+_@@@4.U$=.l Z @@5 2.<#[#Y U&V+[#Y U+S+^&T Q+n - l U$<=r|)+c >.0 A , D T { s@f>G*b@1*o.{.Q+Q+o.0#{ 8@D l+A@f@n#t#Z@[+:+1.8@w.p+n { I@%@8.{ { c$F:6.'@p@C@l ( ~ ) h h '.+.N&W*]#7%N |+B&,=l$@+%@I@l+v.(.- / 3#x&C&P#M.(@`+Z+T./.t*; -.l.l.Y%z$~_0!0!Y'#,#+(-/-1$1$@+u@],d.N.H*d#g.w-M.H*d.J.c.D&%;L.1;^-S$1$1$9.-)%'>+; 2 *.< T G p+l+w.a#B+n+6$9@j#X$>+$@w.n+_$w.8@:+p#e@/,A%q+[+J@B@m+H k+! {@T,M.S,S$P#t#Z@o%6=y$u u.(.}+/ '+- ' ' m+n p+$@B@o+)*_$i+Z]T5<6;,O%O%k{o];,o>%[k{N([6S:<*H#H@: !+u.] ~ - ) '+: _ n l l k-|+w#[.[.n@[.n@:.4#l a.~ '+( ^ A@z*#%[{F-L@H>#%,&!@!@S$d$/&#%F-S]o#g@g@J@[+l+C c$8.y B s ~.r {$g$2$f=d#F.H-H-@;v>B&b.]@f.f.u@u+{ { ( 0.{ ] B+H@H@I#G@{ 0.: '+C@",
"< [ }.} A 2.*.e#2 R.2.6 ; n Z * h*f%[=H 5 -.C o.F s=x m n &.-.; @@6 l n Z l z n n o 2 | l ; 2 &.D#2 Y+v#* z 1 ; ^@C@T,M= +A@g$l$7 i f ,.+.D* @!.X*8 @.9 9 #.i 8 $.c @.*@+@@.n } > / R=R=o+o+o+l+-#p n s ]+} /.4 z &.-.A .@>.!.c 1 o z n n w o.y p q U.U.` 1#i*,.}>j$9#_$9!F+w.{ I@w.{ I@>+%'{ p+]+[ 1 5 A 2 &.l U.Z -.|@6 5 S *.z [ 2 U.B w s&Y%Y%g*}6|61626)#- n 5 A 1 5 ;.|@1@@@e#;.5 o.1@2 o N%U L%V+[#}#L%A+2.l 1@_@k l z [ W.g !.h %.!.1.| u l.9.l+1*1*j%1*n o+:+l+w.{ O R=o#o#q#^,b-s/0-h,x->+F+O v.B@l+n+c$0#' -#$(`]p{[$)*v.n+l+' n l ^ ( o.4#N*o@:.6#9%t>|$g@7$l+O $@>+- n H@B+J.M.{=!=j.l&i.,+%$!+s@n+%@R$y=;*j%Y=Y'A=I+I+q@R$q@$@a#_$/ : a.] ] ) ] n J.1$u@t+|$S$5+P#d$O@2$.+B+C )#2.| &.5 &.n l.%@v._$9.D B@x.y$i+k#v.D 9.1.I@O $@D h@u@u@u@2$t+x#p+' 3 1.!+H-j-h$366:u-e@f@s#2)n+u D$$$+~m+m+k+k+Z.R=l+u 8@)*1.)*9.b@j#j#=;]>9,e)s>X@v@d''&F%R#Q#l%t@^@( u.: { ( _ _ u.> a.'+'+) > k-O=*@7@w#5$n@7 / ! '+] ) m+_ ( t#s#S]i@r+s+y#[+g$q#f@A@ +s+e@J@++)@2$n#3+u+K#:(o.w.v.$@{.o.o '$n#@+]@C&H-v>M.!*t>M.!=d#e.B{2$A@3#] ! ' { ] ( n ] 3#B+) ^ n ] ] ",
"|@k *.k ~$e#1 s-2#U.X%4656u*-.1 $.h*a !.* o w m z$$>{.@@_@o.l n 1 > 1 &.2.2 o 2.2 > 4 *.|@4 &.1 2 %%%%D#2.2 2 2.G@;.f=],I%g$.+3#6#%.|#j=T.7 9 h  .0 k. .@.#. .0 !.+@8 *@*@9 *.l '+) _+R=1.v.l+l+p D v 1.[ z < z o &.3$U.K+>.7 9 | z > < D l.m ~.p v 2 l k.` p&L+3#<&r@_$D { q@C %@n D C q@O w.9.< /.| -.-.S 2.U.Z &.2 Z 5 Z 2.4 o | 2.U.w l.`$a$0$5%{$66|6|6l } -.k @@U.*.6 _@1@A *.o.V$_@2 < ; V+V+W V+N%}#V+[#&.S o.A 2.A 4 A a 7 0 9 0 )+= [ D Q D n+b@j%x;6%%@D u u 8@)*8@o+q+n#f@r#+,P#P#r+[+n+n+w.B@8@o+n+%@w.R=;+x-$$R=x-o+v.;+;+m+{ { !+}+u.Q&|+|+/'K~H*F&,&@+y#' u D 8@! '+~ ~ d.H*D&,=2+Z.j+V]+~' n n+i$o.I+b@r&b@j#V~T=i#{ $@n+n i$0#B+l ! ~ ) > 0.{ 2$l$A@n#L@|$d$4+#%O@.+t+v.8.a==.l 3 /.-.l.m v.%@B+u u _$K%y$b@1*p+O v.l+{ { I@v.s+Z@x#h@u+.+2$D O o / Q&d{H]2$9(d$u-t+e@n#f@v.8@#$!+) Z.Q&- j+! 8@B@v.D ,+[$x-o+i+j#y.W#=+o%h+G%p%p%d%K:;=D%E%u+3+Z.u.! B+( ~ 0.> '+{ a.3#~ _ : :.q&_.r*9%9%[.j.] Z.{ ] j+*$D$}+7$p#s#f$7$t#h@u@u@u+2$x#f@n#x#2$l$g$g$e@r+h@)@h@_+o+u w.n C Q %'u@A@M.6&S,!*N.]@2+2+2+2+J.N.)@I%G#l ! > { 0.0.0.( o.( / ^ o.^ ( ",
"q /.} | 2.o > @@)#;.@@D@)#_@k 2.>.[=a @.= * w S x o._#/#P+m.1 4 o 5 @@S ; 1 o A A > 4 _@=.n 2 *.z Y+&.$%l l 5 1@D@`*U*0=_-B{e.`.4#k.,.`%d !.)+8 .. .'.,.k.f #.)+* 4 l *.; z &.&.u.1.o+I@>+R=8@8@G+^.P }.v v 1 ; 1 ; 2./., 1 [ - * o T n n C z$:%G q B B ; A E+E+n s Q u l.o.{$(#y y 7-{.Q+q ~.w ; 1 o < A 6 1@A ; 1 2 2 o 1 2.2 2 2.k |@C m 6% %E F B 76|686n A 2#4.4.)#o.k e#6 |@=.D.C+@@*.n l *.&.D#8$&.%%8$m&2 Z *.2 -.5 o 4 9 8 9 h o.l : ' _${ D l+x.G*x%;*l%n%&+z#w@s>x@v@v&X@7+B%m$C%M@h+3+o+$@D 8@8@v.n+l+>+!{o+l+o+)*R=(%W#Z%C'v.a#' -#<+r+3+i-t>O.I,B&P#u-.+[+%'0)F+I@> a.] ] d.H*~@F&d.@+[+r+7$g@h$c@I%++s+x#.+x#q#t*o+G ~.o m T /#L$V$n -.A Z o ; ' h@u&v&u&|$|$L@^-4+B&J.!*: n `+T.-.< 1 2.D s 9.C B@)*u 9.~%r&I+y.n+I@8@I@)*,+>+' [+g@g$t+r+r+f$F+O B C 8@t+t@k$u+e$5+r+3+B&J._ ' #$-#!+m+> Z./%{ 8.{ F+)*>+x-,+)*1.I@{ u 2$K#.+u@x#y#g@A@1$2$S$J@n#)*D n 8.q@C s@8.C _$_$%@%@C C@7@[.5$Z#(@6#u.Z.- Z.Z.Z.k+k+_+1.%')*O n+n $@9.w.$@n+O I@)*' o+f$/,G;B]@-g@e@n#o#o#g@Z@D I@o+R=F+t>~)S]r+t+1$e@e@s+t+s+x#x#g$M=I.H@G#H@3#0.Q&m+{ ] ) - ( 3#G@o.! ",
"(+- 4 < 2 > 2.1 o }@5/Q<$#3 *.> *@H  .d ; z v m r B r {.y o < ;.k ,#R.1 < * 4 1 z } < 1@6 2.z 2.s*s*X *.5 k _@;.0=!'96H#b.N.f=^ #...,.j 8 +@0 >.E+1#|#k.` j c %.2.> | ; n | | /.m+R.' ' 8@u v.I@s ].D t Q ^.2 o z 6 =.A )#@@-.1@| 2 o D s v I+:%].o r P+Z 2.f @@C G [ D C y _#7-o.]$8#m._#R D@7#U.k D.4.a=~$D.k o.*.1 1 2.|@e#k -.U.D@C+T r g*x%s=s&o.q-86|6D.6 !$4.C+e#_@;.-.*.k 3$V$-.S A &.> & * & & ]-Y#Y+v#o ; } - - 3 4 3 L+0 8 8 2 o - > 9._$n B@j#.!i#K%=++<k%^>]>P&=+(--%n%x*'&P@E%m$P&h@u w.$@$@v.p+C l+1.-#8@n+v.' R=W&(%(%.%1.p{z'`]A%p#g,[+O@4+~*j/j/'>[+<+,+-)x-I@{ ~ n ) C&N.,=4+e@.+Z@h@.+x#@+1$A@+%@%l$x#1$g$U*i$Q+y @@r T Q+S -.; o k 3$k 2 s k#e)s>P&d=|$>&>&{*6&i-!*a.'+7 f S o A 2.D v D v.x-8@{ D i#W#b'9/R=w.D v._$$$!{;+/,[+u@u+Z@t#r#8@x;F$)*{ u@x#e@h@!@#%n#e@F.b._ D$-#D$!+_ !+~+}+) n _$-#){){$$:+O O )*w.n+g$@%A@f@u@@+.+s+[+h@F&t@i$$@p+w.%@C q@8.0#o.p+$@i$c$o.`;H@n@*@w# .5$'+> 0.{ 0.{ 0.> O O D B+8.%@v.O $@%@)*o+{ B@B+O o+F+f@5;'>#%u@h@<+`)A%J@x#s+>+_+D C e.d.J@h@@+)@h@n#@+h$1$)@.+@+B{B{o.I#X.^ > 0._ '+! !+' ( ) _ 0.- ",
"E.m _#T q x Q+^.v ].#@[ m.o.D n >.0 @@k < ; 2.1@/#m t t q [ o.D@< {+;$3 = R., 2 < 4 &.Z 2.5 ; l s%U+^&U&_#(#;.*.1@t|N2`.> n ] / 1@o.&.&.> o | o 2 Z *.} - S D@@@; ]+< | /.n ;.2.G u B@)*{ p+0#$@G D B l.t m 7-]$Z D.s-|@o.Z l 2.w Q+B q 5%I+,%W#X#a${.Q+-.Z -._@L${$R m.<${$y @@R y L$q-];}&u*@@Z )#~$4.2#D.C+e#1@Z &.&.k 7-4.3$_@e#U.1@r {$R y @@T y D@>*t|%. @D.V$@@V$)#@@-.*.l 5 ; o 1 < - = + `@b,R&R&U%c 8 < > o A | 1._ ~ u._ : u.u.' ' O )*n x#1$z#/-r$r$k%~&r$6=k%H%;=d%B%R#O!D'd%'&d%%+k$9#c$D@D@s@/#i$$@' o+O q@$@D _+W&b$n*W&+!9/>!v@G<A#A:N{x[06R|H>@-r+<+g@u %';#u [ n ] ~ H*c.c.i-2$H%/-=+r${&f@t#d@)@F.B&f._-t>1.l+u o w p G+T B T ~.1.m z [ 2 q I+A==+=+{&=+|$|$N.x&w-5*j.(@a 0 * n -.;.q ~.{ ' 9.C c$<&1*j#T=6$i$B+u v.$@' :+,+r+J@A@n#/,[+u+' W#G~W#X#x.x.w@u&!@4+i-B&2+g./%|/Z.) '+1.-#-$O R=I@0#l+,+%'u 6%;*B+o+I@_+u p+y#t#e@l$k$)@1$g$h$k$J#s@%@9.C q@p+w.B@$@w.$@c$D@R$q@a.: (.: ! 0.~ C@a#0#r@D@q@D l+v.w n q l.B B S o (+1.Q D s '$P v.s+)@++x#n#u+h@o#s+k$t@n#7$f$h@)@x&B{h$)@l$2$(-{&{&=+h@u@1$h$T,g.l / l n ) 3#( 3#X.) 0.{ _ Q&(.1.",
"w t p p y 6.S u t F+>#1.{.{.D t A 2@D@*.1 *.| V$@@D u o B w :@/#2.S 5 o 3 3 [ 2 - n A n o S *.A Y+X+N%U+_#m.1@U.k %<U*Z.: / 3#^ &.n o n > 4 n U.A 5 ; 4 z | -.4 3 3 > n S 5 _@V$Q+x D q@C i$a#s@q w B B D C L$@@l 2.| 4 /.< 4 /.q n C B z$G$~#z$6%F T B U.o.6 @@0%(#@@{.:@l.S Q+S {.:@/#Q+l.m s o.&.} 4 2 o.2.o &.n | &.@@4.D.)#Z A 2 l B o.S v Q m y :@&.< @.E++.Z 1@D@@@1@6 *.o.5 > o | * } } 3%m@b,@  $ # .7 *.6 @@1 - * 1.~ u.m+: { > '+$@B@I@B@1$h@p%P&G%{&~&#+%+ [k%h+;=M{'(M#'[D'|&>=K:h+9.D@i$<&B+'@e4J#%@p+D 8@R=1.1.o+w%n&+=`$*;k##+z#v&(-7=x_a6b6c6d%F-J@h@1$I@8@Q G q ~.' ! b.J.2+g@u&~&/-{&X@v&3+A@l$Z@i-f=4=2|H*J.&.B s [ D n Q+:@Q+S n l.; 2 2.w i%Y'-%{&r$-%n=n={@g.e-Z#i (@c +@| | 2 3$_#S _$p+a#%@D B@)&9@=;=;8@>+n+' { p+9.D n#y#[+<+7$g@e@(%7'@/~#C'i#W#'*r$!@P#2+K@F.d.a'$$0._ 0.m+- !+O I@w.p+1.)*1.I@ %r&u 8@9.B@w.C J@u+g$.+u@@+h$@+.+ +J#<&B+C 8.n q@p+u D { %@c$%@I@' _ ! ' m+!+1.' Q&{ u _+)*F+o+' ' ^.~.D m l.Q ^.1.^.p Q u ].G+s l..+I=C#1$x#x#u@t@.+2$f@7$t#o#h@.+d.d#t@x#u@s+p%P&r$X@g@e@u+l$N.d#B+! ! { 0./ '+`.^ 0.u.' 0._ !+Z.",
"u {.o ^+w P+l.G+t G+G+o {$y ].B A &./.[ > 2.< z -.3$0%r n G Q+r *.2.1 > ; A | 3 - * * | z 2.2 ; U U&U+R+:@^$-.1@9-P^2.3.*@,.%.%.A -.5 > < * o e#_@S 2.2 S S - }.s [ D w G Q n _#^$P+_$9.9.n+,+:+G+{.S r T ~.].q t ~.A * 1 ; | z T o.{.R c!`$z$s&`$Y&Q+o.o.A n -.7::#S&^&U A+A+}=^&[#W+[#Y+T&V+R+U.5 S ; n n n | 4 - &.S _@o.l 1@2.l o.@@/#(#x l.S y C+~$D*Z+V*7  .|#E+E+1#f |#d 1#%.c #.` %.a $.w+x+%.0 k.k.2 | 2 |@B+!+n+q@%@n+8@<&s@s@p+_$1$h$s+s+u+8=H%=+2>!)@(d%K: <'*]>$+R,S:k%k%!&%+-%G%w&a#R${ O 8@z%d6a#8@$@O :+,+;+_+B@_%n*~#W#9@W#34W@U#;%8,f|e6f6g6d'>&I%{ 9.' n+m n v o ~ '+o./ 2+o#M#8,C%P@C%M#S$@-u-#%|$~=A&s_l4f,e#G=m&E#8$-.R+T+T+U+h;T&W+A+r=s )&a@/-6=l%{&@+1$!=c.4$..4$%.1#k.| o 1 @@P+{.B+%@a#%@o+_+i#r&6$x.O l+a#8.<&p+u l+f@7$<+o#o#s+t+k#X$V=V=@/)&b@P&!&z*d$2$x#t>j-Z.m+J.v><+x#.+n#g,f@n#o#9,#+-%v&X@w&g@2+2+b.'+n l `.l / G#G@] / l H@8=C#K#C#U,l$)@8=)@)@2$2$t+J@y#q+{ ) - u.' I@>+l+l+B@I@u $@<& %D D | ; -.2.}@R.|.} }@1.} 1.; o.l ++A@g@y#1$t+h@t+f@[+g,3+J@@++%A@~ ~ p+n b@I+I+)&W#i+6$y.O D { '+] ) > n / '+{ ( ] ( { m+' ' m+' ",
"-#D t -#:@:@u )$F+C ^.l./#m }.v *.Z , -^1.2 |.}./.;.z,n.T t C Q+n - } * 1 Z 1 } 1.- ; | ; 6 V$e#l*s|<;91|'n.A C+a=!$Z n E+1##.0 2.n &.1 2.| > Z 5 2 5 _@4.2#Z o q D n l.G n Q+P+o.l.v.o+$@n n+a#q B B m t r ~.G+t q 2 < | &.A k /#y C w Z$s&6%Y&)>a$S P+2.1 n 2 <#T&W N%N%U+s%W T&W+W+W R+T&s% |6 )#2#-.S 2.1 A 1 *.1@l 5 Z S -.1@U$z,]$Q+n B m.^$]$D@4.t&e $-$-T.D* .@.@.h i ..` j j %.k.c 7 7 `@v+h 8 E+,.5 &.A Z o.i$r@`;9=z%9=4'8.r@B+n h$.+t@+%A@h@!&w&6;w@m$;=y*7=u&w@r$H%k%W/+<$+6=~&/-~%v.n l+B@' n+c$l+l+O I@l+l+v.{ { W#_%)>7!{~]'w(w$v$W@n>A]W(w|O(l{.+C#u w.9.n+m n w D a.n ( > !*J@x*#:Q@F%F%(*K=A*c=/&~*]*|$F&6*C>n 8$D#A;8$*.U&U+Y V+}#Y W A$N%G ~%.>z#&+o%P&1$t@N.d-w#Z#@.@.f j n 4 , 4 l.y R${ q@%@9.n+i+b@y$I+' )*_$B+j$a#v._+p#r#[+u+e@f@f@v.j#**=-Q-M&Y$P&h+d$P#[+[+;)7{R.1.!*v>n#g@s+e@[+1$u+3+9,p%$+-%s$s$y#B&c.h6o.(.3#H#l / `.o.`.D@p@X.K#@%:)C#)@h$I=k$2$x#@+g$x#Z@g@s+m+- - > v.$@n C /#0#8.a#8@>+k#y.1 4 /.*.; 1.* 3 } [ n o o.> | 1 9.2$g$l$l$J@Z@)@g@g@r#3+o#g@)@@+H@B+p+9.)&i+i#j#b@b@x.y.' D { { ' : _ { ~ ( ] / ~ ] ) > - 1.Z.) ",
"/+Q P m n.P [|#@v F+n!q 1.o-u P 4 o [ 3 /.; >.9 > &.Z A x C F l.&.; l 1 z 4 3 &.l &.n l n |@1@V$L$k!n.;&o.S }&i63$S j f ,.#.k.@.e#U.4 3 A 2.5 _@&.> n 6 C+C+5 &.q Y% %I+s n C w )*I@v.' { 0.{ 8.u F$:%H+r C t Q D ^.(+].1 A o &.> * [ p u ~.:%X#T P+R n.6 l 0 n q q w B w C x B m r Q+y @@S r Q+2 k _@l Z *.2 S ; Z |@S 1@)#e#e#|@o.R y S ~.o.{$/#_#|@T.i;K,<%S.T.`+ @d c .@h 8 a 7 @.#.#.@.c c %. .k.k.|@k |@1@%@n+_$s@n I+I+I+g@s+Z@.+y#t#t+A@u@2$5+H>^-5+L@,&)@@+A@g@)@+%s+t+0#w.9._$p+%@n+{ v.l.B L$/#m ~.x B m Q+C o v u G Y%s&E ;*i#y.b@b@U#u$v$k=[6z)n>V@Z@t#o-8@l.C T w 2./.4 2 / a.d.u@{&l%o%o%n%#+2$u@++2$N.C&f.T,N.T,1 A k V$;.n l n q w 1.D s [ B t b@)&r&K%h@x#B(@%C&j-_ (.|.z l@# -./.}.o Q+B $@n ' >+B@a#x;b@b@r&n+o+u $@%@v.' %@A@t+u@@+2$u+x#$@b@W#i#I+=+u&G%#+x*M#3+f$7$y#{ D n#<+f@7$r#t#g@u@/-(-w&w@z#o%s$p%x#:(:(9(s@B+<&c$$@p+a#8._$0#{.B+)@2$g$A@u@Z@t#g@u@1$k$k$l$A@Z@2$n+n+_$B+n q@C $@W#(%W#~%0@m#j#W#3 ,$.#, }.|.z | &.; &.2.&.o /.< /#R$i$a#n 8@l+B+$@C x#2$s+t+t@1$) ] $@v.6$b@.,>%',z.W#k#u n+a.) > > - : `.D@r@`./ '+0.' ' 0.) ! ",
"4 u P B (+n-Q<].'$o->#G (+;#P 1.= /.l _@|@o $.)+A &.2 A o.r Y&`$*./.1 &.1 ; | A 2.; A > > l S C y )>P+x u w D@L$S 6 ..j E+7  .E+X%2.* | @@_@o.Z > S _@@@5 2 | ~.n Y& %F$~.G o n v.o+1.o+j+u.{ w.C ;*X#X#/#t '$^.m Q u G+o -.l > } 3 t ~.G o Z% %S /#:@m.6 U.a  .n ~.m T {.o.:@Q+x ;&D@n.R {.q n | A o n k k 3$V$S 5 6 6 )#C+k |@U.* (+t m ~.R @@l.6 `+D*-- &i;i*`+..%. .7 9 8 +@!.+@a @.%.`  .#.1##.8 < * }@= v O )*u ~%6$I+6$k#s+t+2$.+h@e@J@Z@n#y#L@d$/&c=F&c=J@Z@u@A@.+u@h@p+<&o.$@O u n+' ~.r R _#}&t-a%m.B s D n l.~.Q C n .%+!n*n*i+6%y$~%t$f+V,w$M]T#R@T#2$3+l+9.o G q m 2.2 2 Z B+] F.J.@+%+6=z#*+r$f@u+l$u+!=d#T,g.T,}>o.;.D@U.|@6 -.5 o.v n!t Q ~.x q )&)=i%Y$g$x#h$s+S,@;> 0.l 5 O&u#- $=} 6 B v ' ' 1.,+n+R$#, %j%d;p+p+q@i$n+$@%@<&k$l$ ++%x#n#2$o.i%F$I+i#p%P&l%~&7=Q@J@3+r+J@{ { x#o#/,t#t#g@e@[+P&6=o%r$(-P&=+o%e@3+f$h@z!j$B@v.q@p+p+q@{ D o C l$s+e@y#y#s+.+)@u@@+t@++I=I%@+t@C s@<&0#B@' O 8@W#y.T=b'6'.!y.x.3 }@* 3 } l 6 6 | 2 > * o | z 1 Q v v O O ' B@n+w.8.)@u@h@.+l$J@m+'+$@' W#i%!!6-.>:'j#k#O 9.n { '+] ! { C@p@p@r@/ > m+Z.: ~ B+! ",
"Z Q Q u P '$^+1.[ -#s D ^.[ p ^.t Q+_@e#)+a $.>.j 7 1 ; C T Y%H+Z o * < o } |.- o 1 S 1 z n S x :@;*$>$>R 7-r^r%C=j6=><=[~# P*i{}*/.; @@~$X%Z o z U.;.U.2 *.6 R y s=`$:%,%C';#u /#B@-+-)}+a.n u C Y%W&a$F ,%#@}.G s G D :@m.R r /.; > | m t t q C S 3$w*|##.@*@.1 T x w G r ]$7-0%];<$n.y B s S *.&.o S k 6 3$@@6 o.1@|@@@@@Z -.S 2 D n r x Q+w |@_@..|#N&g%m'[%0 h j 1#7 b #.9 7 @.k. . .%.j f 2.&.> /.1.P ].t v.x.i#.>:'.>:'0,o%-%p%/-{&P&P@M@m$Q#d$F&J=K=n=!@G,!*1.Q&- ' ^ I#^@2 4 3 }.< > 1 G v s o t m m D B q T {.G {.{.q v.' C C ;*G*x.(%6$x;x$J;Z]a,T#l=2$n#_$$@Q D l.C /./.* &.G@^@H*H*.+h$)@1$t@A@Z@2$1$1$8=U,)@8=+%'@G@o.Z |@e#2#k _@q :{x!u D w ;*s=<&i$%@<&U,1$.+n#y#s+_$i$;&_#A;B=Z ; z 1 #@/+!{F+v.u v.n+1*Y$6%i%n $@s@r@%@C 0#n+t+u@h@J@g@J@J@n+D ~.9.B@u&w&l%r$7+d''*r$l%=+I+b@l$f@g,J@7$f$n#u+2>O_!&z#z#r$#+=+s+Z@t+ +R$0)p{1.%@D G+o m n q l.!&/-^>q/^>r$H%n%%+l%/-$+k%H%&+m%$@C 0#9.8@>+*;(%T=j#(%<1}|6'b'i#(._ '+_ _ ( B+( ) > ! Q&: m+_ * p X+W+n ~.o ~.~.q S %@O 8@w.B+D 0.) { O I+1*G(i'i'A=i+x.w.p+'+r*! a.) ) / 3#l B+( 0._ > : 0.n ] ",
"].w u }.n t (+P o-1.^$o.q [ o n o.t-U$1.[=g N*0 #.c 2 A C C F Y&5 U.2 /.[ 2 2 = ; ; 2 2.1 &.Z o.n X#b!6!M$t-k6l6m6n6I{t{t~8!x+$ *.n k o.&=o6@@4 6 o.n > &.-.e#/#`$X#H+H+_%~#u ~.B+n _+w!!+m+u.I@]..=n&:%a$z$o t w Q+R l.R T t ~.< 2.> 4 A l.w q P+M$X%t|v*`+#*k.n w B q s B @@n.n.n.n.T T w q {.1 < *.5 l *.6 o.k ;.1@-.k C+@@@@e#2.B n.7-(#@@S C+k b @.]##*w,@*#*#.@.h 7 c h 8 1#j @.a b h @.k.S Z n /.^.~.n I+)&b@.>.>x$:'P%',G%X@G%/-w&s$P@x*7+7+d=y&i/>&0-@-K@2+Z.!+n ( { - * } - 4 | ; Y+X /#y y m.o.n Q+~.~.n.{.o q 7#Q+^.{ i$n a#1*x.i#6$6$6$:'Z]V}P%J;A=D Z@8@1.p t l.l.[ 4 - o ^ ] J.f=.+h$B(B(@+Z@t+A@t+K#K#I=g$h$.+a#( ; 1 e#D@)#U.1 o F+r C C T s=k!D@w.$@B+k$t@I%I%A@u+$@p+n ~.s*z+U.| } } (+E.0)8@D v.w.9. %r&)&6$n+p+n 8.B+%@w.B@e@e@2$ +K#x#f@O u G B@D '*v&o%=+7+C%r$!&m%n%>-E[@%s+f@Z@q#2)3+.+#+$+P&P&!&!&o%{&.+C#.+f@w!x-v._$B+w.'$^.v G ~.~.l%&+o%(--%p%z#k%k%z#=+n%-%G%n%2>n n+9.$@q@$@i#.!b'T;j#b'^;(%W#I+p+) - { { 1.- _ ! - / o._ ' ) [ X+A$L%V+~.G w {.B T C n+O { 8.8.(@] n p+~%A=>%S('!)!.,b@C B+7 4#{ ) ! n / '+_ 0.] '+) { u.' 0.{ ",
"u p ^+].~.u ].1.;#@@];m.:@x D Q D q 5 1 a +@[=L+L+9 2 l C C 6%6%S &.z - 4 > - /.- 4 > - o ; e#Q+q s=6!b!M$M$.;p6q6n6a]t~%{/=g{Q*n n L${$S r-q-C {.S m w C {.@@_#F ';`$Y%H+a$Y&Z$B+q@_+-#m+m+!+>+^.Y%F W#C'b${.y (#]$R Q G ~.#@o-, +@!.< n Z l A |@2#T-'=Y,i*[%!.> { p+p+n+9.s@r@7.U*J#B+q@q@q@$@< /.S 2.l |@@@k ;.D@@@U.o.C+;.|@2.*.D@:@o.^$6.<$1@U.h f g%[%v,[%=*#.#.a 9 +@b 7 ` #.b 9 !.9 +@0 &.A m s p n 6%~%i+x$x$J;:^,,,,',s$s$/-=+r$z#x*@(>=P@/&F&F&[{r6u-i-j*7@9%&@+@L+0 W$N*J$8& $# b,= D y y :@n n L$Q P @@G+q l.B C Q $@{ n D B@1.b$n*G$Y%a$Y%u=_;o&G~O { 8@I@v ~.^&^&&.2 ; o B+! 0.~ p+C 8.a#v.,+n+B+i$/#%@n $@8.n R$G#L=I#G@I#;.o.- 8@p+>@i$G*J%G*G*_$u.l a.C&d.B{_-8=h@9.n+u '$A$X 2.* z }@-#u q@v.D )*u n b@y$6$T=:+n O v.n+9.u u x#t+u@A@x#e@s+{ n+w D D g@@+l%P&'&d%l=l=~:k=!!Y=)@r+<+t#n#<+w@s$z#-%o%n%5{]&/-P&l%#+=+h+y$I+x.Y$x%;*_%W#G$Z%a$s=!&6=&+n%~&l%&+H%l%o%6=n%o%{&$+W/i$$@%@0#G*Y$i#9/.!7'^;j#x$',A.Y$o.m+R.' { ' Z.m+> k+R.(._ n `.Z V+U5X)s6W <#T&W n m S w q G C q@|-o.H@0# %:'k^P5,_L_',I+C B+7 (@> n ~ ] a._ : '+'+'+0.' > ) 0.Z.",
"G G+^.v S 7-q *#Q o.B n a%D@s [ ]+= 2 X%;.1 < [ 4 n C B G m l.T U.| o - < ; /.< < ; o ; | G C+;&{$b!'@@@^$7-<$r^2#~(v*<~+.Y*l@l@2.~.o.9-w C P+C {.w s m m D S R F ;*F X#z$K$$>`$_$q@o+1.' > _ I@G+Z%.%b$0@.=o.T T u u t t v 1.}.[ [ 8 > o A *.U.|@o.c g L+>.+@>.( C B+n w.a#<&c$R$i$n n n+%@o.o.-.U.S | *.k 1@; A ;.V$o.2.-.l 6 5 Y#l l.!$/$9-_#4 *.+.`% .V* &^#a h b b c a 8 S !.&.k.2 +@/.z ; o &.S o.q n i% %1*z=z=A=z=S(>%x$s$)@)@{&A@o%d=c%E%-=>&c=|$P#8+#%6&&@*@*@9%1++#b >.g $.9$!.]-+@; n Q+{.C l.y _#[ ].v ].D G {.m.T O _$C B@x-F+.=+!:%0$a$z$`$v=#>5%n v.l+9.$@S B ~.> l 6 n / '+/ 3#) s@l+{ w.C /#7.z,0#q@0#B+<&o.V%p-h...H@^ '+!+I@C D@^$c$L'M&)&B@O n V%0#l n+x&o.g$9._$B@l.y T&}#*.k )#]+p G 8.$@a#n+9.q@6$~%l%i+$@D ' { $@D %@p+p+q@l+7$t#e@1$c$o.q 9.{ n##+6;T)d'T)2&l=l>.> ,i+W#r+o#o#u+n#]&!&!&{&G%~&l%r$(-h+w&w&P&s$r&i+y$n $@p+D x o.T Q+]$ %T#!&z#=+{&r$=+r$k%#[++h$h$1$8./#q@c$i$I+X$T=;!E,O{^>w$l>A=T# ,o+1.l { ' C@] ) !+!+/ 5 l -.D@6 S+:#h;r%X s%x w l.n S n B C a#) l ^ ^ C Y$ ->%I;J;a@A=W#$@9._ ] n n { _ > { { n { u.Q&' ] n _ u.",
"}@> t '$H+t6$<~#I+6%r ~.> ; o 7 i>(@k&>@7.1*A.L_ -Z=t=`$o 2.!.0 7 @.h a 4 2.2 /.o [ D B C F r {.s@a#d#I#r@H#l1U$p@u*D@k I#_@_@U$E#]-B=H=G=$*$*E@Y#8$$*X Y#F#Y#^&R r D (+].l.l.[ o+n+l+u o+D { :+B@q@1.' >+F+_$_$'$E.p t 1.t ~.q D s 4 z | &.@.#.h 0 > | > [ - /.m {.S C m C 2.A 2 < 3 o | l 5 o.8.w.w B B w e#1@s*G=$ /=/=.(Q*V//=]3$ $%i{&=D.H=Z-}!u6v6Y#/=S*S*E#]-Y+F#&.% l s 3 v 1 G 4 u v G m Q q Q+T D ~.w S `$Y&)>s=s,Z$H+0.I#( w._ C x&Z@h@e@4+4+e'O!D%A&B{_ !+) l ] '+n 0.> 0.s '+{.3#n l.~.T T T {.t }.m*+=F$G$F${#Y%a$O C p+o+>#E.}.n!q q Q D w 5%~.m v.B&N.f=t@9.u o+p+8.] / h#5$i  .> -.Z -.-.o H@o.- (.v.`;/#o.J#`.E+c +@%.2.z B@w.o.x;6%;*`;o-[$_+G+H+~.:%C `$9#p!j%a$:%z$s=j~)> %X+s%n.m o.{.c$a#.+t@h$@+<+r+!@t@C v.s T T Y B x C S H+9@w@z#6=s@i$A w.o+G%k=/>q>;,;%W@ ,~%G$~#G$k#*;9@T=b'x.C { _$o.p+w.B@p+D O w@'*p%u&u+2$w.0.> ) &@4$h>B!.&< r&S(J;P%:'6-b@b@n q@q@C@~ Z.Z.: w {.:@{ W#w&x@N{h]A]f+w6S@x6y6n(,+l+9.' _+v.T p [ n n X--.*.2 s*l l -.S l o ! ! a.0.u.n ] ] '+( / 3#! q@0#j%)&i#y$6$=;u w.v.$@8./#o.$@v.w.$@) a.n { | 4 >.8 b (@",
"} ; t [ I+a${#,%0$$>{.s | 1.g)H =@f#|+I@y$.,{'z6L_/|9:F G ` -*f%+@7 h a /.> > z D o q n z$a$Z$`$g.x&g.:,D@Y.2#V%:=T%X.C@2#p@@@C+m&2 s*r%r%E^=.B=m&s*% 8$E#D#E@%%G ~.t [ t D [ (+F+q@_$>+>+)*:+u %@_$F+,+F+_+{ s@1.#@P '$t q ~.~.q o s o n 2.7 8 a 0 z | q G o D n x o.y T l.1 o 5 1 4 2 A 5 S 2.%@p+C S t C o.~$X-*.I~y+V2V/4}R/+(A6t~(=S*$*$*z+Y#D#|=X-< X 5 E#z %%%%%%C=s-o.t t D ~.o o n s&0$S t v n w n T S P+T z$z$:%,%X#T ~ 5$'+~ 3#l 2+L#h@J@S$u-`(R#7+z#C&/ l / l / n '+~ '+%@a#%@p+n D t G S C S r C r _%I+W#:%E Z%n&G$v.u 8@R=#@[ ~.S T t o m C r Q D x&J.B&6&e@g@f@y#_$_$'+~ h#Z#L;w#*.l *.; o | ^ ~ m+~ B@B@_$$@$@] f +*8 7 z |.{ n+=;.!i+J%9.n c$C 5%C'_%H+X#Y%Z$w%_%Z$s&k!%*;*0$:%[#r%o._#7#{$C q@e@2$l$u@O@c=P#g@J@$@r :@l*T+R+Y U+X I+(%i#r$/-Y$( &.D l+=+k=3&B6x6C6>,b]0@n*+-+-=;S/T;b'.!^;w!p+0#9.8@u { 9.- I@p%r$-%-%2$u+'+{ 4#(@g-}-g-8;c)a J%D6L_S(>%D(G*6%C r@3#u.n@+@j*' m [#v B@w&6;Q#B%v|:_<_1&E6b(u}~:z#O n+I@8@' ].P * - & %%*.B=q%A;o m+- u.{ ' u._ ) '+_ u.' 0.0.'+~ ] { { D w.l+v.B+_$v.w._$p+M&y=i$$@l+v.D n+( o.B+3#*.< L++@#.i ",
"|.- p s G p b$G$Y%:%v [ l &.s!H Q==@7 8.M&{'E[{'6-K{1- %o.i ]#g%8 c h a | n o /.~.T C w Y%Z$F Y&],f=g.s_r@D@V%p@Y.2#) - =.6 -.k A;s*s*6 D.u6F6s*$%B=$*s*$%8$]-v#Q s p u n ~.u D u D C D _+I@v.%@R$w.R=o+)*l+{ C (+G x D v ].p s ~.D D q A 2.h 0 @.h | > q B C T r y :@:@B ~.z 1 | > 1 l *.-.k _@;.|@D@V$;.;.*.k % -.% -.~;~;~;<=[~X-1@V$o.2.> t o /#j$S D C R$T E@%%&.%%*.k U&[#s q q s s n {.x l.G m B w q m m {.r B s u u v D ] > ] ] ! (.!*f=e@h@J@y##%S$Q@X@2+] / ] ~ o.o.a.3#/ n w.9.q@C n ; 2 l S o.r n C T w G o.;*0$_%b$(+E.(+u s o o B G D /#{$Q+B P Q e.2+L#v>J@J@y#s+n 8.] 0.7@5$[.w#&.n *.1 2.-.^ ^ '+0.O v.O 1.' ) h 8 )+T'}.[ 8.w.X$k#I+y$l+C D n+C ~.o.y T T m [ u q n Q+y x P+Q+7:h;Q+^$a%S n n %@u J@J@4+F&5+Z@[+v.~.q C r ^&[#V+[#_%{#i%b@r$K%a.o p+w.v&o]g+<|G6H6m;0,(%W&I6.6V~<1X$~%{{;*y$j%r&)&p+{ { n+B@w.(-G%X@=+P&P&n { 0._ 5$h#n@5#@*d j%{'Y'Y'~%6%)=M&n a#`.' u.! u.Z.t %]1*(%h+w@6+A/E%'&':V@K>a^n(J6;!y#s+y#w!1.)*%'-^* > < *.$*s*$%z _ : - > { > - '+n n+w.{ { D B+'+> n ( ~ B+{ l+{ $@9.{ 8@)* %M&w.I@8@8@R=,+m+{ : : * } L+*@7 j ",
"5/*.D@o.D m C'(%F$z$G P &.U.L+g 1+r*G#V%9##,G*K%b@r&a$m > Z  . . .0 9 h A A | [ t m m G Y%Z$6%E G#g.c-5=o.^ l ^ 0=C@> > o.U.-.S %%B=% k =.Z-r%& *.$%G=X E@Y#& Y#q s 1.G+q q D q p+B@D w.8@n C q@{ n+u O 8@8@n r@y w ~.o p '$;#t s o q q 1 | 8 8 !.b 2 A C x S n {.C T T D G+* | 1 ; 2.l n S @@C+;.1@D@)#U$)#_@@@o{Y-B=X [~ # #5 @@-.H@@@X.=.o.i$z!6.^$r@C %@G*x%5 E#E@*.8$$%^&Y t s Q p v n q Q v t o G q q q ~.l.P+P+C T T G t / B+3#a.- ,+{@],u@t+[+J@>&L@7=s+( l ] ( ;.p@G#C@^ ^@_$w.R$D@R$8.2 ; ; S /#R x r m.l.r 7-;*K$6%W#^.Q Q t [ u q B Q ].m r x B Q+@@e.2+J.i-r+t#g@2$_$p+u.: r*Y@7 4#| > *.o.1@Z ^@3-( / n w.C a#C i$1# .)+.#= < %@_$(%j#6$y.l+n u D G S P+r C n G C D ~.D ^.p n C T R+^&n n E.n!:+' $@8@r#[+L@>&^-s+v.w.G q l.C V+[#L%Y+Y%Y&G*~%=+J%q@1 p+O  !x@A];%B6K6J;W=)>s&Z%Z%k#(%x.9@y$y$i+b@j#I+j$c${ n 9.w.-%/-r$~&/--%C p+! _ l / 7 n@` *.Y$.,b@6%Y$i%i%)=B+9.] ) - ) ! I@z$6%t'L6m%2>x_.[F%P@z)g+w$U#p( !f$y#Z@@+D 9.v.w!}@> [ ; $%*.8$S C@;.;.( > 0.0.' ! ] $@q@%@9.l+$@a.: : ' Q&u.B@B@D v.O 8@F+,+i+y$)*R=:+I@D n n 0.> : 3 < !.g 0 7 ",
",#; &.4 1.[ -#l.y t u G+/.| = .#j+Q&}>D@r@o.a#v.o+_+{.1 4 o.&.1#i .@L+8 | 4 z z s o s G 6%6%`$Y&] G@Y.D@G@^ l l X.( U.*.1@k S 5 &.%%*.$*-.D#%%E#m&s*6 E#* Y#&.*.w o o m T o.o.B a#U*$@O $@i$9.%@{ R=1.{ C c$j$q@l.G q l.q s P ].o G G o < /.9 8 c k.5 6 n.;&D@P+S l.T {.l.t z 2.-.l l S 5 1@_@k (=Y*8!Q*X-k U.*.)#3$6 @@6 z 2 5 `.p+8=8.U,z,D<E<W:I%5{+<R,!)m%#,|@A;m&D#Y+* v#]-} 4 t ].[ ~.~.Q {#z$0$K$E 6%w m [ o | n o.k |@@@B+B+{ 0.> n H@) Z@g@l$h$.+8= ++%C@3#G#p@X.I#G@^ G@^@_$%@9#9#B+q@l &.; n | o n 2.;.n m m.@@o P v Q+Q+n ~.~.~.o G+u t m q Q #@o.]$B&j-s+t+g@u+-%~&n+l+I@%@a.] j.7 Z l 5 k Z ; '+! ' ( a#a#c$c$R$7.F* .> 2.*.C o.%@)&y$$@p+B+R$;.V%6 |@Z U.1@o.5 l l 2.Z A &.2 > o Q v o Q v (+x-I@_$s@Z@2$h$l$F&l$;.|@Z A S y U&V+m T R L$#,x;~&M&B+x B+D 9@)&w(J<J<w(',Z=x;a$H+ %!!2&l>O%O%H<w$l=o%6=n%=+'*r$X@-%l%%+W/R,n%$+Y$1*$@9.B+a#C@^ ;.l._$b@%@B+8./#C 0#8.s@n n o+o+O $@j#M6M[u$M>.:7=C%d%D%w&'*r$)&)&y$g@|$.+Z@.+r+!{,+~ `.A 2 R..#-.V$9% .L=L=~ ' !+- o.^@p+D v.9.D D ! a.~ n - 1.D D { n a#R$C 9.9.u :+o+' v.$@9.> > B+l o | | z 1 z ",
"- z | 6 y q ].y _#^.}.G 5 A [ } j+0.r@B+2#B,(@+@_.:.$.o l | } e#,.0 g L+4 | &.z o s s w F 6%a$Z$~ `.>'!'M'p@B+G@;.B+o.5 e#_@D.=.8$F#E#B=2 ]-&.s*%%m&G=B=m&*.2 &.D w B w T x S w _$U*$@u B@{ )*n+8.)*F+%'l+_$v.R=Q l.T G+t w o ].D s v v z | a 7 k.7 1 2./#;&]$m.T q n B T ~.n Z l *.-.o.k _@D@;.R*/=S*I~)#o{1@5 ;.-.o.e#k Z Z C@G@<*F>c@s_c@C<P_++@+)@J% +)=A@B+2 8$m&$%&.E@8$Y#n &.o t ~.l.m t a$a$5%z$Z$6%m ~.w S 6 _@C+)#o.*.n ! - - > B+] m+q+.+++u@e@s+s+9.> ] ( / B+/ ~ / / ( %@%@q@B+%@n+2.2 2 2.o o Z U.U.l C :@(#y w m l.s Q [ q T Q #@Q u v t G u G v.;)7{f@t+e@u@=+r${ 0#%@%@~ '+Z#7 o.k A 2.A l l u.! ) C i$s@i$%@,+|^<), o l.{.R$n K% %9.R$i$_$~ ^ _@)#-.|@|@U.*.&.)#;.-.Z *.; > 4 [ o [ u (+u ;+n 0#s@x#1$g$t@m=k$^ S -.k :@:@T+s%{.C {.P+;*f>W/K%B+v O p+b@G*.|k=g+v$Y'>-K%r&y$6$T#T#/>t$w$T#v$O%6=6=W/6=>!w&=+X@=+!&!)*+&+m%6%6%p+$@9.q@c$c$Q+m n+p+i$q@R$>~o.B@w.C ' l+o+_+1.x.Y[Z]1&V((*y*f:(*M#h+u&T=W#Z%F$y$.+F&1$[+g@3+3+O a.!+1.; ; ]+&.z k-&@Y@7 Z.1.' n o.C@$@n+v.n $@w.{ ) { 0.: - p+p+9._$C 0#%@{ n+v.{ a#i$8.{ :+!+B+0=H@A 5 |@5 n 4 ",
"A *.| [ 3 } D o D x t p n s (+G+1.O ! ] B,N6K-5]m-#)N +@4 = m /#*.@.9 g n *.; [ 1.^.v q Y%Y%Y%5%> !'A25.U*G#C@^ D@2.-.e#;.C+&'e#z A+8$A;z 9&z E#Y+E@s*$*G=A;%%Y#l 1@1@U.U.o.S A 5 S ] '+m+Z.u.0.l+o+)*' ' { Q t o ~.m ].].u Q D D o o ~.1 &.c @.7 h 2.o._#m./#:@C q w T Q+C 5 -.o.2.*.l ;.)#_@A # z~l;S*[~8!6 _@;.|@'@D@'@<&r@Y.~'>'h-V%/@o.G#`./ o.0.n ;.y ( _@-.l;l;O*J$U%B=E@2 A A 2 n n ; ~.5%%-U=';F s&T {.k k |@o.%. .@.8 ! n ! ! n+_$$@9._$J#0#n+_$p+_$q@u.- [ /./.> 1 | > ; C C l.r r ~.2 k.7 7 h 7 U.5 U.S Z *.5 |@-.4 t Q [ '$}.G+I@B@' w.w.n+v.l+O O n#3+o#r+F,'*v@h+x;g*<&n C@( (@w#> S 2 -.Z o _ > { ) n <&9#a#_$' $.h | n T o.y=G*x;6$9.j$/ ! / C@k 3$V$_@1@5 2 5 _@7-7-|@l *.o ]+E.F+P '$>+w.9.%@B+_$@+++A@.+h$t@m+, 1 2.- } T P+T ~.D n s@J#r@w._+' o+$@x;~%~&6=r${&#+%+H%n%#+G%f+k]l5l5W_25l>l=l=H<V^1&<|t$~&/-r$H%m%!&m%*+d;G*M&j%J%M&d;{{X#P 8@/ X.l $@r@q@{ j#9@i#y.j#b'X$ ,k{T##<%:N(':c% <w&6;g@I@l+G Q {.u@|$^-O@/&x#t@+%%@C 3#~ l '+Z *.7 0 L+g .@8 - ]+v Q G S  %`$Y%o 2.o * 3 ; 2 l *.{.C m C {.m q q w.9.n n _ Z.{ o.r@] 1 l 5 1 , , ",
"z A ; > z 4 1 {.(#<$/#q 1.(+v P 6$j%B+I#u_g#^(/_O6O6M++#g G+G+Q - 8 8 b o.z ]+/.!#(+D w  %6%Y&a$r@P6l1^@_ n o.^@1@2.-.o.;.~$Z ; $%A+Y#m&z F#2 &.*.$%*.Y#z D#8$8$n z 5 e#1@D@2#Z o.| n u.m+- u.Q&_+n I@%@w.D o R C o C :@m G G B w S r S ; z 9 0 c  .1@@@:@C C Q+D t n S R x *.; 2.2.5 A A 2.-.*.O*Q2v+x+h~l;@@e#)#@@R$r@R$R$7.2#|>D+t.2@6@j (@7 i @@..z+D+)#i 61H{%{S*/=u#O&m&F#[ 4 ; 2.l 2.; o 6%~_t,t=F Z$B y 6 l 5 o.c !.!.9 : ~ > ) %@n p+{ 8.p+$@9.B+i$n 8@n ; ; n n | o ; A 1 s s G B S C i |#%.h h @.6 k D.|@; | &., $== P D ~.~.o ~.w.' { 8.n+9.D $@n+n+h@2$Z@y#w@h+u&n%J%x;_=`;G#n h%(@2.6 |@D@;.k C@0.] ;.s@B+$@w.8._$-.i *._@B y )=x;d; %C 8._ ! G@r@@@k |@|@o.@@5 6 U.-.D@5 4 [ - l p /+;#s { 8@O { v.a#)@@+Z@h@@+%@; 4 2.5 ; l :@l.s v w.p+B+p+n w.O B@B+9=H'~%#+s(Q6 [%+(-%+#+z#l>R6}^q>#6z]z]k=u<3&a^2&v$T#1&l%#+h+*+!)%+m%n%G*M&1*j%T*f2x%x;,%5%3#/ n 0.B@q@$@$@K%x.x.(%I+=;m;:'O%U#O%#:#:8,-=M>n%k%p+n l.[#Y+w u+#%,&A*n=A*k$U,9#J#W%^@> ! 2 Z h !.)+8 9 !.} /.w n B w _%6%)>Q+|@A o } 2 *.&.&.B B G n n [ s B 9.v._ - }+Q&_ > _ : &.| - 3 - *.",
">.+#0 @.0 z 4 C+&=@@Q+B G+t n P i+I+'+r@g#A!S6w5T6U6q=J+O+/+v C l T.*@b 2 2.1 | T t [ q s&Z$z$:%;.^@B+^@/ a.l o.k -.2.*.o.5 2.S n 1 < > z - 4 z > 2 &.&.o *.Z o.6 &.A 5 V$X%4.l < 1 m+Q&'+: m+_ `.G@0.: u.( < 1 U.A 2 | < *.A n ~.o G n A n h 7 k.b 6 5 o q ~.q ~.o ~.C y C ; 2.*.Z o.o.U.S S S O&l;R*i{R*8!-._@;.o.0#R$r@4'z%D@K,e&G{]{`,}/i*&{*>h~&{V3x(V63/I~61%{Q*S*P*w+U-O&>.$.z z &.2 *.w Y&g;6%Y%E $>S m n ; 1#f 0 9 h*.@- D u { s@a#C 8.8.{ > > ) '+' u.o ; z /.o &.1 | n A w l.~.m n S  .i %.a $.0 U.U.A Z 1 /.$=}@3 }.].s ~.C w ~.n+0#_${ ' w.2$.+3+[+h@1$z#(-{&X@H<M}{-`~g*1*_$l+a.l S &.-.1@S 5 ( a.~ l 0#_$8@)*D $@> < 4 o D l.6%r&6%;*C p+/ ~ 6#r*A 2.o.-.S S l U.;.e#*.&.; /.= 1 ! n 3#_ Q&m+1.0.a.'+a.'+`.;.],C@-.$*o.l S *.{ : w.$@_$%@9.l+{ a#C q@%@v.u 9.q@9.e@c@W6G%M@E%K>S#l5}^d]m]5}{^f+/>H<3&t$3&1&M]z#!&k{1&__r:1&k=g*)=M&K%#,{{1*K%0$Z$o.C@'+n ~ ( 9.%@i%x;Y$J%Y'>%Y'.>u$V@1&O%C%d%M#(*k$l$i$@@2.D#E@&.y##;L@#%>&|$.+1${ >+: / _ !+/.* $.@.+@.@z > n l 2 o S :@m :@^$_#|@` > n Z -.; o /.* u s 1.}.D C a.a.> ' _ / o.^ a.a.2 &./.[ > > ",
".@$.8 #.7 @.; 5 ;.S o q {.T Q (+T=6'D ] 4#<(Y]8;X6Y6Z6s!]+!#b$t 2#D*9 h *.6 5 U.B [ [ G H+:%`$E ( r@H#I#l ( A Z 1@o.Z 2 1 2 5 1@2.o > o &.2 > 4 4 &.&.o &.&.&.l S Z S o.|@D.D@n /.o 0._ - { > ~ `.( { '+}+: o ; A < o A z ; 2.l o D t v > ; a b i #.o.Z ~.o s ~.n G q B S S l *.5 l A 2 2.Z o.1@/=R*y;y;h~S*-.k -.5 0#c$U*4-_=e#Z;`6m1 *G^-[@]|}.{p2h3z}m}C3-}G3Q*8!Y*[~O*b,3%U%.@$.4 > 2.-.o.l E s=E 0$%*%]y s Z D@1#)+L+8 7%)+0.$@n+w.B+'@_=0#w.{ n { : _ 0.( o o < < ; &.1 n 5 S o D s s {.y | !.c 7 8 %.Z &.z - /.}.]+}.* * v o q T T B _$B+{ w.n+n u+e@f@s+2$u@r$G%r$(-1&T#M& %1*6$n+w.: { 2.A l -.2 1 ) o.C@~ n+' 8@D 9.l+} < [ o s o x;r&)&Y$O %@- : 6#+@z > l 5 S l *.6 |@*.< 3 - < 4 < '+] : !+!+m+! ( l m+! ( ^@^ e.r@_@$*e#Z z ; ~ l B+_$$@w.9._$%@n C B+%@_$$@n p+{ u@A@+<6=Q@D%z)L>n585}^ 7F}~^w$v$w$l>3&l>l=M]z#-%T)O%V(J<u<H<#,;*i%Y$I+W# %j% %o a.] / o.C@3#p+w.9@1*J%y=M_W=X=',/>K>K>':'&y*d%@(g$n+9#{$8$8$n~%%Z@#;#%L@#;[+t#n#9.8@u.'+_ u.n S >.b +@0 | ; 2.; U.5 l.l.T P+y l ,.` 2.&.2.o.4 4 ; < (+u E.}.p v ! u.u.) ( 3#3#~ { n 1 4 4 z > &.",
"h j k.b .@0 c c j 2.Z |@P+C ~#t'+!m#8@'+h.4@6@i>x3<.J L+3 v (%v V$..k. .A 2.2.Z o.T G s Z%X#`$Z$^@^ I#`.| 6 1@-.n S ;.|@$%$%B=8$2.1 1 | 2 l > * | A 1 3 > o n Z k.` 1#E+#.` 0 $.4#j.4#9%5$h%h#6#! '+'+! ' ] / ) [ } < l ; > &.*.o o ~.~.> z 8 c k.` |@k Q+{.n o w G q w n C U.2.A n &.A Z o.o.-.+.j a 8 A 5 Z A / G#G@3#I#&)Y.E*.7A5+7@7}}#7$7%7_4&7*7=7C3-7;7z3@:y[_{o=}%I(<=8!b h E+ @+.%.` o.:@o.B C R Q+1 | @@k | = +#+#)+9 { { D w.9.a#/#C _ : z 4 | 2.2 2 | z [ 4 &.1 | A &.< ].[ q G S x *.; S U.S U.l n 2 = (+P ^.G n m ~.n r y {.s B@w.n 8.A@g@r+<+F-#;l%z#/-6=T#O%O%t$:'I;i#6$C r@`.'+; 2 Z A ; * ] H@n a.n+O O 9.$@' < n w {.S n 1*6$I@I@>+q@1.: 4#[.4 [ 4 > A 6 |@V$2.| /.|./.S |@1 ( ) _ a.l ( l ^@r@3#I#V%H#I#;.`*_@G=$*B=n Z ^@`.l m+1.n+a#c$Q+q %@_$l+w.a#o.H#Y.s@8.c@l$x*7=7_L>v$M]>7,7g:A]t$l=-%z#%+k%%+]&&+z#l=M]m:u<u<w(j%i%b@~%1*J%a#a#x x l ~ l H@a#B+w.I@r&)=;*y={{H'h<d>h+ :'7r(Q#E%h$l$1$D 8.{.W V+|2W+u@4+h@2$h@y#J@n ^ 3#A o z &.A &.< o z 1 A A A z 2.V$|@A *.|@S &.` c @.#.j ,.| &.; 2.3 < ; &.[ D _ ! { 0.{ ) { : _ n m Q [ s m {.",
"c h +@8 a h 7 7 #.%.-.*.u C'W&(%x.V~,+9#^@w#n@7 4#:.$.} o o.c!@@o.|*t&`+;.3$7-V$S o.n v Y%s&z$X#'+/ ^ B+6 |@< l U.U.6 o.A;A;X &.n 2.1 | ; 1 | } /.1 > 3 < o ; ; h k.f 1#@.7 .@+@(@T./@/@i.j*7 h.~ ] ~ ] '+n ( a.*.Z > ; 1 > &.U.Q+l.B :@|@l #.E+j +.V$e#_#P+T s w ~.G n w T S *.> | 2 S -.-.S 2. .j f ` 5 U.*.1 ( ^ X.{,X%~'p@!,s{({)7g&-[m}m3n2!7~7{7t3]7^7/7(7-}y[x(g=}/_7-><~k.7  .@.E+8 7 k.l {.r {.B B S Z [ R.|.n b )++@| ' B@{ n D 8@O l+1.u.1 1 &.2.A &./.[ } [ 1 ; ; 2.4 } G ~.G t p t 6 Z o 2.-.o , , * ]+P u o m v v ^.q T G n Q :+-#D %@J@q#f$t#O@O@w&'*^>z#f+;%A];%c]A.)&K%D D X.l o A 5 &.z > o.n { a._$n 9.n p+$@1 n S {.y P+y=M&a#v.9.C ) B+4$Z#Z *.o.V$C+k &.n S 1 * 4 k @@U.l / H@I#;.G@H#V%~ `.^@G#3#^ C@`.Z k E^-.$*)#k ^@~ > 1.l+0#s@8.C ~.p+C v.p+0#%@/ '+l+%@++g@R#5,b+7_1&O%w(3:r>t$k{p>9,/-6=6=2>#[k%!&1&w(3:k=w(l=x.i+)&1*j%a#8.s@Q+:@l ] a./ n+{ n+p+d;y=J%d;x%f>5_Y=W/:7<7o%m$Q#.+e@h@e@v.Q t b&N%N%s+#%x#)@.+h@{ _$'+n ; z o 2.&., > l.| n -.Z A n &.2.A Z o.e#1@l #.+@.@7 ` b } [ | 1 z A 1@k :@T > l ] : 0.> u.u.> { q n w {.C s ",
"$.9 h @.V*]#+*@*j 8 > | s I+F$b$k#>+1.j$s@{ { ( '+! } E.s 7-u*9-X%'=).`+)#U.S A ~.l.G G Y&Y& %a$; 2.A 2.|@-.} 2.S S B=6 % X Y#& n A | o 1 &.2 o | 4 /.4 } < z 4 g #.h ,.1#` ..E+|-Z#C-[7/@4#l&|-'+C@~ _ a.'+~ r@D@e#A 2.2.2 2.-.o.x y n.k 2. .+.'.`+o.S B w n m l.m q T Q+S *.U.5 o.|@k |@1@1@|@G#o.( a.~ B+( { o.3$C+2#e v*2,D+i;i*u,^#[%x+&>2~;(V2n}&3~3}7|717u2d)B^1%O^I(%&@&%=V*i #.i E+E+j 2.5 S 5 e#@@S *.n o 4 | /.> 5 l p+~&$@l+_+_+v.D = > A 2 1 1 n n > | < - z | > > 3 < l.C ~.D t B *.[ 4 5 ~.!#E.F+E.>#P D (%n&~#{#F+v o D x G I@O J@u+[+3+^->&,&d$u&'*A]/>T)T)i}n]G(.,A=.>i+i%n l+n Z n ; [ S H@> l ] $@%@a#B+B+0#r y R {.Y&6%M&j%a#9.B+] 5$(@h#[.A S P+R :@B s n r w C R S w l.B '+_ '+D@G#( r@C@( / a.> ( ] ) z ` %{8!~;5 o : - J-6&C@G@w q C T y$z#o+' a.'+( '+( a.g@#;Q:L<278_!&J%K%K%K%i+)&~%b@b@D 9.s@s@B+;*W^g:r>$62:k=x;K%s@s@'@D@^@^ 6 5 s@n O n+{ l+' p+_=r@6%J%j%x%x%6%p+4-O _$A@2$s+o#e@t+q@l.F$j't%z$n+t+x#x#n+{ n+$@> < ; S $%*.D#F#s  %D G C w m l.2.A c @.#.|#|#%.` b 9 k. @k.> | > 1 o A o.|@@@6 (@h#5$Y@/ ( a.'+~ a.m n l.x x n ",
".@7 j j $--*N -*.@@.;.x v I+Q-(%O u %'9#379=s@_$l+n o (+Q+/#R V$t&`+c i )#2.; 2 y r S C Y&E `$F$, * [ &.*.*.4 < Z l D#D#m&E#F#E#A ; ; | 2 U.S S |@1 > l > z o ; 0 j  .%.%.%. @7 |-j.])l-7;h.7;[.0.) '+_ 0./ G#H@5 ; 1 o.5 Z 5 5 y o.o.Q+5 S j 1#8 $.1 l T m q B {.T w r /#Q+S |@@@V$D@)#_@;.@@_@H@3#n '+~ 3#3#/ -.e#|@V$2@e S- @h c h#%.h &.c *. #q%=!y~1~47]!U)#&#&^{}%}%O^O^^{W*[*+. @,.'.'.Z+}*~$U$U$D.k *.; | *.&.1 A ; | n z#l%p+n+' v.n ' | ; o o 1 1 n | ; 2 | /.> 1 > 4 /.2 G r {.S Q+S A Z 2.* G+p ;#>#'$G+t x a$.%W#:%C m.x ].s w C o.l$8=8=B(y^d=4+/&u&P&t$U#t$/>y]'}W=Y'z=>-g*;-/#B+U.Z > > z *.( '+3#] 9.a#<&o.C a#D@0%<$m.k!Z$d;;*w.p+] ) 6#n@(@Y@Q+r r {.{.o G+~.T P+o.x l.C l.r G#~ H@}>o.n ^ C@> ! ~ : n ( { A y+h~S* $- /.0.~ ]@!=l `.C B l.~.G%=+O D n n ( ) ~ n ^-5+O#*<~1X(/-J%K%K% %y$x.I+r&I+%@p+B@w.R$R$m:H<2:2:2:V1g*{-9#/#&)D,H@] U.S %@%@9._$n+8@>+n+U*'@K%r&y$;*d;j%B@B@I@/#8=h$h@x#t+@+R$s@Z$5%E=I+o+Z@u+u+9.n n+[ o z n *.E@%%E@U H+:%F$H+q ~.w l.o z a  @2@Z+D*`+). @..f d i | 1 > 2 | Z 2.*.2 A h%Y@ .h#> a.3#] > ~ S S T w l.Q+",
"W$`%Z+0 @*]##*h*>.1#S G+].H+Q-5%D _ -#9=5781r&I+ %G*5%W#D D z A ,.0 +@+.=.5 A k m.:@o.x 6%Y& %b$}@2 ]+1.1 z /.&.S *.D#%%E#E#&.*.A ; A A *.S *.5 -.n 2.|@-.*.A n 9 f%=*%=]#^#W*[%6@K;f#=@B!g#g#h.l ] '+] ( / ] '+> , 4 *.&.S -.-.Q+/#_#y S S E+d 9 L+| ; o w {./#x T l.S Q+Q+-.|@S 5 6 1@6 5 l 2.q@2$t+A@a#o.H@H@*.l k.,.%.j Q*k.n `.e.'+0.p+/ {.A }#Y+R+7:67[#D#o=@]!~%>%>e{e{D^[*K,+.'.`%D* @|#q*G]3,+.2 > 4 1 - /.z 2 {.D F+P {&=+x.x.l+B@9.D 2 n z o E#Y#l@w+o 1 > o A S S 5 [ &.].w o.y @@G v D t ^.u Q u w s&H+Y%X#Y%X#s&z$D w G D n Q+B+p+2$A@d=y&m=,=P#>&/-l%1&O%i}y]_}{^A.P'6-.,)=#,<&r@o.&.1 > 1 4 > a.a.'+w.B+/#o.n $@q S n o F Z$H'H'o.8.( a.w#h%5@C-o.5%_%H+6%H+.%a$s&6%Z$s&F E )>{$^ e.s_T,] C@B+/ 0.n 3#> / `.( -.Y*]3l@R&$=- H*T,d#C&> { v ].s B $+~&%@q@n 0.4 - : ! /&^-e_*<77H[r$i%r&1*i%~%_$C w.$@C B+8.w.! p+w({^/>3:.|8781i%q@U*Y.l 7 7 a k.n i%~%K%w.{ l+{ <&C B@n+n+r@_=^$o.&.Z.( c-N.A@h$1$t@i%r&Y%z$'%(%:+o+I@' n+C T ~.1 &.E@Y+E@X K^W `$,;,%z$6%`$C T 2 5 f ` g%S.i;i;+...).i  @,.%.i l @@-.V$_@U.n U.n@h#(@+@!+0.( ] { ! G w T w B P+",
").t| @I !.9 a b j A n w B Y%H+Z%)*' u _$R$^;o+ %%@M&m o [ v > 4 #.>.h j S -.A A o ~.w S Z$5%Z%[ ^$7#' * l 2.5 1@*.2.l 8$h x+E+%.h 2. .U.@.z 1 A ; ; 2 2 5 U.-.2.h J+@*@*=*@*V*.&s.97}~j.4$7;p-T.`.o.3#/ a.l ~ ! < > l S &.5 *.w B s&0$Q+T &.n l j l e#{.D T T l.{.n m n n S 6 U.*.*.l 5 -.5 A ; 0#u@t+)@/#r@^@`.S 2.#.` a c k.A .+l$g$1$A@r&$@J%0#`$5%v^J]u%w;<#O&#&]#l@%=O&[%%.p&#. .8 i b 9 +@E+6 k.> > &.&.; < 1.{ 2 q@y B+n+p%-%X@6;h+u&Z@$@p+q 4 ; n Y#b 8 %.2.&.A Z S l -.&.S o v ~.,%G }.Q n D [ t ~.m D q z$,%0@+!:%Z%(%W&s m G Q T ~ m+{ c.e@h@u+t@t+-%W/!&~&T#u$P%;% , ,.>r&T=w.a#R$H@S 4 A *.4 } - > n ) l+n+s@s@$@v.l+[ ].1.C {.8.%@q@< a.1 ) c +@; v l'o +-n m.@@_#P+s s q Q+(#7-{.~ 3#H,[.&@5$h#Y@n@'+: ' `.`.] &.8$%%Y#= ;$1.~ o.]@`./ ! 4 s 2.P+7.#,c$/#B+) o 1 > D l$ +'&E%b+F]r$i%M&L')=1*<&j$B+8.i$0#R$0#o.o./-T#2:07T}'7I|s@_$z%D@~ h%4$%.,.8.M&a#p+u D w.{ B@:+%'D n+0#i$j$U.} }+{ t@h$A@$+C#*+b@)&F$Z%5%].I@O D $@s@9#R S D#E#9&9&D#s*y~W H+1-(%_%6%Y%~.G *.l %.k.#*.& &c b @.` c c !.b %.Z ; *.k @.o %.#.9%w#+@7@n@a.) / m+!+~.x C m B r ",
"D@{ k+k+m+- Z.a.0.o+D n+u O ;+w!3 4 n | 1.'$< m 2 v 1 < < < | &.i %.@.k.|@0%@@2.*.z w C T v t Q+U*`~[+u h@p+^@3#Y@7 |-1#j>.&<(.&+*O*o=x+^{u#@.@.1 4 p v l.G v | z &.a 1#f  .` E+S-(6B*@@l 2 B ~.| l S 2 - | A 2.D m T q D n m w Z=A.6-i%i%_$q@$@B+0#c$8.n+Y$~%1*C m o S x w {.R R @@:@y Q+{.y o.`.`.~ B+^@C@( ( ] ^ `.~ ] l ;.H@F&O@c%y*(*V(]&a@6%M_!!!;0$F r n.n z { z _.z +@/ h#7 n@7@b3P-Z#h.( ' - a#%@C o._$9.n+.+8.)@a#h$@+|&f:%:*,R@8,x*(-(-6$8@n B+0 Q$7 +@5$h%Z#^@^ s@_$p+a#_$ %y.Z]T=b@v.! { > ) n { ' 3 ~.r s b$Z%v=,;**W#X#l.~.n @.!.+@w#u.{ 8.{-J%Y$G*G*y$y$I+F$x. %p T w q 5 =.@@,.k.>.b 7 !.)+!+_ ! a.{ B@e@e@g@l+W#i#v.O w 2 l 1 2.$%;.$%1 A$@=V }#/~F#b46 }!% C=X $%8$E#s*)#%{j k. .h>@*-*]#p&V*p&7 7 c *.S S C n p [ G o q 2.| ^ ;.@.@.#.| ` 6 P+y Q+l.n ~.].v l.w R$G*~%y$b@1*'@{./#0%^$C r S R {.P+o.@@D@m.Q+_$H']' /;'2'-'0='+( ;.;./ l o.l a.q@'+{ (.m+{ ' n+8@0@y.J%x%j%i%8.a#{ k#W#(%)&d>1*)&1*)&I@)*8@B@_$$@9.0#s@s@B l.2.n z %%2 m&Y+X+H+*;b'k#I@o+u D n *.A z !.0 9 +#)+, *@a $..@#.7 ` h Z#Y@Q$r*8%Q$]#=*=*c #.#.c c 2 A 2.n D m x r ",
"I@,+)*I@_+o+I@u o+l+' -+-#I@8@)*3 1.3 n Z 2 2.U.n ,#$=[ Z A z > #.#.h  .o.0%V$1@-.S l.q B {._#(#f*5{H%=+h@u@l ( (@h%j>j>3@A!a7M,g{I(&>#&#&!~j k.n Z m G x v o r A Z S 1@f k.f ,.|#b /.S y S :%{#> *.*.A 4 < z *.n q l.r Q+/#r $>a@q^>%>%r& %$@0#_$n p+0#_$K%)=M&{.B S r C Q+B Q+(#@@x y :@Q+:@:@;.G@3#) '+^ a.~ l l ^@B+G#B+~ e.d=4_@(>=/<I}3:r:W=6_M_X=k!K$x S D B@{ ) ! 0.! C@H@B+ .r*h#(@i...^@q@9.0#D _$R$n u@)@t@.+u@g$)@2$N#c[Y|3[:_7_T@F]f+w@v.v.: 6#:$=@9%n@[.5$^@( %@v.w.8.)=x;z=z=:'9@D ~ ~ ) ~ ] w#4#| /.~.o :%Y%u=**p;**z$n A 5 V*]#S.@.a 2.C 0$j!9<{-x%%@p+l.m [ o /.2 1 2.@.j h k.` $.8 0 >.9 Q&- u.'+{ ' e@u@2$h@B@l+B@( Z f f i 8!$ <~&.& @=a4x~L&4&U)b7c71!x+<=Y*S*<=i{i{i{q(%&g%]#g%]#P;@'~>Y;V-.&f ,._@_@o.T Z%,%n T G ~.; z n S @.a @. .` f o.:@B x T o.{.m w w X#Z%(%~#X#5%Q+q m S T B w q :@y y @@{$n.m.l.c$v.D _=-'_=U*^@> B+l '+] / ] a.! ) ! ! Z.j+>+>+' ' x.i%x;r&I+i%R$D@1*W#b]:!J;.,c]>%Y$i%w.' }+! c$p+n+$@n 9.w T ; A 8$B=2 F#9&Y+n+W#6$)&' 8@l+B@2 &.A /.*@9 k.8 2 2 a b 8 7 k.b %. .B!B!8%f#f#:$g%-*=*.&#.7 %.j 5 *.l S l.l.S S ",
"I@)*I@v.9.' _+9.9.v.' )*{ B@)*,+.#= 3 A 6 *.*.Z Z 1.} z o > 4 * .@)+$.@.U.)#e#3$o.2.v v q m y y d;#,f>1*{ 9.a.0.>.b >.!..&W;`,Y;%&&>!~*&U-u#S*u#Z D@V$Z w ~.n T o | | n @.h %.j 8 K+} | B w F$Z%A ; n S 2 l Z A ~.t ~._#7-7#Q+a$P% ,y.9@s@i$a.`.3#3#! %@B+$@d;)=r U.S e#1@6 5 1@-.Z l 1@6 A 2.S ^ H#^@`.B+V%G@`.`.^ H@p@>'`*`.f.z&y^ <K:I}w6r>$6P<P<P<>-7!s=y y n+a#n : 0.! '+n l > 4#Y@h#j.h%j.G#C@p+s@/#<&0#q@_$B+@+1$@+)@g$@+a+Z:o$^6e+T@S@1&/-v@>+' { ) 7@7@[. .> : { !+l+w.n B+M&6%;*g*Y=j%p+_$/ n 3#/  .7 l 1 m m X#X#**W-p;=-5%l.Z A %==*]#8 0 o B I+R-d7K$6%T C {.{.D ~.1 2.z 1 l U.; n | 4 n ; > | : _ O v.O u s+h@P&e@n+z z c ,.Y,W;K,^#i*;{U- $& 9$]-%%*.v6D.m&]-y+y+<=u#c |#,...+.i ` c [%[%W*$-^#[%]#^#,.d -.n t ].I+6%l.G+^.w S o | A f 7 k.d ` ` l Z &.A D T l.u t D 6$x.x.y$~%9@b@I+~%K%~%6%b@ %r o.T q G+u n w 9.8@w.J#4-;@!'1.( r@H@] B+o.3#3#~ H@V%B+! ' u l+l+B@6$y$x;6%I+y.B+q@k#9@:'Y=K{M_X=6_x;r&B@D : ( 2+2+C _$$@{ m s Q D V+R+L%Z'S=A${ w.n 9.v.{ q@i$C ~.2 Z -.k _@Z $%8$2 E@O*~;7 c 1# @ .#.@*%=p,5#!.c ` ` j j E+d k 5 *.l Q+n.(#R ",
"n _+I@n 9.' u p+_$$@_$_$$@B@v.u .#3 z U.U.1 2.S z - ; 1 /.4 [ }@g *@b a 2.2.5 -.o.@@{.u t T y q i%)=d;6%n p+~ - >.h 8 a [%<%x,w,&>I(!~4%O&/=<=~;1@k @@k n l.[ ~.1 > o > 7 8 a 0 )+)+; [ D D ,%`$A o 1 2 2 |@@@n G C @@D@R y G o i%:'b@i%n q@B+`.( ;.] n ^@C /#R$5 S 2 1@U.2 A l ; 2 *.6 U.; ; &.o.D@^@I#I#p@0=G@r@;.`.H@W%U*U*0=J=B:2]s:*6v<J<V^6_W=Z=Z=p!j~n._#a#D@H@~ n { a.l H@B+ .j.h%i.(@|-G#n 0#`;9=J#o.w.o.i$t+o#t#h@2$2$P@e_:<c+A]m>L>#:P&s$F+I@) _ &@[.(@5$a.> > : B@q@%@0#{-J%j%x%>-f>s@v.! ) 3#`.i &@2.Z S ~._%I+_;o&&-z$l.~.1 > *@h*7%9 | 1 B q X#U=a$Z%n C l.B m ~.&.2.o - 2.; 4 | - | o 1 | 1 l p+w.$@{ l+y#f@h+_$*.8 +@@.S.i;i*g%%=@*e{4%O^ $3%&.k r%r%Y#Y+F#O&[~P*~;j i k.j E+ @,.@.[%N&.&$-[%]#=*.&..i 1 } ^.p H+`$[ n!-#D C S &.*. @k.k. @` ` 5 S 5 ; 4 ~.v G+u Q r&y$i+I+W#k# %Y'!&j%K%1*J%f>,@{$P+Q+T P+{.w I@w.c$9=5.>~H@! ) ~ / ~ ( B+] : ~ ^ G@! > _ u O D I@(%i+j%6%I+6$$@w.b@6%:'{'5_P<W=X=M&b@n+w._ ' 6&J.^ s@_$n {.T Q+r :#l*L%U W+L%n i$a#n+w.9._$<&y C A k l 2.o o 8$D#X $%l;l;h k.@.,.` c ]#%=Q$=&a f ` k.i j %.|#e#2.o 1 o s ~.q ",
"A ; Z U.Z Z l 5 n n S @@U.n 4 } [=O,+#` k.!.7 k.7 8 >.+@%.#.H X*, A -.; &.l o.n @@U$^$o s y /#l.H+s=Y&s&S x l z h l@ #8!I(~~g{%&%&&>!~!~~;/=~; #U.1@-.|@y P+w :@2 2.-.S ` @.@.7 #.b o /.o u {#:%! / 3#( l H@;.G@z%`;9#a#C 9.l+' _%.%_#(#o.|@k.c E+'. @Z k {.Q+r l c ` h @. .k. .` j  .E+1#j j #.H@C@G#;.I#H@I#0=H#X.;.G@H#I#0=X.e=(*M>c%2:M}2:H<P<h<D[e7h{l!7!E o.0%2#|@Z 2 U._@)#D@`+` f ,.f 1#@@_@l ( o.0=4',@/#o..+A@u@Z@Z@)@x*5,Q@Q@B%P@o%]&/-p%_+O a.0.7@6#u.!+{ ! u.0.9.0#9._$#,1*x;G*6%;*w.O ] '+) 0.l n | *.n Q ,%a$a$,%{#X#n D < < >.!.9 k.; z D ~.,%Y%Y% %Y%`$q v D D {.m D v | , R.,#v ~.u u s m B+p+n+6%6%r&I+)&Y$R$%.L~]#W;K}K}~>h&')h&P;]#[%]#V* @;.S 2 /.*.o < 2 b k...j +.D*,.E+ .8 @. .[%.&S.W;(>i*f @.1 o G q Z%6%q P 1.o T o.1 A ` c a #.%.` #.#.@.| o o u O >+u z#z#w$f+g+T#m:m]%:~:m:W^(_f7 /k|q!u*R r &.&.O D o.<&r@a#9.q@p+n+$@9.O v.p+n / > u.!+$@w.o+>+O I@8@{ 6%K%y$y$0#s@Y$i%A=.,>%G(.,1:G*j#{ { ! { m,2+x&M=`.l H@0=^$P+C {.u%u;u;U+8.I#o.'+a.'+{ ] B x B Q+x r m B B=6 C=% 6 r%A;&.x+<=E+k.1#k.a #.@.`  @ @E+E+Z 1 * } < z } = G+p ",
"h A 2 > A S | | o 2 1 z 4 1 } , .@I 9 E+k.@.j %.f k.+@+@c b I X**.V$;.U.&.S l | _@V$]$r w m ~.q H+E E 6%l.S o > 3%v+U-O*;{_{D^*>o=%&g{%&# u# $3%; 5 2.Z :@R a%a%l 1@3$e# @1#1#d j a > | v ^.X#6%a.B+G#G#r@;.D@U*D@%@%@p+s@w.I@)*X#F$#'n<=.k c ` d f j j U.-.e#3$ @f 1##.j #.` %.` 1#i d d ,.,.` l B+G@I#^@~ &)y5V%o.;.Y.U*0=^ B+t@K:s:(*r>J<H<W^D[g723h7Q4[! >%]L$P$D@2.2 5 k @@6 k F*`+`+,.@.0 V$};n a.B+l 9.8.B+o. +h$u@s+x#8=F%('Q#'&Q@7=o%$+$+h+u v.! { *@:.u.1.m+'+{ n _${ I@n+x;I+~%6%K%Y$v.l+> _ ) _ '+~ > 2 D t m `$z$W#.%{#s ~.z o c #.%...1 [ s Q (%Z$ %Y&`$Y%w u t q B {.:@y < < * }.[ t ~.[ s q l+B@~%b@x.y$6%;*y=D@d %> &K,[*$-j&N <>M+;~+*@*#*K;4#u.o.l [ &.o &.2.h i +.0 @.j 7 @.8 +@c +@h*N&S.S.V-^#h a 2 *.l.n X#Y&C D G B B l.4 | 0 +@>.8 %.#. .j 0 @.2.2.! w.w.$@G%{&O%g+f+w$65n:W{>]N(r:V1__x%f*a%7#D@o.8$v#)*u n B+o.i$D@7.R$B+_$n w.n s@'@H@( '+'+R$r@q@l+l+D v.w.6%Y$I+W#_$n Y$I+>,V#z.d>z.{'#,9@_$q@G#l S):-2+{@C@3#l G@^$Q+s m I]J(2{u%^ G@X.r@^ / { Q&m Q+C D B C G t D#8$$%*.B=G=8$v#+ 8&.@)+b +@0 8 0 7 i 1# .,.1@z 3 [ /.1.= o ~.P ",
"P*U%`@U%U% $@ 8& #7&E]. m@U%. J$$.+#@.%.7 %.#.h >.8 c h $.>.J+X*5 5 ; 5 n 2 A Z 1@;.C+_@-.1 D ~.E=t%S&<#}#W & & ]-D#>(N~A~Q2i7j7O*P*l;# l@u#u## o ; z 2 *.n 4.=.&.l o.*.8 a 9 0 +@!.> n v [ F +>C@{@_-M=f,I.B(++g@<+g@2$g$g@q+R=Q C }*k h d i 1#(>N&@. .@.-.V$=.`+..E+j j 9 a +@#.f 1#|#..f E+f Z |@6 ;.U.n >*F_5 *.1@o.3$e#o.a# +!)+<5{M}T_Y=6_f7k7l7m7n7o7p7l!t-L$6 A 2.U.1@e#_@V$|*q*|#f @.c @.f .@h n 2 ] ] s@R$D@^$<&n {&-%o%~&z#G%/-n%+<+<o.B+o.8.l 3#*.A > a.`.G@l B+_$n+%@_$~%i#r&K%K% %{ D l+l+n ) 1 *.1 A 4 t n m I+w%C'{#s v 4 2  .a +@J+}.3 u t :%H+5%5%a$Y%a$:%~%Y$w.o.i$8.w.r@o.v.Q I+1*)&y$b@k#x.6$9@y$M&L'#,j%o.U.v+O*U%3%+ K W$S':.Y~*@7 6#4*[-L#a.2+m+Z._ ( '+n ~ 7@H _.[.n@5$&.> | * J++@a *@7 c #. .S l B n Y%:%u [ o ~.o G n A a +@0  .1#h ]#=*>.a [.~ '+0.1$2$5,5,f+S@K>R@]}q7~}r7q:s7>7.|I|X}P$a%D.H=z+$%> Q&0.'+8.^$z,`;n 9.n+n 8.0#q@q@o.o.C C 0#9#c$$@{ w.$@q@%@B@u w.x#@+l%^>;,v$t$k>k{/>-%X@x#@+C:B{w-5*^=3*[.n@n C@o.l.Y%;*1{J(^<O|}>P-..j.) ) ; z w y Q+[ G${#Z%:%^&1!X)Q32!t7D#]-, 9$z F#R&R&+@7 n | | n A A Z k n z o *.-.6 2.Q ",
"O&b,b,U- #v+b,u#~;b,x+l@U-`@H$`@9 H 7 %.j i h 7 c k.#.c a #.9 b *.| 1.o > < 1 S -.;.e#_@|@2.Q+r Y #>S&R+^&T&%%& E@& w~N3>:V2i7s2U-O&O*m@@ # Y*8!2 1@2 1 2 l _@5 2.2 2 1 +@k.0 9 8 9 /.*.l.t W#Z$(&u72|2=v7)5g$g@f@r+g@J@f@7$/,_+B@S 6 U.j ` j ,.N&N&h k.` ..@@o.` j ,.` ` E+ .@.1#j  . @..f i ,.5 -.6 e#@@U.2 }.| V$=._@)#@@e#V$D@s(R,%+3>w7{{Z}f*,-~]f>)>%]Y&E P+@@3$;.o.e#)#D.0%!$F*d '.t&B*F*f ,.'.j 5 6 ^@H@0#0#/#'@R$0#~&{&!&#+#+l%&+!&w&{&q@n { 8.G#( 2 Z ! / ;.C@{ ( 9.8.a#%@~%b@x;K%J%y=p+D u { ] ( A *.; n 3 , q l.5%.%~#{#Q t > o 9 $.!.$.| > Q 1.,%X#z$w%a$Z$z$z$6%~%O q@D I@w.9#i$_$Y$Y%r&x.b@i%y$i%~%)=d;M& %)&j%]$;.z `@= $)@$'#1.j+k+E$#$(.#$S~d-H*!*J.F.) a.> { '+n :.n@n@6#5$5$*.} < | .@!.@.i  . . . .*.2.B B 5%H+v p u G B T k |@E+c k.2@`+b -*-*@.b 6#Z#B+n t+1$d%P@*,L>S#S@]4x7y7z7(}q:r>w7T*T*/$z,:;H=s*E@_ !+'+'+%@p+O v.I@n 0#B+n $@B+R$0#p+' n+n+_$C { n+_$_$$@w.B@v._$<*l$p%w&O%T)J6A7k>l=~&{&h@g@!=d.J*S)5*4*7 7@) ^@/#q Z$7!+3B7C7S;/ (@(@Y@) { | | m B C n :%_%F$v%<#D7/~M%X)J^Y#9$= {%, ]-H$3%0 [ | &.n A 2.| 1 -.S > /.o | 1 2 2 ",
"l@b,l@O&v+@ m@w+@ 7&O&O&U%U%R& =*@g f `+ @..f h  .i ,...h  .h +@n 6 2 | ]+} 5 ;.-.2 A -.;.C+7-D@l*R+U&X T&}#Y#2 J^J^N3]3=!2~V6z~b,v+l@w+x+u## l@2 n e#-.S -.U.o.Z S &.&.h %.#.h 7 $.< n r t _%Y%g.2=!=T,C:_-J@f$h@e@o#t#3+Z@h@8._$B -.6 %.j ]#p&W*.&g%.&d T.F*T.E+i T.k.` `  .` 1# .%.`+..d 1#,.1#2@'.,.d `%D*B*T-`%'.t&T- @|#}*e4M1H'd;H'C(J#`~U*`~z!81x;*;y$r&r o.1@e#|@e#D@=.D@e#i k.j Z+'.,.,..... .c b &.| ) ) q@%@x;j%)=1*r&x;a#0#C n ' ' 1.O Q&'+q D D ].l+w._$n { v.w.%@R$q@C _$p+n a#C  %9@$@a#C@'+n &.4 < 1.z D w D G t u D n | 4 < * 4 [ 4 n B l.w n  %,%a$0$H+_%K%M&Y$I+9@=;r$%+&+G*r&6$)&i%)&~%;*d;)={~g>{{b@)&j%6%S X+A+U (+^.].^.;+-+h!9!s#A_Y)u+I=K#8=A@b.!=d.c.] ( ] l Y@+@7  .[ ^.G+G o o @.2@,.,.5 A 2 A m s X#6%D [ v G t q -.S %. .k.j %.+@[.(@[.w#&@_.f=d#1$h@(-z#P@Q#m$l{;<E7F7G7o:~6l=T#6%C(/$];,3$*8!/=n _ u.m+B@9.:+v._$q@)=G*K%i%M&x%s@$@n+%@D O B@$@9.n+D v.9.v.n $@I=A*7+F%/</<e+e:l{S@Q#P@F&y&g.E&v-e-5*e-4*w-/ / _$c$%*s=$>[!H7w;( 6#Y@+@( a.&.o B B G ~.,%,%w%F=<#{!W+U @=}=A$}#, .#, - /.o 4 * < C T Q+S m -.U.5 | o 2 &.> ; 2.",
"b # # l@ #l@O& #J$# %{/=O&P*b,m@+#+#@.i j f c +@#.#.` i  .,.%.7 _@U.o , ,$3 Z k 2 ; ; A U.C+~$7-T+^&Y <#T&V * z W)J^_3v~]32~)3^~/=# l;I~$ l;O*P*> l 3$V$o.6 l 6 *.S l Z h b a %... .o -.7#~.z$a$3#K@~)M.b.J.o#^,o#o#s+n#J@+%c@R$y P+1@-.j k.[%[%[%]#[%.&1#'.i d  @E+i E+ . .f ` 1#d .. @|#2@+.1# @+.E+ .%.,.#.c k.j f ..,.0 j !$-'j%)&x;%@%@q@0#o.j$^$_=c$)=x%L'R m.k D@)#Z Z 3$V$Z k.#.` k...k.1#E+h h h 9 * ; 0._ $@s@;*x;Y$Y$K% %$@B@p+9._$C n p+> l C w B n %@n B@I@O l+B@{ D n+n { D ' n+_$ %6$p+i$H@'+&.A A S S U.n n o o ~.s ~.w &.| | o } } ; S T x y C 0$s&F F s&F 1*y$9@6$J%;*#+=+H%&+9@;*H'G*i%#, >='j%#,g*H';-#,b@H+p S=X!I7.%F$H+R-I+j]o46'J@J@u@s+g@.+ +k$g.(&5=d#~ ^ 3#/  .h%/@I#m.;&n.o.n >  .j k.E+2.; *.l m n :%Y%q m l.w t t U.5 k.7 #.`  .c h%j. .[.&@[.N._-t@s+[+z#!&G%R#'&b()}J7D}n:K7__V(y=%_8#<$F6-. #y+n n ] C@o.s@l+_$a#c$g>L'~%6%Y$Y$v.B+r@s@C p+_$n a#q@p+q@a#n+q@i$|$>&;=f:/<&:k=r<l{L>Q#M@F&A*N.D&3*3*w-e-:-w-n ] n i$x%s=`$Y%L7Z$a.7 7 6#) _ l S {.Q+:@(#%*6% %s&U+U5S=d/Z'V A+Y+Y#z 2.2 > | | ; {.B T S Q+R U.A -.; A 1@-.; | n ",
"; n > | 1 o n | [ A @@-.S 5 > } X*g a  .` ` 7 a E+c c #.` ,.j @.2.t #@(+u [ o [ 1 *.Z A &.U._@;.T n * Y#E@9$F@v#z ]-]~v~z~;:z~=!P*O*P*(=s*8$2 $%*.k V$@@|@k | A *.A &.S  . .c #.|##.1.[ M$:@a$.%o./ u._ ' j+=$k+_+R=$@o+' c$9#9.l.R @@k |# .E+1#[%[%7 E+#.` U.e#2@%.#.i ,. @,.f  @2@+. .,.,.E+#.0  .#.#.a b h  .@.@.j D*'.+...-.`;/#i$s@D@5.{,D@])D@H#9#c$/#'@7.^$a%7-@@_@)#)#=.1@2 ` j d #.,.c %=V*p&%=b h >.!.&.| p+R$K%b@)&i%C l.G D l Z U.o.*.Z A A T P+/#:@q@D o+1.u D w.n+v._$9.>+)*O _$s@6%y$y$~%$@n+( `.S _@2.1.} > v v Q t ~.l.T m o | < > B T q B x l.5%z$G$G$`$j~M&9@Z]6-M]m:H<~:F]w(I+k#9/X${-f>)=j%I@l+Q+o l.n Q 1..=m*+!+=H+';z=,_x'c]A=6-x.y$M&]&h@n=+%8=I%P_>'G@H@`.*.U.1@C+s-3$Q+)>X#(%v T D@5 ; l 2 ; Z Z w B Y% %m m C n o D )#;.7 $.0 7 7 #.l o.3#C@3#) a.B+X._$v.B+o.w.h@n%N(a5K7I}A[!)]&(-_$''};u*a=l O*y+`.a.'+B+s@/#i$B+j%)&~%~%.>Y'A.Z=#,y=g*g>`;r@R$C i$9#o.q@( ) `.X.n=L@d%D%R@8,1&q<S@$:D%F%m=c=4+]*8*9*2+!=e.x&3#G@-'`;C y j~$>s=Y&! / B+( ! ' '+( y :@T Q+/#G o l.2{Q%+-+-G q [ v l.n Q+R ;.G@/ ) S D w T {.@@/#R :@B 2 *.2 &.2 n ",
"A &./.[ < z 1 o z > A n < } , }.X*.@8 c j ` @.#.j %.7 9 c j i ; p v -##@~.G+| o S S A | 1 *.l &.1 w Y+2 s**.%%z F#Y+=!2~^3!3=!z~l;x+O*O*E#%%&.*.n -.5 n 2.Z &.o.o.e#V$@@%. .#.#.,.F*U.1 m m :%{#! ) > - =$E$/%m+o+:+l+I@$@i$i$S l._#e#1@,.c k. @.& &k.,.h h o.7-`+@.i ,.'.D*2@`+2@..f @. .7 a h c k.8 #.%.k.%.E+k.,.E++.D*Z+d j G@8.`;p@r@b3O-!,M<T.B*H#^@/#9#<&m.R 7-3$3$@@6 )#l 2.` #.i ..i %.[%--Y,$-`  . .a o < 0#9=J%y$I+)&B w m n k @@k 6 5 6 U.Z S P+r B n+' l+v.O { _$$@{ 9._$9.n+O %@'@i%6%j% %n+n+n n l l [ ]+o | u Q D o s o w q 1 2.&.A q t v s D G Y%5%z$z$K$Z$i#6'>,:'w(/>l=1&,:%:G%+!y$f>;*b@r&)&%@`;/#~.o t p #@F+G$Z%_%X#,;z=x]L_6-d>d>b@J%6%x;s+e=<*@%U,,~W%Y.`*0=|@e#;.5 Z [ ,%s&Y%,%~.C e#Z n 2 *.Z U.5 B q Z$Y%q G x n o q U.*.0 +@c k.h 8 a.`.( / l ) a.~ G#o.'@M$z!^$0=j$+<V(;=n%l%&+o%*;B+5'&'>*~$-.u#E+( 0._ ) p+0#`;q@M&Y$x;y$z=z=!!a@x;;*{-J%n+n+s@r@o.<&q@p+`.C@B+( |$P#M#P@S@k{S#S@f+3]|&@(y&z*D&4+E;3;b.x&{@f=l ;.D@C ~.C 7!;*6%~._$3#G#H@~ ] > a.{.r q G l.t T S Q%7~Q%v%l.o t ~.l.s Q ].: n ] %@m Q G C l.x (#<$L$:@5 Z 2.2 2 &.",
"p+$@D 1.8@n _$n n B@n+' w.0#_$B@, z o &.S 2.1 &.n A o | l &.Z &.Q Q n!-#Q G+n *.5 Z l *.k.7 !.} > &.S 6 )#e#2.1 Y#%%*.m&s*G=$%G=k $%]-& 8$E#]-&.b c 8 +#0 7 @.,.1@k -.-.` f c +@@.1#4 &.s G a$G$2 1 /.* * }@3 5 {.w G S o.Q+l.S X#1{S&s%-.A;l@S*<=/=<=h~B=s*B=o{_@n k )#=.0%~$=.)#-.A *.&.&.n 2.@.7 *@7 f i 1#d E+|#....+.B*2@..;.5 )#F*|#w=`>M7N7u_O7T.j.G#^@] :@]:Y{v6E^$%$%C=z+X-S*O*l;->i{R*}/P71'K,i*V-d i U.-.i$$@9@x.)&y.B G m ~.)#e#).`+%.7 ; l w ~.W#_%w.$@n w.l+' l+v.n D 9._$%@n C a#j%!!Y$K%a#R$C@n 8 $.[ 4 ; A q G+3 [ Q D n o Q o m G [ u s t 4 q `$Y%a$Z${#o*<61<T)g+w(H<65;]C}#:z#F,g$9('@_${ a#B+X.> &.A o R.P ' %@R$M&i+z.z=A.{'D(r&1*l.w G O J@l$l$++I%h$s@c$V$0%D.k X-*.A+V s&t=X#5%w r U.S *.l 5 6 :@{.m s H+Y%l.B /#l.v D | > h k.#.c b $.0.2$1$g@D %@a.( ;.e#C+v6!$R5S-C+4'g*h$c$i$_=7._=!';@&'2#u*7-&.l o.B+~ ^ _$8.U*U*y=;*E[{'P<Z=J;0,r&G*d;G*b@I+' v.B+c$;.U*W%D@G#^ #;#;P@E%m>n>k{*,F]8,-=@(F&,&E&]={*|$,=m=I%k$8=C#C _$a#n B B x :@_$_$%@B+_$C D D q x 1@1@l > o.x z$X#z$ %b@k#b@6%{ B+D@`;++@+2$q@r `$E $>Q+@@;&]$@@r |@=.1@| [ /.",
"w.B@v.8@' $@n q@_$p+n+a#0#-'_+x-< n n *.5 2 | > 1 2.2 *.U.| ; z [ G+].G+p ].z 1 *.o.|@|@E+7 0 b *.; l o.|@k S Z 8$E@&.%%*.G=s*% =.s*]-z z+s*z ]-7 h h $.8 a #.k.&.o < ; h 7 0 0 a a > &.D s Z%(%/./.U.*.= ,#[ 1 w m ~.y {.x m G v%#>V+U+% C=x+8!<=8!8!Q*$*G=-.X--.S U$_(}*>*|=D@o.*.&.*.; l 5 Z j ,.E+d  @1#..B*D*t&T.,.T.B* @2@k V$).'.W;Z;j;Z;97Z>u_5@4$/@;.@@P$O[$*Z-a=C=D.:;v6=.(=R*[~h~=>[~Q7`&W;S.i*--i ..D@U$j$p+;*;-{{K%r C T B )#)#'.|#2@i &.n G ~.5%`$$@B+$@O l+8@1.v.C %@%@v.l+n s@q@6%6-)&x;/#/#~ { +@ .5 2 1 5 Q+n z < Q v D s s m n s v ~.q ~.| ~.{.7!k!X#<1m/b]x$2&u<T#w(D}65651&l%%+K#8=i$o._$<&3#> }@1.[ * 3 /.c.u@_+x-F+*;*;>%x$z.)&6$G+o t '$f@u@x#)@8=a#7.5.5 2 2.Y#z P!R7d~@>!;Y&s=Q+r *.o.*.U.S 5 P+C D o H+6%{.r R T D ~.&.&.` f h !.+@z x#Z@h@e@n+_$/ 6 6 k $*k y;W~h~/=1@a#a#0#i$9#7.0%X%t|p*u*s-C,1@U.~ 0.n `*B+8./#R$x%Y$>-Y=M_X=P%.>r&j%;-;- %I+w.n+_$j$0%!':=Y.}>1>d$d$7+M#n>h]9|V@V@S#m$Q#L@>&~*]*|$~@n=A*++++k$+%0#_$%@n y (#R {._$q@$@a#q@n B@)*t Q+1@|@|@n n A Q+Y&Z$Z$)&i#Y$J%/#`;7.9#8=.+e@$@)=;*l!7!_#<$^$n.Q+x k )#k 5 5 U.",
"w.v.D 9.w.v.D n v.O D O l+l+o-R=< n 2 5 -.2.n o ; o.6 n *.S &.[ x o ~.s t B ; z l -.5 o.'.D*`++.^@/ Z o.U.|@)#)#@@-.5 l m&X $%*.k X-X B=D.D.s*&.8  .'.+.h 8 f E+2 &.1 n 8 0 +@a 7 @.V$U.w q I+z$| 4 1 ]+.#, z < Q Q s T t B D Q I]2{l't%U&h;k X-Q*[~X B=-.B=7: |S S D@P$x Q+D@M$S {.{.r Q+P+y Z  @2@D*e E*j=E*2,T-x=E*T.'.'.+.T.B*f ..|* &}'+'6{x/S7T7}~k&k&B*u*t-l*X-U7Y-k z+k 6 G=<~<~y+~;Y*l@H^=1G^-1V-^##.|#D.@@o.y {{d;J%6%r U&m&A;Q*R*`  .).2@n z ].t z$X#~%Y$9.l+O u l+n s@%@n w.n $@n n+j%!!i%Y$$@{ ' ) @.@.[ 1 -.|@1 4 n 1 &.2.w m m n n m m m &.; | ~.n 0$`$+!C' %~-e7a^H<c}a5~6t}~6I}/-t+.+I=^$j$G@^@;.'+a .@9 c ....#{@;H-f@J@r$~%i%b@)&S o 2.@@&.]+t+@+2$g$0#c$>@];*.| v#B$,$S%o~U+E s,i^V7l!E T C 2.2.; &.{.l.~.l.F ;*y Q+B C {.x Z l ` j @.8 b n k$=+r$l%p+q@_@C+;.G=8!^3r2@:%(Q2U.2 2 | 2 -.1@=.D@!$!$b=}*><~$n 3#{ a.X.B+s@R$a##,#,K{ -.>M_{'G(K%y=I|H';*I+q@n o.<&o.o./ ^@r@x&u-!<p[r_c+W7(5|<&_E:f_Z:@_C/X7:|n=A*z*/&J@Z@h@g@u.> ) '+> | | w a#G*)=G*C w.B@I@4 U.A n 1# @ .S { i+I+r&I+b@l%#+&+~&t+g@h@e@<+:+T={#H+X#5%Z$C l.w q > 4 A )#3$1@",
"l.{.{.Q+C o o B@)*l+D { ,+o-o-R=]+/.> l 5 A A | Z 2.Z 2 Z -.; Z R T v ].Q C n > 1 o.`+q*3,v*W;1#@.@.%.<=j ;.!$V$;.k e#@@5 $%S *.%%A;A;$*H=}!k -.-.`+S-S-#.h f  .n *.2 &.> &.7 2 b > &.1 S B 5%n C 1 2 /.z | o 4 1 D n n [ B s o t%2{2{u%T+l*Y-Y-[~<=z+$%$%U+ |l^/#B x y o.r C D@P+_#{$n.7-{$P+Q+1@..T.Z+E*S-D*q*d f |#d |#E+7 a %.+@@.'.$-W*V-.&B!s4N]5@h./@..|@S W+6 C=k E^k X-E@s*W~I~[~x+# # O^~~_{g{]#a f d l o > q 8@w.C 9.q W+Y#Y#O*# b 0 k.` z 1 s v D {#p+$@g$_$y#' A@%@A@_$1$9.1$v.y#u ~%6-y$i%B+8.{ > 7 2 4 2.S -.| ; &.4 z | t t o D o S w s 1 1 o A q ,%r!d3W&X#x.A=~%__Y7.|u<J<1&g+w@s+)@C<_=i$I#B+G#G@l ; h n 9 &@N*S~!*x&g$A@j%Y$#,x%y m A 4 /.n `. +t@h$C r@u*]$< o = @$9$x~s*r^0$.)%-~_K$Y%y Q+2 > /.> 1 &.2.x /#$>@@P+~.S @@P+0%)#*.1 h 1 b l o.%@C#i$C@C+3$e#h~<=V64}z}.{w2n2*.o /.[ o @@5 |@k 1@)#|=C,u*D.*.k.|@4$] G#o.8.R$c$y=j%G(',D(Z7>% ,;*6%j%K%j#x-0#7.8._ { ' '+a.d-B]M#E%M@S##1t_3[E:Z(b_p[T$@_X7u/d$!@d=4+t#g@e@f@_ n l I#Z > z ; l.Z$Y& %O u u n+n U.B+1 > |@,.2 n y$9.~%9@~%)&)&/-)&w&=;t#W#'*6$i#G$C':%a$X#{.x n u }.1.Z a%C+~.",
"k `76 $*X *.m&2.> o &.| - Z.- Z.< o A Z l 2 2.U.-.-.l 2 Z _@@@-.$@n+$@v.(.!+a ` ..d q(]{&{_{ 84/w2p2%(G3y[->I~%{;.D@a=X%n.r B+G D S :@T l.{.T y o.;.D@3$..+.W*#.; n o G ~.C 2.l.&.l.B n q G w B S u ]+, H +#!.a k.Z Z 1@D B Y%z$Z$6%x%%*@@_@~$=.k 3$)#;.n.c!s=x%n./#(#]$n.y {.R /#@@9#>~-'U*j$'@V$D@6 -.A &.A Z ; *.6 6 o.l ; Z k ;.k V$2@#.8 ` j +.|#..V$5 Z 2 S o A U.C+}*2.l 2.5 V$1@U.o.2.n R*<~y+# a 2 A A b a b - _ > ! : 4 - 2.;.o.S S &.= }@4 S 2.| o { b.F.N.e.O@A@n=.+C%G%x*r$B%w@R#r$I+:%o o o ~.| 1 A 2.2 r S u p s [ /.z o | | | | } U.Z , [ - 4 2 _$I@:+1.$@%@v :%x d;]'y=x;{-d;M&9=P:^$9#p+_$_$p+'@R$$@p+) D ~+~+!+> ( { B+%@q@$@B@' u B@p+%@q@G#;.C@B+( G#0=^@l &.5 l *.|@B=5 Q+)>X={{G*x;1*%@n '+n (@7 Z#..i. .8.8.n+$@0#n o.<&q 1.v m &.T Z -.-.5 T.c f y;v+x+y[>{e&g&.8$7+8M~* o*P D {.P+T o.@@e#t&t&3,S-+.c .&@8#8a E+5 -.(#7.L'k%l%~:~:a^U#U#w$w$w(t$;, !h+)@g@C&!*B&O.J-s#6$A.M]O%=+E%L<*<b_*<8<p[}$T$T(2(M#G%{&/-g$t+M.T,p-7;I#G#`.3#3#n N%e*W ^&C B B+n _$$@u@$@$@8.G@i$3$t-U.r S G o G j#~#W#,;i%u=z.>%k#)&i%r&b@~%)&9@K%J%x;6%%@;*C 9.",
"]!$8e*=!z;1!A;6 S ; 1 1 0.0.) '+< ; *.*.n &.2 *.Z l S 6 ;.|@U.S v.v.v.)*/%j+b 1#[*$-C^3/-{-{%8 8&8*8=8m}G3-8$ =>V$D.!$~$9=c$q@p+w n {.B o.x C :@s ~.k 2#J2|#]#1#2.S B B n C l.n S m w l.D m r Q+m [ = , $.a %.E+#.f 6 Z {.r 0$Z$ %E ;*{.r |@C+e#e#V$;.o.y K$F Z$y P+:@y r x o.:@n.L$0%^$s@D@z!''6 o.|@-.2.S n Z 2.k 6 l @@1@l D.D.|@6 o.Z |@D@@@2.S 1@k V$k @@o.Z n 5 k -.Z &.*.n *.e#*.z Z S l Y#Y+%%m&5 2.; A k.b >.h n@7@*@w#o.A o /.4 2.A * ]+|.[ 1 > 4 ; ~ 2+c.|$E&,=m=^*d=|&7+Q#M@M@Q#U@w(K%5%D s o G 1 | | 2 o.l.u ].W#_%z &.2.n o > 1 n o *.A [ > 4 | 2.n+n#v.$@%@$@G R T r :@{.l.T S C >@<&i$a#_$n q@C '@B+o+u O I@v.l+> '+/ ~ D ' w.q@n w.p+{ C a#p+<&V%G@G#G#V%B+> ! |@s-!$u*1=w*2#{$f>>-1*x;J%)=B+w.~ C@(@5$4$(@p,&@~ 8._$q@_$8.B+p+'$/+E.s S C m l. .@.@*e%&&o=&&$&1%&>g{;8>8,8/[R&^+m*W# %r Q+n G 5 k D*t&G]|*S.]#}%4/_{v+` @.A ;.j$j$*+!&V^g:S@O%l=3&H<T);%'8v@s$n#h@c.c.L#H-;)o+)&t,d>d>6=~&>=v}Z:O#8<a+C/1(6(B%T)l=%+~&g$t@]@5=P-i `.B+`.^ G#5 U5)81!l*(#R a#B+e@3+Z@o.R$p+$@B+e#D.@@|@-.C S l.s 5% %v=`$~_t=Q-i+6%{{H'L'#,M&M&1*M&y=H'j%I+y.i+",
"K^1~K^z;K^q%=.Y-;.; > 2.] 0._ > o | > 4 | *.S A 3 o 2.2.2 A A n u._ - }+R.Q&c  @`++._{D^#&#&&{y[@:+{G3n}o2z~8!Y*k Z 5 |@^ l %@n Z Z ;.U.m.r G ].u y s-C+t&` c i l S 2 &.; l Z 5 5 1 > 2.o n *.*.[ v < 4 h %.j E+1#7 ; n r C F Y&:%Y%G m G m *.l n A C {.Q+R x%K$@@@@Z 5 -.-.@@|@6 k V%B+{ G@Y.p@5 U.S o.o.1@5 A 2.Z U.S k D._@6 V$-.5 l A |@=.|@1@U.;.-.A 2 5 o.Z l -.o.2.Z D@1@-.-.2#U.< 2.l 5 A;s*m&D#l S 2 n n &.z &.( n 0.'+2.U._@D@|@*.1 z > /.4 > 4 > &.n d#]@@+u+u@h$++h$%+{&P&p%P&(-{&%+;-0$o [ /.> | | ; A U.; G+[ ,%I+/.n l n > | A l 5 *.*.2 n z > o ' O { n a#8.n p+x l.C {.G ~.S x q@n+9.l+O n o.D@a#v.8@l+w.O B+$@C o._$n { %@%@o.C 8./ : a.^ { : ~ I#;.] n ! n l D.U$4.C,C+;.o.r ~%6%y$y.%@`;r@s@3#^@l n 5$6#7@w#C@a#0#c$9.8.$@)*p v D n B C {.C 7 8 *@>.9 $.g h)X*>.)+O+V.K+*'W.P W#X#6%l.B r T -.X%t&2@|*`+`%F*u#O&U-v+k.&.1 l 0#i$&+{&n%2>m%H%M]3:3>o%6;;!J@u@u+.+!=x&n,G-L*> n F 1*6%n%H%c%x*]<f_O#*<L<Q:P@7=l=w$=+{&2$g$!=d.4#Z#3#C@B+H#J#:@q2!8Y-~8{$S n+n+w.$@$@n q@C {.o.o.E+d 2@+.5 o.|@*.o.P+F n z$Y%a$c$B+B+0#o.D@0%''J#j$`;'@_$I@1.v.",
"G=q%<3t7y~2!U7&=1@; z n ( ] '+0.> z > | A S 2 z | ; ; > /.4 o ; n ) : ' - { ` ` ` |#y[g{^{D^_{!~n}z}n2n}H}]3u#P*S > | S l / a#8.l 2 6 _@D.r ~.[ w @@5 2  .a ` f l *.n &.2.o.1@o.o.1 = < /.o < ; l.l.z 1.+#)+!.7 >.>.; l s o  %Y%W#G$v T n B 5 Z n &.q T m.M$[!%]2#_@5 o.|@-.Z A 6 ;.o.G#V%I#B+Z.2 *.n S *.Z U.2 A ; S o.|@;.o.o.3$Z 1 ; 2 -.e#V$-.Z ;.o.A 2 *.6 @@6 -.1@)#s-b=e#1@6 C+e#5 S 5 k $*C=-.Y#o *.A | | *.A > / 3#] 0.z S _@V$o.A A 5 Z n > o n *.A 1 n N.u@e@u+1$h$ +H%~&-%p%X@r$(-)&F$G$].[ o ; ; o *.Z o [ Q u F$_%/.1 n | > &.2.2.U.l o.o.&.< z 4 ' l+w._$_$n q@/#y w T :@D@n.T m q@C D w.`;U*z%-'a#n+0#q@C _$%@n q@_$9.i$i$o.9.9.i$R$> - - ~ n 0.H@H@( C@/ > ] ^@7-)#|@Z 4 l 1@u 8@~%n+u n+8.<&J#D@W%;.n +@+@Z#^@'@B+n s@n u ,+F+^.n P+@@x Q+_#T %.a >..@*@X*O+O,h)K+J+.#W.;$`^2 (+Z%F$F$m w o.M$)#};e i ).e Q!|#l@O*# *.&.; n -._$C W/H%~&s(!]!)n%+<&+/-=+/-u+A@.+2$]@{@5*|,H,G#{$E K%j%#+{&d%-=N#e_b%O#e_]<x*E%a^/>P&h+Z@t+F.2+w#5$/ G#^ I#/#i$91c&r%{$T n w.n+n a#q@9.w T C U.E+ .,.+...c #.k @@|@6 Q+Z C S {.0#o.0#_$$@q@0#0#i$8.B+C w.l+D q@",
"-.z;t7t7B=s*v6E^; > < z ( V%D@H@2 2 A 2.n o z > 2.1@o.o * ; -.1@/@i.5$w#$.+@ .0 k.,.` b [~_1t~l;>(^~]~N3# <=R*[~8 8 | 2.`.l l r@B*T.2@e#-.| t t w x v n 6 5 S l 2.A 2.l |@@@o.2 ; < , 1 z z } < ; &.o o &.o $.!.} * < A G+o `$;*a$F C y x :@k U.*.5 l.m Q+/#x%7!z+% r%)#=.)#o.U.5 e#C+3$X.o.o.B+6 2.2.l U.D.)#|@2 o.|@)#};>*e#D@7-6 6 D.U$D.=.e#_@U.S *.U.k |@D.`+j k.E+F*|*D*b ` 1#j 1#1#7 7 #.<=i{$ 8!%.%.2 ; 2 l B G B+a#_$v.n ; | &.*.2.2 n 2.1 [ /.&.l 2.&.D v.9.q@_$n %@C 8.s@;*)&k#y.9@b@I+I+D o | 1 ; ; < > = }@u s :%_%o n 2 ; | ; &.; n *.o.S /.[ ; 2 _$$@9.p+9.v.B@v.D l+S o.w m m G _$n o.r@0%`;r@j$r@c$z%<&a#B+B@B@K%G*j%G*j$8.l+%@C@~ a.^ B+n 4$G@r@8.O w.l+{ D 8@P 1.;#E.o D@q-a%R$$@( ^ ) ' ] ;.`*!'V%n ] n l H@'@U*%@9.p+w.' o+{.L$7#^$w t S T f @.0 L+X*s!&$-$-$R.Z.){p^0)H-w!E)~#q l.T l.m l.&.Z 8 *@..t&j=,.]-D#2 S T S l.{.%@0#@+t@+%++<*+%%@1.' %@$@v.C@D@] - &@:._.n@f#w#|@R C p+x#s+F%x*L<c[f:d%*,F]F]U@#+y$y$i%8=k$f={@d#d.x&C&J.v>h@n R ].o 4'q@O w.p+B+o.Q+r r T V+B=1#i*i*V*N&#*@*f 2@d j A 7 n b z [ &.1 o A 2 o &.5 A 2 A ; > *.e#",
"Y+y~1!q%A;&.&.E#A | 1 2.C@H@G#`.1@l ; ; &.1 &.*.5 A ; ; &.A U.@@7;L=h%w#+#X*+@g a ` j %.->H{Y*`@O*=!]~{8 $S*R*l;7 h o > ! ! / V%j=T-t&`+n o B T n l.r r 6 1@-.l | | ; n -.6 5 1 > [ < &.* < ; *.@@5 ; | n ; >.*@* * /.S o.P+E $>k!7!{.S {.w 1 &.5 k Q+Q+(#L$$>y m&$*Y-D.3$4.=.)#1@S k o.o.p@~'Y.;.k _@=.D@X%|=s-D.V$3$2#>*]8T^0%2#2#=.)#D@|@o._@6 -.S -.k |@U.e#'.+.i  .1#..f +@,.2@c k.E+b h 8 y+<~$ /= .k.A 2.2 &.o n q@o.B+$@o &.A | 3 = [ 1 1 z } 3 /.z > 1 n+' B@p+_$w.{ { w.$@6% %I+I+)&1*Z$a$m o < [ /.< [ ]+} [ Q ~.5%n D ; A *.2 ; &.A 1 S 2.4 }@} | *.q@%@n+O )*8@{ B@%@9.)*u D ~.B G o+I@`;r@0#/#C I@o.o.i$a#$@_$n+{ b@6%Y$i+$@9.p+0#3#{ ~ / 3#!  .o.~ ' _+n+l+$@%@p+o B C {./#o.D@a%0=o.`.H@B+( l ( 3#3#n ] C@3#l / r@r@B@$@w.p+%@n r D@{${.D o w n f f a .@L+-#*$/%!+%'_+n#h@]&h$-%i%F {.o D C B o l &.%.,.d f ` h F@N%w {.C n s q n q@h@g$)@++g$2$9.B@v.n s@q@'+) ( l Y@9%_.q&o,&@1 S $@%@h$s+5+x*L<a+P@F%':1&':l=i%=;(%i%k$@+b.M=s_f=d.B&K@v>Z@g@O { B+p+9.9.$@C 0#<&R r S T <#X ` i [%c ^#]#=*i*..i ` %.k.7 7 #.o.2 &.Z 6 1@k k |@5 *.n 2.*.-.1@",
"E#X 2 &.%%]-4 1 1 < n k ;.^ ^ G#o.A o &.U.1@U.2.S l 2 1 o 1 | > h ,.7 $.L+W$g +#*.Z 2.o *.Z z z 2 D#z z E#E@*.n 5 *.h +@7@4#i T.V;Z;'=e 1@A @@L$0$Z%w G w Q+R r | 1 &.| A *.S A z /.| 2 z 1 S Z |@l o [ - > | < < ; l.C y {$n.P+r S o q S s t m s C o.P+n._#o.x *.k =.z+X-z+@@1@;.Z ;.|@@@C+C+6 1@@@_@U$7-a=u*e#=.3$C+k k ;.*.&.1@V$U.; 2 o > o.5 U.S 1@S A l ;.1#..f c a ` ` a j j $.8 @.9 b 0 #&~~%>|%a j 5 *.S G D w  %M&j%$@n Z 1@Z > o ; [ o z - /.> < [ | u p p t m G D m m o X#z$s&E `$ %T m D v 4 | 7 @.a $.&.2.q o s n t v ~.C S n q w D l.Q '$'$[ Q q 0#_$w.p+t+e@1$u@u+B@o+B@[ [ l.o ^.n L$:@m ;&/#B P$@@G q Q v m D X#z$z$5%6%Z$Q+n.e#)#_@6 '. @ .1 j+-#1.n+$@n S y y n.L$(#/#:@D@n.;.`+1#%.1@@@S o /., o l {.R R S o.( 0.~ a.o.@@Z |@D@_@o * A 1@k ,.1#c +@/.]+,+1.r+o#s#`(R#*,Q@D%x;D@G P C /#-.U.1 ; > 1 9 J+h), [ I+X#Y%w n v.B@0.{ u.] x&T,3=:,p@3#{ a.C@/ n@5$n@ .h#6#:$:$:$f->.2 > > !=x#/&,&F%m$A]T@3&M]~^k=r&T=8@B@Q&,+! U*C1x&6&b.l$8=x#y#f$h@)@s+1$t@q@n+w.p+S T W+Y+[#}#| ; .@1 @.7 j `+|#f k.%.%.c a a m&Y+X z+G=X B=m&]-z E#%%B=-.s*&.",
"m&*.z E@E@D#2.2.S Z k e#^@H@G#G#6 S n n U.@@1@*.|@6 S n 2 *.1 3 W$k.$.L++@*@)+g < 1 1 4 *.S > 2 E@*.Y+]-E@B=1@2 &.S @.a  .h%i.P-i;Z;J2t&)#k }&];a$Y%w G Q+/#Q+~.S -.k Z Z A l A 2 1 z /.o n S Z S 5 U.&.< ; 2.| n | w :@P+{$/#n T B w B Q+B C n n T {.{.S {.S w B=-.B=G=r%H==.e#6 6 6 6 _@o.1@S -.|@4.}*2#s-=.l 5 6 e#-.*.U.U.5 6 Z 2 l |@k 6 1@1@6 U.)#U.n A 2.` f #.1#` j ` a F*,.c i 1#a 7 #.#&&{4/3/q*t&D@-.(#n m B i%)&r&i#2.> 2 Z ; > | z > < /.&.U.2.| n s T T T o.C m {.C o.$>Y%:%Y% %Y%m q m w 2 > X*O,+#8 1 2 T w w w ~.u [ l.{.n v [ G+t ;#!#[ q u D _$v.)*B@1$ +c@l$u+g@l+n+D s q w s {.o.B T x Q+];8#o.o x C T P+B z$Y%F `$X#F m.@@C+|=@@@@|# @k.A B+O D l+_$9.l.{.p ~.S {$/#_#{$/#D*..,.|#;.2 /./.2.l ;.o.r _#@@R n 0.u.: 3#C@5 Z ;.6 _@S > 2 *.2  .#.%.k.n > _+%'q+x@'[`(j{q,#1T@I+m 1.u S :@1@4 > 1@U.5 c 8 .@4 u :% %H+s n a#C a.) / r@f=x&d#;.D@3#o.G@^@_ [.Z#4#n@h%Y@=@8%Q$Q$+@>.: a.b.b.,=S$7+M@S#T)U#t$y]O%y$y$8.$@}+: ^@}>T,c.6&K@e@2$g@r#2)r+u+.+x#e@n D l+G l.~.b&L%W [#[ ~.3 t 4 ; U.l j k ..U.k.S j l B=s**.$%G=X E#Y+v#9&]-%%*.&.*.A;",
"A 2 Z -.5 -.*.1@l 2 U.l I#V%l B+o.6 )#6 2 2 &.&.k k D._@n *.A 5 h L+X*.@8 h 0 H ; A *.5 ;.=.)#|@S _#q t 2.U.n /./.-.*.n  .i h%k&i*Y,B*e |=}*R Q+z$`$m.n.^$_#T B |@D@@@l k U.S 2 2.D@D@*.1 /.2.U.k.k.2.; ; 1 > 2 x t o /#:@l.B w S G :@@@P+T ~.C o._#r q m S B _#r%H=k X % X{Y{% 5 _@V$D.a=e#6 1@5 |@_@k =.7-1@2.S *.l 2.2 n ;.;.D#8$-.H=)#Y{r%C=A;2 k k z+A;s*s*i j %.k.` d #.i |#` 1#B*2@b a 8 }%&{[~y+`%2@n ; y m g*b!#,d;#,j%o.U.Z Z 1@*.* 4 1 [ &.-.1@S n o.:@$>E a$F s&x Q+C S _#x v ^.n C r B Q+C z < 0 c 0 7 o < G l.B x l.s s l.x C ~.D G+(+G+~.l.n w S C c$'@i$t@2$d$.][+r#O 8@p Q+T&^&S P #@S @@q C 9-O:T n w Q+B m {.z$F$:%a$G o C :@;.D.e#;.-.l o *.R$I@w.R$0#0#o.x B Q+P+o.y R :@{.`+,.'.e `+i A Z o.|@o.;._@5 l 5 ] 0./ { ~ ] n *.5 6 6 Z o.l 2.A k.` &.A / ~ 1.;+O{x@n$$,5[t_/4K>x;l.o o D o.2 &.6 ;.5 k ;.Z > - ~.I+a$Y%H+ %_$q@`.~ ( B+(@5$Y@(@ .i E+` %.a >.+@a c b a ]#+*e%+*@.k.2 1 ! { t+1$l%!&=+=+T)D(A.a@K%R$9#/#V%o.^@C@H*J.j-H-a{S] !F,0-.]P#!@x#g@p+%@S P+q V Y+}#<#Y+n Z$m _%o Q+:@B 2 r @@;&C,7#D.=.X-=.o{X X $%Y+]-%%2 D#A;*.Y#8$-.",
"Z 1@6 5 k 2#1@S l ; ; S ^@^@B+o.=.)#)#-.; A U.6 1@V$3$1@5 6 V$@@ @7 b f 1#%.8 9 z z | l _@C+e#-.l.o.q m S l z 3 ; 2.> /.7 /@h.7;W*--Z+Q!u*D@_#{.6%0$t-t-/#r Q+Q+-.k 6 1@1@S l *.S e#V$5 S n o ; b 2@l < *.&./.*.s ].D B {.m G T B C D@R l.G t m m m./#T R L$r r D.:;C=G=G==.r%z+1@k )#4.C,_@l 1@1@k ;.o.; n U.1 2 Z S 5 Z S 6 k k =.)#:;E^E^k E^)#=.X-m&X 6 s*-.|#+.` E+f 1# @`+|#1#+.2@`+#.h  .g{S*Q*h~|# @Z *.y G I+z$i%d;G*9@&.S k ;.k _@;.|@5 *.Z U.o.o.5 Q+l.Z$s&s&;*`$w T R q l.o o ~.G {.r y r C 1 2  @i h  .2.n *.T w l.l.l.m G T Q+n G+}.p m C n s G {.i$c$`;%@3+r#0-#;f@3+s+8@].o.W Y+v ^.s w S S o.0%P$n.:@m q n B /#$>`$F Y%G S x R e#e#5 S S S 1 &.o.p+0#c$i$c$P+R :@/#]$n./#R {$L$o.,.,.f ` '.;.6 n | l o.U.Z l *./ '+( l 3#/ 2.Z S |@6 -.|@6 U.k ,.f S l > !+R=:+9,v@l{9|v|Z({6F]a#x C s ~.S 5 A @@V$k Z -.)#S o o :%`$ %H+a$q@q@) n ~ 3#l&..i.|-f i i ` #.h 0 9 >.8 )+7 %=7%f%g >.+@2.l '+> e@g@/-=+z#d;>-D(Z={-a#q@c$,@U*l n n 2+i-J.f$2)`)y{F,+,L@P#L@x#e@v.l+G ~.T&T&V+<#X ^&K$Y&F Z$z$ %C S T r r r y :@R n.s*A;% 2 Y+&.*.*.$*A;X *.2 E@m&|@",
"l Z @@V$1@V$6 A 2 > /.2.2.S S 5 2 A A 2.*.1@C+=.o.k @@U.U.5 ;.=.C=k $%s*2.| = |.- * < 2.G#G#l ) 2 5 A 1 < l U.| &.> A l 2.Z 1@*.f 2@3,j=;.U.B Q r 7-<$/#6 o.2.-.,.d ` #.h %.c  .8 k.E+ .%.j c 1#%.+.i k.2 ; q v 1.#@o r S ~.*.A 2.1 y x s B 6%Z$Z$E x r ];];o.S $ %{i{t{%{h~Q*t~<~y+1#1#,.` b ,.o.Z -.-.> > U.*.1@V$6 _@D@D.4.}*`[Z-:;&=o{6 6 =.,3s-r%z+-.A;B=G=`+j j E+f ,.` i +.7 #.7 #.%. .k.8!~;x+X l S U.U.S q B T J%Y$6%~%| 2.l 6 V$V$@@;.-.;.@@k o.S *.n o F$H+s&;*5%s&$<R n n o w T C m.o.S &.n a a  .@.h k.#.n n ; s v P t n w G v p P Q G C x T q q l.w S a#9.n#F-e$'>H>u@1$w.n m o'a&v :@a%<$S S T P+{.q n x B l.S o.@@/#^$P+q q m Q+/#y w G o w S P+i$s@i$B+q@B+C 8.{._#n./#C r m.o.2.A l A | U.i E+ .#. .i ` @.#.h ! '+n B+3#B+B+B+*.Z l o.-.1@Z U.1@U.-.n :+[$%'R=9,u&G%v@m>f+S#U#D 1 A n 2.1 2 ; n 1@V$-.&.U.l m %@i%x;i%n+n $@9.l : _ G#Z*D@n@7  .a #.i d F*D*#.+@>.!.E+ .a *@)+b | &.2 a.'+t+s+[+3+x.G*#,a$ %;*B C S ;.o.n u.,+;)v>s#S]G;Q@d%M#L(U(#%^-u+t+$@n Q+o.o.:@m Q {._#%*0$s&F Z$ %Y%a$Y%Z$a$ %6%E k!;&l o ; z | A U.5 |@Z 5 A n 2.n S ",
"l 2.|@=.Z 2 *.o.S 2 2 S l 6 1@U.; l Z o.5 U.@@-.;.;._@o.*.l &.;.-.H=X E@[ o , = } 4 *.|@G#B+~ ( S l l U.; ; A 2.|@|@-.2.1@P+1@Z ;.F*q*| , ; G ~.n s m y Z -.U.Z +.E+k.0 8 j 8 j h a 7 #.h  .#.j #. @`+,.A o o q t Q Q r l.[ Z n *.S {.Q+n R Z$K$$>0$Q+x _#o.1@s-^8_1R*I~<=R*t~((61=>,. .@.j ` `+=.1@6 -.5 l *.6 =.D.e#7-}*a=0%7-k B=k z+&.&.*.H=:;r%k H=D#8$B=:;D+E+j ` j ..j j f #.d 1#` f i k.8!D#%%2 l Z Z Z n T /#C M&j%r&n+2 5 S l l 1 o 2 o &.o n n 4 [ '$[ H+Z$a$a$F$.%.%~.q l.w q q B {.n ~.n 2 a a b #.k.`  .7 &.&.~.s D o G B q u D B T l.w w T C n o l.S o+o+#;^-F-L@|$,=.+q@w.q W+[#S m v }.t w Q+w n B r x o t C l.S x 1@:@T ~.n {.m ~.t [ u ~.Q+m.r@s@i$<&o.$@B@q@C P+R R {.{$m.T n l @@-.&.6 T.T.d `+a b b .@@.c '+l ^ 3#C@^@^ ( *.n 2 U.U.o.S A S U.1@; I@R=:+w!c'p%z#/-(-k>M#6;o+} 1.[ < * &.l &.S 6 e#*.; A n s@Y$j%1*9.w.{ { a.! 3#I#V%'+_.!..@b k.@.c d `%|*#.*@%.+. @c *@z 2 4 1 1 Q&u.1$x#s+Z@b@1*0$s&`$ %~.o.S -.C@] ! ( H*d-|)r+'&;=M>>=!(U(!@n=)@@+0#i${.Q+n y Q+~.n S S o.o.6%l. %l.6%0$;*Y&Y&$>$>;*K$w z z | 5 U.U.-.5 *.l 2.S 6 -.o.",
"B+/ ) l ( _ 0.G@^ ] o.5 5 6 U.Z 2 5 -.U.n &.-.Z ; &.2 | n -.&.l W S+Y N%b&U } /.[ /.4#i ..i  .h#4#(@Z# .n ( 3#I#7._$s l.n.x%y {.|@V$1@*.5 {.n n v s > 5 E+` a a f b 7 j f f %.2@%.8 >.@.b @.@..@[%W*+.k.; A G S Z%Z$P+^$n [ 6 l *.s-n<_#S :@g*)>s=s&P+/#D@_#k ;.~;v~N~!3S*x+P*S*h~(=8!8!` 1#d `+D.D@1@U.=.!$C+4.4.)#k _@C+e#|@1 ]-Y#8$z+o{G=E@G=}!X-F6,3X-=.*.C=|=D@U.S l U.;.|@1 l -.S 2.o n &.$%W+[#^&x {.C B m (#u*G p+B+8.p+&.; 2.l l o.6 2.| 2.A *.A &.*.w {.Y&Z$:%a$`$a$ %:@S C w Q s n 2 l.Q+_@-.@.k.k.i k.%.` k.A *.T n q n t Q u [ n B G G q n B T B n q [ :+)*5;S$#_T(L(y&h$q@{ T h;7:r ~.t F+Q D T r {.@@_#y Q+G S l.n &.b n A A 2.S s 1.+=m*(%:%6%F d;#,J%M&b!C(J%6%)>Y&%*c!j~6!g*k!:@/#e#-.-.@@e#V$2@T.8 >.7%7%V- @( l r@/ C@o.l a.U.Z Z 5 1@Z Z o.r@<&B+l+w.9.n+I@F+u 9.s@C T=f@%'}.= .#R.1.4 -.|@l A l e#B [ ~.S s@9.%@B+_$n w.p+q@$@( C@< * /.z b [~P* $2 $%A;H=$*D#X-k 6 *.E@m&S m G q w._$C p+C s@8.p+T y S&T&s w 5 -.Q&k+&@5$K.K.J@e@e'('L>-=T(2(S$!@A@2$n B B T C @@9#i$w.9.n 1@6 C Z S 2.x :@P+o.o.$>;*6%Z$$@n+p+8.c$s@<&r@R$a#D l+v.9.C C ",
"B+] ! ^@^ _ 0.I#`.! Z *.Z 2.; l e#;.6 -.Z o.;.-.o - } z 6 k 1@Z Y [#L%W Y+b&, > 3 < 5$ .h#4#4#Y@w#j.l&P-! n ^@0=q@v.q P+j~E F K$a%@@o.S x x q n P+n.6 5 E+,.f 7 8 0 @.,.E+ @F*q*c 9 )+8 +@c j 9 $- &'=T.A |@x n .%5%o v > ; 2.l k @@:@n P+m.6%K$g*Y&y P+_#L$V$s*l;>:H}H}S*<=O*[~P*/=x+y++...T.F*D@k U.C+s-3$D.0%@@S 2.5 ;.;.e#*.E#6 s*X-C=6 6 -.G=% E^$*C=:;}!Z-D.=.2#e#|@6 |@;.A 2 n 2 &.> U.o.U+L%N%W o ~.T C Q+{$_#m B+%@%@p+C+U.o.;.)#C+|@Z &.l l A *.Z l D :%_%W#W#H+I+`$)>B t C Q+q n ; *.R @@U.Z j %.` %.7 #.` j Z -.Q+T C S D v t D l.~.v o l.r o.Q+r r o u I@)*0-#;2<u/!(B:!@n+p+l.W+U+r u v n w l.q y P$:@C :@(#C x A a b c 0 @.6 &.1 t p C'C'Z%X#5%H+~%`~f*x%='T*y=G*%*7!g*x%l!k!+>%*/#R U.U.0%s-@@;.,.E+%.#.]#[%V-W*n@: 3#a.3#B+] l ;.e#6 A U.| 1 ;.D@R$n+8@w.%@p+$@O 8@B@%@%@8@F+-#,$|.- [ ; 2 1@1@l &.*.o.l.G t B s@9._$B+q@_$$@_$q@%@~ C@[ * - | # S*<=x+8$8$D#2 s*6 X D#%%8$X D#n s q w D 9.q@$@B+i$8.n ~.S S+U&m C /.|.}+: [.9%G,H]g@u+M#E%*,O%4_F&,=A@)@a#w B m B {.D@/#r@/#G@E+ @i i +.6  .5 Z Q+x S x 0$K$%*B+w.q@R$i$o.7.`;D@c$n+l+l+l+p+_$",
"/ ] 3#U*^@{ / p@`.~ *.*.S *.2 o.o.2.n ; A |@;.o.l * 1.4 *.2 &.o V+w;w]S;V+Y l.S | &.Y@5$8%8%8%8% . .i.4#r*T.~'G@_$^$j~0$$>;*t,g*r D w s m m.$>7!8#a%@@|@,.E+ &[%0 %. .c @.). @%.7 b 0 !.0 @.%.a <%S...0 | 6 w ~.:%W#u 1.A A 2 &.*.o 1 n {.s=Y&j~%*F E P+y @@k $*[~V/.(z~P*I~y+R*P*x+l;S* @ @2@T.D@D@k =.u*&'a=e#;.;.|@_@e#k |@S G=-.B=C=z+A;% A;$*z+B=$%X-E^R5F6_@3$};3$)#=.)#U$5 n -.;.S &.;.3$l*w;k'#>s D T Q+m.R l.@@G@H@'+o./8U$l | 2.Z o l 5 k D@e#@@_@6 {.:%,;Y%Y%0$0$)>j~r B :@R n n ; -.o.B /.; ,.i ` #.#.#.j f 5 1@/#o.:@T G+Q q q B s ~.q C :@P+x {.o.y G v.u s/5: _L(8(5;[{' _$R S&^&m ^.~.l.B w @@x x G w r /#@@D@S b ]#[%a j d 1 /.p ~.`$`$g;';u=u=I+)&I+9@~%G*{-=';*$<%*)>c!s&)>)>_#P+o.Q+!$D.2.> a h ^#[%!>c)0;7%4#: n ] 3#l / ^ o.-.2.n 2.> z 5 B+a#n n+D w.v.O s t < 4 /.3 $=,$.#, | ; ; n l o.&.l r S m w m Q+3#] / ( _$a#%@n p+8.r S s o o o 2 E@*.8$F#Y#8$2 %%D#& A+N%}#W X+n G o G _$q@_$n C 8.2.2 o D#8$X *.5 | = }.}.*@_.N.H*S$!@'&d%8,F]z*z*m=)@t@B+~.G l.T n+9#K# ++%/ V-.& &(>--f V*f j o.5 C {.x o._#d;Y$6%;*j%J%g*G*j%~%i+I+I+i+r&Y$",
": ~ ( B+> : / H@( 3#&.&.n *.*.6 &.> 1 /.- A 6 e#2.[ < < - &.> ~.x u;$>w;o x P+l.; | 7@7@K-=&L;K-n@0 *@:.h#L=l / >~U*P+0$ %`$a$`$x x @@R _#;&D@{$@@P+Z Z ..i i*$-c ,.` !.#.Z+[=K+8 8 h !.j  @#.+@f E+#.+@5 @@T n ]$q [ ].6 4 1 > o 2.|@Q+Q+7!;*K$H+a$)>D@|@1@/ S =.(8$32!~;l;<=8!(=$ y;R*`+).D*'.).C+D*e#d 5 n U.1@)#|@k o.U.U.|@C=X-k k s*&.2 8$8$*.A;m&$%)#t{Z-).!$B**. .|@E*w*E*|@;._@@@5 6 7- |s%W X o.{.l y Z S |@A `.l ] o._@/.n A 2 U.&.l 1@U.;.e#)#=.e#(#%*;*Y&)>@>j~E Z$t G ~.q z n l |@C T A 2 6 @@ .A c ; 7 &.1 l :@Q+s q v m w o n t m n C r l.t o C s o B@O x#L@L@F-e$B]t#p+C /#x q ~.q s ].t _#[;P+D S C D q m.;&@@@.$-i*V*7 >.* 4 D T S z$s&v=';G*6%)&p+y$l+y=9=d;{ Y%C ;*Q+Y&D _#P$:@e#7-4.E+c %.%=g%]#%=0;0;@'#*a.a.) '+) ) ) '+&.- [ *.*.S *.*.%@i$s@w.R=' { _ * 2 > * }.}..#,$-#v w G 1.G o w w C [ ].v n l Z a.'+( a.] c$H@q@C@p+2 w o ~.2.Z *.B=X 8$E@Y#Y#2 2 Y+Y#%%7:S&X G t t D 9._$_$w.D _$p+> ; 4 E@< < z n *.o , ,$- _ c.@+t+e@,&z#@(k%F&x#)@g$n+B@t w n m D o.K#C#h$;./@p&N&S.i*,..&#.%.j l l Q+x B T i$G*i$;*q@b@s@x;;* % % %r&y$x.i%",
"m+7 a !.0 9 !.h c  .+@ .@.b c a z - ] / ^ `.l+l+B@l+D q@c$8.t@a#s@n.R$n Y$6%~%r&t z b !.-*c)~>~>[%~;` ` %.g }@3 -.o Q C l+$@8.a#@@D@C+D.V$2#C+e#*.A %.i E+f f i E+#.8 %...c [ 1 1 o ; z 5 6 *.; l _@k A =.D@U.-.2 1.> | e#1 ; 5 Q+0%R y @@R r m n+p+z%''2#X.B{^@X-l*% O[_@1@D.4.D@2#u*s-g!|>C-k&..1#V*d i*` ,.d T.F*2@`% @%.i _@=.^$]$/#V$_@;.k ` D*..h b ,.V-@.[%1#i*f ]#b i*v*_8D*j ` U$)#t-P$7-2.1 -.U.; a l 7 ; 7 +@8 h i 1#S Y+A;m&2 *.A 1 2 2.-.*.C@~ B+( o.G t [ s w ^.t T t o m [ Q B r D m G q C {.A m z {.k C S r {.D D O s@o.B+%@q@n+B@n+w.D w.l+>+B@O 9.v.w.B+u@f@^,q#f@q@a#C R$_$r r T q m ~.o.n.n.w B o s t w n 2. .h>B!6@a [=8$-.E@c&@@Z$x;~%j%K%i$n.;.p+`.c$c-0#^ 9#o.x E^l*X A;6 8$O*<=%>}%N&V*D- *c)~>]#.&K,%.l n n B+w.w.v.O n+D v.p+%@o.0#8.S o.@@)#; %.f j #.a a b * }.,#,$D `$K$6%:%Y%J%6%b@D O _$'+h#4$h.j.(@(@Y@Y@`.|-/ h%( 4#/ n@'+[.2.A l.Q+P+l ; h 7 k.k.2.U.<$D@Q+r n : H*H*2+f=2+H*) ! ! ] _ /.! m+> n l+>+B@8.q@B@0#B+a#{ g@( f=~ A@l+n %@q@n+w.o.q@D n+c$c$/#c$<&^@n@Z#..1#U.'.5 S 2 | | 2 m&D#%%2 o.5 P+l {.D@/#`;D@s@$@q@0#C p+",
"&@h @.7 +@.@0 j 0 9 >.8 7 ` a +@n ; '+~ B+> :+o-' u ' D@==+%++.+`;D@<&B+Y$ %)&I+^.G+.@*@-*z>7]u,O^O&S*/=0 $.* - /.l (#P+$@a#$@8.r P+)#D.V$e#@@;.|@-.k.#.%.f ,.`+`+,.7 d f *@&.n - o *.n A 2.l.r A Z U.o._@1@-.o * } ; Z k o.*.x P+@>Q+Q+_#Q+l.Q+9#>@z!9=)5F>:[2#a%:8s|r^<$(#D.}*U$b=1=}*Z)B,k&h.$-i*.&i*(>[*'.E+d B*2@@. .X*h 1@)#:@o.R D.e#@@D@'.).'.k..& &V-]#.&.&N&^#.&i*K,`>[*.&k. .| Z 7#};|#b b ,.1#7 0 +@@.7 8 8 %.#.@.f -.B=*.z *.; 2 z 1 A A 2.~ C@`.^ T w m [ [ o s u m w S n Q m y r G t s n B w m m ~.S R o.o.T o P D B@B@$@C 8./#o.$@0#q@n+9.{ l+v.n+9.q@p+D l+u 1.{ l+w.p+p+w.n+w.:@S ~.T n w B {.l.r B {.n.y y @@D>A^K-&@#.0 X r%G=<8]$y G*#,~&L'G#Z ( n 3#/ B{g.:=0%Z 2 8$*.W)L& =U-# 3%1%0;P;@'{>w,P;+*p&`+B*6 q@_$C q@n a#{ u D n+q@8.n q@i$R$U.U.5 )#B*`%V-.&V*p&9 *@* [ [ ].G :%u=Q-,;%-Y'z=b@r&9.s@3#4$4@A!p-p-h.Z#5$Y@(@7 6#7 Y@i.h%h%n@! n T C l.&.1 a 7 j ,.5 1@D.;&y x / H*B{d#2+d.F.d.'+a.u.: - - u.) ( > v.n+r&Y$M&M&x%6%B+B+3#G#/@l q@v.v.a#R$%@l+n+{ u u q@o.r@<&<&^ l r@H#o.A ;.-.2.z < &.*.8$D#$%l 6 S 6 U.V$T%0%i$'@o.s@^$U*o.C ",
"n@+@+@8 !.$.7 1#h 0 k.E+ .k.7  @Z o.A *.^ r@I#( { Q&'+H@2=M=f.B{c$i$i$i$a#n n+v.G s 9 $.%=V*z>v,o=O&x+# L+a l l *.2 Q+C a#s@n+R$:@{.@@2#7-7-2#k U.;.k..@b ,...,... @7 d i b U.o - o 2 n ; 1 o {.l S S 6 _@S 1 * 2 l 5 o.*.k 5 x :@s=R ;&(#n.m.{$5'2'&)3-0%;.5=0=L$O[s%h;7-/#6 7-D@D@V$|@..h.h#5$^#V-W*V*E+..`+E+|#1#%.7 ; , Z =.)#@@;._@7-)#;.;.j @. @f |#|#+...|#f #.+.V;U; &W*]#=*@.h n 2 Z | >.g h ,.f  .k.0 #.#.j i %.f %.9 X % *.D#*.:;5 | 1@2 > A o.|@o.`.T B {.T C T r G ~.l.S G v B o.w q D q w m l.T G q T :@R @@{.n t O n+B@9._$q@8.s@n+q@w.n+B@>+l+B+w.8@$@_$v.{ D u 9.n %@0#s@_$o.9.C m l./#S m :@D@o.T G B L$:@m.l J*[-_.6#c S Y+$%T&U+o. %r&i%/-j%3#*.l l `.3#H*L#~ G@k ; = A+V){!$ S*8!u#L~@&h&{> *+*f%f%a |@e#k p+$@B+C q@B+O v._$p+_$n n _$8.s@o.1@o.Z 1#j %=V*N&^#a *@3 < | ~.C y$y.x.z=.,>%',~%i%$@%@a.]  .n@Y@Y@[.&@[.5$Y@Y@6#h%p-p- .n@n@B+5 P+5 &.c #.@.k. .1# .Z |@e#S l.3#B+3#`.~ l ~ n ~ 0._ ) n ! u.{ l ] _$n I+b@x;;*;*Y$n+n ^ V%X.^ B@w.$@r@<&9.1.' 9.p+9.n p+a#o.`;V%C@`.G#-.S 1@2 z S |@o.G=r%k B=6 e#1@;.1@@@X.B+i$R$c$/#'@r@0#_$",
"c 8 >.8 %.i i f i i ,.,.i 1#1#..1@5 A |@;.2#2#2#`.+~{ ~ T,H*4*{@^@i$o.s@8.q@n n o.2.a !.+*]#b;]#u#~;~;x+$.*@; S |@l n m _$B+0#8.@@{.U.o._@@@@@Z 2 5 h !. . @E+j  @1#a 9 b k.l /.| 1 ; &.o > u m @@l n 1 Z -.2.1@)#k ;.-.A o.-.5 R c!_#/#R {$/#{$D@<&V%H#^@] C&] o W+V+U&S D | o.5 z [ A i h%Y@Z#.&W*V*N&j j 1#,.%.8 i `+C+s-&=7-=.;.k @@V$Z l 1@7 c ..j `  @%.#. .9 k.|# & &i*=*W*V- @,.+.A 2.&.f @.7 8 >.#.E+b b c 7  .k.` ` d -.8$m&$%&.E^1@5 Z ; | l 6 1@H@G@C C r :@n.(#(#Q+l.q q G G B l.t m n l.w n T S n ~.q B l.B n C {.C B+B+q@$@n O v.B@I@_+v.n l+D C p+)*O { ' D 9.D 9._$%@C w.B@C l+~.t v x D@y C t B l.S S _#r P+> v>4,7 3#| n ]-V+s%T& %z$I+=;w@T=B+| n C@C@] C&J.a.l 6 4 F#Y+e*[8y+~;v+# ^{@&%=-*]#]#[%c U.V$@@w D $@q@q@p+n+' n 0#a#n+u _$p+n q@-.S Z > a  .N& &g%p&#.7 > n U.{.s@1*y$y$d>z.J;d>b@i%n _$n / i.Y@j.i.5$6#[.[.6#7 (@h#Z#|-j.Y@5$j.@@_#o.*.k. .k. . .j c 7 l U.*.T B+`./ l ! n l ] `.l ~ a.> ( '+/ B+l { 8@i#x.6$x.Y$j%C c$D@G#B+{ o+p+a#j$9#p+l+D n+C C q@0#o.0#o.r@^ / / n n U.*.n 5 |@|@6 B=2 ]-o o.6 1@l 5 H@B+%@B+<&R$n w.C s@",
"X*h c a %.i  .7 %.f 1#f f E+f j 1@C n T 5 |@^@] `^]/9%i ..+@K;4$;.D@9#i$i$C { D *.o !.*@e%+*+*@*~;8$2 8$[ .#n o.U.l o q p+0#^$'@:@@@C+C+V$; 4 &.z n b a 1#d %. .` k.c !.h ..k 5 ; 2.S l | z Q {.s-*.; ; o.0%_@> S 2 1@e#_@;.-.Z o.o.y S l.y C {._$%@^@( > ( l `.B X S&s%{.Q+-.S 2.; l 6 B+B+r@k&i*V* .i d E+k.k.7 f t&`%3$}*D.V$).+. @1#|#E+,.'.o ; 1@Z 2 &.} - 2 o.@@6 i T.(>g%.&[*Z;e~ @a S |@D*`+ @a L++@` #.@.%. .E+E+ @d ).B=m&A;D#z %%U.; ; *.; n > l 1 4 ~.{.r {.P+7-n.o.x m G n w n ~.Q q G ~.G m ~.o w l.B B s Q v C P+<&B+n $@n+q@n+{ w.9.n+' { _${ O I@' 9.a#n { _$p+B+p+_$8.v.8@8@:+} } - n n 2.z <@|@;.k 5 @@;.e#;.N.C&/ { /.p m {.:@+>Y%z$z=D(J<;*o.6 X.0=^@B+3#C@H@o.S *.r%r%k r%x+# m@3%h +@9 +@*@$.b ; / C C u v.B+q@$@$@n+n _$p+C _${ C n n B+n > @.h E+|#(>i*.&@*#.E+ .j |@S B+6=z#(-',.>.>6-y$i%T x Z 5 i c k.1#1# .a 9 a 1#8 >.0 ` d i %.k.6 S  .%.#.c =*p&]#%=!.$.8 o &.*.B P+Q+{.D ~.B+n _$C 2$l$g$)@3+t+C@B+p+9.n+O i+x;x;G*`;>@z%c$^ ( w.$@l+v.q@_$q@$@$@s@s@q@B+C p+p+`.o.l ( 1 ; 5 o.k S l 1@k A;8$m&*.U.&.| 1 U.G@G#s@c$i$_$D v.C D@",
"9 ` #.8 j d ` @.$.c `+E+c h c -.|@D v l.|@2.B+u.O,/!*@h.A!f#=&L;T.~'j$R$<&8.9.n | < !.$.h*-*%=k.-.X E@& - 1 )#U.- *.B C c$_='@$@r {.2#X%_@< /.; [ 1 0 0 %.E+ .@.@.!.+@#.1#D*2#V$A 5 6 5 2.2.B @@V$U.l 2.5 0%=.< /.o 6 2#3$)#5 Z _#{.y P+{.:@{.B s@0#] { ~ H@H@1@V+^&U+Y w x U.6 1@U.|@e#G#H#{,p@...&i E+E+E+ .k.f ,.T.d 1@D@-.;.1#E+f j +. @i j S k D.1@U.-.@@];;&D@2#s-|*'.<%K,V;1'j2#8@.j ;.o.i f %.7 9 +@8 +@b a k.j k.j k.!.* Y+%%v#z G=-.&.; A &.&.&.*.; < [ T Q+o.y /#T T l.m q m G D t v v o t Q t Q [ ~.~.o D G+1.^.G x B+n O B@l+v.n+l+v.o+O D n+B@_+I@I@I@1.D %@q@a#n l+I@{ C _$8.$@v.o 2.o &.| k n * )#k ;._@_@;.|@|@G#f.n 0.~.s n B s&Y%Z%Y% -.,w(M&$@1 ) ( ] / l 3#/ ] o 4 < *.$%2 $ `@ =@ 7 7 +@0 #.[ [ ~.%@y$1*6%q@8.n p+a#_$o.B+n+$@8.o.o.8.s@0#2 l j E+`+` p&]#.&@*#.j h a 2.'+h@{&G%X@.>.,z=6-~% %l.B A &.x+w+h  .j  .h 9 a E+>.a f 1#,.f f f *.; #.f k.c [%[%g%@*h b c b 2.-.{.C o.P$^$r a#i$q@$@u+n#g@[+J@u@^ ( C o.a#q@;*;-f*f>^$D@%@C ;.3#a#B+q@n B+a#<&o.9#7.9=c$s@8.o.c$C@H@( l S -.o.5 6 |@@@V$C=z+r%r%V$)#o.5 5 |@^@G@r@r@s@C B+8.s@R$",
"%.+@W$)+i 2@f h b 1#2@h 8  .i 2.&.t m C -.5  .L+j*4#L;K;[(&~}86@|-^ ( n ~ '+| A &.o &.1 +@+@8 %.% 6 X E#n ;.o.* {.P+r @@<&B+D 9.T s *.k &.> A *.A &.a @.%.k.k.j i a >.h %.j 6 6 U.U.U.2.-.1@Q+P+-.@@6 Z 1@k - R.&.;.7-D.@@e#-.6 0%L$Q+r :@o.m x Z 1@U.U.@@)#C+=.^&W &.%%l 5 l ;.V$6 5 e#U*!'&'D@|#..|#i f ,.i  @6 @@U$|@e#k @@6 |#N&V*--q*E+#.f k |=};C+/#@@x Q+7-b!R y D.U$D*).i;Y,.&V*j ,.i a e#2#C+-.n ; &.2 | 1 1 2 -.2 > 1 X-s**.]-6 E^G=r%D#E@A | 1 } [ /.t m B o.r l.w w q ~.~.G ~.t t ~.{ n $@v.l+D w.w.p+v.v.v.w.D q@c$9.$@B@' l+)*)*>+o-)*$@n+l+v.{ D 9#j$j$/#B+w.B@u v.B@w.n 0#_=J#`;S A S o.S D@-.2 |@5 o.1@n 1 U.5 8.R$_$0#8.s@ %b@b@~%K{M_D(A=.,b@$@J#7.i$%@/#<&0#0#a#a#B q {.w t > 3 l 6 &.l k 1@*.~.a#i%K%r&6%Z=M&Y$ %x;G*x;#,M&i% %j%y=G*d;#,B+o.2@E+i |#@.b a 7 h @.c 0 !.0 { y#P#X@p%P&/-Y'z=6% %m n D#%%8!x+n ; A S l 2.l Z A S 6 U.U.*.Z 5 S 5 i i V*[%^#V*]#]#[%[%c a n A U+^&U+V4d!6.^$l.%@%@g$s#G;0-e=8=~ ( `.`.%@%@)=G*;*6%x;~%' $@3#( 2.A k @@S n 2 A A 2.o.6 ;.k |@Z C <&B+B+x o.Q+Q+S Q+/#_#h;S+X <#2 n | *.6 |@C B+0#<&9#`;_=7.<&q@",
"z X*L+k.d 1#f ,.+.F*E++@a k.+.2 q s T S > o.%.%.(@(@h>h>=^M;9;<-Y@] C@X.V%B+; ; ; | A &.+@$.>.2.s*D#m&*.Z Z , [ n.(#r m.R$B+n s@T y -.1@|@)#@@@@|@;...i f  @..,.j 1#j %.f #.&.6 6 U.U.; U.6 r {.|@|@U.A Z 1 t*]+k >*b=C+o.@@k _@D@o.n C {.S G ~.2.n Z _@_@|@@@e#-.T+X-A;S Z *.;.*.U.5 1@p@>'D,X.1#` E+j i d ` %.Z o.o.@@)#6 @@C+(>W*^#.&d @.k.+.l k &.o._#D@n {.$<g*P+r _@2#2@%.V-^#[%i*D*c a j e#X%~$5 n A 1 < | n -.U.Z &.; /.D#$%E@Y#s*6 A;k $*B=2.2 *.A A n m q v t o s o.l.T ~.s m B m q C 0#C a#a#p+n B+8.s@D B@n 8._$8.r@O ' I@1.%@%@D w.8.c$B+{ ' { a#%@`;j$9=c$n $@{ D %@$@p+$@q@n n _$o = o > A 5 2.S &.*.2 2.l A 6 A 9.p+%@0#n q@ %b@j%C(D[>-6- ->-H'_=>@j$8.a#D@'@/#9#'@s@c$D@:@P+B &.l |@6 o ; 1@{.B G {-1*)&W#.>Z=K% %j%x;J%J%d;6%j%J%x;)=x;M&x;B+*.).E+%.j b @.#.` 1#` c @.h $.Z.i-u-G%{&P&r$ -6-;*Z$T T m&Y##  #&.| A U.l A *.*.2 1 A 2.l | n l o.V$`+E+^#g%=*[%%=[%.&.&@.#.; o Y U+T+V&R D@(#_#c$q@[+<+#;,=B: +_-G#^ C@o.8.K%i% %*;=;y.{ ' }+! D.2 ; 2.< z z 1 < 4 S o.1@U.6 l B+/#q@_$B {.{.Q+x S S o.<;]:7:U+S *.&.*.Z Z %@<&_=3-z!'@J#D@c$/#",
"'+a.~ B+H@I#H@a.( ~ n C@^ I#;.G@:@m.t-]$&.A #.j  .`+}~4@|8S6x3=@Y@3#H#p@])(@S 2.o.A | ; 4 > < n X U+T&T+C B x T x @@P+R 8.r@J#<&m C A ;.U$~$0%!$C+U.'.|*j=x=j=e Z+t&e ..|#h | Z -.|@*.A U.V$m./#1@l U.-.[ = 4 n _@7-D@&.A -.k o.:@P+:@l.m S A &.&.S V$D._@o.f S B==.k B=;.k U._@-.k D.)#r@] ' : j j f E+1#1#o.U.&.5 5 @@;.-.)#D@.&W*V*[%j j ,.,.;.7-5 l R /#]$7- >s=C {.3$)#` @.p&%=.&X;T.j %.f Z @@o.3 | A > o ; ; A n ; < z 1 Y+X)Y#D#X 8$X G=k A;o.Z @@k -.@@B n G ~.~.G w S S t s l.T S {.Q+_$a#%@_$C /#9#$@w.v.{ C r@B+p+O B@u B@v.q@`;J#U*q@B@o+o+n n+v.D -#' w.C q@_$O O l+_$_$_$w.w.' u Z.u.{ ] / ~ ) _ 0.j+{ B+G#0=;.^@R$x;1*i#y.x.z#$++<R,d;j%j%M&;*x%s@<&%@a#o._=c$r@j$c$s@/#`;<&8.8.U.Z A k l.m m a$i%)=;*x%{-g*K%)=a#0#0#o.8.a#c$<&9#c$B+i$i$p+o.o.|@,.a c f #.k.` E+i i i k.h a !+!*#%Z@e@(-G%1* %$>E Z$;*S+S+2 E@l A 2.2.n *.l 1 A o > Z l 2 ; 5 G#;.j.i (@i.A!h>h>f#n@h% .5$n ; U&U+S&U+<#U+_#:@l+w!q#y#1$K#y&++f=l&I#`.B+a#b@i%i%y.*;y.v.' _+D ;.&.| A | - > A z *.@@1@1@Z Z 2.{ 0#a#R${.o./#/#:@y l.{.S&W S+W Z 6 |@U.6 Z p+s@/#D@'@9#j$a#s@'@",
"] G#3#'+a.' Q&'+( ( B+r@H@`.] ! l.x x T Z e# .b E+q*t.u_q.}8{(}-Y@/ B+B+i.[.A S 2 o z [ [ l.~.m V Y U&S+w s ~.:@y C q S o.i$0#`;7-o.&._@5 l Z o.)#V$+.|#%.g  .d @.f %.` i #.1 &.o.S 4 k 4.o.o.C A *.6 -.l l /.o 6 k 6 o | n U.-.m.L$m.Q+C B &.2.A 5 @@V$6 n h %.r%v6,3E^k 6 k =.o.)#s-D.r@n : '+#.f ,.,.i j l 2 2 2.6 6 _@3$_@1@` [*[*i;i ,.`+..-.D.e#U.R m./#m.{$s=w o.e#6 @.b =*g%.&'.B* @j  @6 ;._@&.; 2.*.l z < o ; A 1 &.2 X K^z m&*.X m&A;m&*.o.A 2.n | ; ~.T S w o ~.q q T o.P+o.C q r w 9.w.{ n %@$@w.n+w.w.s@0#s@p+O _+v.,+D 9.9.u B@{ 8@>+>+1.{ l+l+{ 1.w.9.D w._$9.{ { D D p+$@_$w.{ 1.n H@H@a.- ' : : > n / 0.> B+n+p+d;Y$9@y.b@#+k%R,!);*6%L'f>j%j%a#9#'@z%>~{;_=c$J#R$0#C n B+c$R$2.l *.{.B B F Y%)&K%r&~%J%C(;-f><&i$q@B+B+C /#'@9#s@/#<&s@c$i$o.#.b 0 E+1#i +.7 E+,.,.d j k.@._.!*O@e@2$=+6=M&r&E Y&6%F U+U+m&m&*.*.S S S U.S &.o < 1 2.*.2 &.| o.C@j.i  .i.B!h>B!}-5$h#n@0.0.| x U+[#Y X W v p -#1.e@@+h$t@n=e.h%]);.^ _${ y.b@i%W#9@b@B+i$n ' }.- U.5 n *.Z o.;.;.V$1@-.*.-.|@<&`;c$<&o.y @@@@P+S B S <#T&7:s%2.l 4.C+A *.p+q@$@8.D@j$a#w.o.R$",
"] ~ > - u.: u.) { ( ( n { { ' Z.w R+U+S+_@Z * | #. @`  .j><-g-K;Z#w#6#h%i.4# .7;%.8 ]+$=;#[ o 5%E=`'w]I]C {.<$q-r w B y o.l / ~'];_#n l 5 Z 5 o.1@6 k.b 8 $.8 0 7 a >.b a >.o | /.z o 2#a=1 n w D m D C y L$t ~.T x _#m._#/#(#L$n.m.o.A 6 *.&.*.D#$%P*P*x+l@x+->,3E^X-A;&.1 2 *.e#U.o.@@4'_=i$^@@.E+..d 1@o.S n 5 2.;.V$2#~$@@k ,.).+.2@F*t&|*e 1@2.U.S 6 D.e#o.{.C Q+t-U.n ,.c ` 2@B*q*).=.V$_@k k =.;.Z 2 2.Z o - [ 4 n 1 | z 2 W)o~J^U)V)E@$%*.8$s*$%2 Y+| 2 ~.q l.C w D D q C r {${.y C T P+s@_$w.p+O :+B@n 9.q@q@n+q@9.8@l+9.' D n D D )*x-!{%'8@' n+B@O ' $@$@n+{ C 0#o.o.B+D u B@' v.$@_$%@0#B+O o+v.D ' { p+n+$@B@O _$D D 8._$8.k$++t@8=1$ ++%t+a#/#$@%@j$>@_=s@/#D@:@{.8.`;i$l+s+++K#.+9.B r S x Z$)=b@y$~%y$)&n 9#c$c$;.B+`./ n n a.G@X.^ }>3#/ ^@0=0=|#i*j +.D*T.e#n *.6 E+k.h #.^#&@F.d.t+A@~%J%G*Y$j%x;F a$w n m&8$*.U.U.U.1@|@U.*.S 2 S l *.o 1 o n+D / `. .i.h#(@])L=/@i.( > 0.n &.F@%%% l l } 3.: C@H@I#V%C@e.d#T.d E+;.P+r a$a$s&H+a$$>g*p!7-7-4.1#..|#E*B2(6J2B*+.E+` j %.i ;.`;r@R$o.y C x S r l.B T R+R+7:O[n o |@Z = A B+( <&'@<&p+w.C '@s@",
"3#H@D@D@o.`./ ' : a._ Z._ '+n Z C V+T&V+o &.&.> 7 k.9 b |-4$h>j.4#5$i.7;i h.(@&@8 8 3 w B F$z$H+c;l'2{h=:@-&18($C S _#{$`.l ^ D@n C -.1@|@1@;.;.-.*.+@.@h i ,.c $.@.@.a 7  .D@Z < 1 6 C+};V$R {.T o.C @@o.o.G S n {.L$a%]${$D@_#C {.-.S |@k *.U.&.m&~;x+u#O&u#[~z+m&F#]-1 2 2.S )#1@y {.R$0#_$B+E+f %.k.U.;.1@S Z -._@2#4.C+{${$C+1#,.+.+.d  .Z+U.1 1@1@5 U.5 -._@r @@q-)#l  @ . @T.T._@6 )#D.2#V$|@-.U.5 n ; l &.- 1.3 o > z A+]-U)X)J^X)n~*.s*z D#G=-.A;% 1@n D o G q w l.n G [ t ~.G r o.{$_#n C p+%@{ ' 8./#i$'@q@l+B@)*u 9.l+' 8@I@_+_+F+R=F+' $@q@8.%@$@_${ v.9.$@8.a#<&`;a#_$n+v.B@9.0#`;`;/#/#9.o+I@I@9.n p+w.9.a#B+p+0#$@p+8.9#4>C# +)@h@t+.+t+q@_$v.q@C { 9.n m ~.B C i$o.$@n+t@8=/&J@n l.x C Z$:%1*r&I+b@ %B+q@^ o.G#l C@I#/ n `.`.2#X%2#}>G#D@0=>'l&--U;B*.. @j &.A 2.l `  @i @.=*7 4#C&u@u@~%~%#,#,j%Y$Z$H+~.~.2.2 A Z l 2.-.o.S *.*.1@-.4 [ z ; o { { ( / 5$Z#Z# .7;Z)L=C@3#8.C C 5 A;B=6 |@k o.@@5.`*`.B+H@o.G@X.Z+ .#..._@n.k!Z$0$E Z$z$F )>:@y k ,.2@d d '.,.,.j  .#.#. .k.j 6 `.a#R$R$@@T T w l.q B m U+S+S+S&< l A /.*#, B+H#<&_$I@l+0#o.R$B+",
"0.B+p@}>p@H@/ ) 3#{ u.{ '+0.'+U.Z X 2 ]-z 8$l | &.5 l U.;.U.%.j i.])~,l-N]N]=@R)*@b A <$7-5%X#**t%R;v;v;Z%I||628y /#@@R o.o.G#( o l.&.5 S *.&.@@2 &.9 j d T.t&|#0 j ` 7 8  .2#|@6 | U.1@}*k /#^$P+R n.L$Q+r y R G T :@P+{.o.R o.2.S _@V$_@~$U.5 $*G=<=/=8!y+V/R/ #@ @ l@*.Z o.1@k ;._#S s@s@q@q@h j d  @-.U.U.5 S e#V$C+(#n.^$D@=.|@D.s-S 6 2.U.#. @Z+F*F*i E+=._@3$1@&.i `+..%.#.f |@*.l @@M$]$3$V$5 l Z Z *.A A [ = 1.> | ; %%* R%n~J^y~W)*.D#z Y#E#D#X r%X-8$v s o q l.T n D l.q Q o w D P+;@z%_$D { B@_$q@>+8@n i$8.I@8@w.l+u n+u ' o-0)x-B@D D D n q@p+_$R$C _$_$9.q@C C 9.O 9.D ' w.p+q@R$Y$x;K%9@(%j#9@x.x.b@Y$i%j%1*I+M&q@a#<&a#g$2$L@5+/&O@f=x&3#( 3#`.`;p+%@s@:@T o./#q u u _$t@,&9+d=n+T K$s=x;~%x;Y$i%Y$_$C H*-<#-1,i p-4$Z#Z#h%P-C*38'=..L=])])Z)T.W*.&).,.l Z | 1 2 *.2.-.f h p& .7 n %@C 6%6%{{y=M&r&)&6$v.9.o.Q+n m&E@Y#2 m&2 2 *.G=2 A+]-D#2 l a#Y$p+_$'+) C@o.o.^@^ o.;.R$8.s@o.`+`+`+j a E+7 a b  .j  .` i +.V*#*h #.A B s&z$z$s&a$5%Z$0$s&w A c %.,.f b +@#.a a b c f  @E+*.] w.q@$@C q x R l.}.[ n U+X X U+o o.} A A 4 / G@q@v.' p+R$8.s@C ",
"'+0.! 3#o.~ '+/ ] u.a.l { ' 3#V$*.Y+%%B=B=2 -.6 S D.}*~$e#*.S -.])k&Z#w#}-K-6]Q$#.S U.R K$H+U=';h=v;4848{#5%|'a%r o.T S X.X.D@G@_#l.*.|@l *.A S o.6 +.d #.+.j=v*58!,D*|#h 8 &.> A Z 1 &.* 1 B ;&Q+r _#{$w :@~.G+n {.S w q y @@:@_@=.|=3$_@C+_@)#E^z+y+<=R*((S268R*8!<=R*-.1@V$;._@k n.n._=/#8.c$'...1#i o.6 1@|@@@)#D@C+]$]$7-^$V$)#2#0%@@3$3$5 %.|#|# @B*T.T.`+5 ;.s-=.+.,.` @.a %._@/$78g2H+I+@@D.C+@@Z 6 V$e#V$Z 1 < 4 - - v#, 4&X)=!V)n~Y#F#X Y#= ]-%%8$X B=l.~.t s s s q C D@m D n {.o.T r 8.:+_+_+O B+l+_+o+)*u -#l/)*B+%@1.x-,+:+1.)*_$p+R=u u B@p+<&'@_=i$%@p+p+%@p+n { I@q@s@o.^$j$B+%@I+r&i+Y$r&(%k#X$0@y.b@b@)&)&i+i+o+u u 8@J@h@5+,=z&z&f.d.B+G@0=o.<&i$4'4'P+{._#y x Q+q@g$B::*7(S$`;D@K$a$W#I+J%)=y=g*<&`.|,#-#!H|<(k&i.(@/@L=L=Z)T.])i.i h.i.4$B,S.p&` k.-.D@U.2 n -.*.; b h ^#` /@o.n n K%L'%_g*)=)&I+)&w.C j$]$U.A;8$%%2 *.*.m&$*A;Y+8$A;X E@U+j%Y$C <&^@( ;.D@/ n ] o.'@x%#,r@2.k.|#,.f ` j h `  @Z+..@.k.b *@+&#*h 9 1 G w 6%K$;*;*x%$>s=$>{.> ` E+%.#.8 *@X*7  .` f E+.. @i / _$i$C Q+{.@@]$Q+G+Q l.S&R+<#R+Z 5 ]+e#D.4 _ { n+C _$w.n w.C B+",
"`.) l X.G#~ C@V%p@( a.n C@o.;.-.5 m&z Y+$%E#l.x C (#t-L$T o T C o.L=6@6@5@h>:$}-%.S *.q  %Y%x^88^<i^u%l':%`$K$x%/#o.x r r@`.C@`.@@Q+k o.S S 1@D.C,=.).` h |#i  @..Z+F*|#0 b &.n S l ; - > o x /#S {.T w ].x o ~.S y T q G Q+r C G#H@|@1 2.A Z U.[~[~Y*Y*V6=3-3`/h~S*/=8!S 1@_@1@k S r P+D@i$C c$T.d 6 k ;.6 6 ;.D@;._#D@]$]$(#^$n.@@R _#1@*.|@o.` i j b N&N& &k.;.=.e~2,1#E+1#` |#d V$}&98g*.%,%o.L$]$7-y q D q C m q D o Q s N%* o~2!z;o~o~L&S%E@B=%%Y#]-E@2 E#v o G ~.G m q s ^.^.^.G {.w r r O 1.$@_$9.n+%'o-$$){!{-+-)p+0#$@l+o-y'%'u I@B@>+R={ { B@D a#%@$@8.B+R$D@i$8.<&7./#j$9#o.'@8.w.{ T=x$J;J;P%0,:'I;Z]V#:'A=.,.,A=j#u D a.G#5=g.N.c#08s_1>_-^@^ @@V%7.U,9=^$L$P+Q+r {.@@R$+%i/K=C/O@f>g*)>)>D(M_e5f*d;z%2#0=a8b8c8d8j>}~<(K-}~e8s4Z>g#<-g#s.N7f83@s.--V*#.k.o.;.U.U.A -.o.;.d k.[%E+%.5 T y _#<$C(G*M&~%6%{-R$c$J#7-_#:#S+U+X s%s%^&U+U+X X ^&^&}#X+x..>6%M&8.%@o.o.B+0#c$r@D@]'T*{~l 7 4$j. @2@` %.E+D*B*1#~;<=S*l@-*]#@.8 A l.x E E Y&a$a$s&;*s=q 0 V*V-[%#*+*e%-*V*N&^#.&V-<%i*d ) n <&s@:@r C T P+y o.B S+S&W A+,#R.= D.}*2 _ : n s@s@a#0#$@C c$",
"|@*.^ @@l > / _@D@5 { 1 V%|@l *.m&8$E@E@*.2 o.x r R R {.o n P+r ! h#Z#g!O7(@K-r*7 A s v :%Z%s,~_>_g8F=J'F )>`$$>{.D T x o./ n a.o m S 1@5 1@o.U$|=e#c +@8 %.9 +@+@o 0 o 7 o.-.l 5 l 2 | o.;.P+r o.:@x C n.R B m C r G s q ;*r r n B+' o A *.A S P*S*P*A~;:)3>(A~~;/=l;u#5 1@|@|@k 1@6 w 3#0#l Z ` #.S |@1@S l 6 U.o.1@:@|@_#@@/#k :@y S z &.Z 2 Z i E+c -- &i*$-i _@ @k. .|#1#`+T. @2#D@u b$5%z$`$m.a%98v!}&q o [ [ D D D [ D q & R%1!x~o~!%S%9$]-k B=E#* ]-Y+Y#~.Q ].v q w w n D s B D $@B %@o+F+C 9#r@a#u %';+R=p{$$B@O %@o.D 8@1.x-:+l+D 9.u l+9.9._$$@$@{ p+8.C a#R$%@_$9.> (.' a.%@^ n+O B@=;6$J%d>J;.>0,:'.>A=/> -k=K%G%i+n q@( ] C&B&,=2;08I.e,3=:=p@U.`.c$_=^$`;P+r r <&j$D@4>-:O<s::| <c$Y&r g*g*{')=6%p+`;p@H#B,p.r3j>j>1#E+w#p-O-B*B*/@Z#7;B,'=l&7;4$,.i %.k e#1@o.5 n -.|@)#'. .=*` j 2.T o.n.{$f*x%j%1*;-h8U*'@9#D@_#l*T+s%X U&U&Y <#X 7::#^&<#U&q x;G*f>j%%@s@<&s@`;8.s@9#o.%@J%r@^@Z#[.1#,. @..%. @Z+`+i Q*(=y+c  .4# .] ! o x;Y%r&Z$~%a$`$X#l.T #.W* &]#-*7 !.7 #.#.#..&.&$-$-|#o.a#0#n+G w n m C n x y S&U+V+a&'$#@< r o.o : '+8.s@<&0#n+O %@$@",
"c ~;b b,#.# 7 /=k m&6 z+)#E^A E#m&*.F#Y+&.n n V$=.@@6 6 C@H@r@( > ! n ;.f 4 0 - | , ^.~.}#X+`'u%I+,%z$0$d;{{c$q@8.9.$@s@_-f.B{B+&.2.A &.S *.o.)#5 [ > A ; o z > ) l+' D *.o.{.B Q p B m W+^&U+7#t|r@q@_$7.U*B@D 0$ %a$z$K$f;s&6%B+1$b.3#`.3#1@|@<=P*z~!3;}G3t3O~>(2~^3^3S*Y*/=(=<~I~Q**.7 l E+j +.Q*/=8!E+,.i j Y@Y@7 a.5$B+i o.j.^ B+a.w.w.8.p+B+C@@.E+U;[*K'W*x+P*h~Y*D^q(N&j2a|t&k&o.- l+p+x. %s&K$l!R]p!R P+{.{.T G t Q [ [ <#}#* Y#m@U% $.@k.%.6 2 /.< o x q u [ q C r a#n u a#c$D x#0#.+{ l+a#%@p+' 0),+)*y$r&M&d;;*;*x.*;n#Z@n#Z@Z@J@e@s+l+{ p+8@l+n+{ w.i+~%K%B+`;H@~ L=C>S)C>f.e-L#j-6&f@3+t@6=P&P&3&2&U#T#x*{&i8@+5+++++<*c@8=t@8=+++%f.g.:[:=&'2#^@`.9#^$;&P+d;#,1*n%~&n%s:l<j8k8l8i8 +R$I#c$B G$D l.~.S S n 8 >.+*g{*.8$& | 1@_@r@G#r@G#C@'+n 6 D@_@_@o.1@D.=.x T {.w n S n h @.[%a x+2 w n S l.s&s&F s&]$R(`;C B+r@)#|@2.A -.S &.A G q r x B B M$Q+/#0#/#B+o.'@G#C@e#k 5 U.2.; Z o./@i.a h |@X-B=A;H=C=B=8$S o.|@] d.x&f=@+x#o+X@x./-d;h$_$a#_$) `.k.c !.9  .-.S S A Z Z #.k.1#2@T.e#y :@x C C n B n l.r R y l.G ~.u W#8.6%w.$@n { B@O l+l+B@v.D I@",
"8!U-b,b,O*O&l;~;6 s*$%E#E@s*E@B=X D#%%8$o *.l o._@1@Z Z a.! ( ( - ! m+m+3 ]+/.* 4 2 n m R+S+W L%C',%Y&k!d;J%C _$0#%@C i$_-f.d#n l l 5 2.2 U.l )#U.*.2.; ; n ; A $@w.a#C R m.P+Q+{.:@:@Q+W+L%q2m8&'I#<&9#J#r@9.C E $<;*0$t=L]%-F r@g$d#D@I#^ |@o.Y*8!)3`_r2y3n8n8)3V/R/;:S*l;~;Y*P*x+[~ #k.` ` E+h~Q*Y*<=,.,.,. @5$ .4$(@7 h%D>1,h#^@n C o.a#%@o.B+9.| Z+x=i*i*(>u#l;Q*h~*>&{V-#8k;i*k&p-o./ B+p+`$Z$5%Z%s&g*R o G l.w ~.~.n n D U U ]-Y+ $U-*@)+a 0 ; 4 /.z s q n n B Q+P+Q+9.' p+D q+Z@1$e@g@ +R$r@n O u o+$@$@6% %6%Y$9@)&x.y.<+[+y#Z@n#t#e@t+$@w.q@_$n n+v.p+)&u=Y$n V%X.P-B*3@3@E>h#[-t>B&J.d.C&u@g$#+H%u<__i<v< <w}y<i/i4i/J=71P_W::)c@B(d@B{g.:=^ H@X.;.^ y C B l.i%6$w@6=P@('('d'W(}_o8 <@%H#}>H#S T C T S o.5 A l@ $&&# J^Q3^&Y+G C p+%@c$R$i$r@r Q+r Q+6 *.5 k B n r B q q *.n 7 c g%8 O*8$n o o ~. %Y%5%s&/#C w.s@I#^@1@1@5 1@3$e#l *.l.l.r T G T ^$Q+R$c$/#`;c$o.H@^ o.Z *.2 c k.` f  .h%,...G=6 G=6 $*X-A;D#&.*.B+n d.{@2;,=x#Z@z#/-r$~&g$)@G#G#G#D@f j 7 8 *.5 S C B Q+6 *.7 #.j -.o.l.o./#C m q s Q+S S w ~.B T [ b'9@y$I+I+1*%@C %@8@R=s@9.l+v.9.",
" #Y*l;v+3%v+D#X-&.$%E@9$E#A+Y+X-H=%%E#E@&.5 U.1@1 } 4 2.- j+{ ) / / n '+} , n | 2._@R T X <#Y+U w% %s=$>x l.S P+3#l `.G#G@;.o.] n *.6 U.Z 1@l k V$U.5 2 1 2.*.l n.M$0%;&^$/#^$n.7:O[T+O[s|r^W4p83-}>z%j$q@n 9.$@$>E H+z$Z$Y&;*K$R$0#G@Y.^@&.S Z <=S*Y*`_!3;:&(r2[~$ 8!S*<=O& #O&l@u#y+u#<=<=P*Q*X-$*1@k |@o.|@V$^@H@X.H@B+r@r@G@^ 8.s@D@o.)&r&M&Y&r w U$U$d '.D*/=X-R*Q*l;O*V*i;D*`%7;5$( G#i$w.{$m.l.S @@r C B w l.*.S *.; o | A+X+E@F#v+ $)++@>.*@/./.t o s D ,%n*~#I+O w.o.i$q@n e@t+2$y#h@t+> B+Z.{+1.w.C ' x-:+x-!{t'm#m#T;_+l+l+' 8@8@B@O I@O B R y S w o.0$J(_#U&V$D.T.,.d ` 5$g 1.) ( p+x&e.@+ +k%2>*+#[S:*+c%2]y&n=~@3;e@l$+%k$h$)@g$t@]@f=^ ( n / l 3#{.v t l._$l+B@c$+<*+*+o%7+;=M{q8C<r@;.D@x x r l.T r -.-.S*x+#&l@y~r8s%<#m l.a#%@<&C R$^$0%R r y U.Z -.e#R @@D@S y r U.*.@.#.N&#.~;6 y x l.B a$`$F ;*c$0#r@J#:=H#6 k 1@1@;.U.A S R x C T l.{.S u n C '@<&v._$C@G#Z Z 1@Z h b a 1#l C@_@=.X-A;% }!r%$*A;D#*.6 C@~ 5*B{T,]@t@1$6%~%x.i%K%y$n r@Y.p@E+'.).1#A | o q S o.;.1@#.+@+@; o q T x T n B l.C C {.l.G B G !#6'y$r&b@1*x%R$C s@s@i$s@w.9.s@c$",
"h~Q*l;y+8!l;&.X ]-]-Y#%%$%s*,3z+E#I$z * < 2 &.< }.3 [ = =$) ;.'+! H@! - | [ 3 z S ;./#o.s%W }#X E k!)>{.B w x {$^@`.H@;.G@G#o./ A k 3$6 ; /.n o.e#S -.6 *.2.U.)#8#-&6.7-n.y a%a%s%h;S&T+ |<8s8c&=.`*>~_=9.n+o.r@k!`$F Y%F s&s=)>o.<&o.^@|@U.-.-.Y*S*S*<=Y*)3&>D^O*Y*i{y;[~O&# # x+h~h~y+(=y+S*h~G=-.6 ;.1@Z 6 =.V%`.r@`.] `.B+C@%@_$R$r@J%9@r&J%)>%]Y&r R k _@e#r%)#h~S*u#O*.&[*D*'=h%] C@R$<&_$@@P$Q+/#t-C q :@C {.k _@Z /.- | v#A$2 A+U%`@)+9 .@!.; ; ~.~.~.z$5%`$z${#I@$@0#0#q@i$k$++u+h@J@s#}+Q&,+R.$@0#0#I@,+R=%'o+y..!i]=;l+v.u O l+' l+I@{ a#x r S x C :#S+U+S+ |v6:;..d '.h .@* > S C n ^ e.1$t@m%$+%+G%w@^>m$O!d$!@~@s~e@1$@+t+s+u+A@g$T,N.l X.;.H@H#C@n s m C B+8.<&z!C#*+O_#[]&W/U<W'>'p@o.H@(#@@y y y :@6 -.P*~;o=u#t7(~U+h;_#n.9=r@r@'@R$%@T {$7-(#5 6 5 V$;&:@x S B B Z U.E+j i*f [~6 {.y y R F `$Y&K$a#o.`;`;2#X.=.e#|@U.2.A l Z w l.o ~.w {.B {.o.q@0#_$p+r@C@( *.Z -.*.7 b b %.~ o.@@;.r%E^D.E^z+6 s*m&U._@o.B+S)C;-<]@c-l$0#x;Y$b@r&~%p+s@^@( |#Z+e T.|@-.r x o.P+k o.#.b 8 1 z r Q+x B w C q n l.B B T C l.q y$J%G*#,{-d;R$$@8.>~X'a#n+p+o./#",
"X E@m&H=C=B=Y+Y#Y+Y+]-s*H=s-C=&.$%& $%s*S *.&.A D@;.*.Z o.a.: u.(.'+~ > < A k 1@@@;.o.C ^&s%l*h;l*h;s%*.$%B=G==.)#o.f 1#j @.c n | x n.y B o m m G q C r {.q l.<$]$:@S+^&l*q2U+[#V+R+(~M%6~t8|!}=/.0.'+( %@C r@J#{.P+@@x 6%s&a$F r |@S 5 k 1@1@o. .#.%.i ,./=` ` 0  .d k.!.7 u#l@<=I~h~y+V/<3)3R*A;S r :@x l.x n.`;8./#0#{ v.v.0#<&9=M&)&C( /W=!!0<V70!s&c!@@/#D@:#X X B=k.c %.1#` ,.< o G@a#<&G*S B 1 A S 2.*.&.Z Z E+,.,.%.0 * Y#E@s*2 0 !.0 !.!.h *.*.$@{ r& %Z$s[f*)=)&b@1*M&/#8..+ +]@H*@;O.Q&Q&'+`.`.C@;.l / ~ w.%@_$%@_$q@n+l+I@n+m s o ~.D y T G N%W+V [#X+1!2!z;X)e*3%v+&.= , & %%V+[#G H@^ %@w.u+h@6=z#G%r$@+k$u86:g.^* +h$t@t@)@l$I%9(^ ( l B+a.^@&';.'+a.^ V%U*>'U*j$%@9#>@''U*4-:&4'H#G#^@^@_#m.m.r S {.U.5 l;8!&{$ (8/~^&V+~.m D ' <&c$z!4-{$D@M$(#o.}*=.1@o.q q n C l.&.n c h V-f j 2.m {.T C 6%$>l!)>a#R$i$o.;.~')#Z *.*.&.*.l > m P+l.o l.r q r s@B+p+8.7.J#H@] U.@@U.A *.2.A &.( a.U.V$E^,3Z-X-$*s*-.m&2.5 ~ ~ Y@7 n@] B+q@<&9#$>F F 6%G w o.6 2@T.'.d -.6 R R o.y 5 &.a k.%.*.| w l.w o x M$;&{.T l.l.w m n B f*;-#,y=<&n %@%@p+<&9=a#G@X.3#^ ",
"-.s*=.`-}!z+k 6 )#r%)#C==.:;*.*.H=k G=k e#D@l 6 ~$|@1 -.r@'+- 0.: ] / ) < ; l 2.U.U.Q+x X U+R+X R+R+*.&.2 m&A;k 6 2 7 k.7 +@8 &.l.D G G l.n.r w q n C C S T n o.x v a&b&V+S+Y+b&A+X+1!!8r81!1!}#z '+'+~ a#B+C B+r o.C Q+6%F Y&C @@k o.k 6 *.l 2.h h #.E+,.i j j i ` #.$.+@`  .x+<=P*[~~;Q2^3>(<3^&T {.x T n T P+D@o.<&R$q@v.B@R$9#J#0#1*g* /{-6_v8);f;0!%]j~k!j~U&T&A;G= @ @2@ @j 6 *.l.c$y=M&6%S v 1 o 1 l o o 2 l 1#d ,. .b 9 &.m&6 m&+@0 h +@8 n n l.n y$)&I+1-W-j#9@i#x. %j%B+$@t+u+C&c.v>i-Z.m+: ] B+~ > - m+u.I@9.p+n w.D w.p+9.9.G G n ~.v x T S S&^&W+V+V)=!W)e*t7K^b,3%9$$)v#Y+}#^&t% %%@H@8._$g@u+H% [l%z#A@B(6:B:b#|$g$u@A@g$@+@+t@++a./ G#C@B+B+;.^ `.G@0=p@;.G@r@~'J#9=`;7.J#R$o.8.^@H@r@0=@@@@R :@x r 1@|@/=S*_{R*K^1!Y }=(+s C 0#9#C z!3-m.n.}&_#D@><a=C+/#r R S /#:@U.o.j h N&@. .&.n y :@r 0$c!k!s=9#R$_$o.3#V%|@2.2.2 > ; &.} q D@r m {./#C C a#C c$%@v.{ `.H@Z 1@A 2 S A *.S n ( S 5 X-,3Y-$*r%G=A;*.*.*.'+6#g-h>Z#7 '+! 0#Q+a$Y&K$0${.r P+@@E+` f j A A C S B q 1 2.`  . .Z *.w w T l.x L$<${$R @@R C w G 1.x%{{1*i%n p+q@R$'@`;o./#2#U*r@o.",
"n.7:<;w8u6~(X{X{6 8$v6A;F@m&C=$*% D#D#k C+1@2.-.-.A A _@p@^@^ ( ] '+- : 5 -.o * A 2 m n V+W+}#U+1~z;N~v~b, $ # # #3% $O&a a @.2.q Z%z$ %Z$g*;*a$s=s=x%;*;*x%E C W *.X 6 s*%%*.A;y~t7^!=3y~n~z;$%2 / / ~ 3#o.5 5 P+x P+(#P+r m.P+o{C=6 G=$*B=S 2.k.k.j i 4$Z#Z#i.3#] ~ B+3#l l U.% 8$2!y~-!1~x8q%^&S S C l.n B x /#:@:@/#/#_$9.c$o.I#D@s@8.-'P$)>l!0$Z$0$7!j~u;v;~.q l.r |@)#|=2#1 n 2.o.:@c!Y&6%o.2.|@*.&.5 8 +@#.#.`  @ @` a +@4 | *.> )+8 $.>.| ; 0.n+w.I+y$:' -V#J;',J;6-#,Y$I@{ _+F++~_ - Z.h#(@5$i j.7 - ) a.o.( ] n ( ~ { n x B q G m w v U W+W+<#S+<#^&W E#l@x+O*D#8$z A+z * Q [ Q 5%X#Z%q@p+B+/#i$R$<&^$t@+%d@@%k$t@d@B(2$u+A@)@)@)@n ' %@s@^ l / 0._ ^ |-..P-h./ : /.o.1@)#;.|@m./#_#0%G#l H@H#r C x r P+Q+6 |@<=h~Y/<~<3D7U+W x n.z,4-z%<&R$r@C (#7#(#=.2#=.|=}&P+_#/#D@@@U.o.f c i*1#b &.o.D@L$:@K$k!G*j%'@`;8.B+C@r@-.o.1@Z &.&.w G l.n.Q+l.n C y o.9#'@,'U*( C@U.S &.5 n z ; n 2 5 B+l ; A k k 6 r%=.X-B=s*1@6 Z#4#[%W*j @.2 | w G Y&S;k'l'h; |l*r%f h c 1#|@6 x B q s ; 1@..%.#.U.o.T w m w T r {$^$7-t-^$P+y Q+G $@B+%@w.n+s@<&D@D@J#n '+;.H#V%o.",
"G ^&]:O[k X $%* @$, X m&I$v#6 A;&.;$Y#$%o , 1@5 n l S 1@^@B+/ a.B+{ a./ -.=.V$&.-.U.q o T&}#A$L%=!S%]~k~w+O*O* $U-U-l@O*7 @. .2.D I+ %5%6%x%g*E Y%)>c!Y&0$;*F )>-.m&s*G=z+*.s*$*|!n~K^]!=!!%o~X 2.( `.l ) { 2.=.s l.{$;&]$L$_#P+D#% *.E#D#m&-._@,. @d  @Z#7 Y@j.2=e.l ;.^@G#3$)#H=6 t7]!y8]!z8z;S x {.T w w B C o.D@]$<$U*i$0#^$H#V%P-^ I#0=@@r {$(#{.K$L$p!O|48{.S w P+;.;.t|u*|@-.x {.s&Y&9:0$r Z S 2 &.&.0 9 a @.k.%.,.+.` >.* o U.n a f *@!.> | l+D y$x.>%J;.>',d>Y'Z=A.1*M&p+w.$$0)1.0.'+^@j.4$h.|-j*+@n ] 3#B+/ `.! ) B+] C m t n C m m G S=S=A$W U&X S+[## v+h u#|.}.}.z n t v.u j#y$ %1*a#I@s@4'^$/#c$R$I%++U,K#2$)@+%k$2$Z@.+<*C<,~j$R$'@U*;.3#! 3#X.H#p-p-L=h.C@' }.| )#|@@@;.;&8#R5r^}>X.;.^ :@o.y y _#:@@@D@i{%{x(Q*2!1!T&X m.D@0#B+i$o.s@c${$o.w n U.k @@|=}&r P+P+P+r 2 l @.!.[%c 9 z B y {$:@0$Z$;*x%<&a#w.p+U*p@; 5 -.S 5 5 B l.C S m S T w Q+B _$c$X.Y.X.G@*.*.Z |=&=2 3 o ; 2.C@] ; l G=A;*.B=k k s*% ;.6 h.4$W*=*8 h Z A C n w;r5R;w]h;q2T+k .. .j +.|@S T B n B Z 5 f E+1#1#2.D w l.m S x r _#<$7#^$R {.C T o.$@s@a#p+B+`;^$_=z%/ '+G#r@`.p@",
"-)}.1.Q 1.F+n-F+3 R.< | 1., )^s^#(>4F#Y#* ; *.z 3 S o.U.n u.) ( 3#B+a.o.6 _@-.5 2 2.m T ^&N%U V X)>:k~^~Y*Q*l@b,~;8!8!8!E+` A *.y Y&k!+>x%)>%] > >x%G$G$Z$Y&x%%]% E@2 Y-)#$)m&r%8$6 n~n~V)|5J^&.o ( ^ H@! '+D@D@1 Z 6 _@4.7-C+o.u#y+Y*u#~;# d '.V$|@/ / C@^@],T,C&b.C@I#D@}>C+k C=s*B=6 q%q%1~<3B 8.i$8.8.o.P+y m.D@;&0%0%D@0%^|3!B,[*2@..)...|@U.l -.h;$*l*h;r%x w /#7#a=u*s-e#2#;.Q+{.0$a$t=s&:@o.1 A 2.l a $.@.7 c 7 +@$.0 @.o | ; *.b !.c k.B+! w.B@6$x$6-z=d>',a@ -',G(1*x.y$)&t*1.8.{ 8.3#h%h#w#4#|+[.^ B+/ G#B+( ! > ( G#x S o.D@{$r G o X+Y+Y+V+S+l*T+S&E+k.r*X*-#,+o+{ v.)*Z@i+w@s$-%6=B+w ~.q 5 1@o.C@G@V%0=;./#a#h$l$t@h$t@l$n '@>~,@7.'@;.C@< *._@e#p-|-i./@C@C@V$)#o.l l k 7#;@A8<;G#&)!'{,(#Q+r Q+P+]$D@-.R*61_7S*1!R%X+U C o.O I@l+p+i$8.S y @@]$D.)#@@D.L$y y Q+C r *.S #.b +&h @.o B {$t-m.G*G*X}B8A,9#$@a#f={ A 5 o.Z A n n q y Q+s B Q+G n w / G#r@I#^@H@|@C+a=t|a=S 4 *.Z | w.D ~.B X *.m&X 8$$%Q*<= .d l&p-i*[%h @.U.1 N%U+}#s%h;l*S+S&X-z+....+.a /.&.q B G n 2.S %.` %.k.4 - o > &.A z Z *.; ; Z 6 -.1@V$/#C n 0#_$q@0#/#H@G@r@r@G@G#G#^@",
"t*'$P >#y!/+;#'$]+}.3 o .#3.K++#* 2 D#6 U.Z 5 2 1 S 2 1 '+) ] '+! '+~ / l Z Z -.S -.D@:@<#T&W N%H}H}=!=!/=/= # # #u#u#O&a ; U.]$q-7!)>c!%*o!g2~!o!$<E z$a$Y&Y&Q+z E@% q6X-I$D#E@8$k =!W)t7=!K^8$*.I#^@r@'+l t|!$1@=.C+@@-.@@k C+<~%{Y* #l@O*'.Z+@@n n ^ ^ ^ T,f=f.g.;.G#G@r@U.> s*%%2 G=2!J^=!$*R /#9#`;9#j$(#n./#@@@@P+R m.;@j|B>}~]#i*V*W* &+.$-f i{C=% % k q2m.n.D@l.z S 5 5 4.k Z T {.z$ %`$w Z > | U.6 k.b 9 9 +@8 a 8 a %.6 Z 2.2.0 !.#.%.3#> n+~%z=.,>%x$d>{'X=d>:'P%r&^;i#0@u %@n+w.c$9#> +@_.|+5$[.( a.3#p@C@] - : / a.o m Q+P+S r x m W A$X+U&U+}#S+n./ r*j*}+1.o+[+s+t#f@r$r$p%(-d%/-v.x Q+S -.1@I#~'Y.r@G#V%0#%@k$B(t@h$@+l$s@-'o.s@o.a#G#`.A S _@6 /@j.4$|-n n e#D@2 l 3$&=P$9-P$0%X.0=G#o./#D@]$m.:@m.|@_@t{t~q(y+1~e*<#W T o.C B+{ s@0#q@B C m.0%~$4.=.D@R T {./#@@m.o.6 1#%.%=k.j 2.m.^$a%:@;*{{X}I|'@o.R$B+f=C@l S ;.k 2 A r B T r T {.y x S C H@V%o.l H#;.5 |@V$k S &.| &.2.S n $@B r -.X $%B=D#m&/=~;8  ./@Z#]#h ` k.l > b&}#W T+R+<#T+s*X H=f |# .@.A &.{.w B x 5 5 E+%.7 c > ; l 2 S 2.< S 2.| o A 5 6 )#~$z!j$o.s@s@'@9=z%`.B+B+o.r@r@G#^ ",
"Y$%*7!s&t ].u =#.#}.[ o.b W$.@b Y+8$E@X *.-.&.-.V$7-o.> { ) ) { ] ( ^ ] n U.S Z 2 U.7#o.Y+X R+}#U-v+ #w+O&l@F#Y#2.2.n n *.S -.n.0%<$]$L$(#n.R r n.:@/#r x :@S w -.|@1 *.* < l 1 B=H=X A;$*B=G=A;-.^ ( `.B+'+`.G#j j E+j E+ @j 1#R*Y*x+# ` i 2@ @C@3#G#I#3#! F.F.i.k&])|-h%Z#%.%...#.l@Y*Q*O&w+A;/#9#R$<&s@i$s@r@T {.:@{.l.n.8#}*T.--[%V-v,u,['S.A1o=*><=Q*y+h~E^S /#/ Z.$.8 7 +.+.2 *.m.r^2{E=D=G x &.n e#1@l *.n 2 a h k.a >.+@*.2.A l h 9 ! _ B+{ D i+z.6-i'd>1&!)2>p%P&X@I+9@.!V~y$K%y$)&:%v (.! : ~ l '+!+- Z.] n+%@{ 9.R$p+I@w.%@n u n m ^.#@p m o L%Y V+Q+a.j-6&6&2+h@#%7=P@F%d%Q@L@!@#_d$O l.S r @@)#F*j=`++.~'p@0#B+/#R$s@a#o./#-'4-$@' n ~ Z l 5 o.@@k I#V%H#U*p@V%{,3-c$0#<&4-9#8.B+'@X.X.^@^@/#n.n.x Q+@@)#k h~R*%&<=1~s6T&}#B B p+q@n R$n l+q ~.[ ].1 ; n A x C T @@;&{$U.A 0 h ]##.i 2 i$<&0%8.Y$y$G*1*h@1$++g$N.^@^@6 D@V$A 2.o.*.m n B T S T n S G#r@( ~ I#r@/ 3#U.Z S x {.B l.B 9.n l.n Y+U &.A;m&*.P*O*9 7 j.(@c 7 ,.5 6 U.G l.:#7:A;G=~$y;8!Q*2@`+` k.-.5 T n q /#|@2.j E+7 +@; *.S A o.5 z Z 2 &.2 U.6 o.|@V$''0%7./#D@^$2#p@U*X.G@;.;.G#^@;.",
";*g*y%C8m.G+^.Q = 3 A D@|#k.a 0 E@*.$%*.k =.[ 5 ;.Z &.A / a.n 3#~ ] ] 0.&.D@5 ; -.o.@@Q @=L%N%Y F#U%@ `@ $w+& ]-A 5 5 S U.x C {.{.x o.@@P+m q @@o.n o.L$]$L$_#Q+l )#k 1 ; A 2.S |@% A;B=B=*.A;o.B+) ~ n / `.) a.).,.a ,.c ` j d h~Q*R*Y*j j ,. ./ ^@r@I#^@G@C:^ j.Y@r*r*7 7 b h E+j # O*P*x+~;1#H#_=i$r@/#<&q@i${.B o.{.q 0%u*X%|#h  @W;i*}'m'c)$]$&}%#&P*S*I~}!I#D@] n  .h E+2@i k.*.S -.<#U+J({.x 2 2.k 2 n U.*.l b 0  .#.8 7 &.l |@C+`+` '+1._ { ~%)&',X=`|X=o%=+c'e)F,O{(%=;j#T=~%i%k#n;r!g/,+-#-#! 3#a.{ a._ ^ i$/#%@n C { D n l+8@1.m q s t o T l.T+q2R+{.B+2+b.h@x#h@m$B%7=F%'&R#5+O@z*/&l+[ Q o 5 3$D+|*E+7 G@B+_$9.q@8.i$R$j$<&z!^$z%`;o.3#*.S A o.;.;.p@G#'+~ G@r@I#9#0#c$9#<&n+B@k$9#n n ~ 3#B l.o.{.C r 6 S O&u#}%b,!%D8X+T&n s n+v.p+w.$@' }.^.D B 1@-.*.1 B T w m.(#y _@3$f 1#--E+j n `;''9=9.i%b@6%f2@%@+@+e@f=C@C@U.|@6 *.Z 6 Z C l.w w l.l.w C C@~ ~ C@] 3#^ B+6 @@@@x w w l.l.C 8.Q+{.W }#m&s*$%m&P*S*i d i 4#k.S V$k |@6 o.n.<;:#B=6 i{I~<=/=,.d ).|#e#_@T :@T y U.*.f E+%.j o.5 l A 6 1@n l U.5 -.1@6 5 5 6 `;9=9=/#_=j$G@C@r@^ ^ r@I#^@^@I#",
"6_X_%]Y&0@.%v [ < 1 l S k.#.%.@.E@m&s*s*o.6 l l o < 2.-.( C@V%p@H@a._ - A 2#|@*.5 -.R G n'r=Y U+z z o z ; A &.*.a#c$o.C 0#G*j%p+o ; Z 5 2 A 6 e#6 2 Z 3$D@;.e#6 ~ ) ~ a.( { ) 2.;.n A *.A 2.A Z C@o.l { n o.h%w#`+c [%i;i*V*V-.&V-.&+. @i j (@&@( :=G@`.X.V%'@C@7 h 0 8 @.c @.i %.+...`  .%.i `+2#D@G#}>Y.2#^@^ 1@l Z Z 2.4.Y-`-D@1 |@q*E+<%--p&L~&&#& #u## }!,3^@^@(@Z#Y@(@S.V*i j <=G=G=<#X s%C m m {.:@l.B w T C z - &.2.A -.; ; ; 2.5$7 / ) n C 1*r&U##6d]z]w@`)k/l)r#a{i]^;a,:'Z=.>k}E8F8@/1.- _ { a#8.s@B@w.0#9.%'9/0@T=(%{ { D _$_$%@9.w.J#r@:@<$^$P+R S n $@$@w.w.6%=+r$P&G%u@u+C&d.!=J.1.A$}#}#2.e#`%'...).6 - u <&9='@0#r@i$a#c$D@P:,@)#-.-.|@2.-.;.6 r S t t w.O 8@)*u@l%+<#+/-%+'(B(^@`.^ V%:@B r Q+D m &.U.O*@ e{`@!%/~T+Y-]$m v.n+a#_$p+9.~.v Q {.1@;.|@*.C l.q P+C s Z !$D*'.(>,.7;a.J#5.s@B+M&x;6%d;g$u@1$.+],&)H#e#@@k 1@;.k Z B {.l.q w Q+y w { h#(@[.] ! n o.1@k P+r B l.C Q+6%6%T w Y V+D#D#$%X S*[~V-$-6@5$(@/ ^@R$o.%@r @@-.o.,.E+g%[%W*N& @i c h 2.2.B C B S -.|@d ,.E+f l n n &.A l 1 z n A l Z l 2 A S 9#D@D@i$G#l ( / `.'+> ( i /@..T.",
"D(U=I+.%o*I+q q ; Z l 2 @. .d %.%%$%B=6 )#k _@U.6 V$@@&.~ H#Y.G@Q&-#(.- U.1@l n l s-D@D S=V U+S+o 1 n 1 n *.l k 9#9=_=<&y=d;M&x;-.;.V$1@*.2.2.1 -.5 -.|@*.2.k -.C@) 0.C@^ n C@`.|@1 n *.S 5 n n ] ( n ] n / 4$h#j c K,_8i;--^#^#.&i*F*+.i E+/@/@U*!'r@^ X.G#o.$@$.b c h a a 7  .,.'.T...1#i 1#d r@^ H@V%3#^@r@G#Z l l -.k |@X-% _#c!R 6 =.q*2@i*I(P*~;P*/=*.o{o{] n 4#6#Y@7; &N& @#.~;/=-.&.<#r%S q n r :@@@{$T m S A 1 &.&.| n > ; ; 2 4#n@l a.w.9.)& -~:~^G8q>p%q#g,Z@u@3+r&x.P%d>A=j^H8B)Z[u=n+a.u.'+p+n n a#9.9.I@F+*;r&j#=;' >+v.B+n B@{ w.R$8.T m.(#Q+C ~.l.S n i%Y$d;J%r&o%Y$t@g$f=d.m,{ A U&:#:#5 A ` +.` F*e#o.3#%@<&a#{ %@n B+i$a#8.s@U.-.|@;.V$k ;._@w n C /#i$C C n+/-/-&+&+;=c%s:K::)U*`*3-t-P+Q+{.l.l.5 Z # U-@&O*e*Q3R+O[_#T a#B+a#R$C n G v G B A 2.2 1 w n ~.l.C l.n -.d '.i*i h%^ ''R$l+o.G*{-{{X}@%+%+%@+:,T%3-4.=.e#k @@|@n n T T T Q+n.{$S n@5$5$w#) ! ] 3#-.5 {.S S S S x 1*J%x l.W+[#m&B=$%*.l;P*V*[%g-6#( n B+o.o._$T l.Z |@..f g%[%v, *i*d k.c &.; B m ~.w Z U.j ` #.8 n o > [ * | S 5 U.o.1@6 5 S U.1@<&r@9#<&o./ B+H@C@l 3#^@h.i i 7;",
"0,=-W-(;C's=R o t o ; ;  .7 a *@m&Y+m&% )#5 2.|.z o 4 |.(.: ' > +/&$Z.'+1@S 2 | ;.p*w /+A$^&Y+^&; ; &.o $@q@q@R$7.^$`~f>!]W/n%M&0%|@Z @@;.l l ;.o.;.)#k S 6 V$|@G#d#!*B{M=f.;.G#r@I#H@C@`.B+n n a.3#3#3#G#^@5$6#%.8 N&i* & &.&V*L;g#Z>4@p-h.j.h%! I#G#G#9=r@_$C @.@.#.@.8 0 a 7 i j h%j.4$h.h.j.#-P~h.4$7 (@/@..#.j j f $ R*=>r%a$!;s=;*u*e#B=y+y+Y*8!% $*B=% s*p@p-i Y@j>s..&--[%]#w+U-D#m&U+X x%F a$6%Y%)>7-/#v C P+o.S l.n w U.6 U.l 4#4#3#( ' { y$Y=J<#6J_I8o#;)F.c.s+f@6$*;m;I;H8C5H8J8Z4w^1*B+n+C 9#a#n 8.x;r&6$y$i%6%9@T=7$/,h@l$t@x#p+w.a#%@a#s@R$_$8@t D W X#a$s&~_s,,;i%a$%@{ > : [.a.1@T&2 8$b,7&.@%...+.'.|@S /.C {.8./#R$8.8.I@I@C U.;.;.|@D@1@o.D@R y @@(#M&Y$H%6=-=d%d%@(S1}4K8(*+%r@G#X.D@R P+P+n.y k *.O*Y*o=P*z;s6U&7:]$R q@{ 8.`;0#$@n o ~.w &.&.; l P+:@{.m S P+S A ` ,.V*E+/@}>,@l+n+r@L'f*L/L/C<d@@%K#g.D@0=_@6 5 U.6 5 n {.S P+:@/#^$;&_#Y@Y@[.n@'+l B+`.o.o.C q ~.n B l.b@j%:@r T&W m&*.$%E@ $~;i* &i>j*'+$@<&<&R$0#0#a#;.^@k.a ]#{>L8K'i*f j @.1 l {.m w n 1 1 a 8 0 h 4 &.*.*.2.Z 6 -.e#e#k Z n n S 1@q@B+o.9#G#G#;.X.`.^@;.G#Z#Y@Z#|-",
"c]$^r!Y%k!0$r {.B D Z S i @..@b,# # D#B=&.E., }@>$U'}.' }+>+q+%'}+- ' (.|., 4 < l A }.].Q W w m l n | 4 n a#q@8.s@<&L'g*x%1*%+g>z!q w.m.D@R :@{.-.k D.e#|@D@_@U.I#] J*3#f.3#^@r@H#5.U*H@C@'+n / n { 5$r@C-l&p-6# .i W*N&V* .^#h 7 Z#h.h%/@;.h.X.C@^ C@~ G@j$^ G@1@@.c %.@.@.1#`+..i j./ h#o.h. .4$k&7;i.7;|-h#Y@k.E+1#` 8!(=->G=a$i^)>K$_#P+6 -.l;P*$*r%A;8$D#2 f /@B,B,3@4@(>S.i*E+l;# -.% S+W Q+x x :@G w o.C G o.D@@@S T r y -.1@U.*.h h%Y.}>r@9=r@x%M_:'n51<`)+~!*a.f$_+I+=;9):'&-M8N8O8C[,;Y%S _$s@r@p+$@o.i%)=d;{{J%#,{-#,1$u@8=h$@%k$i$B+p+w.9.n C :@o.T [ }#X#z$5%&-_%C'F$:%~.[ : { B+1@1@U+% C=Y*Y*|#..T.1#|# .1 6 P+o.o.D@s@q@/#j$4'z,0%3$)#_@A 2 Z |@D@R$8.<&#,)=H%-%;=F%@(f:c%#:.:M{Y.}>H@^ e#{$_@o.k ;.|@@@8!S*x(Y*A;S+S&y P+/#i$%@o.w.9.%@B G s w |@-.&.&.n w S n o.|@-.|@E+ .N&|*{,0=q@$@a#`;j$`~J#_=r@s@R$<&o.`.@@)#-.2.6 6 l Z Z r V$S T ;&(#/#( w#w#4#/ ^ r@G@|@;.@@:@S l.B S q@1*l.w ^&s%X E@A;m&%%l@%.f j.h%'+n+c$i$/#7.X.^@r@C@@.c p&g%.&i*j 1@q*)#*.*.C v Q S S n S Z a z 2 Z 2.; &.2 A 2 o.|@|@5 n 1 n A i$o.o.r@C@o.^ C@;.X.D@r@i.h#5$7 ",
"q@b@0#0%<$/#e#k %%D#k 6 2 D#~;V2@:x|Q22!X+I6t Q : `./ t>t#v&e:%[0#C { { ' _+;+>+1.$$v.0#$@~.{ %@( u.) B+n a.] : 0#7.M$;&r T i${~j%9@G%r&k%#,x%j%{ 9#;&Q+w C T o 1#%.L;#.i k.b a C+)#n | | > s ; 7 b [%Z+j2B*%.7 k.7 7 #.#.S ` A {.C x S C o.2 k 0%|@l 1@4.=...|@2.2 n l *.U.V$6 -.5 e#@@@@P+| 2 V$1@-.o.@@5 4 n U.o.l -.-.C+7-k r P+n.L$C+@@o.-.1#%.c 7 j E+#.!. .$-[%N&[%(>+.i d `+j 5 @@6 5 Z 1 A U.5 k _@)#k *.n S :@Q+r k!@@H=)#% X v+d e t&t&t|>*n.Q+s&Y$I+v.t w.s p+t t p q a$W#n&W#s&E s&S N%o n [ p v C G B {./#0#o.<&_$!=c.J.B&u./ 3#0.o ; [ > 2.P{8-k q o B@l+D )&w.w.n+v.n+v.0#_$0#;.Z 6 ((i{N&[*(>--p.h>i.[.}+B+B+B+p+q Q x n./#@@Q+o.{$_#@@C {.y i$t@s+u+@+A@@+)@x#1$)@u@g$C#$+@+D@H# @ .`+E+U.|#Z %.i <=~;[~I~i{Y*V$1@_@^@C o.s@p+_$/#<&R$1*)&r&r |@% % 6 6 E@E@$%6 I~Y*S*Y* #<=%{~$C,=.@@_@l @@m.@@C+7-7-6 Z l U._#@@_@o.1#i #.j +.;.1#Z U.|@:@x `.d.f.T,B+G#G@C@~ ^@V%X.;.Z *.C n {.G n /#@@]$@@y l.{.*.U.U$V$V$Z A Z 1@o.1@+.1#E+i S 2.1 n |@P+Z {.|@/#C m B S D D n+v.9._$a.x y X s%R+<#U&U+R+^&S&l*T+S&R+<#X r P+R y P+{$D@@@U$&='=|*E+%.g%]#",
"q@'@j$s@x S n A s*% -.6 2 z V3-3u2G3.({!T&Y y x o.D@_-y#n$h]4|l>L's@{ n { u %'_+9.8.J#9#8.$@O w.] > 0.] 3#( n ~ s@j$<$n.P+L$M$7!w@t$l=H<w(1&#,1*)&I|0%{.y y R l E+$-=*W*|# @!.f 3$1 ; *.n A C 2 #.@*p& &K,.&7 @.c h @. .S U.1@-.w  %:@Q+T T G C |=3$;.5 f 1#d %.| n &.n S ;.@@2.A S x y y @@/#@@1@*.|@6 5 @@U.-.k *.U.U.1@C+|@|@V$V$k _@=.6 2 5  @%. .k.%.c E+`+V*.&^#[%g%W*1#,.j  @2#3$k 6 1@e#k.k.%.f '.+.k ;.-.U.B :@R m.j~Q+r%P{~$A;# O*`  .|#`+@@_@o.n q o s o {.l.q G+v s q C o 1.Q q G ~.X+X+X U&q n G T w ~.C q q@w.>+D 6&t>!=!=n n ( ' - 2 ; 2 $%~$Z-D@B+C q@$@w.D w.$@n v.w._$<&s@8.B *.z # O*=* & &W*g-[.9%- _ B+g$w.s u o x C R w Q o C S S n y (#/#h$O@|$z*@+1$@+1$ +.+2$l$o.a#8.r@i i E+D*).d ` .@k.|#I~y+$ <=<=D*>'>'p@D@R$R$B+n B+i$B+D 9@~%j%F -.G=X-G=B=B=k m&$ t~<=l;~;P*I~=>4.4.V$o.*.z l ~$D.4.P8p*E^A;-.6 R P+@@@@|#+.1#'...d 1#E+6 |@y r B+d#T,g.`.`.^ a.n C@o.H@o.*.&.&.T T l.q n.(#P$R r q B ~.Q+M${.y @@-.l 5  @d  @..#...Z 1 C x 6%6%S B l.C o.y r x B+p+n+D n _$9.y l.X S&S&W [#^&X R+l*T+U&s%s%s%T+o.:@:@Q+r Q+-.U.3$4.D*).i @.[%N&",
")$G m u [ 3 = 4 -.-.*.*.8&8&=># H$$ $ y+*.[ 4 w w.i+_+=;6;F,f+R,r@B+B@8@O u I@O o.r@8.p+i$o.D B@B+^ l ~ 3#C@B+C@Q+P+o.~.l.{.{.:%r$a^#[%62>h+b@K%q@j${.T }&7-(#D@1#S|..i f k.c 9{X%1 2.S U.k y S E+[%N& &K,^#b 8 c a @.f 1@@@@@-.-.y )#S z *.5 -.D.;.1@|@+.` ` i Z S l l 1@;.5 l U.e#(#^$;&t-0%0%C+@@=.k V$&'w*U$_@4._(u*=.k 2.;.y _#n.(#D@x &.Z S U.l S &.l S 1#[%^#1# @d E+j j |@e#3$D@D@e#6 ;.=.k S U.D@o.2.-.U.Z x {.y /#{$Q+R+R+Z-}!y+R*,.h h k.2.1 t m r m S l.T v G+G+G s v m ^.#@w C v v o u [ ~.[ t G {.m l.T G G G ~.].> 3#G@;.n 0.* /.&._@-.Z A ;.U.|@B+B+s@C q@w.9.w.a#%@s@8.n+$@a#q 4 v#> ; 0 #.1#1# .Y@r*n ^ a#o.6%n [ {./#q x C {.<$(#r w G l./#'@k$ +I%I%k$8=R$r@9=`;8._$8.<&R$0#%.y+B*q*,.@.7 9 b 7 1#`+Z+F*+.c a.( '+^ a#8.q@%@w.B+p+B+M&Y$;*%]U.X *.D#D#*.X-6 -.m&m@u#Q*$ I~[~[ 1./.l 5 *.|@s-3$D@R5~(D.-.B=&.x y o.A j +.,.E+ .#.@.k.S S S S ^ ^@C@`.C@/ l ! '+n 5 6 o.-.S A Q+m B n S n.R S {.T D G m r o.x |@k @@-.#.E+|#..i k.2.U.{$D@6%G$Q+C m C m.m.P+R B+p+9.w.%@8.B+Q+R U&Y <#^&U+l*U+U+l*l*S+S+s%U+R+S {.r {.B m 2 *.5 1@i %.k.7 W*N&",
"p T Q G+z 1 5 l A 5 B=$%# @ u#U%D#E^ @....`+..n V~S/j]i#o%-%6=c$9=i${ _$p+{ )*O p+%@_$C q@w.n R$l l 3#~ { a.B+l B n m w {.q m r G*m:!)`<s(r$I+6%%@0#{.T _#@@@@3$`%j;` h h a d J2~$1@U$3$U.-.Q+S f ]#]#=*i*g%b +@b a `  @|@k ;.o.U.U._@@@l 2.&.*._@|@|@|@|#%.c %.-.S 2.2 o.o.n Z 3$)#:@G q B {.D@;.)#D@e#2#D@3$o.U.D@_@- /.*.Z 2 ~.T P+:@{.x |@@@o.U.A 5 *.U.S o.@.k...'.).+.j  .*.@@)#C+D@6 6 6 5 Z *.S 5 o 4 S 2.*.;&^$r P+C w T&U 8$X I~=> @i !.` Z ; o {.@@C y n m Q ].t l.s m '$^+^.D G+G+n m G Q S n o {.r B x r G m o.o G 2#^@H@/ 1.D$]+R.-.3$1@1@-.5 U.5 9.w.%@_$0#_$n v.q@s@p+n+p+i$C n+4 E#o o b `  @c 5$( { C s@s@y=j%m Q m T [ ].B x 0%d!@@y {.r n B C k$k$ +c@:(9=U*z!^$9#0#q@C 0#y S*h~d @.` @.h c +@k.1#j T.+...d G@~ B+/ D { $@%@o.B@c$f'Q8i%x%e2u*C=k % z+r%$*X A;*.u#x+S*y+R*8&z | z A k -.k e#_@V$E^o{X-k $%Y+C x o.|@ @%.b c @.0 >.9 | ; T y G@^@~ ] ( a.( ^ ( ! Z |@o.;.k l o.B q B l.q w m x C {.Q+T o.r {.;.6 6 S h f `+1#d ,.1@U.y {.Z%X#Q+r r R _#y Q+@@<&o.B+n %@<&r@8./#S+^&R+R+U&S+<#s%S&S+U&U&T&W+}#G l.C B m q A S U.U.1#,... .--K,",
"a%V4s*X 8$Y#U._@e#;.E+` +.i 7 /.o.L$G@C-Z>B!+@Q&W#c]a,',L';-B+~ '+* ]+1.*.A > 3 /.z S e#-.; 6 C,3#: > ( { > l C@-.*.1@D.1@; ; x Y$J%;-T*9=a#n a#s@a#T @@!$|=U$_@`%E*@.a ....E*v*U$D@1@o.5 o.l 2 k.%=0 8 1#k.k.k.k.h c ` 6 _@e#1@ @`+d 1# .E+k.i d E+d ..k U.S 1 2 S *.&.o.;.l -._@U.w t Q+l.n :@e#V$;.7-s-k -.@@-.2.[ * Z 6 ;.6 T s&E Y&l.S Q+S n m C T |@-.-.2.*.*.U.U.U.|@Z 5 1@D@o.o.{$:@T S x C T r Q+T ; ; S )#a=D.2#U.4 Z :#l^*.E@..2@E+7 9 `  .n / C@8.9.G ^.~.r T D w S q v ].t Q (+t m.U*>~,@>~J#/#(#@@{.B V+A+V S&s%S&_@l 2 4 }@$=} 4 H@>'Y./ C@^@r@'+D v.w.9.q@_$p+w.p+B+n $@{ _$w.{ B {.o /.z *.-.< > Q&Z.o.s@)=J%j%l.w ~.n o s n v o.P+y M$d!{$x :@s@8.q@c$0%3-''>~<$:@r r B r :@T l;<3(=P*l;x+Y*y+` f ` 1#T.C-g!R80%^@C@n B@$@o.'@'@B+i$z,1*I+x%f28#@@D@o.n S 1@1@k A 1#|#k.#.F*'.`.- u.C@)#o._@_@2#u*U$;.m&6 $%E@@@R -.1@2@..E+f c h c %.S 2.B {.G#B+n a.] ) ~ Y.@@2.S -.@@2#D@|@P+Q+B x B x G {.:@R Q+P+_#_#x r *.S 1@e#d ` `  @`+F*7-1@B m ,% %C o.{$n.r C r y ,@4'R$n q@R$<&i$T n S S T r o.y :@{.w l.l.o s n s l.{.l.m B Z Z 2 A E+i ..c  &|#",
"s|U&X -.s*Y+/.6 D.=.` h @.@.9 * q@a#l 7 p,=@&@R.I+A=A.M_y=;*^ `.> - 3 1 l &.z n 3 o -.1@2.1 o.a=o.{ 0.] n a.( B+Z 6 k V$U.l A Z 8.;*#,M&<&s@%@n 9=D@x {$o.S |@D@F*`%@. . @1#..#.5 A ; -.n 2.5 > #.]#h 8 k.a 7 %.b h f ..@@@@k -.` %.=*j ` @.b E+ .)+$.` |@; | *.S Z 2.Z )#e#*.l -.S o S a%/#R @@e#o.Z 6 l 5 1 U.&.2 l 2.-.1@-.r q a$6%F S C {.Q+Q+l.G [ 2 Z -.2 *.2.S &.o 2.2 U.1@-._#@@:@:@r {.P+r B T n B 2 n S Z *.o.5 *.2 l s%:#G=Y-'.@.>..@#.k.h f G@~ D B@D n T D G+s w D v o C {.r (#M$@@$@n+9.C q@8.w D S t U&W T&<;<;T+6 > * [ ,#} 2.5 H@V%D@C@I#l ] a.$@$@9.w.{ w.p+C q@n+l+w.' 8@_+)*m r 5 Z n > 1 /.l _ n j$1*)&j#9@l.l.D B w l.D o w T :@<$}&7-;&_#<&8.C /#7.'@<&]$<$_#R @@:@o.{.E#`_V3y+8!Y*l;l;<=+.`+d ).4$p-i.j.p@p@`.G#a#8.8.s@c$R$B+%@x.J%)=%_r G @@=.e#o.S U.;.S  .#.$.E+Z+|#n ' B+V%=.5 5 ~$b=F_u*)#A;% A;&.M$;&o.Z j ` i d #.`  @|#k 5 w m B+~ 3#B+( ) ] ~'4.k U.l @@3$6 -.@@n.o.l./#r P+B Q+P+C y r T r r 2 S V$7-2@f f ,. @1#o.-.y {.X#H+S @@;&_#S y _#o.7.^$8.p+o.a#%@i$x m T T S R :@:@x B q n T m G B m x Q+B w S U.S 2.-...1#+.E+<% @",
"m&z;-!e*2 B=*.)#7-S h 1#Y@7 +@m+++C#I.D>k[m^H ~+v.D(!;x^$>k!k -.#.0 8 @.T. @@.!.0 k.d c $.9 7  @B+( ] a.) a.2 2 2 Z A o o | E#n 0#a#p+w.( ( `.`.=.V$U.k &.4 l o.h  @c f ,.` +@.@o *.2.A 4 | 1@Z ..1# .h @.c %.d 2@1#-.-.-.1@k i @*g%v,[%V*[%W*.&` ,. .$.2 1@;.-.n U.1@@@6 o > Z 6 ;.o.^$<$P+Q+{.*.-.D@1@2 k k 3$D@-.6 @@V$C+o.r (#l!+>%*)>k!+>p!]${.o C S T l.Q+^$C w G r P+l.m o C _#n.m./#r :@%*$>l.B {.P+o.P+&.*.i d %.#.D*3$R y R Q+S 5 j `+E+7  .~,~') ' a.l.q s u G+t n C G D s n o.o.s !#u o#y#J@)*B@D S m S R+O[S81~X)R%94U!94}=o.y S m s@n $@l+2$t+h$ +n p+w.$@v.9.$@q@v.w.' { C w.1.l+s=K${.B > - 1 U.4 > l.C 6$x.P%9@C w ~.C C S G {.C C B ^$@@D@m._#=.V$e#D@V$o.-.e#)#$%$%v6R5o{s*G=V3V6H}H}N~$3O& #).T-g!T.P-l&K*v-;.~'U*W%/#0#%@n s@%@a#R$6%#,`~C(Q+C C x x o A e#S S ; 4 o e#d +@l ( H@B+{ o.-.6 1@5 2.l 2#C+k U.{.@@-.5 |#).2@%.E+1#,.f S l S {.;.l &.l |@6 l S 5 *.z+z+r%=.k X-_#R m.T :@n./#Q+x B P+P+w T l.y U.|@C+e#@.k.+.|#` $.o S ~.o Y&6%o._#m.r C Q+R y x P+B+s@r@B+_$a#o.o.@@_#y x T m {.x C T r r C C C r Q+S C x 5 S 1@U.j i `+,.|#,.",
"s*<3]!n~z B=s*G=U.o...t&|>l-Z#|-2|],-<M**^L*Y@B+q@0#$>K$s&C C A 7 0 b  .|#E+%.j b  .T.` 9 #.k.` ( l o.^ ~ n U.;.k 5 U.l 2.; m&*.Z 0#l ;.p@I#V%~ l [ 4 2 1 2 Z A h 7 7 %.#.#.h #.&.k ;.A | 2.V$S k.@.a c j f %.f Z+).)#e#1@-.Z 7 %=b;}'c)^#]#-- &i ` %.h A 5 k -.5 |@5 o.1@*.*.2.U.e#M$8#m.o.C {.k k D.1@|@@@7-X%8-s-C+)#|@)#V$L$7-l!%]j~)>%]a!x%_#S w S n D l.D@u*/#n.Q+@@Q+S y R {$o.{.x B T r K$k!Q+y y r n r @@5 ` ` #.+.t&3$m.B x Q+5 Z d ,.#.@.i Z)C@- > ( :@y r x l.o v D ~.s s n C n t Q J@s+2$)@B+c$r w n B <#^&5~5~a4T8c~}=V Y :@Q+o o w.I@' { e@h@k$Z@{ w.B@p+n+q@n+w.i$C a#a#p+8.<&B+6%F {.T > } o o.*.4 [ o )&y.P% %x B m w x x n ~.C r {.x P+(#];7#V$)#_@;.V$C+)#;.k m&G=a=U7C=A;A;Q/.(k~]3]3H}8!8!T.Z+~,l&C-k&>>K*G@X.W%r@l+' w._$a#R$8.a#K%r& >X}T T G l.S m -.A 2.Z U.S |@U.c 7 D@D@^ C@> ;.|@o.e#5 A 6 1=7-l S /#n.e#s-3,D*1# .k.E+,.E+5 -.y o.^@G#5 -.-.S S 2 ;._@p6p6D.C=r%% y S {$o.R ]$^$^${$_#o.Q+x Q+y ]$@@1@-.-.1#,.f #.k.%.U.o.m G s=)>:@o.T q q ~.m r y P+<&j$/#s@R$C T r o.R x B {.l.R m.y B {.R :@r x {.{.x x x 5 5 U.S a 8 f  @d c ",
"D#z;1!=!E@D#8$&.%.#. .).C*Z)_.i.c>u~@{L.g,2)t#!*l ;.U.6 | D q T Z 8 8 i +.'.F*,.h a c c #.c #. .B+%@@@D@-.2.o.k D@e#(=P*O&l@w+l;a 2.` j i E+@.0 o o | n 1 o /.2.1 &.2.S 5 1 |@;.#. @f j i %. @` | ; *.2.l S *.@@e#!$!$6 ). @k.` --u,Y; *[%^#.&N&c c E+k.&.5 o.o.1@U.-.1@1@U.Z 5 1@|@P+_#S Q+Q+y 1@|@;.=.s-&=s-a=s-@@0%3$=.4.C+7-T+u%S;1{48J]r52{<#W U+R+}#W+R+:#n.]$7#]$R :@x :@Q+P+o.x B y Q+r K$Z$/#D@P+:@o.{.l n h `  @d f *.D `$Q+r U.6 ` 8 _.[.|-(@- ( { ' 2 C+-.4 | > < [ [ ; | 3 ,$* o 4 h@2$t+u@_$R${.G q q <#L%Q31!(]U8U!a&@=}#r Q q x %@%@n _$1$.+A@3+l+v.' v.8.o.8.'@_=r@'@/#i$i$q@n ;*1*%@n > n Z &.&.- Q w ~#(%*-`$G o l Z *.U.Z *.U.o &.; ;.0%;@C,k o.o.|@k o.s*-.)#X-6 % $*$%G=B=y8{!<3]!K^q%X B=e#V$o.o.G@~ e.f=/ I#G@/ F+v.9=j$s@C i$R$b@~%X}v[D@S t x {$P+x T ; 2 -.e#D@o._@U$0%~'G@G#^ ( B+^@D@@@1@e#!$6 @@U$^$;&D@};B*E+%.`+ .#.b ..|@U.@@/#@@Z @@e#6 k $*X ,3&=V8p*G=D.)#k R @@R o.m.P$-&q-M$]$y {.n.m.D@n.@@5 Z 1@,.E+%.7 7 `+C+|@Q+:@x%j~C l S o 1 o.|@k )#C+Y.H#X.;.o.C@o.l.x {.l.S Q+@@]$/#:@y x r :@P+@@o.P+{.w x -.-.l > 9 h  .,.|# @",
"X 1~t7=!Y+]-Y+2 #.` ......O=e!_.p~W8|~S$6=p%3+L.T.P-!.L+H 1 n q > 8 E+).t&|*+.d #.@.b b a f k.Z i$_$m./#1@l o._@_@Z x+# # O&v+u#k.a ` .@+#7 7 8 Z -.S n n *.l A o | A k 5 *.A k 2@f ,.2@ @@.E+E+&.2.6 5 l -.Z Z 6 e#=.C+D*`+D*'.<%(>}'V*@*[%g%]#b @...`+1@5 Z 6 6 U.k _@S &.l -.; 2 {.T o q o.n.S -.o.&.Z V$2#3$U.-.*.@@)#=.;.:@T&l'2{h=J]X8K(x5l*R+R+U+V+V+X X :@q-i6t-Q+o.Q+x o.D@_#r q B {.S C ;*<$L$x r x l.A &.7 ` +.D*..&.S x%@@m } 2 2@T.Z#h# .h#B+I#( ~ > k 1@2 U.l U.5 z n A < 1.= z S q@2$A@8=w.;+n!P x Q+b&d/Y8Z8`8 9T!Y L%A+r :@_#r q@C n+p+l$u@t+A@n+{ p+p+R$U*j$/#'@0%/#o.c$9.n+$@b@M&B+n ! B+*.A ; > q Q+6%Z%=-,%G z Z e#@@6 1@2#~$k |@|@k V$7-V$1@k ;.k ;._@r%$*X-Y-B=8$r%k $%-.t8.9|!t7K^<3$%B=|@6 ^@X.r@^ e.f.G#`.B+- $$0#5.4's@p+q@q@6%f*g2]'n l.o.r G Q n R Z ; e#U$U.-.o.1@/ C@G@r@r@o.C@H@e#k 6 !$=.o.k }*P$];s-|=j=).+.1#E+`  .` _@V$R R ;.V$7-3$6 5 B=E@z+`[+9F6E@&.*.X-/#/#P+/#(#L$;&:@x /#R o.x w T l.*.5 l Z d 1#%.E+T.T.e#6 S S s&Z$*.o.6 -.1@V$=._@;.e#H#H#G@l ( B+m D C {.l.l.n l.o.C l.T C l.S P+{$<$D@Q+n.a%D@6 *.1 a f 1#f E+d ",
"D#*.8$%%8$$*1#c  .j  .7 ..`%i;6@@9#9=<e=R,]&u@],7;3@Q$<.H < u 1.}.n =.U$}*7-5 2.U.|@S > l Z A 1@o.C y o 1 n > - U%m@ $ #1%f{1%!~L~|%L~f{+*+*0 0 @.1#a 8 h#h#])n@z 5 Z > 1 -.U.@@`%h %.`+f 8 #. .o.S -.5 2.5 o.o.5 2._@)#Z+Q!x=D* @2@W*k.0 #.b 8 h k.j ..@@U.S 5 *.*.-.;.@@|@-.S 1@S T C S y @@/#o.)#)#7-4._@7-=.@@o.1 D@|@Z 6 Q+V&J]+3v;S&c&k6l6l^ |S+^&m&B=A;8$n.@@n.m.P+x A l |@C+@@1@*.*.1@P+n.;&R(}&n./#-.*.l 2.Z o.5 *.n z S %](#S A Z 4$|-Z#4#4$|-Z#..j.7 S U.6 o.V$Z -.6 | A 2 [ | ; 2.*.D v.O O n+O [ G L$r r={%U!$9%9@=m Q+B l.C [ ~.r <&i$q@B+%@w.C i$a#p+w.w.8.9#0#n+B@o.%@0#o.n i$c$O B+D@:=G#}>Y.G#l -.Q+x s&F $>0$/#1@@@e#)#V$e#4.4.C+6 U.@@2#C+e#;.;.k @@C+7-C+@@r%E^$*D#-.% r%$*&9*9E@m&6 G=k B=U.=.=.V$G@D@r@G@~ 0.l r@_$B+'@J#p+9._$n+~%{~B8='w m.L$q m l.w x {.l.l n 3 - > $=8@$@a#o.z!z%z%4'^$^$R M${$L$x ~./#8#+;><E*).`+f k.k.1#@.5 Z C y 1@@@$*$*G=s*s*&.&.~$=9&9|!t7q%X-R {$L$;&a%m.o.q L$<$]$D@y r Q+T 2.*.1 1 E+i @.h 0 !.; 2.q G z$X#2.6 -.6 1@k e#o.^@r@G@3#B+H@r@;.T m B B m m w S r {${$P+R /#R /#r r {.{.o.P+o.*.o.-.1#f ` ,.^#N ",
"8$E#2 -.% $*j 7 #.k.%. @.. @g%(>-9;9,>d=z#H% +_-4$L;L-=@H , 1.P !#-.D@1@1@D.~$@@*.U.1@S *.z *.1@S S x C 2 2.1 A O*b,@ b,@&&&&&@&@&L~$&q|@*=*@.8 k.i a +@|- .w#4#2 A U.2 *.n !$X%).E+|#..c @.'.`+5 x o.o.6 _@V$@@@@e#|@=.'='=B* .@.` c k.@.k.b @.#. @f ` S 2.-.@@C+4.)#k )#_@5 U.o.Z T P+y {$/#y ; 5 k e#D@2#@@1@6 o.@@s-V$o.|@6 r^x5>948V&k6,9'9)9c&l*<#$%G=6 *.x R /#r C x 5 S D.=.o.V$V$1@=.C+3$t-B;|'t-;&@@o.l Z Z *.; 4 o S Y&x%y x k k h%Z#4$4$h%4#5$|- .5$Z 1@@@|@;.k ;.-.2 &.1 4 o o > [ n 8.0#C r@c$y /#/#w Z'S=b&L%V+A$q l.~.G m o n w s@s@/#4'J#n $@a#p+B+w.8./#C B+q@l+{ $@q@n _$<&r@s@<&o.;.r@`*~'W%6 1@e#@@:@)>j~%]D@=.k n 2 U.S -.U.-.Z 5 ;.7-2#_@1@o.|@)#3$C+D@)#=.=.H=$*z+o{}!G=r%^!6 E^k B=E^C=D@;.6 7-;.) ! > ^ H@G@I#$@n R$s@B+_$B+%@)=='k|d;P+D@n.D {.@@/#C B C } * k ;.S 1.D s@o.c$,@4'6.''7.7.Q+P+7-|'0%C C _#2#u*x=Z+d ` k.k.d  @S A :@D@; U.A;X X m&B=6 z+z+!9=3~9K^y~(8@@8#d!/#m.a%P$_#(#]$n.{$y R :@n &.l 1@5 8 a  .k.#.@.l l m G Y%Z$l o.o.o.-.U.5 2 ( o.^ ~ B+V%0=I#M${$y T G ~.l.Q+y _#/#x S x :@n.o.B {.P+R x l k ;.;.|#'.2@1#[%]#",
"6 2 | l i @.@.d F*).R*8!y[|%1%K,{9c>5=T,x#K#:,_-C>m,+@:.O,o@a.{.C T+S&R+Y L%T&U&R+X W+S& |^&<#^&G m s B *.*.2.*.~;# #&&&2%&&O^e{.*c3C{j&|%%&]#]#S..&c '.C-Z#n@h#*./#Z l U.l F_t|B*d f E+@.7 i;e a=|'}&(#L$t-2#|@-.|@Z |@).7 @.h < ; n 2.5 Z 2.l -._@-.5 ` k.,.T.w*>*C+_@3$_@Z 5 1@1@y m.Q+P+{.T 5 @@o.;.D.4.@@5 6 C+2#3$D@!$=.;.<;:#V&V4<8s8t|p*~$}!$*$%A;G=s*8$A o.;.k 1@6 |@6 `%T.E+2@F*+.F*D*!$>*&'=.Z 6 k 1@V$)#C t ~.w B Q++>i^0$T '+( j.7 h#(@i>H;3*:-w-4#; S k e#|@k U.l S A n n 1 o.1@2 o.@@P+S R o.y n.v u [ G p o D q 8.9.v._$C a#C D C {.P+m.r {._#P+i$i$8.4'3-J#/#0#0#a#_$D n+9.9.B+^ ;.^@`.4$/@..P-7 &.5 q (#P$]9u;o.o.Z o z | ; 6 n 6 |@6 _@U.A U.G@H@G#p@2#Y.)#e#)#=.D.}*@@=.k 6 6 % )#V$|@=.=.=.!$>*v2m<U$*.1@2.r@p@H@^@s@a#_$$@q@a#<&c$;-x%r&+!b'y$a#_$a#w.%@%@C n+=$> :=T%G@I#8= +I%U,4-6.^9^$i$s@i$9#]$7-0%n.C x 2.| a d D*B*`+ @,.d 5 -.Q+y 2 r%o{G=X *.2 B=(8q%X)x~X)S%n~z;n.d!];_#L$];|'}&q-R(7#M$:@:@@@y ; | l *.>.8 %.a #.%.*.2 l.B a$Z$1 2 -.U.5 l o [ l ^ o.l ~ B+H@G@z!9=r@o.a#C i$`;s@R$/#i$a#o.`;J#@@S n.]$m.{$;.;.k k `+d %.E+W*-*",
"U$=.A ; ` 8 8 q*T-T.O& =g|;8^{[*..d#I.F>K*b>/9]@w-t>- Z.r*i./@( B ^&U&R+s%U+T&h;S&W+W+l*r%N%W }#G B G m 1 z 2.1 U-v+#&#&L~o=~~L~$]g&G^ *D^g{-*N&X;N&..|*Z)/@w#r@k M$-.V$l k !$3 N*7 j j 1#B*@2f~>*q-]$R m.{$_@6 ; | *.&.7 .@7 k.< w l 2.Z -.Z 2 U.Z Z k d  . .,.!$k -._@e#6 U.o.Z 6 {$n.o.Q+m.L$!$)#U$C+=.|@k &'w*u*V$;.6 U$C+|@:#S+V&Y-~891~$v6z+X-s*B=6 -.8$E#n U.6 1@-.5 k @@1# @i  @|# @K,[*,.5 2.- * A 6 _@)#@@n t w {.r )>0!L]`$X#D l i.4#5$n@=&L;5*:-v-h%( 2 U.4.2#C+Z Z -.U.U.5 l s-&'D.L$;&R B o.P+Q+T s }.1.[ [ o.C Q p+$@p+a#q@s@r G v n q C R o.@@^$0%r@c$R$8.s@i$8.a#o.p+9.B+p+D D C@o.o.( Y@|-p-j. @d ).&.1@Q o'X+> z o < 4 > o l 6 k ;.o.-.Z Z S p@}>`*:=W%W%4.=.=._@U.|@6 6 1 *.G=6 o.l *.|@U.D@t|+9(9_9~$&.&.5 ^@o.H#V%p+8.s@<&s@/#j$s@d;y=#,#,j%)&a#i$q@8.^$q@B@n l D@}>G@G#;.@+++I=I%>~5.>~z!r@<&9#9#C o o.@@n x D@1@ @,.|#`+|#..f 7 2 6 m m 6 ,3U7k m&$%m&A;y~n~x~U)n~o~=!q%r l.B _#<$R /#{$R(d!7-D@Q+{./#n.5 S S *.7 @.k.c h j 5 2.B n H+z$< z S -.k V$k @@G#r@G@3#/ 3#o.H@0%0%_=j$9#R$9#7.R$'@^$7.9#j$_=/#P+(#M$7-M$]$;.C+X%0%F*+.,.i [%]#",
"s-I#[.+@a )+#.*)W~O*B^M3:9t2<9$ p@:([9}9|9a*19e-d-f@e@t+]@U3d8n@_@X <#R+S&R+T&S&X X+Y+Y+S+A$Y+R+x q u D > ; A;2 # # O^&>%&&>-{h&&829-1A1A1/{O^x(Z;S.Y,[*5$4#h#C@;.x [ m.6 -.2.* h ` j %.--j23949|=^$:@{$(#Q+S l 5 -.-.*.#.%.|#A l.F x S B r x w A n 6 e#i h a f V$2 | *.U.o.|@o.e#k /#R y R D@(#)#;.3$!$3$;.2#~$6 o < 5 S 6 |@6 r%C=E^H=% z+r%B=r%$*x+l;Q*S*O&v+k 1@Z -.U.*.E+1#b #..&W*.&N&i*--,.c a @.1#`+|@k @@o.Q+o.r C Z$s&.).)z$Z%n l 4#7@7 i.6@L;D>S)5*h.`.;.C+~$0%X%D@e#1@U.6 1@S k C+e#s%R+Y N%~.l.C r q ^.w S q@R$0#w.A@.+1$l$B+0#_$p+~.n G B S+h;<;m.r@q@C 9.B@%@p+v.B+s@_$a#s@_$9.u M.B{h#w#=&4@j>p.g%1#'.-.-.}=b&W+n n *.n 2 U.Z *.|@V$6 U._@U$D.=.Y.>','D,0%~'U*2#X.~ &.o l 2.A Z l l A *.A 2 &.o.P8%<59F6}!8$]-l 3#{ > _ B@%@p+<&s@i$`;r@`~`~{-{{{{x%f*H's@J#U*9.1.o.`;'@l 0.V%G@)@++K#l$9=>@<&j$9#/#0#`;8#0%R n q r V$1 8 k.1#E+E+d f 7 A -.{.{.k C=r%B=*.B=1!K^t72!K^W)z;{!2!q%S n w y {$P+R r T B n r @@:@_#n.5 U.*.2 #.7 a k.@.@.2 n G D H+`$A A *.l Z U.-.6 o.r@V%r@r@V%G@C@_=U*j$J#_=9#J#z%z%_=_=^$_=9#9#D@/#D@{$L$m.r ;.)#U.2 c 7 .@)++*%=",
"G#a.+@(@` a b Z J$'3 =J$w+!368`-H#D@C1l-69p.&54#!*D e@B@l$o.C;4$3$R+<#r%V&h;7:U&T&U Y W+U&R+S&R5y C t t - |@C=A;u#w+ $# L~^{~~^{79({G^A1G^=1O^e&X;W;w=p&q&+@ .^ A s l./#-.2.A 5 ..` j k.V*S.j;F*w*L$Q+{${$Q+1@6 -.2.;.5 j F*,.*.y r C o.n x {.S 5 A 1@k 5 S k.5 n l -.-.o.;.V$e#)#V$_@D@y {$]$<$|@)#0%s-l 2.;.-.2.; ;.3$C+5 2.1@m&A;k % 6 r%=.C=D.R*#.k. &V-g%@.%.S &.l -.-.o.#.7 c i .&W*p&[%W*,.` %.%.d T.|@-.A C m.^$n.m._#6%`$ %5%n q@~ ) +@&@7;~,B,7;n@-<|-k 4.>*7-@@k -.e#1@Z 5 l 5 U.S < n'A$W+T&q l.n m Q+@@R {.p+o.'+D n 8.g$8.s@s@_$i${$Q+n C R+s%r%R {.0#0#$@v.9.q@B+i$R$%@%@B+p+n n+H*N.[.Z#|-C-p.h%S.E+ .F*|@D#x C Z 5 ;.-.2.o.k |@1@;.k U$~$&=C,0%>'}>H#`*&):=V%`.H@] > 4 D@D@E+;.E+2.f A o 5 S 6 a=m6|=`[=.X o.k Z ~ : 0.n B+q@c$9.D R$^$I| >H'x%#,#,_=j$/#4'/#)*9.`;I#G#3#^ r@I#k$+%9(^$9=0%2#Y.^ C+I#7-($89y m q n l o h ,...|#D*T.,.f S ; Q+w D#D#2 A;*.z E@z;-.2!A;<3k y8$%s*o w S S r :@R ~.t v v T D@R n.;&C S 2.*.5 l  ...f 0 o l l w m q 2 *.2 S Z 2.Z l o.^@I#p@r@o.^ G#<&J#9#D@D@i$i$<&r@9#c$c$9#c$o.<&]$]$S o.U.*.=.;.- = ]+3 } /.b 2 ",
"Y@H@o.~ 2.Z 4 *#$#n!q ^&T+h;l^r^`+|#p-,.i. @(@Z ^@Q+n S 0#l.( k :@w q P+_#_#0%w q n n n T R ]$D@B s D l.{._#;&R -.n o 1 +@+@i j --h*#*S.]#[%[%k;+. .i k.7 c k.2.l {._#y o.r =.V$0%)#2@T.`+2@E+|#C+1.R.A o.*.-.V$S 2 ;.6 -.C+Z Z |#1#2 A U._@o.-.D@@@n.x o.]$1@S R o.e#;.k. .).S-D+Z+,.)#U$4.^$t-0%E*D+).|@o.-.@@:@:@/#{.D@B S @@:@/#7-L$n o i 2@l-S.h><(S7r3*~8;c 7 l l 1 1 2 n 2.&.S ,.` 7 =*g%'.`+).d .... @1@U.|@@@U$!$Z U.r w {.~.2.Z &.l A l =.D.l *.o.C@k 7-0%D@U.n z o.V$5 Z Z n Z _@U.m :%,%_%Y%:%Z%(+~.S S &.[ z o.j } q  %K%Z$0$ %z$F c!E Z$K$F a$K$:@x )#l U.1@;.C+4.U$*.-.@@e#o.2.; n ] H@r@I#I#..0=b3D@V%G@G@6 ;.6 |@@@V$o.o n n 5 A U.2#|=C,}*D@@@7-C+l 5 e#o.%.` @.0 @.).v*).V-`+97l&<(j.n@n@B+G@}>s-3-};`*~$:=k 6 Z C,a=k *.o.S S o.k!p7R] >R]c!(#m.X%4.)#_@-.l C+;.,.@.f +.`+e#U*,@:=Y.D@|*Z+f ,.61j=`[99U/S&Y ; 4$(@i i.j.4$7;q*).o.l 1 ; Z A | A 2.; o | ; E@ .Y*`+<~..(=E+6 k o.2 2 U.k <$(#Q+x r L$M$Q+j~[!x%Z$m x o.C *.-.*.o > n 2.S 5 l U.Z 2 2.z S 2.; o.l l Z o.Z 2 6 U.@@D._@=.V$/#/#m.{$n.D@n.@@%*R ;&0%V$_@+.,.,.0 I -#@$b&N%<#1{6%",
"w#:=H#) 2 6 1@y 4 o P+_#r%u;r^O[2@i*` c  @f n |@;.Z S q T @@{.S B w m q x r m r /#S {.l.B R(n<C l.T y ;&_#r q D &.U.2.n n 2.U.U.f =*.&--p&V-W*W;,.#.@. .1#h a n l.n S m {.(#X%X%};D.|*v*2,`+@.c 1.} *.o.2 n o.k -.*.k U.o.V$|@|@N&W*2@E++.i l Z 6 &.C r m.;&@@{$]$0%!$C+|#+.2@E*S-B*D*+.2#|@G n #.j i %.5 U.S ;.:@R @@x {$o.K$K${.o.;&<$o./ ])O-091|r.r3a9b9c9d9V*+.d U.U.&.s T &.*.2.n @.` V*#.%. @+.a c  @+.i Z 2 ;.!$;.z 2.;.-.S z 2 U.2.l l S D.-.*.1@C+7-~$u*2#o.U.U.1@U$5 ; &.2.U.;.-.&.l.Y&';,%_%W&m*p Q+2.o 4 z 0 @.k.&.B Y%z$Y&s&a$Y%s=Y&E K$$>0$Z$0$o.e#e#2 V$9-};7-2#e#-.k e#-.*.&.1 ] C@G#D@{,Z*M'W%V%G@V%p@X.^@o.`.S |@S 2.U.U.l 5 5 5 }*1=&'@@A Z S |@2.&.1 * !.k.k.%. @..p&W*[*K,p.}~4@g#4$(@3#Y.D@X.X.Y.&)l1&'}>e#V$C,w*a=2.T o.{$@@l!e97!Y}<!f94.6 _@@@U.*.5 e#D+|* @i d d ,.5 B+,@}>;.E+T.]#]#]{_7t{g959h9i9V+; Z# .4$5$7 Z#j.E+,.A 2.2 5 Z &.&.U.o.*.n 2.Z -.,.'.|#2@i j i ,.U.k 5 e#|@o.n.Q+{$R P+n.L$/#l!@>x%F H+H+B x B D 4 &.S *.b h #.7 ; ; A *.A Z o.5 o.6 6 6 o.6 6 U.o.|@k @@=.C+z,P$;&P+:@]$D@/#k!{.@@@@+.).`%D*[%q=X*1.F@@=#>u;Y_.)",
"h%h% .k&`+h b S f 5 5 6 r%S&6 X-,.g%#.h  @h 2 e#5 o.R x o.l.o.y y r S S l.~.u @@y D w w ]$7#Q+G S @@Z o , &.1 | o o.S w n r R V$E+.& @i %.|#..2@2@1#%.7 *.2 1@2 q T T ~.n ;.)#Z *.V$).f @.c k.+@&.l |@o.n S _@_@5 A k =.|@|@5 k [*S|2,,.,.f ;.6 *.A x B B y :@(#d!P$7-7-`+B*|*B*2@ @ @D*=.@@P+y  .@.7 +@8 c 2.o.1@5 U.-.@@Q+x S &.*.U.S 1 n |#x=b3'=<(3@O7<(&~8;[%%.,.2@@@l ; 2 B {.A &.` 1#E+E+i k e#l 2.S S 2.+@k.E+f  .k.h @.2 U.U.S 2.1 &.S o.~$> 4 k 3$0%}*U$D.)#@@_@e#)#&.2 6 Z l 5 A &.B Z$ %F$G$T C ;&];C+6 f f c +@0 1 T l.w {.l.T x R w Q+_#P+x C C y S  .1#F*)#_@|@Z |@@@k _@l 2 ; &.( 3#l G@X.C@( ] l `.G#p@p@;.`.o.U._@|@*.&.A 1@*.Z =.>*e#Z -.-.; n 2.&.*.S o > l ` E+i E+a b #*@*|-P-p-h.h.i.^ p@`.~ ;.U*p@I#3-3-t&E*4.C,a=|@r n./#{.k!a!R]n7Q4a!5 _@V$V$_@U.2 1@D*e |# @j i  @;.}>E2D@Z E+D*,.2@B*+.F*0]u6o{}#X+o '+a.] u.0./ 3#k 6 | A 5 =.@@2.l l -.5 n 2.-.U.U.k ,...E+j 1#d 6 )#6 @@V$_@;.@@k V$;&n.@@P+@@D@R x w n T C n s o z | &.; n *.2.> | l -.5 S -.-.5 |@;.e#;.@@C+6 U.S |@_@=.3$U$!$4.2#M$];L$P+L$;&7-e#`+1# @`+` #.%.*.E@W+2{I]t=U=",
"h.i.n@r*H +@,.c ` E+1#D*t~${h~y+$-+*j  @j *@/.} A D@w C x C o.m.l.l.r o.n D s C n B y r Q+C C n 2.*.2 l *.6 *.S 1 2 T x Q+P+m._#c [% @|#+.d d D*..%.E+` 5 5 !$U$y Q+m w o.=.C+-.3$D@7 b 0 h  .a Z l S Z 2.-.|@6 A o D.u*;.*.2 6 K,S|d 8 7 E+C+6 @@|@y B r D@y m o L$C+C+2@F*2@).f  @T.v*0%=.n.;. @@.` ` #.1#;.1@o.*.Z 1@o.{.S T 1 A l *.5 @@F*e O-b35@u_G/4@u_<-V*]#[%1#f |@k A n w n 2.j ` k.S 6 U.k 5 S &.; 2.f '.j @.f +.E+ @f k |@2 A -.2.&.@@=.2.U._@o.6 |@e#_@2#k |@6 A 2 D@3$5 n 5 |@6 &.].G$Z%a$^$7-M$D@6 Z ` j #.h h b &.w {.w n S P+x l.r /#Q+{.C B ;.#.%. @+.1@6 o.|@1@k l Z 2.; n n ~ ] / ^@^@`.`.] ( ^ H@X.X.;.3#H@@@A l -.U.Z e#o.-.V$!$|@; z } ,#- 2.; [ &.@@V$1@`+d j @.k.)+N 0 h%G@h.i i h.G#/ ( G@V%r@^@!'j9~,e Z+0%|=0%7-{$7#0%L$$<b!n7Q4p7%]Z C+D.0%4.k U.!$D*T.`+i f F*Z+4.3'A,-.6 x=D+q*|#).+...1#*.= ;#C R$s@l ] 0.{ ( B+o.5 l Z A o.|@S l Z 6 ;.|@1@@@D@k |@2@'.|#..E+ @D@!$u*V$_@|@Z @@@@}*7#{$R x {.R x r o.Q+T G G w | < > &.1 ; *.5 A *.Z ;.-.l &.2 2.U.|@)#)#D@D.D@5 o.e#V$3$V$-.V$C+7-D@n.m./#D@^$C+_@T.d ,.,.9 L+H /.W+<#I]w;k9F ",
"5@A!8%5#h*^#<%W*^#.&$-K,4/]{&{!~=*N& .7 !.s!;$- l o l.m.m.(#Q+{.o n 5 | &.l 2 *.l U.o.1@1@S |@-.#. .i f ;.~$3$1@o.w T l.:@R %*o.%.7 c 1#V$k )#U$;.U.k Z 5 Z a%l9(#T 1 S V$D@Z A n *..@8 b b @.+@l 5 *.*.A 6 S > z *.o.|.| A 1 2..&S.#.@.k.` _@@@k 6 Q+C S o.x {./#7--.k 2@'.d D*`+`+2@..4.C+n.X%q*$-+.+. @T.).|#f i d k S o.1@S O*# O*P*<=Q*h~<~E*'.k. @f k.2@V*[%.&V-j E+T.@@| n T y R 6 U.Z A S S o.B S o.k e#).T.f ..i*K,Y,f 1#`+|#a b E+i ..`%,.T.J2B*1#@.j -.|@u*}*2#;.l 1@=.@@Z l 2 ; | ]+:{!#o T 1@6 l S j  .` f V*^#=*9 o &.5 2 n l o.2 S *.U.U.o.Z A k E+` d |#,.E+V$~$6 Z G q n D B S l o.H@B+o.;.`.C@~'X.( B+G#r@B+l U.2.5 o.C+_@o.1@|@1@k l } , 1.* o r U.o | -.k 1@6 o.+.|#d c 8 +@&.o.1@@@D@7-~$=.+.D+F*i @.` i*`+t&J2m9n9>*D.=.7-t-7-P$t-o9p96!%]&=!$D.X%~$C+)#D.2@j  @i E++.D*=.1@m - -.C,)#h.T.C-L=B+' }+|.)*8.o.j%n { $@n $@n *.; 6 6 2.A f 2 Z {$C+=.7-D.C+U$4.7-x=t&q*+.E+d +.d t&..E+).F*T.4.p*~$@@V$|@1@e#o.k k Z &.| ; n n n B B w C T ~.5 Z Z |@6 l | o n Z ;.@@V$D@e#C+'.d T.t&+.,.q*`+;.@@Z -.V$)#V$_@0=V%k&L=,.` @. .-.U.T C 48h=v;x%",
"5$n@<-=&[%W*i*--[*j;m'M,f&79H^i&+&g%8 a 9 X*,#* 2.A 7-t-u*/#G x 5 5 5 l U.2.S S &.1 1@=.o.2.2.*.k.7 ` #.E+3$D.C+r r (#y /#{.0$T o.j @.` 5 U.7-}*U.l D@=.1@l _#6.n.:@U$=.3$V$* } 1 U.i i k.$.#.k.-.V$@@o.; l 2.A n ; Z &.l o 1 1@@..&d i  @ @1@@@V$;.y S C r @@;&t-z,)#3$).d  @2@).T...+.4.3${$}*x=U;D*....|#1#,.E+1#d ,.l 5 6 U.8!8!/=P*x+/=Q*R*1#@.h j ` 7 @. .v,v,z>[%#.f 6 U.r r n.^$V$1@6 r o.o.R {.6 _@e#_@..Z+T.1##*W*U;$-#. .%.b 7 f E+|#B*E+ .'.i `+k.1#U.=.>*w*9-V$Z 1@=.1@6 |@S A &.3 )$t Q+l.| Z S 6 j 7 c j .&V*p&!.8 n 2.S 2 2.A 2 S 2 2.-.|@U.2.-.f k. @+.E+ @~$4.|@5 {.B l.~.o.m.G@3#G@G@o.^@H@;.`*Y.G@^ / ] ] C@S )#2#6 o.5 A 1@-.6 |@S } /.> 2.;&R 2.z | S -.1@o.1@|#2@` k.#.A q o.S y )#D@a=;@v*D+..f $-[%.&--q*D+*)=)~$l _@~$/$|'R(0%q9o9Y}a!2#=.~$};C,U$4.0%`%1#f i f #.D*e 5 w , * | z 4$~,l&7;^ `.( / u@$@1*i%~%r&o.o._$p+2.> U.*.A *.1#2 |@n.C+C+4.};|=2#~$s-x=j=e 2@`%S-+.,.f ` %.D*D*E+k w*2#;.C+3$2#~$~$=.1@5 Z S S l U.Z r r S {.x T *.A l *.1@l A &.2.1@V$6 |@_@6 @@).T.T.F*+.+.2@2@;.;.e#0%}*2#2#D.X.3#5$h.2@E+` ` 2.1 G Q+x5x5r5K$",
": j+6#7 b  @`+E+[*k;[*--K}+'h&.*^#|#a 0 +@$./.6 3$&'}&:@s ].s S Z 5 U.D@1@> A 2 *.&.2 =.l 1 S *.k.p&[%c %.+.6 =.C,6 y S )>)>$>T 6 @@o.@@|@@@2#6 x G o.M$/#S /#7#Z k a=V$e#k ; 2 5 o.2.&.2 ; l 1 5 |@o.6 2.U.Z o._@o.; 1@5 | n k j E+|#f F*E*3$_@-.|@P+Q+x o.:@Q+Q+6.=.5 T.T.|#'.+.'.|#t&D.V$D@3$D*W;W;(>K,<%^#N& @E+E+j %.%.i i e{z}@:%(u#Q*<~y+6 B=B=6 1@l 2...z>+)~>$-%.k.6 1@Q+{.Q+/#R Q+Q+:@R F Q+{.y Q+l *...`%Y,W*^#.&`,.&b h 7 h %.i %.%. . .>.+@h i 1#,.@@)#@@;.3$-.2 S Z -.e#|@l 5 -.S Z =.D@Z #. @,.E+2@f V*$- &.&V*c @.l *.S A A &.*.S A 2 5 -.5 U.5 i $-@.#.Z+T-};C+1@6 m.:@w B P+D@H@H@H@^@;.r@^@G@o.H@V%r@C@'+] l R :@:@y B w S _#y P+o.Q P B {$<$:@p (+G o.-.*.6 U.k |@6 n 1 n -.K$j~;*$>_#|@0%e/S|[*i*<%[*i*i;i;t&..1#).5 * Z C,<$d!R(}&p7e9o9I|C+C+s-!$4.3$D@0%|#E+@.i +.f `  .2 5 1 n l `.^@l T,T,2=C12=B{s~ +)= -Y'',1*Y$I+_%t n 6 o < n f U.1@r P+_#(#u*9-U$;.-.Z -.|@U.T.`%^#V-V*N&E+1#j j ` 3,t&|#2@D+C,0%D+F*|#+.`+2@_@@@C+6 r :@P+P+P+y A 2.l 1 Z A *.2.U.|@_@|@o.-.-.|@`+$---<%,.'.1#j E+d '.S-3,Z+C+)#I#G@G#H#H#H@S A * < B P+@@@@D@;&",
"{ 8@3#( < Z f #.2@q*[*$-&>}%@]]{B*B*0 !.@. .1@u*a=U.&#g3F+m.M$y *.5 6 U.| &.l e#&.&.5 Z /.o.6  @[%^#=*]#c E+4 S ;@Z S o.0$$>g*k!k D.D@2#;.@@=.&.w Q+o.]$n.@@/#/#;.@@)#1@e#*.A S *.o.Z 5 A A S S -.V$k 6 ; S U.V$X%C,&.S 2.; 6 o.7 %.i %.1#E+5 S U.|@P+P+:@:@o.T 7#8#1@*.D*B*Z+F*2@).t&B*_@l S V$D*[*W;[*(>S..&V-|#|# @k.j  @|#<=C^z}-}n2u#y+=>i{6 % $*r%;.S U.2@u,r9w,V-N&,.V$|@r :@S n {.R /#R $>`$B w Q+:@o.o.|#D*--#*[%W* *[%g%E+j #.f ,.f k.9 %.T.t&q*` e T.|@-.;.S 2 n Z |@;.e#2#e#6 6 l *.-.5 n U.2@|#|#`+|#f ^#V*V*W*W*k.%.o.U.n 2.2 A l 5 l n *.A l ;.-.%.W*k. .,.d 4.k 5 U.m.:@D T r y B+r@X.X.`.n B+C@B+] 3#l ~ n ^@I#y C q r B T :@R y r /#x {.Q+y Q+^.1.D q 2.o.S l 1@U.l &.5 1@6 T ;*l[s=c!P+r ).F* &S.i*K,[*K,Y,[*e `%Z+q*2 e#U$9-^$7#9-#'s9t9C8R]4.s-&=1@S =.2#D@`+T.1#%.f i +@a | ; |@k `.^ ~ ' M.e.]@1>i4y4y^@%+<A.D(d>~% %5%I+t P+)#&.&.1@i -.5 y r S {.B S )#4.5 A &.U.Z %.f W*=*[%=*j j i T.`%e/v*+.d v*u*C+i ).B*'.2@Z+7-)#)#C+7-(#:@o.:@Q+*.o.Z 1 ; ; &.A 1@o.6 V$6 2.1@@@ &V*[%i*i T.T.@.b  @+.).|*`+o.6 ^@r@;.`.`.G@@@1@U._@;&{$/#L$^$/#",
"q@~%$@n+t D < o 1.1.!.i I~T/y(y+>.[=+#+#*@i |@z Q<!^[ ]$@@B P+^$)# .@.c %.F*,.h *@ . @0 !.i 2@F*W*]#V*V*i k.a  ._@6 S m.x /#x%l!X{% m&C=% -.A;E@X :#q2r%r^q2U&h;_@;.*.k U.5 ; Z | 2 l A 1 1 2 l )#1@)#k -.5 |@)#8-|=6 l Z ;.6 5 1#,.c b a 8 2.*.l 6 o.r P+o.m./#0%;&_@~$E*3!(6E*`+e |*x=C+V$P+D.'.'.,.E+d 2@'.`+[*i*V*[%V*[%g%%>I(M~o2s2/=i{h~l;-.*. |~8P+x S ;.Y;&]v,N&.&,.k k x r B G B o.:@y k!s&/#y y :@6 ;.|# @Y,<%X;--`,$-h*`+x=f 8 E+,.i %.f Z+|*`+....'.@@1@e#C+V$_@C+2#;.U$4.|@l 5 1@_@%.f 1#1# .h  .+.E+ .7 h c #.g%k.@.l l 2 2 S 5 S l *.S 1@Z o.o *.i E+..,.@.%.6 2.1 A P+m.x x r ].!+l `.{ Z.a.a.) ~ a.'+'+'+) a.( B+j$R$$@B+c$o.0#8.D 8./#n o.8.o.9#c$a#/#8.l+p+i$8._$p+p+9.B+/#y=L]u90!a$r o.%.`+$-.&m'=~.'.' &V-` ,.t&d +.e 4.u*_@a=];R(i6S!_6o!9-2#k 2 U.2 A 6  .i  @%.8 k.|#+.D@4.e#5 3#0.] H@2={@H*I.s_n408B(2>a@G(a@i%Y$z$H+n y 5 U.2.*.f 1@D.P+q m B T /#L$7-6 e#5 2.D@e#1#N&[* &.&|#'.B*e ,*J2S-2@'.).a=&=D+i2!,q*2@+.D*Z+~$|=t-z,7#{${$o.)#k U.*.; *.n S *.U.1@k 2.| Z 1@i*[*N&$-B*D*`+d +.f '.).d +.;.|@3#^@;.H@^ G#p@Y.m.R n.m.{$_#V$)#",
")&x.i+i+o o v m ; } < *.X-G=~;@ k.9 H O++#8 |.<4>$< :@P+S Q+_#m.B*F*#.a  .@.L+*@ . @1#+@0 1#T.D+K,.&[%Y,d E+j i k 5 T P+R y ;*m.z+*.B=k s*r%H=A;s%h;R+W+[#}#R+l*|@o.k ;.5 z S 2.*.S S *.2 n 2 A 6 2.2.o.e#5 l l |=|=Z 2 *.A *.o.f ,.a h j  @e#V$)#C+@@S Q+{.{.B :@D@~$u*'=,*T-E*E*t&'.+.*.6 ^$z,U$D* @T.q*2@T.2@K,i*W*W*.&^#^#i*!~O~-}&(I~R*[~<=k s*7:r^y R :@|@Y;}' *^#` ,.@@;.l.w n m l.Q+P+o./#c!/#R S n *.U.).S-v9j;i*W* '^#E+h #.9 %.|#%.+.1#E+..E+` +.'.'.@@U.S 1@=.C+e#;.U$s-U$)#*.|@)#)#..1#f ` #.a h #.h k.j j ` E+i*|#Z -.o.Z 2.2 n &.n A S 2.l A < *.i 1#%.h h @.2 n - *.{.l.]$}&@@Q+H@`.k+- / ) 0.) / ] ] ( ~ n ~ B+C p+w.n B+' _+v.C p+a#0#<&C %@p+1.$@9#_=<&0#p+q@s@a#i$0#9.B+r@)=i^C[);;*m.)#..D*i;i*M,m'K'[*$-(>'.+.`+2@D*2@U$};}*F_t-L$7-|'Q46.a=};7-2#2#-.*.S b 1# @%.h j ).d -.1@U.*.B+o.C@3#c-e.N.f.I.4=g.++d;!!A.6-r&b@:% %r o.*.Z U.1@E+-.V$S x r T r L$8#0%1@)#U$7-2#k Z 2@W;i;(>d d ).j=*)t&Z+S-3,|*=.0%S-X;`+E+..+.'.F*>*t|<$6.9-t-Q+o.U.6 -.e#_@1@o.Z *.*.o.Z 2.l l 5 ,.[*S.<%|#1# @+.1#i +.`++.2@V$e#H@C@/ / C@^@;.;.{.y o.r @@@@V$e#",
" % %x;Y$Z$F C S {.m n q W+L%2 D#0 m2K+!.0 +#}@z &.l o.B D C _#y 1#D*`+E+c 7 b #.f  .%.k.f `+'.T.w=w9U;`>D*F*`+1#o.|@*.6 n.t-L$L$G=/=(=$ C=C=k r%$%$**.A;% %%R+S+5 1#i ,.c >.2.2 5 S l l l *.l.w 2.1 ; @@D.n | *.1@&.A *.U.-.1@;.j i*#.k.E+,.@@U$}*o./#m.x x m./#/#m.)#2.+.B*).`%t&'=T-Q!a=X%|'8#}*V$2#0% @E+'.d f 1#1# @d i V*V-P*x+u#/=$ [~G==.e#o.P+R S Q+r Z @*P;c).&,.` l Z n w w w *.-._@^${$x T R 5 < &.l '.G]t&..^#[*X;[%#.b c @.`+d  .,.`  .,... @ @E+` l l 2 l |@o.*.l 2#C,X%>*)#|@-.V$F*..` %.j f f E+,.1#` k.i T.q*).U.l A *.Z S 2.2 -.U.*.n ; - -.o.l Z 2 1 S -.U.o.Z 6 6 V$2#k U.e#/#w.n+$@n 8.D B@9.{ n R$`;<&a#q@{ n+9.D v.x-F+{ p+<&j$i$s@$@w.n %@0#/#r@a#B+%@o.L'C({- %b@ %1*G*j!C[x^s={$!$x=x9.'+'x>m'.&.&w=E*Y,V-+.i +.`%s-u*4.V$_#}&B;}&}&R(s-|=&=8-u*1@|@1@`+#.@.c j `+,.i i ` o.1@-.@@s@R$R$s@3#'+o.0%U3`.c$x%;*Y$B+_$n+i$@@;.Z U.1@@@1#;.)#:@@@/#:@_#{$]$@@y @@)#k 1@k 1@2@Z+S-e D*+.1#B*0%A 5 )#D.=.-.|@d `+|#E+,. @'.B*4.4.Z S 3$k 1 5 e#_@o.S *.&.A ; U.S 5 Z -.6 5 6 ..D*B*+.c k.'.'.;.=.|@*.-.D.U$e#j.i.B+/ <&z!-'z!D@7.(#m.e#D.};7-",
"i$o.`;<&Q+Q+r {.{$m.y o.S+ |V&$*k.^#..,.@.0 ; 6 @@o.r T m /#t-7-E+j 2@,.b f %.7 j %.d ).T.|# @ @(>_8i;(>B*d ` %.|@e#|@=.V$(#6 |@h~I~T/W~,3=.k k *.G=r%v6C=Y+^&E@@.c 7 c 7 h U.2.l 2.2.Z 5 S C C 2.2 *.1@|@o | *.z ]+2.1 ; z S 3$.&i*f j E+ .U.7-4.; T _#@@_#{$]$M$L$U.| T.....D*T.B*i d e#0%q-u*3$D.}*e#%.E+%.1# .E+,.d d j [%E+l;~;P*y+I~R*% z+o.*.C {.x :@C 4 +*%=V*+.d @.4 < G+w n w V$3$k k k n T w S o &.;  @).k.d N&W*`>i +@` 1#c j ,.'.2@|#E+i +.2@d k.a &.A 2.5 |@|@o.6 @@2#4.0%4.D@U.-. @E+j f 1#,.1#i Z+B*T.+.T.!$`%e#|@5 l -.1@-.l *.*.*.2.S 2 - 6 n 2.*.A A l Z S *.2.U.&.*.o.&.> 2 %@C C p+9.8.p+w.$@p+n { l+v.9.p+8.c$o.{ $@n q@q@B+c$j$s@_$s@a#%@i$`;C s@0#<&_=r@)={-;-{{x%{-;-D[x^v= %,%| 1@U;`>K}6{Y;i* & .Z+Z+<%<%D*`%Z+E*;@a=D.;.r ];E-;@z,7#u*u*7-e#=.&.6 t|E*i k.h %.d ` j '.+.;.;.o.o.a#<&0#o.( ( H@e#P-2#R$j%R$o._$_$C o.)#D@Z 5 6 |@d D@}&L$/#]$;&/#P+Q+{._#)#@@S *.1@6 d ).).2@`+%.%.T-X%V$k l S S -.< 8 f '.`+ @@. ...> * &.1 *.1@7-~$2#_@6 ; *.U.*.o A o.V$~$4.1@1@V$d +.i 1#..i ..D+3$o.o A o.o.@@;.i.7;r@^@r@^$,@4'''z,7#}&&'p*_9p*",
"B+^ r@^ 6 Z *.-.U$k U.2#:;H=A;% f S.'.d +.f &.o._@e#/#o.y /#L$!$|#[%.&.&[% &V*^#$-N&^#V-$-^#[%[%#.d d 1#` !.@.1#|#E+j %.%.l %.@.Q**>->i{h~(==>l;# l;y+8!A+A+% B=@.*@@. . .,.;.*.l *.Z o.o.S S r 1 4 o < &.U.k 6 S S 5 k !$1@l @@W*.&,.f 1#i k D@3$|@D@]$_#n.L$];8#@@)#u*e q*`%q*S-q*k...V$U$/#m C (#9-;&l -.1@=.C+!$q* @i 1#i 1#d U.-.l _@k )#e#] 3#^@G#^@^@s@a.0 ^#.&` #.2 | [ o w 2 @@!,T-+.o.o.U.;.S 6 5 l A E+E+0 .@ ...Z+T-|#A l &.A 5 5 o.V$C+)#k 6 o.-.Z U.o.;.k 5 Z 5 Z 4 *.4.s-D@S -.1@l o.;.;.6 Z 2.2 *.-.|@k V$D@-.D C S Q+y {.m m T S C r C C C B B C S S T l.m ; n > o +@)+b ` b 9 n /#/#c$C n p+i$8.C %@%@w.' l+w.i$i$B+w.q@B+B+p+%@_$s@B+C R$r@i$0#r@p+r@`;c$H'j%Y$ %Y$)=K{1:e5g7S5Y_J]2{%%-.y(g=y9K'&{%>C^Y*S*Q*w=(><%i;B*3,z9D+U$0%w*v2-@l9N,|'u*C,7-e#4.o.e#b=x=2@a ` ,.k.`  .])l&1#@.U.5 o.y r {.o.@@` y+).F*`*J#I#B+'+] / ^ D@D@; &.5 o.1@;.n.s={.{.w C :@B S r 2.-.6 S |@e#V$)#k )#)#*.k p*!$1 {.{.x l.G l.D@_@=.4.7-5 %.'.f h c #.0 i i d k -.k 5 o.o.U.U.k e#=.}*s-=.=.3$=.k 6 D.};u*4.~$C+2.m {$D@Q+R _@P-;6I.f,J#c$c$j$9#_=z%,@!$&'A9e ",
"h.B*63h#+. @@.S k.2.6 D@C=E#]-~;$-i*|#2@Z+D*Z Z Z -.y y y o.x S d .&[%N&V-i;U;i;.&[%V*.&]#]#i*i* @%.a h @. @d `  . .j %.@.f |#|#D^~~P*P*~;P*y+# R*y+8!v+v#E#A;G=f 7 d +.d +.Z A -.5 -.k :@S B {.1@1 1 /.1 -.|@o.2.n -.!$D@1@2 A =*V*'.d k.1#e#|@C+V$y y :@n.M$;@z,m.U$}*2@1#1#B*J2#..@2@C+D@T t C o.0%d!D@3$>*0%><p*v*Z+T.`+..d |@;.1@-.)#e#k k ;.o.`.o.B+> _$C@i |#2@1#l 2.2 1 B x k )#|#i |#D+D*1@l Z S C+2#e#d  .|#d B*B*|*e~3$k )#7-V$_@_@@@)#=.k 1@k 1@1@6 _@V$3$)#-.-.;.|@n U.)#U.l &.-.1@; 2.*.&.z < 4 z A *.2.n w l.o G+r x S l.G o m C m q l.w G B o D x Q+T m q s 4 A 2 2 #.c h @.g%7 ^@-'>@J#c$c$R$<&`;8.%@0#o.q@$@p+8.n v.n+p+q@q@B+q@%@D 0#R$s@R$c$r@<&s@j$9#_$x;j%H'j%x;#,>-W=$5B9@5C9D9V4r%(=}/*>-{Q73/3/i{%{-.$*,.@*[%W*+.D+v*).7-s-w*&'9-B;98(4};s-4.D._@)#4.D@D* @c d `+k. .i i L=j c 6 5 /#{$/#l.S r%[~R*[~t{a=X.'+(._ ^ `.l |@e#1 z 2.5 S x G w%C _#r x C D T q 3 o 5 Z @@!$|=~$;.;.|@1@3$U$}@,$<$q-:@S o n 2#=.=.C+7-e#F*T-T. @` +.f |#k. @_@;.k V$e#U.@@3$D@|@k -.U.V$=.V$V$;.e#4.b=_(X%D.|@k L$7-D@^$P$;&2|z[2|u74''@<&9#<&r@^$,@D.3$Q!G]",
"N71|E9<-K,<%g%a e%i D*..R*/=O&U%.&^# @.. @,.l 2.; 2 x Q+Q+R y ; 1#N&]#]#W*i;K,V-@*@*]#[%p&[%i*[% .-.*.S 2.o.,.2@,.j E+B*q*T. @..~~~~O^o=!~O^e{O^Y*Q*x+Y*Q*Q*P*y+,.f |#d T.1#A l 5 2.T o.y T m w -.A 2 &.S 5 o.U.-.o Z ;.- /.&.2.[%[%Z+D+7 i _@1@3$1@x _#@@t-;@+;u*7#};3$|#i i '.D+.@g a n n w S s&K$R M$u*}&9-|'v2t||=u*j=T.d '.D@)#1@;.H@;.^@X.D,p@3#^@s_x&{@o.D*F*Z+D.@@S l.C A k 7-7-'.2@<%d |#.. @`+Z+#~'=+.V$)#5 5 =.6 _@;.A ;.e#}*};m<]8&=D@)#5 5 U.*.-.@@@@k -.*.A l *.n 2.e#V$2 U.k o.| 5 l &.4 t q w n w T C B l.{./#D@j~k!0$a$Y%a$Y%z$Z$s&Y%z$,%5%Z$Y%F `$5%:%s [ [ o b i ]##*W*N&2-[%^@;@>@`;<&i$9#j$/#j$`;R$s@i$o.B+%@v.>+l+$@o.C n p+R$_$R$o.a#<&z%0%>@3-9=/#p+1*j%g*{~,-l7F9<:G9H9I9J9K9l^}!I~Y/L9[}`&M9h(((->z+X- ..&<%#8=)`%|*F*2#7-7-}*9-m<76-&|=9->*)#|@D@=.e#..i %. .|#F*i  .h# . .j.|@-.Q+_#V4:#X-A;~;`_)3S*k.Z#P-7; .P-])(@E++.Z | S _@A T o G$z$`$T o.C t Q+y T S 1@U.6 D.!$C+_@|@1@e#R D '$:@76($(#q 6%z$l.o.;.;.!$a=D+B*#.a K,Z; &.&<%|#o.U.*.1@k |@;.;._@D@a=2#o.V$4.3$k )#V$D@0%@@D x r P+(#{$_#7-[!L$5=z[C:I.J#9#G*J%j%d;/#^$;@!,_8N9",
"O9*~^(8;f&<'$-V-$-<%+.`+R*/= ## x+[~ @7 a %.2.*.-.S S P+:@G D {.` ` [%c V*.&+*]#7%i*[%p&$-V*]#@*h 5 2.-.@@C+).'.).|#d ..F*d f E+!~~~D^~~%>D^^{o=l@P*[~${Y*S*8!x+j @.h d i ..o.@@2 z s B r B ~.o o Z 2.1 5 E+j 9 b k.c f 1#> a c i*g%q*58f '.).e#_@e#S _#}*-@9-;&D@!$D@#. .f %.2 7 ; `+n A o.@@/#%*s&q y ];9-6.R(&';@>*C+3$e q*+.3$k e#C+H@C@G@I#C@G#G#^@],{@]@( ; *.o.$*-.S 5 6 )#;.d `+`+.&.&(>[%f j c `%(6%.,.4.o.o.2.S l 2 -.6 _@3$|=!$7-6 1@V$D@S 2 l *.S l 1 *.2 4 4 o &.*.*.l |@=.D@k o.5 k U.2 G T Q+{.G o o ~.l.S {.C B 5%`$6%Z$`$`$X#_%Z%s&E a$B `$D  %i%_%y$`$w l.{.2.A n %. .j |#i*i V$C '@7.c$c$p+8._$9.n a#a#_$%@s@B+q@9.o.s@9#a#n C s@0#p+<&n.''5'-'>@6.0%z%<&7.X}J#]'%_b!=' >I|s9h{]9V&r%k P*C^;{Q7C^P9Q9y;Q*G=;.`+[*U;1'9{j=j k.2._@2#0%_(R9l9m8s-~$t|k n 5 6 _@i d f  . @2@ @E+4#w#7  .U.;.w s <#s%-.D#[~R/R*[~).M<l-Y@7 E+j.,.+.@@6 &._@l62.q m s&m B @@P+S T R n./#_#=.6 5 =.D@;.)#e#@@_@P+:@n.7#E-r l.n./#(#P+@@D@X%)<S9(6E+1#|#w=i;$-[%[%k.S @@)#6 n -.1@V$e#=.}*C,e#V$~$_@o &.D.s-;.2 ~.T o.r @@n.;&<$_#P+I[>>c>s_I#R$s@s@q@<&^$}>3!T9U9=)",
"t.q=N ]#M+e%<%i*^#W*o=I(g{|%}%8!*.t7B=8$*.$%@.k.2.5 p@U*9=q@(-9.'+C@h%`.T...q&i.&@|>G/i>h>8%}-g-h @.k.7 E+d |#f [%i*i*V-S.W*%==*%>I(&{&{g=g=8!P*h~h~<~W~Q*P*R*Y*s*X E#G=A;6 G=C=B=8$o w B x T l.l @.7 f E+--W*-*p&[%]#[%.&%.^#[%g=x(y(V9&{%{E*x=*)e~b3G@B*U*D@0=C-~,B* .|-l&H@i$;.R$I#c$o.<&G#'@b!g*%]R]a!k!R L$^$M$o.l.B z ; e#r@G@G#G@H@C@o.r@I#r@X.;.C@^ G@^@6 K^X t7A;D#*.Q*[~x+]#[%W* *z>2-c)$-g%7%N&V*L+L+1 2 5 l n D o P+x x m t q T w q T q C /#P+{.S S Z 7 8 h l S n > n 2.;.D.|@o.S R S ;.T G x K$E F Y% %z$ %Q+T A B I+H+,%a$s&:%n+$@D %@C 9.B+8.2+%@~&~%n%x;x.i%K%0#%@B+8.%@i$'@D@R -.& < &.*.S 2 2.%@w.t+e@@+k$8=B(C#h$i$R$c$8.w.9.1 &.n &.)#X{>*2#]$_#(#R(i6z,6.;@T^0%3$k @@;.'=e/b=D@S z  ...,.` ]#F*E*Z+'.2@q*'.u_t.N]97O7W9q*|#->H{g~P{Z-=3p6X9_1_1H{y+l;I~<~h~ .`+f d i 7 |-h%S V$@@6 6 U.Z 2.*.2 2.l |@X 6 3$,.j l &.A -.U.G=k V&:#s%s%Y9<#<#T m 2 -.1@U.-.@@_#@@Q+{.n.R r 7-@@)#;._@D@3$k |@5 -.l | ; -.@@;._@j f `+`%S-D+2@q*).2@ @+. @%.E+C+{$@@y x {.Z U.Z S ` @.1#`+F*|#..).~$4.M$L$m.Q+q {$M${$;.k |@ @I[Z9b8E>P~H,|,T,c-g.s_s<`94! 03!",
"b J+@#L+h)g ,. @i ` O*J$.$p|P*/=y~6~.0X)Y#E@%. @-.U.^@^@B(K#!&X@`.3';@o.}>o.4#Y@Y@C-63j>g#}-L;3@c @. . .` f  @+.[%-*.&--.&V*g%[%&{D^C^x(Q9]{<=(=%{->$ 8!Y*<=R*[~A;X $%% 6 X-% E^X-$%~.m n x {.C l 7 @.d --$-w,@'D-x>x>x,[%p&.&i*~~_{&{]{;{y[%.f '.D+B*4$4$4$G#;.}~s4+0T.Z)}>j$<&j$D@j$c$R$R$G#H#(#g*%]@>l!$>o.R D@T w m n S U.e#G#H@^ `.o.;.X.H#I#V%X.G@B+( 3#U.X (~W)J^q%K^8!R*%&}%#*g%Y;Y;z>z>c){>=*#*-*#*` 7 ; 5 5 1 ~.~.n (#o.Q+R x S C Q+T v q {.R _#P+x l @.c b 0 1 2 2 ; 1 l 6 k 6 5 m Q+n -.:@n z$a$X#0$6%z$:%5%x {.*.T G a$z$:% %E i$n w.p+~ / B{f=b.l$1$$+]&#+Y$J%J%)=G*j% % %j%y=$>0$& Y+2 B=o.5 S S B+s@1$h$h$ +_*d@B(d@_=9#s@n $@q@Z 1 A l H=k $*% l.C r C t m 3$u*><0%q*`+`  @U;@03,h J+0 2@B*F*1#+.x=q* @+.'.2@,.s.b86363f8N7D+T.I{^8@8q}c7^!#0&9(3$0I{61I~->_1P*d T-T.,.j.&@Y@Z#&.V$e#-.Z 5 5 A A k 1@Z 1@l 2 k d d 1@-.r%r%X B=h;<;7:U&%067&0X)Z *.2.2.l l l *.R y o.R <$;&a%7-;.k U.k s-D@6 ;.S l *.Z 6 ;.;.|@+.,.j  @Z+x=j=S-B2D+'.j d  @1#1@U.S S r o.Q+U.-.5 ; a a ` d 2@f `+'.'.)#V$m.P+Q+P+m.{$n.V$;.E+j Z>N]*0f8=0=&C>h.9>C-I[~,-0j9-0#3",
";$>$.#}@,#3 o.D@1@k m&*.8$$%$%A;Q3X)X W z Y+k. @l Z B+( c$/#%+(-{,;0h}G@/ 0.r*+@n@..l&B,f8B!=&8%a #. .k.h @.f |#V*W*V- &i*^#]#^#I(_{&>&>4/Y/I~(=(=y+l; #l;P*<=I~A;D#*.B=% )#$*G=k $*U+<#w Q+T t *.2 *.5 f 7 ]#N& *x,V-W;V-g%1#1#x+=>((Z|l;U-L+)+o !$^@0./ H@^@V%O7t.B>E*..G#`;i$8.R$7.z!p@G@p-o.R R @@_#m.n.(#^$@@*.Z 1@2.*.e#D@H@G#o.3#o.X.}>}>2#2#I#`.G#X.G#2.X ^&-.B=s*s*<=l;!.a =*V*u,x>z>K'--.&g%]#N&.&+.E+S 5 *.| n n y q!2#U.=.7-|@[ 2.|@5 ;.6 l 5 o.5 Z h 7 #.` S A 2.S | U.)#;.T T q ~.A o.{.l.`$a$6%$>K$6%Y%s&S r 5 r {. %:%a$k!K$n+$@a#q@a./ d#f=f=g$l$l%%+-% %J%f>#,1*~%6$r&a$E F F A+X *.m&U.1@@@|@J#9=K#I=K#++K#U,4>P:5'3-7.r@`;<&o.S S *.5 | B=A;2.4 A *.o U.C+V$k 6 o.6 1#|*T.D+q*)+I i |*T.`%Z+).d E+..T.D*F*+.3@N]O7<(Z>Z>F*t&t{t~>0>}`7,0X9S8t{'0g~)0a]${y;P*`+G]'.a b c i.Y@&.1@|@6 U.5 k _@-._@o.A 2.l &.n f j 6 6 k k A;s*]:]:7:S+s6{!.0(~S 5 l &.2 5 U.*.C Q+Q+@@^$]$L$@@}*U$S A V$k k k 6 -.-.k )#)#;.6 d `+ @..B*'.,.).D*E+d E+,. .j 6 Z {.x Q+U.Z 5 6 k 1 h ` `  .,. @-- @j U.l o.:@m._#n.)#V$2@D*K,i*[*i;+0W;7;f /@`+'=E*B>v*!0S^~01=",
"!#'$P '$1.s ;&m.o.Q+R+<#U+U+^&Y+6~{0V&W E@$%%.h S Z ] ( '@s@!&j$X.p@{ > u./ n@O=7@[.7 g!s4j>3@}-g c ` %.a #.#.#.[%j;i;<%.&@*[%N&O^&>^{O^~~*>i{Q*O&u#O*8!l; #v+w+A;m&B=B=X-z+6 *.s*X V+X S T n C o.5 U.2.1#f N& &Y;W;[*U;X;E*E*E+u#I{l;w+l@# ` |#!$V$0.B+G@H@p@0%B>Z)b3D,2#;.a#c$D@J#0%4-D@G#T.i.|@P+R /#R o.r r 6 -.-._@6 l 1@k r@V%r@G#^@I#D@H#G@p@H@~ C@G#C@2 r ^&k G=5 A;.. .k.1# &i*K'2-c)Y; &p&W*^#.&i* @c l *.*.2.T n o.9-0%Z S -.-.; 2 o ; Z Z A l 5 *.n *@8 #.%.6 =.~$s-k 6 |@U.{.m./#x *.o.S o.x%0$F 6%E F 0$)>T C Z r o.{#:%Z$H+Z%{ $@C a#/ B+!=!={@b.u+{&l%6=d;G*M&x;x;j%x;M&F 0$s&C % k X-E^=.o.1@D@z,U* +k$ +C#K#:(_=''2';'j$_$9.B@w n e#k Z ; s*}!;.z o.@@e#V$=.-.1 *.6 1@D*e F*Z+b >.+@@.j j T.q*2@E+1#`++.T.q*..g#g#g#p.G/3@|#e i{i{5(H{*9]0^0[8Z|^8/05(P*y;y;I~F*q* .g !.'.4)h.S -.5 -.U.5 e#3$1@=.k 2.4 &.l 1@E+@.|@@@-.$*k %  |r%s%X s6(0r8h;5 6 -.2.2.o.k 1@P+R P+@@r P+S y !$X%V$1@*.l k 1@-.6 6 o.|@V$e#k %.d  @|#T. .9 k.h +@i |#+.E+` Z 5 S B l.S 6 |@|@S S ,...d d  @j ]#=* . @,.1@1@_#=.|@;.)#|#..S.S.[*}/w=]{+.Q*d (=D+=>S-_0+;&==.E^",
"n+v.' -#p (#D@n [ ;#o-;#U&q2l*X :#V4:#R+A;X E+7  .#./ ;.U*8.8.''o., >$- z Z l z g !.+@+.`+,.|#7 9 k.%.%.7 %.k.@.7 D*--W*V*g%W*^#L~g{%&C^;{*>I~P*O*[~~;[~S*Q*[~l;B=G=r%k z+s*G=B=&.X T&U+U+Y U <#Q+T S l T.F*+...--X;N&#.8 i  @Z 6 6 ]%%%1@Z -.e#_@_@Q+(#<&0#r@;...'.2,!$6 n.D@_#L$^$D.2#|#,.[*|#V$|@6 |@k 1@k V$f j `+D*D*|#1#'.3$)#_@V$D@e#@@@@|@6 S *.S 2 1 A Z Z l | ~ o.p-i  @,..&$-<%i*.&.&^#^#.&W*T.F*,.c &.2 U.S q ~.m Q+e# @,.,.i ` ` f E+ .@.a 0 c ` %.l 2 2.-.;.@@V$3$;.1@r T y R x r @@|@P+S `$`$ %0$5%5%`$K$B B A B t .%6%s&u u $@8.n+%@8.o.~ ] `.] o.B+C _$B+<&B+R$B+o.P+x r Q+Q+T % 8$*.6 _@V$6 Z D@U*:(@% +)@g$8=B+R$9#r@i$r@a#n T x r r Q+R 7#~$)#k.2@).)#o.U.*.S V$V$-.)#D.>*X%%.,.D*T.q*2@1#1#|#d +.|# @1#|#B*N]p.L=Z)'.d ).).[~$ i{=>!9=3=3`7`[t|F6B=$*o{~$C+C+C+@@A 2.}*&'5 *.Z l 5 6 @@D.3$)#!$@@l 2.S U.4._@Z ;.D@;.@@k G=r%X-S&R+X S&S+O[6 k k U.l Z 1@@@e#U.R L$T S l.T k =.|@;.U.Z k o.-.6 6 5 Z U.1@k  .f i d ..k.c 1#k.E+|#,.k. @f n &.C S n n 5 |@|@S |@|#F*|*).%.b e%p&<%T.d  .1#C+Z+d ,.'.[*[*W;Y,g=A3(=V/(=V/$ .(=>-361:0P8<0% }!",
"0.O 0.F+2.7-5 u } ^..#t r%r^G=V4l^ |^&U&s*B=..E+h h ^ I#^@{ B+,@_@]+R.< [ o | [ *@c ` #.c +. @7 f E+E+i f E+f E+1#j $-$-V*W*V- &#&!~C^*>;{C^Q*8!y+$ O*S*R*$ l;O&A;G=% X-r%X 6 X Y#G=S&U+T&W A$V T n 5 U.|#D*'.Z+i;D*i 9 @.| *.2 -.*.A;H=-.;.D@k |@)#/#/#<&'@7.9#e#;.|@|@_#D@D@{$P+:@k _@ @ @(>-- @-.o.@@_@1@U.-.1#,.).t&|*).'.q*4.)#_@=.7-C+_@|@D@=.V$k 5 A A 5 ] / ] a.^ :=B>l&+.j =*[%^#^#[%[%i*V-@*$-t&d @.i *.n S 2.o ~.q l.1#F*).d +.2@1#f E+@.#.%.#.%.,. @k |@-.S l *.1 * [ 2 P+S {.:@o.{.;.;.:@S `$Z$s&0$:%Z%X#F Q+r l A v X#z$X#q s D R$B+$@$@C l B+G#H@a#C R$o.s@U*'@r@%@B+{.m S o.:@T A;z 2 6 k k 5 Z ,@U*+%36=:k$u@@+B@{ O w.`;z,<&B+~.m S S {.<$;&o.|#` +.|*=.U.Z ;.V$=.o.1@V$V$2#)#`+..q*x=J2F*k.E+ @f ..T.+.1#|#S-N7s4E*h-|#d '.`+I~I~<=x+]!{!-!]!P8R5% t|p6`-!$V$o.k =.e#;.2#4.@@5 *.2 -.6 -.k 1@=.3$k -.o.U.Z )#)#U.Z 6 )#D@k r%C=X-s%X <#U+T&l*U.U.-.-.S l -.@@;.Z x @@:@C Q+x A |@U.2.Z l k k o.-.1@@@k o.@@2#E+j j E+` c 7  .` %.f d ` ,.k.S *.x 5 l U.;.;.-.5 k '.D+E*j J+W$.&W* &$-|# @+...1#+.Z+S-Z;V;w=[*]{A3V6V6V/V/R/!3`_^3>3S2[0}0]0|0",
"- ) r*n ])] f 1.W$4 F*7-'._@|#1@V&T+R+<#X X- @@.7 k.h.`.> Q&_$J#=.&.4 5 e#S [ > z > | o &.1@-.)#6 |@_@e#`+d ,.E+ @7 0 7 .&^#-*.&%>&>;{y[&{o=# R*<=y+->h~8!u#l;y;-.*.*.o.r%G=s*B=*.m&V+<#Y T&W T&0$0$n./#o.D@D@U$T.t&B*2.4 2.l B k @@D@C+_@D@m.m.m.n.M$^$R D@I|<$D@k V$]$(#]$;&/#t-{$)#_@1#i*<%i*+...d +.2@2@+.d +.d V-Y,w=(>[*2@7-D.C+3$C+D@e#@@7-2#D@1@U.1@o.2 / x&N.]@e.g.^@H@|-5$a h 8 7 .&.&'.2@ @+.j 2@D@Z U.2 A &.q B C y d  @E+1#`+%.b c k.@.k.` %.@.c c U.A 1 &.A A n n n T R T T R @@T 6 6 w n 6%;*c!0$Y%X#5%Z$P+o.l A {.{.q@B+s@i$c$s@9#C p+%@a#R$<&r@~'T%:=G#H@B+1.j+-.o.-.Z U.6 -.l S S -.|@k o.$@u 8.s@8.a#u|+%4>l$! ) ] 2#C,!$r o.r @@L$u*_#m.D@L$1#`  @B*2@1#3$u*=.6 Q+z,6.];8#O:e#@@;.;.U$4.2#U$C+k e#@@;.V$V$=.Z)l&|#,. @+.|#F*I~Y*H=H=k s-&=y|:8102030m6m6M$(#:@G T @@m.:@m./$}*)#|@D@@@S o.k V$o.*.l k 6 S A A z [ 4 *.l n o.o{r%-.s*-.$*B=k j  .k.` 5 Z 5 -.S A | z n s B x S U.S *.1@1@1@Z Z l o.V$=.D@U$|=C+D@e#_@@@1@5 S &.l l l |@0%V$U.5 -.6 |@k ;.e#)#2#}*7-V$6 5 2 k.(>i*.&$-[*Y,S.W*K,[*Y,w=i;-- &[*/=8!/=Q*i{W~${=>m&G=H=z+r%E^=.o{",
"i. .(@4$i 4#c +#H 0 2@F*,.+.`+C+X V+U&U&r%r%0 0 h f k&..o.! { p+&.Z 6 2 S > z > [ /.* ; 5 o.2.k )#D@V$Z j 1#2@`+|##.b f i*V*[%<%o=q(y(*>*>I( #Q*Y*P*>0I~P*l;l;Y*o.A Z 1@z+r%6 r%-.&.}#U+V+R+U&W ;*$>(#P+Z C+1@l j @.o./.Z )#D@n k -.l -.6 V$L$R m.n.]$R Q+T )>p!_@1@7-L$P+n.n.(#];<$D@1@i*<%V---j ,...+.T.q*T. @d ..[*[*[*<%(>k;q*s-}*D.;.k e#D@C+C+3$_@5 -.|@5 N.e.N.:,c-B{3#&)h-i.#.#.h %.--d +.%.h c b B*)#2 A S l | w Q+S 2.E+i  @` ,.7 c ` >.a c  .i j #. .l *.2.2.l S 2.n ~.~.T w r C l.{.2 n l.m 6%$>F H+Z$a$a$Y%Q+l.1 ; T w 8@o+B@$@c$J#i$c$j$c$0#i$0#i$^ ^ `.( B+a.'+) &.S U.k -.o.5 o.1@V$@@)#e#5 8.i$l+_$q@i$==W:==r@H#H#X.:=;._@_#r R (#];+;^$L$P+@@o.,.2@T.B*`%b=X%=.1@y {$;&P$/$-@2#3$@@k 3$7-}*7-};C+U.l V$=.k 3$k&T.`+|#f 1#).3,<~S*C=}!~$P840)<50S+Y q2<8507-D@L$x Q+P+@@/#:@7-3$|@S 5 A 2 k )#*.o.-.*.k Z 2.U.2 1 2.Z Z A n o.B=$%*.X X s*B=C=d E+ .%.U.5 2.; U.-.e#k {.S S x k 2.l V$;.1@6 @@k 1@6 1@k _@=.2#k |@U.U.@@e#|@6 Z *.A 2 -.@@@@2#C+k o.|@1@5 U.@@o.;.o.U.S ;.1@o.K,<%W*.& &i;[*i*[*K,<%<%W;K, &.&d y+d h~2@<~).<~V$% -.s*5 B=U.X-",
"6#7@[.6#7 h#4$ .a @. @ @j ..'.5 @@Z$P+;&!$_@j 9 k.j %.1#'.-.n 5 S 6 e#Z S 5 2.1 o ; o > z n -.A |@o.|@o.*.&.1##.c !.a ,. @h i 2@.&.&i;[*$-V*i d k.E+S-d E+'.).j - -.2#C+|@o.v6z+B=2 [#T&(~1~(0r%Y&E $>x%Q+n.S _@h +@2.4 S e#S :@S 5 ;.|@e#3$t-]$y S n T y ]$%]%*U.-._#n.:@R P+w G l.V$@@[*--V-i*Q*<~I~<~%{61%{$ y[;{3/y(g=C^*>P91#F*Z+|#2@2@'.T.F* @%.i @.b 8 ` N.T,c-x&c-d#3#p@o.3#c h %.f f %.h | n Z 5 2 &.A *.l U.2.2 *.n &.j T.+.d ..,.f @.7 ` @.k.1# @ @j *.|@e#|@S A w m n s q S T w l.w | A {$M$60e9Z$0$+>K$F K$y C 2 l n q@$@$@B+%@_$R$c$6.-''@<&a#B+s@/ B+l l C@] 1 2 A -.Z -.V$|@l o.;.e#D@V$C+;.D@0%`;>@7.J#>@'@C <&`*U$a=C+o.1@2.1 {.o.%|F:z!o.M&l+n 1#+. @#..._@U.1@1@x ;&(#7#/$#'u*D.3$k V$=.>*|=4.@@S )#!$D@6 3$~$4.D.7-e#)#@@6 l 6 `-s-${((W~$*D !#[ L$d!z,;&]$/#x <;O[s%s%V&O[;.o.@@|@*.; @@D.V$2#}*@@@@5 *.S -.-.6 -.*.&.A U.Z o.-.$%*.s*$*% d f #.E+i 1#Z 5 k ; U$3$2 *.A D@3$|@e#V$U.;.3$k @@6 2 n ;.e#D.3$=.;.Z |@e#|@6 Z 5 5 S Z Z n 6 1@1@|@l S -.6 -.V$6 @@A *.U.Z S -.[%=*i*i*S.V-V-[*(>K,(>--<%i*V-i*D*+.Z))...1#l S ^ 6 H@l ) *.> 4 "};
