/* XPM */
static char * sprite4_xpm[] = {
"64 64 2255 2",
"  	c #372A1F",
". 	c #A47552",
"+ 	c #CB9168",
"@ 	c #C88D62",
"# 	c #C38E68",
"$ 	c #785E4B",
"% 	c #30271F",
"& 	c #0F0D0A",
"* 	c #020202",
"= 	c #0A0705",
"- 	c #1D1715",
"; 	c #644A3D",
"> 	c #9A6F4F",
", 	c #CC926A",
"' 	c #C99267",
") 	c #C18A64",
"! 	c #C79472",
"~ 	c #BC8C72",
"{ 	c #C79272",
"] 	c #C79474",
"^ 	c #B78A74",
"/ 	c #C1947A",
"( 	c #B98C74",
"_ 	c #271D17",
": 	c #020000",
"< 	c #000000",
"[ 	c #523D2D",
"} 	c #BC8A6A",
"| 	c #B7876A",
"1 	c #472F22",
"2 	c #1F150F",
"3 	c #A7775C",
"4 	c #C78F72",
"5 	c #BF8A62",
"6 	c #C48A5C",
"7 	c #BC8462",
"8 	c #8A6447",
"9 	c #725237",
"0 	c #8C6247",
"a 	c #9A6A4A",
"b 	c #976A47",
"c 	c #B07B54",
"d 	c #BC875D",
"e 	c #C78B61",
"f 	c #CD9166",
"g 	c #C78E68",
"h 	c #CA8E65",
"i 	c #C18C6A",
"j 	c #BC875E",
"k 	c #B38259",
"l 	c #997151",
"m 	c #100E04",
"n 	c #1E1409",
"o 	c #6F4A32",
"p 	c #B9845A",
"q 	c #B9835E",
"r 	c #4D3625",
"s 	c #140F0A",
"t 	c #21150F",
"u 	c #A57755",
"v 	c #CD8F65",
"w 	c #CE9167",
"x 	c #C9906A",
"y 	c #C2946F",
"z 	c #A88062",
"A 	c #7B614C",
"B 	c #554232",
"C 	c #4D3A2F",
"D 	c #674F3F",
"E 	c #9C7755",
"F 	c #A7825F",
"G 	c #AF7C57",
"H 	c #C78C62",
"I 	c #C48C6A",
"J 	c #CF8F6A",
"K 	c #AF7A5A",
"L 	c #725245",
"M 	c #4A352A",
"N 	c #4D3D2D",
"O 	c #7A5A3D",
"P 	c #875F47",
"Q 	c #070502",
"R 	c #4F3727",
"S 	c #8F6A4A",
"T 	c #070202",
"U 	c #724D37",
"V 	c #BF845F",
"W 	c #C78F64",
"X 	c #C48A5F",
"Y 	c #AA7A52",
"Z 	c #644A35",
"` 	c #170D0A",
" .	c #1D150D",
"..	c #271A12",
"+.	c #322515",
"@.	c #3F2D1A",
"#.	c #926743",
"$.	c #C68E65",
"%.	c #C9926A",
"&.	c #C48E6B",
"*.	c #C38D68",
"=.	c #C08C6A",
"-.	c #BD8660",
";.	c #BF8861",
">.	c #4B3A1E",
",.	c #0E0904",
"'.	c #724E31",
").	c #BC845A",
"!.	c #B78059",
"~.	c #593B28",
"{.	c #221911",
"].	c #241911",
"^.	c #8D6846",
"/.	c #C59066",
"(.	c #C9916D",
"_.	c #C78F66",
":.	c #C29375",
"<.	c #C49372",
"[.	c #BB9573",
"}.	c #C78D6B",
"|.	c #BC8F6F",
"1.	c #D19C7A",
"2.	c #CF9C6F",
"3.	c #D19467",
"4.	c #BF8C62",
"5.	c #CF9267",
"6.	c #C98F6A",
"7.	c #C78C5F",
"8.	c #8A6A4A",
"9.	c #0F0A07",
"0.	c #050200",
"a.	c #875F45",
"b.	c #3D251A",
"c.	c #3D2A1F",
"d.	c #C1845F",
"e.	c #C1845C",
"f.	c #C78764",
"g.	c #84573A",
"h.	c #22130A",
"i.	c #A1744D",
"j.	c #C78F67",
"k.	c #C68B62",
"l.	c #BE8B6B",
"m.	c #BE8B69",
"n.	c #B8845D",
"o.	c #BD8861",
"p.	c #BB8B5E",
"q.	c #46321E",
"r.	c #22150E",
"s.	c #8F6746",
"t.	c #C48C5F",
"u.	c #B77F55",
"v.	c #453021",
"w.	c #150D0A",
"x.	c #1B120D",
"y.	c #926748",
"z.	c #BB8663",
"A.	c #C38D6D",
"B.	c #BA8F69",
"C.	c #7F6351",
"D.	c #403126",
"E.	c #413226",
"F.	c #16110C",
"G.	c #4A3D2A",
"H.	c #BF946A",
"I.	c #D4A277",
"J.	c #C79274",
"K.	c #C79F74",
"L.	c #BF926C",
"M.	c #C99472",
"N.	c #C18F72",
"O.	c #BC8C6C",
"P.	c #1A150F",
"Q.	c #775537",
"R.	c #B17F57",
"S.	c #2D1F12",
"T.	c #0A0502",
"U.	c #2D1D12",
"V.	c #B78257",
"W.	c #C48A62",
"X.	c #C98F62",
"Y.	c #926245",
"Z.	c #1A1308",
"`.	c #A6754B",
" +	c #C68D62",
".+	c #C78D65",
"++	c #BA8463",
"@+	c #AD7D5A",
"#+	c #B48162",
"$+	c #BC8759",
"%+	c #AC7E51",
"&+	c #292111",
"*+	c #010100",
"=+	c #422F21",
"-+	c #B9835B",
";+	c #C88E69",
">+	c #A47252",
",+	c #322217",
"'+	c #1B130D",
")+	c #37251B",
"!+	c #B57D59",
"~+	c #C08B68",
"{+	c #C18864",
"]+	c #694E3B",
"^+	c #060401",
"/+	c #84624A",
"(+	c #C1946A",
"_+	c #C4946F",
":+	c #CC9A72",
"<+	c #C79772",
"[+	c #CF9772",
"}+	c #B4825F",
"|+	c #0D0702",
"1+	c #9C6742",
"2+	c #C1875C",
"3+	c #BC7F5A",
"4+	c #7A4F35",
"5+	c #573A25",
"6+	c #64452F",
"7+	c #7F553A",
"8+	c #BC7F57",
"9+	c #C18757",
"0+	c #C78F62",
"a+	c #AA7A5A",
"b+	c #170F0A",
"c+	c #4D3424",
"d+	c #BD8A5E",
"e+	c #BA8865",
"f+	c #AD7C5D",
"g+	c #AA7A56",
"h+	c #B6855E",
"i+	c #64452C",
"j+	c #090604",
"k+	c #634534",
"l+	c #B37E5B",
"m+	c #C98F67",
"n+	c #0F0806",
"o+	c #2B1F13",
"p+	c #855D43",
"q+	c #CC8E66",
"r+	c #B07A61",
"s+	c #473225",
"t+	c #030201",
"u+	c #22150D",
"v+	c #8C674D",
"w+	c #CC9A6C",
"x+	c #CF9A72",
"y+	c #C9976F",
"z+	c #C1926C",
"A+	c #4F3D2F",
"B+	c #4F371F",
"C+	c #CC845C",
"D+	c #C4845C",
"E+	c #B17452",
"F+	c #AF7452",
"G+	c #BF7F52",
"H+	c #B97F52",
"I+	c #C98A5A",
"J+	c #BF8762",
"K+	c #72553D",
"L+	c #030300",
"M+	c #926B43",
"N+	c #B5825A",
"O+	c #B38156",
"P+	c #AA7D5B",
"Q+	c #A77956",
"R+	c #AD845E",
"S+	c #332816",
"T+	c #543926",
"U+	c #A1724E",
"V+	c #9E714E",
"W+	c #48321F",
"X+	c #2A1D14",
"Y+	c #7A583E",
"Z+	c #BC8C68",
"`+	c #B88564",
" @	c #423026",
".@	c #0F0B09",
"+@	c #120F0A",
"@@	c #9A724F",
"#@	c #C7926C",
"$@	c #CC9772",
"%@	c #BF8C67",
"&@	c #37251A",
"*@	c #0D0705",
"=@	c #22170F",
"-@	c #2F1F15",
";@	c #1F120D",
">@	c #020200",
",@	c #25150F",
"'@	c #6F4D35",
")@	c #BC875F",
"!@	c #D18F5C",
"~@	c #D18C5F",
"{@	c #B77A52",
"]@	c #B97C57",
"^@	c #B97C52",
"/@	c #C17A52",
"(@	c #C9845C",
"_@	c #C48457",
":@	c #BF845A",
"<@	c #C4875C",
"[@	c #B48762",
"}@	c #22150F",
"|@	c #1E140C",
"1@	c #A97551",
"2@	c #C0845B",
"3@	c #B07A51",
"4@	c #9B7654",
"5@	c #513D29",
"6@	c #040401",
"7@	c #18100C",
"8@	c #3C2B1C",
"9@	c #312114",
"0@	c #21140A",
"a@	c #966E4B",
"b@	c #BF8C5E",
"c@	c #C18B6A",
"d@	c #735542",
"e@	c #0B0705",
"f@	c #010000",
"g@	c #3F2F25",
"h@	c #C48A67",
"i@	c #C49774",
"j@	c #CC926F",
"k@	c #CF946C",
"l@	c #BF8464",
"m@	c #8F6747",
"n@	c #77523D",
"o@	c #976445",
"p@	c #8A5F42",
"q@	c #97674A",
"r@	c #A76F4F",
"s@	c #A77A5A",
"t@	c #AA7452",
"u@	c #BF845C",
"v@	c #C78A5F",
"w@	c #D18F67",
"x@	c #C98F64",
"y@	c #BF825A",
"z@	c #452F1A",
"A@	c #523525",
"B@	c #875A3F",
"C@	c #AA6F4D",
"D@	c #B47752",
"E@	c #BF8257",
"F@	c #C4875A",
"G@	c #C48C64",
"H@	c #C99264",
"I@	c #C48C67",
"J@	c #9C6F4F",
"K@	c #0F0A05",
"L@	c #21140E",
"M@	c #865939",
"N@	c #C3865B",
"O@	c #B1784E",
"P@	c #4D3321",
"Q@	c #010400",
"R@	c #040101",
"S@	c #7F5A39",
"T@	c #C28D61",
"U@	c #C68C60",
"V@	c #C58A6A",
"W@	c #4E3626",
"X@	c #140C09",
"Y@	c #291C14",
"Z@	c #1D150F",
"`@	c #120A05",
" #	c #B47F5C",
".#	c #C9926F",
"+#	c #CC976F",
"@#	c #C48F6A",
"##	c #BC825F",
"$#	c #B77F5C",
"%#	c #B47C5A",
"&#	c #B17A55",
"*#	c #C4875F",
"=#	c #CC8F6C",
"-#	c #D4976F",
";#	c #D19267",
">#	c #C1845A",
",#	c #8C5C3F",
"'#	c #352217",
")#	c #47321D",
"!#	c #AA7757",
"~#	c #C1875F",
"{#	c #C48F67",
"]#	c #D1946C",
"^#	c #C18C67",
"/#	c #976F4D",
"(#	c #17120A",
"_#	c #181109",
":#	c #7E5334",
"<#	c #C27E59",
"[#	c #B57856",
"}#	c #503124",
"|#	c #060301",
"1#	c #694D32",
"2#	c #BB8A63",
"3#	c #C48C63",
"4#	c #84634F",
"5#	c #1D160F",
"6#	c #23150E",
"7#	c #6B4D36",
"8#	c #976B54",
"9#	c #7E5941",
"0#	c #3F2D22",
"a#	c #644732",
"b#	c #BF8F6C",
"c#	c #CF9C74",
"d#	c #C99272",
"e#	c #9A6A47",
"f#	c #553725",
"g#	c #724732",
"h#	c #9F7255",
"i#	c #BF8A67",
"j#	c #BF8F6F",
"k#	c #C78A62",
"l#	c #8C6745",
"m#	c #170F07",
"n#	c #050202",
"o#	c #674D32",
"p#	c #B9845C",
"q#	c #CC9267",
"r#	c #CF926F",
"s#	c #BF8A64",
"t#	c #B68261",
"u#	c #966949",
"v#	c #281B0E",
"w#	c #100906",
"x#	c #704D36",
"y#	c #BA7B59",
"z#	c #AB6F51",
"A#	c #4D3224",
"B#	c #5B4227",
"C#	c #B78561",
"D#	c #BE8764",
"E#	c #BB8766",
"F#	c #B78562",
"G#	c #1A130E",
"H#	c #070403",
"I#	c #422F22",
"J#	c #78583E",
"K#	c #936D4E",
"L#	c #A5765B",
"M#	c #BF8869",
"N#	c #BD8763",
"O#	c #825D44",
"P#	c #2D1F15",
"Q#	c #CC9272",
"R#	c #CF9C7A",
"S#	c #C19277",
"T#	c #C18A62",
"U#	c #472F1F",
"V#	c #1A0F0A",
"W#	c #221712",
"X#	c #8F644F",
"Y#	c #AF7C62",
"Z#	c #B98767",
"`#	c #C98764",
" $	c #AF7F5A",
".$	c #1D120D",
"+$	c #45321F",
"@$	c #BF8455",
"#$	c #CD926B",
"$$	c #C58F66",
"%$	c #B28261",
"&$	c #B57F59",
"*$	c #A27659",
"=$	c #6C4839",
"-$	c #1B1209",
";$	c #1B1009",
">$	c #895C41",
",$	c #B9815E",
"'$	c #AE7956",
")$	c #513622",
"!$	c #190F09",
"~$	c #19120A",
"{$	c #2E1F16",
"]$	c #432C20",
"^$	c #886143",
"/$	c #B98559",
"($	c #C48C65",
"_$	c #BB876A",
":$	c #846044",
"<$	c #060403",
"[$	c #0D0903",
"}$	c #826247",
"|$	c #9F744F",
"1$	c #AF744F",
"2$	c #624831",
"3$	c #6E5139",
"4$	c #AD7E61",
"5$	c #AD7956",
"6$	c #876041",
"7$	c #39261C",
"8$	c #C98F6F",
"9$	c #D49777",
"0$	c #C7946F",
"a$	c #BF9477",
"b$	c #926F52",
"c$	c #251A12",
"d$	c #6C4F3A",
"e$	c #553D2A",
"f$	c #322717",
"g$	c #B1774F",
"h$	c #D38E5E",
"i$	c #C78E61",
"j$	c #C58D69",
"k$	c #B8805B",
"l$	c #AA7956",
"m$	c #B47D61",
"n$	c #AE7759",
"o$	c #BA8366",
"p$	c #AA7552",
"q$	c #AB7654",
"r$	c #BC8562",
"s$	c #B98362",
"t$	c #BB8560",
"u$	c #BB865D",
"v$	c #BD8760",
"w$	c #B3835A",
"x$	c #AC7B5F",
"y$	c #AB7962",
"z$	c #B27E61",
"A$	c #B48669",
"B$	c #B68767",
"C$	c #C2906E",
"D$	c #AE8061",
"E$	c #513C2A",
"F$	c #060302",
"G$	c #080200",
"H$	c #45311F",
"I$	c #947452",
"J$	c #94724D",
"K$	c #7A523A",
"L$	c #0C0604",
"M$	c #342319",
"N$	c #734D3C",
"O$	c #412A1C",
"P$	c #160E09",
"Q$	c #32221A",
"R$	c #C99474",
"S$	c #D1946F",
"T$	c #C4926C",
"U$	c #5F4A37",
"V$	c #A06E49",
"W$	c #B4815E",
"X$	c #B88461",
"Y$	c #B98162",
"Z$	c #B27D62",
"`$	c #AB7355",
" %	c #A77655",
".%	c #A87655",
"+%	c #BA8369",
"@%	c #BB8361",
"#%	c #BD8662",
"$%	c #B68162",
"%%	c #AB7B65",
"&%	c #B27F66",
"*%	c #BF8563",
"=%	c #C18A65",
"-%	c #BB835F",
";%	c #A87A66",
">%	c #A87865",
",%	c #AD7B65",
"'%	c #AE7D67",
")%	c #BD896A",
"!%	c #C1916C",
"~%	c #9C7456",
"{%	c #251C12",
"]%	c #060402",
"^%	c #1D130D",
"/%	c #100804",
"(%	c #6C5233",
"_%	c #9C7252",
":%	c #8C6A4A",
"<%	c #2A1A0F",
"[%	c #8F624A",
"}%	c #C48F74",
"|%	c #CC9474",
"1%	c #C18F64",
"2%	c #8F6C57",
"3%	c #72513C",
"4%	c #B78261",
"5%	c #A67660",
"6%	c #A26F5D",
"7%	c #A67960",
"8%	c #8D6445",
"9%	c #A06F53",
"0%	c #AE7A56",
"a%	c #B67D56",
"b%	c #C38962",
"c%	c #BD8664",
"d%	c #BD8566",
"e%	c #B07D67",
"f%	c #B27D5E",
"g%	c #916B50",
"h%	c #A37252",
"i%	c #B57F62",
"j%	c #A37565",
"k%	c #9F7260",
"l%	c #9D7465",
"m%	c #A47660",
"n%	c #B9886B",
"o%	c #C18D68",
"p%	c #976F52",
"q%	c #35271C",
"r%	c #583A2E",
"s%	c #241C11",
"t%	c #946A3F",
"u%	c #946A47",
"v%	c #2F221A",
"w%	c #7F5541",
"x%	c #D78F6A",
"y%	c #D79C74",
"z%	c #CF946A",
"A%	c #CF9264",
"B%	c #725742",
"C%	c #120D05",
"D%	c #7F5741",
"E%	c #AB775A",
"F%	c #AA7860",
"G%	c #916C5A",
"H%	c #2B1A15",
"I%	c #291A0E",
"J%	c #956546",
"K%	c #B98354",
"L%	c #C38C61",
"M%	c #CA9567",
"N%	c #BD8B6C",
"O%	c #B0826D",
"P%	c #B18066",
"Q%	c #9A6F51",
"R%	c #7D5C44",
"S%	c #442E28",
"T%	c #281E12",
"U%	c #261F14",
"V%	c #443323",
"W%	c #826143",
"X%	c #B0825C",
"Y%	c #AC8267",
"Z%	c #886746",
"`%	c #B47656",
" &	c #68402C",
".&	c #2A1D12",
"+&	c #875F3F",
"@&	c #946A45",
"#&	c #553727",
"$&	c #1D0F0A",
"%&	c #0E0604",
"&&	c #AC775E",
"*&	c #CC9469",
"=&	c #C68E6E",
"-&	c #C9946C",
";&	c #875F4D",
">&	c #37251D",
",&	c #2A1A15",
"'&	c #0F0707",
")&	c #171009",
"!&	c #9D6F54",
"~&	c #AD7B5E",
"{&	c #AB7B59",
"]&	c #382519",
"^&	c #8C623D",
"/&	c #CA8D5E",
"(&	c #C0895E",
"_&	c #C48B64",
":&	c #B98763",
"<&	c #896142",
"[&	c #372414",
"}&	c #181005",
"|&	c #050403",
"1&	c #020100",
"2&	c #000100",
"3&	c #191208",
"4&	c #6F533F",
"5&	c #BC8F68",
"6&	c #C38469",
"7&	c #8B5741",
"8&	c #271D15",
"9&	c #876242",
"0&	c #A76F4D",
"a&	c #3A271A",
"b&	c #452F25",
"c&	c #4D3629",
"d&	c #7F5E4C",
"e&	c #987054",
"f&	c #C99273",
"g&	c #C49271",
"h&	c #C58F6E",
"i&	c #C8916B",
"j&	c #C7926A",
"k&	c #CC926C",
"l&	c #BC8A67",
"m&	c #AA7252",
"n&	c #7C573D",
"o&	c #573A2D",
"p&	c #674737",
"q&	c #87644F",
"r&	c #553D2D",
"s&	c #120D07",
"t&	c #1C130C",
"u&	c #845C46",
"v&	c #B37954",
"w&	c #BA845E",
"x&	c #98684C",
"y&	c #040100",
"z&	c #1E1106",
"A&	c #A27349",
"B&	c #BB8461",
"C&	c #B77B54",
"D&	c #765136",
"E&	c #040000",
"F&	c #040601",
"G&	c #88664C",
"H&	c #B28369",
"I&	c #1B130E",
"J&	c #17120D",
"K&	c #3A271D",
"L&	c #2F1D12",
"M&	c #D99F72",
"N&	c #D49876",
"O&	c #D5977B",
"P&	c #CA8D71",
"Q&	c #CB9373",
"R&	c #C3906E",
"S&	c #CA9471",
"T&	c #CC936E",
"U&	c #CF986B",
"V&	c #BF8C6F",
"W&	c #C48C6F",
"X&	c #B7825F",
"Y&	c #B4825C",
"Z&	c #B98462",
"`&	c #BC8764",
" *	c #B98A67",
".*	c #B17C5C",
"+*	c #AC7C5A",
"@*	c #774F3A",
"#*	c #744F37",
"$*	c #463121",
"%*	c #77583C",
"&*	c #9F6C56",
"**	c #B37B59",
"=*	c #B7815E",
"-*	c #BF8C5B",
";*	c #815A41",
">*	c #0E0906",
",*	c #090401",
"'*	c #6D4D36",
")*	c #A5724E",
"!*	c #AB7B54",
"~*	c #7E593E",
"{*	c #020101",
"]*	c #2A2015",
"^*	c #85634A",
"/*	c #A0734F",
"(*	c #7E543B",
"_*	c #4D3225",
":*	c #CF8F67",
"<*	c #D49772",
"[*	c #E19C7A",
"}*	c #D39B76",
"|*	c #CD976E",
"1*	c #C7916E",
"2*	c #BD8969",
"3*	c #C89171",
"4*	c #BD8B6B",
"5*	c #C08D66",
"6*	c #C68D66",
"7*	c #C08963",
"8*	c #BC8762",
"9*	c #C18F74",
"0*	c #BC8A64",
"a*	c #B7825C",
"b*	c #C18A5F",
"c*	c #BF8A6A",
"d*	c #BC825A",
"e*	c #BE835B",
"f*	c #C48863",
"g*	c #B57B56",
"h*	c #B17C5B",
"i*	c #A87751",
"j*	c #AA794E",
"k*	c #614531",
"l*	c #1B110E",
"m*	c #1D140C",
"n*	c #473326",
"o*	c #976646",
"p*	c #B27A4C",
"q*	c #A1724C",
"r*	c #271C14",
"s*	c #0B0806",
"t*	c #1F1711",
"u*	c #2D2017",
"v*	c #764F34",
"w*	c #A26949",
"x*	c #784936",
"y*	c #090101",
"z*	c #724A35",
"A*	c #C78F6A",
"B*	c #D49C72",
"C*	c #D1976F",
"D*	c #D79F77",
"E*	c #CD926E",
"F*	c #B98866",
"G*	c #B08569",
"H*	c #89644C",
"I*	c #7A5941",
"J*	c #8D624E",
"K*	c #B48363",
"L*	c #B5805E",
"M*	c #B17F5C",
"N*	c #AC7755",
"O*	c #A2724F",
"P*	c #A47455",
"Q*	c #B47F5A",
"R*	c #AF7C5C",
"S*	c #B47C55",
"T*	c #BF875C",
"U*	c #B27E5B",
"V*	c #5D412E",
"W*	c #2E1C11",
"X*	c #0C0901",
"Y*	c #2A1D11",
"Z*	c #1B140C",
"`*	c #18110C",
" =	c #33241C",
".=	c #150C06",
"+=	c #5E422E",
"@=	c #A4785B",
"#=	c #BF8559",
"$=	c #543C2C",
"%=	c #050402",
"&=	c #583826",
"*=	c #A56947",
"==	c #AF6A4C",
"-=	c #7F4C36",
";=	c #160C06",
">=	c #97644A",
",=	c #C98A62",
"'=	c #C48F6C",
")=	c #D19774",
"!=	c #5F422F",
"~=	c #423227",
"{=	c #3C2C24",
"]=	c #1C140C",
"^=	c #433226",
"/=	c #A47A5B",
"(=	c #A97856",
"_=	c #B47C57",
":=	c #BC845C",
"<=	c #AF7A55",
"[=	c #6C4A3A",
"}=	c #976A4D",
"|=	c #8A624A",
"1=	c #2D2319",
"2=	c #6A4C3E",
"3=	c #775244",
"4=	c #4C3629",
"5=	c #36241C",
"6=	c #2C2319",
"7=	c #986941",
"8=	c #BD8966",
"9=	c #BD8661",
"0=	c #A8745A",
"a=	c #312218",
"b=	c #070404",
"c=	c #050302",
"d=	c #0B0704",
"e=	c #4B3227",
"f=	c #976448",
"g=	c #BE7550",
"h=	c #BD7A4E",
"i=	c #9E6341",
"j=	c #422A1D",
"k=	c #25170F",
"l=	c #25150A",
"m=	c #321D15",
"n=	c #BC7A52",
"o=	c #C7946C",
"p=	c #9F775F",
"q=	c #251A15",
"r=	c #49332C",
"s=	c #9F7661",
"t=	c #AF7C61",
"u=	c #C98C62",
"v=	c #5F422D",
"w=	c #0A0500",
"x=	c #1D120A",
"y=	c #0C0600",
"z=	c #110600",
"A=	c #1D1109",
"B=	c #3F2C1E",
"C=	c #7A5345",
"D=	c #956A5A",
"E=	c #825F55",
"F=	c #432D24",
"G=	c #140E09",
"H=	c #110C06",
"I=	c #321D12",
"J=	c #B98255",
"K=	c #C68A61",
"L=	c #BF8863",
"M=	c #B07F60",
"N=	c #866253",
"O=	c #130F06",
"P=	c #030100",
"Q=	c #35251C",
"R=	c #855D46",
"S=	c #C48664",
"T=	c #E79A6F",
"U=	c #E99C6C",
"V=	c #D78F67",
"W=	c #D1946A",
"X=	c #C9825C",
"Y=	c #B97C5A",
"Z=	c #CC875F",
"`=	c #C98C6C",
" -	c #6C4734",
".-	c #AA7859",
"+-	c #B27F61",
"@-	c #BD8461",
"#-	c #BB8156",
"$-	c #8C623F",
"%-	c #170D07",
"&-	c #190E0C",
"*-	c #32231C",
"=-	c #68483C",
"--	c #885E4B",
";-	c #946958",
">-	c #815C4B",
",-	c #5E4335",
"'-	c #241814",
")-	c #1F150A",
"!-	c #AA7455",
"~-	c #C1825A",
"{-	c #C18457",
"]-	c #C58A5E",
"^-	c #BA7F5E",
"/-	c #B07B5D",
"(-	c #AA7758",
"_-	c #8B6349",
":-	c #3A2A19",
"<-	c #6D4F3B",
"[-	c #A17252",
"}-	c #D69472",
"|-	c #E7A277",
"1-	c #FFAA82",
"2-	c #ECA274",
"3-	c #E7AA7F",
"4-	c #E9A477",
"5-	c #C98A64",
"6-	c #C17F5A",
"7-	c #BC8257",
"8-	c #C98C6A",
"9-	c #452F22",
"0-	c #996C51",
"a-	c #A8765B",
"b-	c #AC795B",
"c-	c #B37C5B",
"d-	c #7E5639",
"e-	c #150F0A",
"f-	c #110906",
"g-	c #21140C",
"h-	c #392A24",
"i-	c #7A5A48",
"j-	c #684A38",
"k-	c #4B372B",
"l-	c #3C2A21",
"m-	c #251914",
"n-	c #A06B46",
"o-	c #C1855E",
"p-	c #BD7F59",
"q-	c #BD8159",
"r-	c #C18659",
"s-	c #B57F5B",
"t-	c #AA765A",
"u-	c #AE7658",
"v-	c #BB885E",
"w-	c #AF7C56",
"x-	c #785536",
"y-	c #22170B",
"z-	c #0A0605",
"A-	c #19110F",
"B-	c #040202",
"C-	c #926651",
"D-	c #A77859",
"E-	c #C98C65",
"F-	c #E9A77A",
"G-	c #E9A27A",
"H-	c #F4A47A",
"I-	c #DF9A72",
"J-	c #D9976F",
"K-	c #DC9A6A",
"L-	c #473222",
"M-	c #644331",
"N-	c #A37459",
"O-	c #976851",
"P-	c #A67359",
"Q-	c #855C41",
"R-	c #26190E",
"S-	c #180E06",
"T-	c #1B130C",
"U-	c #1E1711",
"V-	c #65483D",
"W-	c #493429",
"X-	c #211711",
"Y-	c #201511",
"Z-	c #19140C",
"`-	c #533826",
" ;	c #AE7851",
".;	c #BE845B",
"+;	c #BC865B",
"@;	c #AE7D59",
"#;	c #896144",
"$;	c #593F2C",
"%;	c #644935",
"&;	c #BD8961",
"*;	c #B38456",
"=;	c #BD8963",
"-;	c #9C6F49",
";;	c #2C2013",
">;	c #4B3523",
",;	c #6C4C37",
"';	c #BB8567",
");	c #C58F69",
"!;	c #C99774",
"~;	c #D19F7C",
"{;	c #DCAF84",
"];	c #D9A27F",
"^;	c #DFAC84",
"/;	c #D49F77",
"(;	c #DC9C77",
"_;	c #C98F6C",
":;	c #AF7A57",
"<;	c #C7875F",
"[;	c #A77762",
"};	c #1F120F",
"|;	c #1C110C",
"1;	c #A66F54",
"2;	c #A77556",
"3;	c #A3735E",
"4;	c #A9725B",
"5;	c #85614E",
"6;	c #634636",
"7;	c #472B1C",
"8;	c #090400",
"9;	c #060100",
"0;	c #1D1610",
"a;	c #38251E",
"b;	c #2A1C14",
"c;	c #0C0904",
"d;	c #A5754E",
"e;	c #B47B5B",
"f;	c #B37F59",
"g;	c #AE7D5E",
"h;	c #513921",
"i;	c #060400",
"j;	c #332214",
"k;	c #AB7A54",
"l;	c #AB7755",
"m;	c #B17D5D",
"n;	c #A57653",
"o;	c #483321",
"p;	c #100B07",
"q;	c #6F5037",
"r;	c #A8774B",
"s;	c #AB7A5C",
"t;	c #B38566",
"u;	c #906146",
"v;	c #35251A",
"w;	c #4D3A2D",
"x;	c #CC9774",
"y;	c #D7A782",
"z;	c #DCA77C",
"A;	c #D7976F",
"B;	c #3A2517",
"C;	c #2D1A12",
"D;	c #B17A5A",
"E;	c #A77F62",
"F;	c #845F47",
"G;	c #7F573D",
"H;	c #92674F",
"I;	c #9A6F55",
"J;	c #1F1712",
"K;	c #6D4B39",
"L;	c #AC7759",
"M;	c #956B5D",
"N;	c #9F6C55",
"O;	c #9B6A53",
"P;	c #A9795D",
"Q;	c #AC745B",
"R;	c #8D5E3E",
"S;	c #110901",
"T;	c #0C0601",
"U;	c #7B513E",
"V;	c #B07A56",
"W;	c #B48159",
"X;	c #AB7859",
"Y;	c #553D29",
"Z;	c #040400",
"`;	c #926444",
" >	c #A07158",
".>	c #A27460",
"+>	c #7C5A40",
"@>	c #483423",
"#>	c #583D2C",
"$>	c #9D724B",
"%>	c #B58053",
"&>	c #A97753",
"*>	c #705244",
"=>	c #634C39",
"->	c #CF9A74",
";>	c #CC9F7C",
">>	c #72523A",
",>	c #523527",
"'>	c #B78767",
")>	c #B48767",
"!>	c #BC8264",
"~>	c #8C674F",
"{>	c #0A070A",
"]>	c #453429",
"^>	c #A5735B",
"/>	c #9F7360",
"(>	c #9D6D60",
"_>	c #A27462",
":>	c #B97F61",
"<>	c #B87E5E",
"[>	c #AC7459",
"}>	c #785034",
"|>	c #38261B",
"1>	c #0C0801",
"2>	c #050400",
"3>	c #21120E",
"4>	c #3F2E21",
"5>	c #895B44",
"6>	c #B1775E",
"7>	c #B97F63",
"8>	c #B2744E",
"9>	c #7F573C",
"0>	c #8E6440",
"a>	c #9C775C",
"b>	c #996D5F",
"c>	c #B17F60",
"d>	c #A97757",
"e>	c #A17254",
"f>	c #AD7C56",
"g>	c #B4825B",
"h>	c #B48060",
"i>	c #9C6C48",
"j>	c #422D26",
"k>	c #AE8266",
"l>	c #9A6C57",
"m>	c #050002",
"n>	c #97644D",
"o>	c #C7926F",
"p>	c #B78A6C",
"q>	c #C18762",
"r>	c #B67E61",
"s>	c #8E664E",
"t>	c #110C09",
"u>	c #463124",
"v>	c #AA7E5E",
"w>	c #B48266",
"x>	c #A37359",
"y>	c #AE7E66",
"z>	c #B88263",
"A>	c #BD8256",
"B>	c #B57D5E",
"C>	c #AD7765",
"D>	c #A06A55",
"E>	c #946353",
"F>	c #885A48",
"G>	c #905E4D",
"H>	c #A36B55",
"I>	c #A36C53",
"J>	c #A77156",
"K>	c #AC785E",
"L>	c #AF7360",
"M>	c #AD7560",
"N>	c #311F11",
"O>	c #A47353",
"P>	c #9C6E64",
"Q>	c #9B6F5C",
"R>	c #A6775A",
"S>	c #AB7C60",
"T>	c #B78460",
"U>	c #B88965",
"V>	c #A4775D",
"W>	c #A07358",
"X>	c #4B3229",
"Y>	c #644334",
"Z>	c #5C473D",
"`>	c #4F3527",
" ,	c #C48767",
".,	c #B48063",
"+,	c #B87C5E",
"@,	c #7F5944",
"#,	c #4B3224",
"$,	c #B17E61",
"%,	c #BA8061",
"&,	c #B37F61",
"*,	c #AB7861",
"=,	c #BD8466",
"-,	c #B97C61",
";,	c #AC745D",
">,	c #A87362",
",,	c #A37465",
"',	c #AB715A",
"),	c #9F6B55",
"!,	c #A06D58",
"~,	c #AB7762",
"{,	c #B57A5D",
"],	c #A26A50",
"^,	c #98674D",
"/,	c #AB7162",
"(,	c #8B6150",
"_,	c #452E20",
":,	c #76553E",
"<,	c #AB7960",
"[,	c #A67662",
"},	c #AC7F65",
"|,	c #A47A6A",
"1,	c #B07D60",
"2,	c #A97C60",
"3,	c #B17D62",
"4,	c #B47E60",
"5,	c #A87858",
"6,	c #AB7C58",
"7,	c #7A5E4E",
"8,	c #302019",
"9,	c #3F2A25",
"0,	c #3F3225",
"a,	c #B78869",
"b,	c #BA8B6B",
"c,	c #A37556",
"d,	c #966654",
"e,	c #1D130C",
"f,	c #5F4439",
"g,	c #AE7A63",
"h,	c #B67D63",
"i,	c #A17559",
"j,	c #8C6654",
"k,	c #8D6153",
"l,	c #6F4C3D",
"m,	c #614033",
"n,	c #643F2B",
"o,	c #99664D",
"p,	c #A67060",
"q,	c #AC775A",
"r,	c #AC6F5D",
"s,	c #A16C55",
"t,	c #AC7660",
"u,	c #A26B55",
"v,	c #95655A",
"w,	c #835E5C",
"x,	c #533B32",
"y,	c #9E6B50",
"z,	c #B37F60",
"A,	c #AD775D",
"B,	c #B0795D",
"C,	c #B48065",
"D,	c #B6815D",
"E,	c #AB7C5D",
"F,	c #B17B60",
"G,	c #AE7E55",
"H,	c #BC8A5E",
"I,	c #BB8B74",
"J,	c #473128",
"K,	c #060404",
"L,	c #3B261E",
"M,	c #563E2C",
"N,	c #C09171",
"O,	c #BD8E76",
"P,	c #B1826E",
"Q,	c #A47969",
"R,	c #452E24",
"S,	c #8E624C",
"T,	c #B07A5B",
"U,	c #563C2C",
"V,	c #180F08",
"W,	c #64443B",
"X,	c #996655",
"Y,	c #986750",
"Z,	c #A26753",
"`,	c #A76E5D",
" '	c #A26D5A",
".'	c #986154",
"+'	c #64463F",
"@'	c #070501",
"#'	c #0D0804",
"$'	c #432B1E",
"%'	c #744F3A",
"&'	c #6C4A32",
"*'	c #84624B",
"='	c #BB855A",
"-'	c #C28B6A",
";'	c #A97558",
">'	c #B67F5A",
",'	c #B78155",
"''	c #AA7B5D",
")'	c #AE8267",
"!'	c #B17F62",
"~'	c #BE865A",
"{'	c #B68A72",
"]'	c #D38F76",
"^'	c #84594C",
"/'	c #7D5249",
"('	c #986B54",
"_'	c #8C6551",
":'	c #3A2319",
"<'	c #AC7A5E",
"['	c #B88669",
"}'	c #BE8A69",
"|'	c #A4795E",
"1'	c #1E1411",
"2'	c #36291E",
"3'	c #5E3E2C",
"4'	c #311E14",
"5'	c #030101",
"6'	c #5E423F",
"7'	c #885D52",
"8'	c #9C6958",
"9'	c #9B6455",
"0'	c #A16958",
"a'	c #926058",
"b'	c #1B120B",
"c'	c #462F21",
"d'	c #A96B51",
"e'	c #B47A55",
"f'	c #7A5036",
"g'	c #75523D",
"h'	c #C28968",
"i'	c #B07B60",
"j'	c #B1795A",
"k'	c #BB8161",
"l'	c #B27B56",
"m'	c #A47659",
"n'	c #BE8560",
"o'	c #B2836B",
"p'	c #C2876E",
"q'	c #C18970",
"r'	c #7A5349",
"s'	c #2C1D16",
"t'	c #39271C",
"u'	c #B77E69",
"v'	c #C28869",
"w'	c #B17856",
"x'	c #291914",
"y'	c #0F0D07",
"z'	c #251712",
"A'	c #9A6C52",
"B'	c #AC7C62",
"C'	c #B78264",
"D'	c #B9825A",
"E'	c #100905",
"F'	c #8B5E50",
"G'	c #AB7362",
"H'	c #AB765D",
"I'	c #A87360",
"J'	c #694835",
"K'	c #81563C",
"L'	c #B1774D",
"M'	c #C4825A",
"N'	c #895B3E",
"O'	c #5C442E",
"P'	c #C48E63",
"Q'	c #BD8765",
"R'	c #B68060",
"S'	c #AE7954",
"T'	c #826441",
"U'	c #63472B",
"V'	c #5F442D",
"W'	c #8D664B",
"X'	c #B78266",
"Y'	c #AF816A",
"Z'	c #AD7D6E",
"`'	c #745147",
" )	c #040002",
".)	c #A27154",
"+)	c #C79277",
"@)	c #925F4A",
"#)	c #5A4232",
"$)	c #8F644A",
"%)	c #946A4A",
"&)	c #B7845F",
"*)	c #B9876C",
"=)	c #B9825C",
"-)	c #B17C62",
";)	c #A77255",
">)	c #3D271F",
",)	c #442F26",
"')	c #C38866",
"))	c #BF8166",
"!)	c #AF7B60",
"~)	c #433023",
"{)	c #644535",
"])	c #A46F4D",
"^)	c #A76F4A",
"/)	c #9C6546",
"()	c #5B382C",
"_)	c #0B0401",
":)	c #6C4A34",
"<)	c #BA885E",
"[)	c #AE8166",
"})	c #876649",
"|)	c #130E04",
"1)	c #302219",
"2)	c #9C7054",
"3)	c #C18C65",
"4)	c #9D745D",
"5)	c #674840",
"6)	c #120B0A",
"7)	c #010001",
"8)	c #7C5A45",
"9)	c #C48C6C",
"0)	c #CF926A",
"a)	c #BC7F5F",
"b)	c #A77755",
"c)	c #B98A6F",
"d)	c #B48462",
"e)	c #A47452",
"f)	c #AA7C62",
"g)	c #AC7A5C",
"h)	c #B17C5A",
"i)	c #BF7F57",
"j)	c #AF7755",
"k)	c #A77A64",
"l)	c #9F725A",
"m)	c #36241E",
"n)	c #B27A61",
"o)	c #BA8265",
"p)	c #A6755D",
"q)	c #5E402B",
"r)	c #84583E",
"s)	c #654331",
"t)	c #523726",
"u)	c #231711",
"v)	c #946B4C",
"w)	c #B3835B",
"x)	c #835E46",
"y)	c #170F08",
"z)	c #58422D",
"A)	c #8E6044",
"B)	c #86614B",
"C)	c #261C17",
"D)	c #5B3E2E",
"E)	c #15120D",
"F)	c #7F5745",
"G)	c #C18A6A",
"H)	c #9F6F57",
"I)	c #4A3225",
"J)	c #624532",
"K)	c #6F523F",
"L)	c #624735",
"M)	c #5C422F",
"N)	c #5C422D",
"O)	c #674A35",
"P)	c #A7745A",
"Q)	c #B17C5F",
"R)	c #775245",
"S)	c #996B51",
"T)	c #A16D51",
"U)	c #150E06",
"V)	c #A87156",
"W)	c #AC7260",
"X)	c #A96F5D",
"Y)	c #1A0D09",
"Z)	c #332419",
"`)	c #1F130E",
" !	c #0B0604",
".!	c #21150E",
"+!	c #AC815E",
"@!	c #AF8156",
"#!	c #251B11",
"$!	c #301E14",
"%!	c #7F593F",
"&!	c #8E674E",
"*!	c #3A2922",
"=!	c #0F0B08",
"-!	c #2F1D17",
";!	c #C48764",
">!	c #7A5745",
",!	c #3F2D1F",
"'!	c #C18F6F",
")!	c #2D1D15",
"!!	c #946A4D",
"~!	c #744F3D",
"{!	c #190E09",
"]!	c #956751",
"^!	c #4A332C",
"/!	c #23140E",
"(!	c #A57151",
"_!	c #A4705D",
":!	c #B47760",
"<!	c #B87C59",
"[!	c #2A1B14",
"}!	c #120D09",
"|!	c #0F0801",
"1!	c #89644B",
"2!	c #AD8156",
"3!	c #85653E",
"4!	c #060101",
"5!	c #352416",
"6!	c #9B6C4B",
"7!	c #B58161",
"8!	c #936854",
"9!	c #4D362F",
"0!	c #5F4232",
"a!	c #D99772",
"b!	c #AA7255",
"c!	c #9C6F55",
"d!	c #BC8A6F",
"e!	c #D4946C",
"f!	c #C78C6A",
"g!	c #4D3227",
"h!	c #4D321F",
"i!	c #AF7457",
"j!	c #3B241C",
"k!	c #6C4936",
"l!	c #664229",
"m!	c #AF7156",
"n!	c #B17859",
"o!	c #BA8063",
"p!	c #C28059",
"q!	c #C58A66",
"r!	c #8C654C",
"s!	c #1D1208",
"t!	c #866250",
"u!	c #AC7A5A",
"v!	c #B07D59",
"w!	c #966C46",
"x!	c #332416",
"y!	c #5B3E29",
"z!	c #B07E56",
"A!	c #C18765",
"B!	c #B68266",
"C!	c #A17563",
"D!	c #0D0807",
"E!	c #0A0505",
"F!	c #4F372D",
"G!	c #BC8F72",
"H!	c #D7A27C",
"I!	c #D19772",
"J!	c #E49C7A",
"K!	c #D7946F",
"L!	c #D49F7C",
"M!	c #C79477",
"N!	c #9C7257",
"O!	c #7A523F",
"P!	c #6F4D3A",
"Q!	c #1B0E09",
"R!	c #92634E",
"S!	c #6D4336",
"T!	c #1E140E",
"U!	c #71482E",
"V!	c #B17551",
"W!	c #B1754E",
"X!	c #C57F54",
"Y!	c #CC875A",
"Z!	c #C98C64",
"`!	c #72553A",
" ~	c #2E1C16",
".~	c #26190C",
"+~	c #4E3221",
"@~	c #9B7050",
"#~	c #966F5A",
"$~	c #9B715A",
"%~	c #B1805D",
"&~	c #AB7B56",
"*~	c #6F4D36",
"=~	c #1C0E09",
"-~	c #815D40",
";~	c #C78D62",
">~	c #B88871",
",~	c #B18676",
"'~	c #86645B",
")~	c #554136",
"!~	c #5A4841",
"~~	c #725747",
"{~	c #A77C64",
"]~	c #C49A7A",
"^~	c #D19F7F",
"/~	c #DCA78C",
"(~	c #E19C7F",
"_~	c #DF976F",
":~	c #D49C74",
"<~	c #624537",
"[~	c #221215",
"}~	c #A37154",
"|~	c #A26C54",
"1~	c #96614C",
"2~	c #1C140E",
"3~	c #0C0401",
"4~	c #845339",
"5~	c #BC7851",
"6~	c #B67B56",
"7~	c #C1825F",
"8~	c #CC8A62",
"9~	c #CF8F64",
"0~	c #B37B54",
"a~	c #9A6D49",
"b~	c #584030",
"c~	c #1B1208",
"d~	c #3D291B",
"e~	c #855F45",
"f~	c #A3734C",
"g~	c #65492E",
"h~	c #291C11",
"i~	c #1C1109",
"j~	c #1F130D",
"k~	c #966E4C",
"l~	c #BE8E67",
"m~	c #B88767",
"n~	c #BC846B",
"o~	c #B88D74",
"p~	c #B78F7D",
"q~	c #B48A7E",
"r~	c #AD8773",
"s~	c #B99279",
"t~	c #AF876F",
"u~	c #523D32",
"v~	c #745747",
"w~	c #A47C5F",
"x~	c #CF9F7F",
"y~	c #D49A74",
"z~	c #D79F7A",
"A~	c #D99774",
"B~	c #CF9274",
"C~	c #35251D",
"D~	c #2A1717",
"E~	c #0C0906",
"F~	c #AA7663",
"G~	c #C18466",
"H~	c #AF735B",
"I~	c #A26856",
"J~	c #0E0C06",
"K~	c #1F120A",
"L~	c #B4724D",
"M~	c #C98C5F",
"N~	c #C0815E",
"O~	c #946A46",
"P~	c #332211",
"Q~	c #0F0805",
"R~	c #322316",
"S~	c #432D1C",
"T~	c #2C2114",
"U~	c #553D25",
"V~	c #1A120A",
"W~	c #322215",
"X~	c #37271A",
"Y~	c #63452D",
"Z~	c #A5724D",
"`~	c #C2895F",
" {	c #875B3F",
".{	c #855F49",
"+{	c #BE9072",
"@{	c #B18671",
"#{	c #AE8676",
"${	c #AC8571",
"%{	c #A78069",
"&{	c #5F4F3F",
"*{	c #4A372F",
"={	c #D19A77",
"-{	c #BF846A",
";{	c #120D0D",
">{	c #8F6452",
",{	c #37271F",
"'{	c #835646",
"){	c #BF866B",
"!{	c #BE815E",
"~{	c #91614C",
"{{	c #9A5F3F",
"]{	c #BF7C55",
"^{	c #B97A52",
"/{	c #BC8457",
"({	c #98694E",
"_{	c #2C1D11",
":{	c #0A0702",
"<{	c #553F27",
"[{	c #946F4F",
"}{	c #87623F",
"|{	c #9A6C47",
"1{	c #AF7C4F",
"2{	c #B3815B",
"3{	c #BB8659",
"4{	c #412C1E",
"5{	c #7A5C49",
"6{	c #B78776",
"7{	c #A77E69",
"8{	c #A5806B",
"9{	c #8C6B56",
"0{	c #5A4532",
"a{	c #D1977A",
"b{	c #BC8C6F",
"c{	c #120A0A",
"d{	c #4D3525",
"e{	c #9F7252",
"f{	c #9A6C4F",
"g{	c #3F2F22",
"h{	c #7C573F",
"i{	c #5A3F2D",
"j{	c #472D25",
"k{	c #C48F6F",
"l{	c #C19071",
"m{	c #AD775B",
"n{	c #32201C",
"o{	c #946442",
"p{	c #C4845A",
"q{	c #BF825F",
"r{	c #825A3D",
"s{	c #050000",
"t{	c #865B39",
"u{	c #C78A5C",
"v{	c #C18C5F",
"w{	c #C78C67",
"x{	c #BF8A5F",
"y{	c #976A4A",
"z{	c #1D1611",
"A{	c #B8896B",
"B{	c #B8866E",
"C{	c #A7785E",
"D{	c #604536",
"E{	c #120D0A",
"F{	c #B4846A",
"G{	c #D49C77",
"H{	c #221A15",
"I{	c #64472F",
"J{	c #AA774F",
"K{	c #9F6C4D",
"L{	c #92644A",
"M{	c #352517",
"N{	c #3F271D",
"O{	c #CC8C6A",
"P{	c #D19272",
"Q{	c #CD8D69",
"R{	c #885941",
"S{	c #3E261E",
"T{	c #D48F62",
"U{	c #9C6745",
"V{	c #74502E",
"W{	c #C38959",
"X{	c #BB8459",
"Y{	c #C38963",
"Z{	c #B58159",
"`{	c #583C29",
" ]	c #050201",
".]	c #966F5B",
"+]	c #B9876B",
"@]	c #7A5A46",
"#]	c #926752",
"$]	c #725242",
"%]	c #C18257",
"&]	c #BC875A",
"*]	c #0D0A05",
"=]	c #D79267",
"-]	c #C07B5B",
";]	c #23160C",
">]	c #A36C51",
",]	c #CE8B66",
"']	c #C98A5F",
")]	c #452D1D",
"!]	c #22150C",
"~]	c #B07C54",
"{]	c #BA8259",
"]]	c #BD855E",
"^]	c #8B6040",
"/]	c #1A1109",
"(]	c #100B08",
"_]	c #0E0907",
":]	c #49362C",
"<]	c #4D372F",
"[]	c #170F0D",
"}]	c #A77767",
"|]	c #BC8467",
"1]	c #271712",
"2]	c #4A3222",
"3]	c #976C4D",
"4]	c #A4724A",
"5]	c #3F2D1D",
"6]	c #070505",
"7]	c #6F4A35",
"8]	c #D48F67",
"9]	c #D9976C",
"0]	c #5F3F2D",
"a]	c #604234",
"b]	c #C58563",
"c]	c #181106",
"d]	c #AD7E59",
"e]	c #AE7B51",
"f]	c #392A19",
"g]	c #17110E",
"h]	c #8A6757",
"i]	c #CF9C84",
"j]	c #D19C7F",
"k]	c #C18A6F",
"l]	c #976452",
"m]	c #0F0A0A",
"n]	c #0D0502",
"o]	c #1A0F0D",
"p]	c #BC7C5C",
"q]	c #E49A6F",
"r]	c #2A1D15",
"s]	c #AA7451",
"t]	c #C78762",
"u]	c #87573D",
"v]	c #1E110C",
"w]	c #331E14",
"x]	c #4A2F21",
"y]	c #6B4834",
"z]	c #774C31",
"A]	c #1C1409",
"B]	c #BC8761",
"C]	c #BB835D",
"D]	c #745436",
"E]	c #0E0A06",
"F]	c #251A17",
"G]	c #B18A77",
"H]	c #C4977F",
"I]	c #C79784",
"J]	c #CF9A7C",
"K]	c #C19274",
"L]	c #A2775F",
"M]	c #2F221D",
"N]	c #6F4D37",
"O]	c #D78F64",
"P]	c #D1926A",
"Q]	c #AC7252",
"R]	c #492F1E",
"S]	c #CC8661",
"T]	c #D38963",
"U]	c #885639",
"V]	c #51341E",
"W]	c #CF8C62",
"X]	c #CA8A5E",
"Y]	c #CC8C61",
"Z]	c #D18D63",
"`]	c #CE9269",
" ^	c #A87754",
".^	c #5B3F24",
"+^	c #BD8459",
"@^	c #AB7C56",
"#^	c #412F1F",
"$^	c #372A25",
"%^	c #C9977C",
"&^	c #C79C82",
"*^	c #B78A72",
"=^	c #B9826A",
"-^	c #3A2725",
";^	c #0F0705",
">^	c #6F4A3A",
",^	c #CF8767",
"'^	c #D48F6A",
")^	c #5C3D2D",
"!^	c #C27C59",
"~^	c #C37F5E",
"{^	c #D08661",
"]^	c #CA825E",
"^^	c #D4916B",
"/^	c #DB9469",
"(^	c #E39E71",
"_^	c #D5946B",
":^	c #CD8C69",
"<^	c #D9976E",
"[^	c #493221",
"}^	c #24140C",
"|^	c #AF7955",
"1^	c #9B6B4D",
"2^	c #493625",
"3^	c #060303",
"4^	c #9A6C5C",
"5^	c #CF9A82",
"6^	c #C99274",
"7^	c #473227",
"8^	c #2A1D17",
"9^	c #6F4F3F",
"0^	c #BC876A",
"a^	c #C99277",
"b^	c #AF7F64",
"c^	c #9C6755",
"d^	c #1F1512",
"e^	c #251515",
"f^	c #4A2F27",
"g^	c #744D3D",
"h^	c #B1775C",
"i^	c #CF8A6A",
"j^	c #C4876C",
"k^	c #B97F5F",
"l^	c #492D21",
"m^	c #B78061",
"n^	c #C37E5B",
"o^	c #CE8366",
"p^	c #CB8863",
"q^	c #C1876B",
"r^	c #C38869",
"s^	c #CA8C6E",
"t^	c #D09571",
"u^	c #D6956E",
"v^	c #CF916E",
"w^	c #CC8E63",
"x^	c #AC775B",
"y^	c #271B14",
"z^	c #342514",
"A^	c #A66E4C",
"B^	c #B57A55",
"C^	c #AF785A",
"D^	c #93654D",
"E^	c #7C593E",
"F^	c #392718",
"G^	c #1F150B",
"H^	c #6E5042",
"I^	c #201612",
"J^	c #090605",
"K^	c #5F473D",
"L^	c #2A221F",
"M^	c #221715",
"N^	c #8C6252",
"O^	c #C79A7A",
"P^	c #DC9F82",
"Q^	c #0D0A0A",
"R^	c #3A2A1F",
"S^	c #BC8A6C",
"T^	c #C77F64",
"U^	c #AC745C",
"V^	c #BF876F",
"W^	c #BC876C",
"X^	c #C48A6C",
"Y^	c #C48462",
"Z^	c #CF8F6C",
"`^	c #905A3C",
" /	c #BD8166",
"./	c #BB8066",
"+/	c #BE8061",
"@/	c #AE7863",
"#/	c #AD7661",
"$/	c #AE755B",
"%/	c #B88066",
"&/	c #B07F63",
"*/	c #A57351",
"=/	c #9A6746",
"-/	c #CD8C61",
";/	c #BC7F61",
">/	c #A97358",
",/	c #B9805B",
"'/	c #B17450",
")/	c #9E6D4D",
"!/	c #9C6F5A",
"~/	c #9D6D56",
"{/	c #996B4D",
"]/	c #AF7B53",
"^/	c #BD8C6B",
"//	c #A07059",
"(/	c #3B2823",
"_/	c #3F2823",
":/	c #B17A64",
"</	c #BF876A",
"[/	c #AC7C6A",
"}/	c #B4876A",
"|/	c #9C745A",
"1/	c #D4946F",
"2/	c #64473D",
"3/	c #523A2D",
"4/	c #B97C5C",
"5/	c #B47F62",
"6/	c #CF8C74",
"7/	c #C18A72",
"8/	c #C98F72",
"9/	c #C98A6A",
"0/	c #150D07",
"a/	c #C98762",
"b/	c #BB7C63",
"c/	c #1A1009",
"d/	c #090601",
"e/	c #0B0601",
"f/	c #1F130C",
"g/	c #231609",
"h/	c #956A4C",
"i/	c #B67F68",
"j/	c #B07562",
"k/	c #B1795D",
"l/	c #A16F55",
"m/	c #2F2015",
"n/	c #1C120B",
"o/	c #895D4B",
"p/	c #A77257",
"q/	c #BB8564",
"r/	c #C38961",
"s/	c #C88E65",
"t/	c #B4856B",
"u/	c #B1856E",
"v/	c #946755",
"w/	c #AC7A5F",
"x/	c #BF8F74",
"y/	c #C48C74",
"z/	c #9C725F",
"A/	c #6F4D42",
"B/	c #9C7262",
"C/	c #020002",
"D/	c #B77C5F",
"E/	c #AC7C5F",
"F/	c #B7846A",
"G/	c #D18F72",
"H/	c #C18A74",
"I/	c #B48772",
"J/	c #AF775C",
"K/	c #B48267",
"L/	c #C48A64",
"M/	c #D18C6A",
"N/	c #5A3A2A",
"O/	c #B47C5F",
"P/	c #B07B61",
"Q/	c #382316",
"R/	c #603F2E",
"S/	c #A7705D",
"T/	c #A5715F",
"U/	c #AF7A5D",
"V/	c #694834",
"W/	c #322418",
"X/	c #AF7D5C",
"Y/	c #C08764",
"Z/	c #C88D65",
"`/	c #C38D6B",
" (	c #C8967A",
".(	c #6D5041",
"+(	c #0E0C09",
"@(	c #070702",
"#(	c #553A2D",
"$(	c #AC8262",
"%(	c #C78F6F",
"&(	c #97674D",
"*(	c #B17A57",
"=(	c #9F6F52",
"-(	c #AF775A",
";(	c #9A6F5F",
">(	c #4D352A",
",(	c #150A0A",
"'(	c #8F6752",
")(	c #0D0707",
"!(	c #57372A",
"~(	c #B47C62",
"{(	c #BC846A",
"](	c #865D4C",
"^(	c #B57B62",
"/(	c #AE795D",
"((	c #835D40",
"_(	c #14100B",
":(	c #876349",
"<(	c #B18367",
"[(	c #C18C6C",
"}(	c #CD9268",
"|(	c #AC7D61",
"1(	c #120A08",
"2(	c #3F2A22",
"3(	c #B47C64",
"4(	c #CC876A",
"5(	c #452D27",
"6(	c #0D0505",
"7(	c #9F6F5A",
"8(	c #84573F",
"9(	c #7C5542",
"0(	c #BF8264",
"a(	c #6A4235",
"b(	c #7C5242",
"c(	c #AA6F5A",
"d(	c #C18A77",
"e(	c #3D251C",
"f(	c #BC7C59",
"g(	c #C28463",
"h(	c #AF795A",
"i(	c #2D1E11",
"j(	c #473122",
"k(	c #B38157",
"l(	c #C48B62",
"m(	c #C19072",
"n(	c #6E4E3E",
"o(	c #080604",
"p(	c #644A37",
"q(	c #B48A6C",
"r(	c #A7725A",
"s(	c #845747",
"t(	c #945F47",
"u(	c #C98767",
"v(	c #D48C64",
"w(	c #C17C5C",
"x(	c #B98267",
"y(	c #BC7F67",
"z(	c #CC8A72",
"A(	c #AA7A5F",
"B(	c #664131",
"C(	c #8B5C44",
"D(	c #90664E",
"E(	c #C7885E",
"F(	c #C78D63",
"G(	c #B8815B",
"H(	c #AD7651",
"I(	c #120D04",
"J(	c #060300",
"K(	c #745132",
"L(	c #C1895B",
"M(	c #C79273",
"N(	c #4C342F",
"O(	c #050502",
"P(	c #523D35",
"Q(	c #9C7467",
"R(	c #1D1215",
"S(	c #9C725C",
"T(	c #D48A6A",
"U(	c #D79264",
"V(	c #D4926C",
"W(	c #C48464",
"X(	c #CF8C67",
"Y(	c #C1876A",
"Z(	c #C17F5F",
"`(	c #BF826A",
" _	c #965F44",
"._	c #C48B5E",
"+_	c #C28A63",
"@_	c #BF855B",
"#_	c #B67F5B",
"$_	c #885C41",
"%_	c #312319",
"&_	c #1F140B",
"*_	c #B88454",
"=_	c #AC7A62",
"-_	c #62473A",
";_	c #2D1D1D",
">_	c #77574F",
",_	c #2A1F1F",
"'_	c #1F150D",
")_	c #0A0707",
"!_	c #A7745F",
"~_	c #BF7F67",
"{_	c #9F6C57",
"]_	c #6F4A3D",
"^_	c #724F3D",
"/_	c #976247",
"(_	c #B77F5A",
"__	c #9C6C4D",
":_	c #6C4D3A",
"<_	c #271D12",
"[_	c #2A1F15",
"}_	c #110606",
"|_	c #AA6C54",
"1_	c #A6704F",
"2_	c #B68061",
"3_	c #BF8665",
"4_	c #BC8661",
"5_	c #B88261",
"6_	c #A27151",
"7_	c #825A41",
"8_	c #24180E",
"9_	c #181307",
"0_	c #B08067",
"a_	c #B88369",
"b_	c #453029",
"c_	c #040301",
"d_	c #825C4F",
"e_	c #9C6C5C",
"f_	c #7F5A45",
"g_	c #6C4A35",
"h_	c #52372D",
"i_	c #72523F",
"j_	c #B78262",
"k_	c #BF8767",
"l_	c #A77757",
"m_	c #8A644F",
"n_	c #1A0F0F",
"o_	c #A2745F",
"p_	c #573A2F",
"q_	c #845A3D",
"r_	c #C48762",
"s_	c #A46F47",
"t_	c #6F4F3A",
"u_	c #7F573F",
"v_	c #6E4631",
"w_	c #AE785A",
"x_	c #A97556",
"y_	c #B68362",
"z_	c #B88365",
"A_	c #B38163",
"B_	c #B78063",
"C_	c #B17C5E",
"D_	c #AC7656",
"E_	c #553926",
"F_	c #2C1E16",
"G_	c #594031",
"H_	c #4C3326",
"I_	c #160D0A",
"J_	c #040302",
"K_	c #73533F",
"L_	c #AC7A57",
"M_	c #C18A67",
"N_	c #5D4232",
"O_	c #080403",
"P_	c #3F2F27",
"Q_	c #644A42",
"R_	c #8C5C4A",
"S_	c #C18767",
"T_	c #BF8F6A",
"U_	c #C78F6C",
"V_	c #472F25",
"W_	c #5F3F32",
"X_	c #2F2217",
"Y_	c #9A6C4D",
"Z_	c #B77C55",
"`_	c #B17C57",
" :	c #AA7755",
".:	c #C48C62",
"+:	c #B1825C",
"@:	c #BD8361",
"#:	c #B5835C",
"$:	c #BC8760",
"%:	c #BE8863",
"&:	c #B88464",
"*:	c #A87759",
"=:	c #2A1C11",
"-:	c #0D0906",
";:	c #5D4130",
">:	c #A6785D",
",:	c #926556",
"':	c #38261E",
"):	c #050100",
"!:	c #3B2A21",
"~:	c #946948",
"{:	c #CA9065",
"]:	c #C38D61",
"^:	c #694B3E",
"/:	c #070706",
"(:	c #271717",
"_:	c #3D2D27",
"::	c #9F6F55",
"<:	c #B98764",
"[:	c #6A4D3A",
"}:	c #35251F",
"|:	c #8F5F4A",
"1:	c #4D372D",
"2:	c #A4744A",
"3:	c #C18C62",
"4:	c #B4825A",
"5:	c #A26F4A",
"6:	c #CA9068",
"7:	c #C38A60",
"8:	c #C28B68",
"9:	c #C48963",
"0:	c #C08961",
"a:	c #AD7C59",
"b:	c #BB7E56",
"c:	c #734A2E",
"d:	c #110C04",
"e:	c #6A4C39",
"f:	c #A9785B",
"g:	c #A7775F",
"h:	c #3B2A20",
"  . + @ # $ % & * * = - ; > , ' ) ) ! ~ { ] ^ / ( _ : < = [ } | 1 < < < 2 3 4 5 6 7 8 9 0 a b c d e f g h i j k l m n o p q r s ",
"t u v w x y z A B C D E F G , H i I J K L M N O P Q < < < < R S T < < < < U V W X Y Z `  ...+.@.#.$.%.&.*.=.-.;.>.< ,.'.).!.~.{.",
"].^./.(._.:.<.[.}.|.1.2.3.4.5.5.6.7.8.9.< < < < < < < < < < 0.a.b.< < < < c.d.e.f.g.9.: < < < h.i.j.k.l.m.n.o.p.q.< r.s.t.u.v.w.",
"x.y.z.A.B.C.D.E.F.G.H.I.J.K.L.M.N.O.P.< < < < < < < < < < < < Q.R.S.T T T.U.V.W.X.Y.< < < < < Z.`. +.+++@+#+$+%+&+*+=+-+;+>+,+'+",
")+!+~+{+]+^+< < < <  ./+(+_+:+<+[+}+|+< < < < < < < < < < < 0.1+2+3+4+5+6+7+8+9+0+a+b+< < < < *+c+d+e+f+g+k h+i+< j+k+l+m+8 n+o+",
"p+q+r+s+t+< < < < < < < u+v+w+x+y+z+A+< < < < < < < < < < < B+7 C+3+D+E+F+e.G+H+I+J+K+< < < < < L+M+N+O+P+Q+R+S+< ^+T+U+V+W+X+Y+",
"Z+`+ @.@< < < < < < < < < +@@@#@$@W %@&@*@=@-@;@T.: >@0.,@'@)@!@~@{@]@^@/@(@_@:@<@t.[@}@< < < < < |@1@2@3@4@5@6@< < 7@8@9@0@a@b@",
"c@d@e@f@< < < < < : < < < < g@h@i@j@k@l@m@n@o@p@q@r@s@t@u@v@w@x@y@z@A@B@C@D@E@F@G@H@I@J@K@< < < f@L@M@N@O@P@Q@< < < f@R@^+S@T@U@",
"V@W@< < < < < *+X@Y@Z@Q < < `@ #L..#+#@###$#%#&#*#=#k@-#;#>#, F@,#: *@;@'#)#!#~#W.{#]#^#/#(#< < < _#:#<#[#}#^+< < < < |#1#2#3#x@",
"4#5#< < < < < 6#7#8#9#0#= < < a#b#c#d#G@W.e#f#g#h#i#j#x@W x@k#l#m#< < < : n#o#p#~#q#r#s#t#u#v#< < w#x#y#z#A#< < < >@j+B#C#D#E#F#",
"G#H#< < ^+I#J#K#L#M#N#O#P#>@< 0#Q#R#S#.#T#U#*@V#W#X#Y#Z#T#`# $.$< < < < < < +$@$j.T##$$$%$&$*$=$-$;$>$,$'$)$!$~${$]$^$/$($i#_$:$",
"<$< < [$}$|$1$2$3$4$5$6$7$n#< I#8$9$0$a$b$>@< < < T.T.c$d$e$f$< < < < < < < .$g$h$i$j$k$l$m$n$o$p$q$r$s$t$u$v$w$x$y$z$A$B$C$D$E$",
"< F$G$H$I$J$K$< L$M$N$O$P$f@< Q$N.R$S$T$U$< < < < < < < < < < < < < < < < < : V$W$X$Y$Z$`$ %.%+%@%#%$%%%&%*%=%-%;%>%,%'%)%!%~%{%",
"]%^%/%(%_%:%<%< < f@^+6@f@< < < [%}%|%1%2%Q < < < < < < < < < < < < < < < < < 3%4%5%6%7%8%9%0%a%b%c%d%e%f%g%h%i%j%k%l%m%n%o%p%q%",
"r%Y@< s%t%u%v%< < < < < < < < < w%x%y%z%A%B%C%< < < < < < < < < < < < < < < < D%E%F%G%H%*+I%J%K%L%M%N%O%P%J#Q%R%S%T%U%V%W%X%Y%Z%",
"`% &< < .&+&@&#&$&< < < < < < %&&&*&=&-&i W ;&>&,&'&: < < : w.< < < < < < < )&!&~&{&]&< < < K@^&/&(&_&:&<&[&}&|&1&< < < 2&3&4&5&",
"6&7&f@< < 8&9&0&,+< < a&b&c&d&e&f&g&h&i&%.j&k&|.l&m&n&o&p&q&s@r&s&< < < < t&u&v&w&x&y&< < < < z&A&B&C&D&E&< < < < < < < < < F&G&",
"H&9%I&< < < J&K&: < L&k#q#M&N&O&P&Q&R&S&T&U&W I V&W&X&Y&Z&`& *.*+*@*#*$*%*&***=*-*;*< >*,.,*< < '*)*!*~**+< < < < < < < < < {*]*",
"^*/*(*L$< < < < < < _*:*<*[+[*}*|*1*2*3*4*5*6*7*8*9*0*a*+*8*b*c*.#d*>#e*f*g*h*i*j*k*w#l*L$m*,.< n*o*p*q*r*< < < < < < < < < s*t*",
"u*v*w*x*y*< < < < < z*A*B*C*D*#@8$E*F*G*H*I*J*K*L*M*Z#N*O*P*Q*R*~ I@S*T*U*V*W*%&j+X*Y*Z*`* =.=< +=@=U*#=$=< < < < < < < < < f@%=",
"]%&=*===-=;=< < < : >=,='=)=A*G !=~={=]=< < f@^=/=(=l+_=:=<=[=Q$R O }=|=;@< < y&1=2=3=4=5=6=y&f@7=Y&8=9=0=a=< < < < < < < f@b=c=",
"d=e=f=g=h=i=j=k=l=m=n=:*W.o=p=q=< < < < < < < < r=s=t=L*u=&#v=w=< 0. .x=y=z=A=B=C=D=E=F=G=H=< I=J=:@K=L=M=N=O=< < < < < < < < f@",
"P=Q=R=S=T=U=V=W=2+X=Y=Z=`=J+A+< < < < < < < < < <  -.-+-@-#-$-%-< 9.T.,*&-*-=---;->-,-'-^+Q )-!-~-{-]-^-/-(-_-:-2&< {*H#*+< < 1&",
" =<-[-}-|-1-2-3-4-5-6-7-8-Z#9-< < < < < < < < < < ,*0-a-b-c-d-e-< f-g->*R@^+h-i-j-k-l-m-*@C%n-o-p-q-r-s-t-u-v-w-x-y-z-A-B-< f@G=",
"C-D-E-|-F-G-H-I-J-K-6.D+i#`=L-< < < < < < < < < < < M-N-O-P-Q-R-f@y&S-T-^+f@U-V-W-X-Y-Z-f@`- ;.;+;@;#;$;%;l &;*;=;-;;;< < ,.>;,;",
"';);!;~;{;];^;/;(;_;:;d.<;i [;};< < : K@< < < < < < |;1;2;3;4;5;6;7;8;9;j+,*0;a;b;c;E&< ,*d;e;f;g;h;i;< < j;k;l;m;n;o;Q p;q;r;s;",
"t;u;v;w;x;y;z;A;q@B;T C;D;G@N.E;F;G;H;I;J;< < < < < < K;L;M;N;O;P;Q;R;S;< < f@R@< < < T;U;V;W;X;Y;< < < < Z;`; >.>+*+>@>#>$>%>&>",
"*>^+< < =>->;>>>0.< < < ,>l@'>)>'=k#e.!>~>{>< < < < < ]>^>/>(>_>:><>[>}>|>1>2>^+.$3>4>5>6>7>8>9>*+< < < < *+0>a>b>c>d>e>f>g>h>i>",
"j>< < < j+k>l>< < < < < m>n>o>p>} !>q>r>s>t>< < < < < u>v>w>x>y>z>A>B>C>D>E>F>G>H>I>J>K>L>M>u X+< < < < < N>O>P>Q>R>/-S>T>U>V>W>",
"X>< < < < Y>Z>< < < < < < `> ,z+| .,+,@,X@< < < < < < #,$,%,&,*,=,-,;,>,,,',),!,~,{,],^,/,(,_,< < < < < < :,<,[,},|,1,2,3,4,5,6,",
"7,< < < < 8,9,< < < < < < 0,i a,b,c,d,e,< < < < < < < f,g,h,i,j,k,l,m,n,o,p,q,r,s,t,u,v,w,x,< R@K@*@n#< E&y,m;z,A,B,C,D,E,F,G,H,",
"I,J,< < K,L,;@< < < < < < M,N,O,P,Q,R,< < < < < < f@E&S,T,U,T;*+y&< < < V,W,X,Y,Z,`, '.'+'@'#'$'%'&'-@^+*+*'='-'Z$;'>',''')'!'~'",
"{']'^'/'('_': < < < < < < :'<'['}'|'1'< < < < X@2'4=3'q$r>4'< < < < < < < 5'6'7'8'9'0'a'b'6@c'd'e'd*f'7@< g'6*h'i'j'k'l'5,m'w>n'",
"o'p'q'r's'y&< < < < < < < E&t'u'v'w'x'y'..c$z'r&A'B'C':;D',#>@< < < < < < < E'F'G'H'I'J'< c;K'L'/@M'N'b'< O'P'Q'R'S'T'U'V'W'X'_&",
"Y'Z'`' )< < < < < < < < < < *+.)+)d.@)#)X#$)%)+*Z&&)*)=)-);)>)< < < < < < < f@,)')))!)~)< < {)])^)/)()_)< :)<)[)})|)< < R@1)2)3)",
"4)5)6)< < < < < < < 7)< < < < 8)9)0)a)b)c)d)e)f)g)h).*i)j)k)l)m)< < < < < < < t&n)o)p)q)< < T;r)s)t)u)< < v)w)x)j+< < < < y)z)A)",
"B)C)f@< < < < < < < D)E)< < < F)I G)H)I)J)K)L)M)N)O)P)Q)J@R)S)T)%&< < < < < < U)V)W)X)y,Y)< < X+Z)`) !< .!+!@!#!< < < < < *+$!%!",
"&!*!=!< < < < < < -!;!>!* < ,!'!j&h))!n#9.s&9.9.= <%!!~!T.< {!]!^!< < < < < < /!(!_!:!<!5>^+< y&[!}!< |!1!2!3!4!< < < < < < 5!6!",
"7!8!9!1&< < < < < 0!9$a!b!c!d!e!f!g!< < < < < < < h!i!9.< < < j!k!E&< < < < < l!m!n!o!p!q!r!*+< f@< s!t!u!v!w!x!^+< < < < 0.y!z!",
"A!B!C!D!< < < E!F!G!H!I!J!K!L!M!N!: < < < < < < >@O!P!< < < < Q!R!S!T!,*: < < U!V!W!X!Y!Y!Z!`! ~.~+~@~#~$~%~&~*~=~*+< < < E'-~;~",
"*)>~,~'~)~!~~~{~]~^~/~[*(~[*_~:~<~< < < < < < < < * [~< < < < P$}~4;|~1~2~< < 3~4~5~6~7~8~I+9~t#0~a~b~c~d~e~f~g~h~i~>@>@: j~k~l~",
"m~n~o~p~q~r~s~t~u~v~w~x~y~z~A~B~C~< < < : n#>@< < Q D~n#< < < E~F~G~H~I~J~< < < K~L~]@(@M~8~X N~O~P~< < Q~R~S~T~)#U~V~W~X~Y~Z~`~",
" {.{+{@{#{${%{&{< < 0.*{={+)1.-{;{< < : .$c.8&= *@X~>{,{* < < < '{){!{~{,*< < < >@{{]{^{i)/{N*({_{< < < < R@^+:{<{[{}{|{1{W.2{3{",
"4{>*5{6{7{8{9{E~< < < < 0{a{)=b{c{< < = d{e{f{g{,+h{I@i{= < < < j{k{l{m{n{< < < < o{p{q{r{%-s{f@< < < < < < < f@h~t{:=u{v{w{x{y{",
"9.< z{A{B{C{D{< < < < < E{F{G{j@H{< < K@I{)@<@J{K{a*L{M{Q < < < N{O{P{Q{R{>*< < S{$#T{U{*@< < < < < < < < < < < f@|@V{W{X{Y{Z{`{",
"%=5' ].]+]@]R@< < < < < < #]M.'!$]< < Q L-J{u=%]&]P).&*]< < < < '#=#e!=]-];]< K,>],]'])]< < < < < < < < < < < < < < !]~]{]]]^]/]",
"(]_]< :]<]< < < < < < < []}]Q#k@|]1]< < b+2]3]4]:;5]0.< < < : 6]7]8]9]8$0]< < < a]b]6.=@< < < < < < < < < < < < < < c]d](&e]f]g]",
"< < < < < < < < < < < < h]i]R$j]k]l]m]< < Q >@: n]: < < < < < o]p]K!q]w@r]< < < w#s]t]u]: < < v]w]x]y]z];=< < < < < A]B]C]D]E]< ",
"< < < < < < < < < < < F]G]H]I]J]K]d!L]M]< < < < < < < < < < : N]O]P]O{Q]0.< < < < R]S]T]U]V]>=W]X]Y]Z]`] ^,*< < < < .^+^@^#^< < ",
"< < < < < < < < < < < $^M!%^&^*^O.W&9*=^-^0.< < < < < < < ;^>^,^'^7~)^9.< < < < < x!!^~^{^]^h$^^/^(^_^:^<^[^< < < }^ ;|^1^2^t+< ",
"3^{*< < < < < < < < n#4^5^6^7^w.8^9^0^a^b^c^,>d^E!c{e^f^g^h^i^j^k^Z@< < < < < < < l^m^n^o^p^q^r^s^t^u^v^w^x^y^y&z^A^B^C^D^E^F^G^",
"H^I^J^< w.K^L^m]m]M^N^O^P^~ Q^< < < R^=^l@0^S^T^U^V^k]W^X^Y^Z^O{f^< < < < < < < < `^ /./+/@/#/$/%/&/*/=/j$-/;/>/,/'/)/!/~/{/!#]/",
"^///(/_/:/-{</[/}/9)l@|/h@1/2/< < < < 3/4/5/B'f!6/5^N._+7/8/9/!>0/< < < < < < < ;^h^a/b/k+c/d/e/f/j+f@< g/h/i/j/k/l/m/n/o/p/q/r/",
";+s/t/u/v/w/x/y/_;z/E{< H{A/B/C/< < < n#N;D/E/F/G/H/I/J/K/L/M/i^b+< < < < < < < N/O/P/Q/< < < < < < < < < R/S/T/U/V/< 1&W/X/Y/Z/",
"`/ (.(+(C/@(#($(%(F)< < < * Q$6]< < < m>&(*(=(-(;(>(,(*@>&'(7~I [%;^< < < < )(!(~({(e$< < < < < < < < < < ](^(/(((^+< < _(:(<([(",
"}(|(1(< < < < 2(3(4(5(< < < < < < < < 6(7(b!8(0#*@< < < < E!9(0(x%k^a(w.9.b(c(=^d(:/Q < < < < < < < < < e(f(g(h(i(< < < t+j(k(l(",
"m(n(o(< < < < < p(q(r(< < < < < < < < < s(r(,(< < < < < < < E!t(u('^v(5/w(M/x(y(z(A(Q < < < < < < B(C(D(E(F(G(H(I(< < < < J(K(L(",
"M(N(*+< < < < < O(P(Q(R(< < < < < < < * B'S({>< < < < < < < < 1]C+T(U(k&V(W(X(Y(Z(`(,+< >@n#< < <  _%,._+_@_#_$_%_< < < < < &_*_",
"=_-_< < < < < < < < ;_>_,_n#Q Q < 6]'_{)P).*R))_< < < < < < < n#!_~_{_]_O!I;^_/_(___:_,@<_9-[_*@}_|_1_2_3_4_5_6_7_8_< R@c;^+< 9_",
"0_a_b_c_< < < < < E{J;-^d_e_f_g_h_i_j_%.k_l_R*m_n_< < < < < < w.o_p_n#< < < .$q_r_s_9&t_u_.*!!J)v_w_x_y_z_A_B_C_D_E_R@F_G_H_I_J_",
"K_L_M_N_O_< < < < >@P_Q_E!R_z+f!S_`&M_j&T_M_U_O.V_>@< < < < : W_-!< < < < < X_Y_X Z_H+`_ :m+.:+:@:#:$:D#%:&:X'*:D_=:-:;:>:,:':):",
"!:~:{:]:^:/:< < < < < (:_:::i w{{#<:o=c*i#:+W&^#[:n#< < };}:|:1:< < < < < < ,!2:3:4:5:p ).T*2+p 6:3#7:8:9:M_0:a:b:c:d:e:f:g:h:< ",
"  . + @ # $ % & * * = - ; > , ' ) ) ! ~ { ] ^ / ( _ : < = [ } | 1 < < < 2 3 4 5 6 7 8 9 0 a b c d e f g h i j k l m n o p q r s ",
"t u v w x y z A B C D E F G , H i I J K L M N O P Q < < < < R S T < < < < U V W X Y Z `  ...+.@.#.$.%.&.*.=.-.;.>.< ,.'.).!.~.{."};
