/* XPM */
static char * sprite_xpm[] = {
"64 64 3939 2",
"  	c #91726A",
". 	c #866966",
"+ 	c #8B6C69",
"@ 	c #93736E",
"# 	c #9A7A76",
"$ 	c #8D6F6F",
"% 	c #907473",
"& 	c #876B6D",
"* 	c #88716D",
"= 	c #7D6664",
"- 	c #876A6A",
"; 	c #846266",
"> 	c #8F7474",
", 	c #81716F",
"' 	c #76706F",
") 	c #868387",
"! 	c #8D8690",
"~ 	c #9D9BAC",
"{ 	c #96919E",
"] 	c #959299",
"^ 	c #8F8D8C",
"/ 	c #96938F",
"( 	c #928C85",
"_ 	c #7C7471",
": 	c #8F867E",
"< 	c #80746F",
"[ 	c #8E8478",
"} 	c #9D9383",
"| 	c #9D9485",
"1 	c #9C9186",
"2 	c #80716E",
"3 	c #857774",
"4 	c #99938D",
"5 	c #958B75",
"6 	c #95846E",
"7 	c #9B8880",
"8 	c #8E7B80",
"9 	c #958882",
"0 	c #8D8581",
"a 	c #9E9CA2",
"b 	c #96909E",
"c 	c #C2B7B6",
"d 	c #BEB19E",
"e 	c #BEB9AD",
"f 	c #C8C7C0",
"g 	c #9F9483",
"h 	c #A09482",
"i 	c #918378",
"j 	c #97877B",
"k 	c #8E7D73",
"l 	c #95857A",
"m 	c #98877B",
"n 	c #A89C94",
"o 	c #ACA7AA",
"p 	c #9E9D9F",
"q 	c #B1B8BF",
"r 	c #9A9D9F",
"s 	c #9BA1A1",
"t 	c #878984",
"u 	c #85847F",
"v 	c #92918C",
"w 	c #9F9E99",
"x 	c #888080",
"y 	c #8E8685",
"z 	c #928176",
"A 	c #827272",
"B 	c #796967",
"C 	c #846F6B",
"D 	c #806868",
"E 	c #896B6B",
"F 	c #8F6C6B",
"G 	c #826362",
"H 	c #7B615C",
"I 	c #755A57",
"J 	c #8A6766",
"K 	c #A57D78",
"L 	c #8C6E6B",
"M 	c #8D7C74",
"N 	c #67615F",
"O 	c #8D8987",
"P 	c #928990",
"Q 	c #ACA6B3",
"R 	c #A9A2AA",
"S 	c #B3B2B5",
"T 	c #B1B4B1",
"U 	c #ADA9A5",
"V 	c #B4ABA9",
"W 	c #BFBAB8",
"X 	c #9F9185",
"Y 	c #95837B",
"Z 	c #9E8F81",
"` 	c #A79687",
" .	c #AF9D8D",
"..	c #9D8A80",
"+.	c #96817A",
"@.	c #927D79",
"#.	c #90837C",
"$.	c #AA9D81",
"%.	c #9D876F",
"&.	c #A68E82",
"*.	c #7F6C73",
"=.	c #7C6D6E",
"-.	c #98928C",
";.	c #8C8587",
">.	c #9B95A1",
",.	c #AB9F9B",
"'.	c #81756A",
").	c #9B908B",
"!.	c #AFA397",
"~.	c #74625D",
"{.	c #8F7F72",
"].	c #928075",
"^.	c #9B8A7C",
"/.	c #A49481",
"(.	c #917F74",
"_.	c #958478",
":.	c #B0A399",
"<.	c #AFAAAB",
"[.	c #A4A2A3",
"}.	c #9D9D9D",
"|.	c #949593",
"1.	c #9A9C9B",
"2.	c #A8A399",
"3.	c #81756D",
"4.	c #A09387",
"5.	c #95867C",
"6.	c #8C7C76",
"7.	c #AFA498",
"8.	c #928276",
"9.	c #A0958B",
"0.	c #897C78",
"a.	c #877E7B",
"b.	c #938E85",
"c.	c #817975",
"d.	c #8A6A66",
"e.	c #835C58",
"f.	c #5C3F39",
"g.	c #79534C",
"h.	c #A2726B",
"i.	c #BB9686",
"j.	c #7E5D57",
"k.	c #A79682",
"l.	c #554E4A",
"m.	c #4A4848",
"n.	c #B9B3B2",
"o.	c #D0CDD5",
"p.	c #BBB3B4",
"q.	c #938782",
"r.	c #928D7C",
"s.	c #6A5E5C",
"t.	c #5F4D50",
"u.	c #504142",
"v.	c #8B736D",
"w.	c #6A5253",
"x.	c #8C6C69",
"y.	c #A68B7E",
"z.	c #AD9082",
"A.	c #795F5A",
"B.	c #7B5D5E",
"C.	c #6D5456",
"D.	c #796764",
"E.	c #7D6658",
"F.	c #866C58",
"G.	c #765756",
"H.	c #59484C",
"I.	c #786965",
"J.	c #94897F",
"K.	c #534D49",
"L.	c #6B6A71",
"M.	c #A49795",
"N.	c #6F5851",
"O.	c #80675F",
"P.	c #90766B",
"Q.	c #725B55",
"R.	c #918073",
"S.	c #9F8D7D",
"T.	c #887567",
"U.	c #9C8777",
"V.	c #907C6F",
"W.	c #948071",
"X.	c #AD9F92",
"Y.	c #968A7F",
"Z.	c #857976",
"`.	c #7C7272",
" +	c #867E7A",
".+	c #A69E95",
"++	c #634F49",
"@+	c #9D8675",
"#+	c #9D8776",
"$+	c #9F8B79",
"%+	c #947E70",
"&+	c #968578",
"*+	c #948173",
"=+	c #9C8E83",
"-+	c #86756F",
";+	c #908076",
">+	c #8F837A",
",+	c #7D746F",
"'+	c #8F7F7A",
")+	c #936460",
"!+	c #7D4D47",
"~+	c #975F59",
"{+	c #A36C61",
"]+	c #936257",
"^+	c #9B756A",
"/+	c #A28C7A",
"(+	c #473F39",
"_+	c #15120C",
":+	c #C4BDB6",
"<+	c #8E7874",
"[+	c #836867",
"}+	c #7A645E",
"|+	c #6D5A53",
"1+	c #6D5656",
"2+	c #644A4D",
"3+	c #A18783",
"4+	c #906C6B",
"5+	c #B3958D",
"6+	c #86645F",
"7+	c #906665",
"8+	c #A07772",
"9+	c #684948",
"0+	c #5E4240",
"a+	c #805B5C",
"b+	c #674E4C",
"c+	c #836053",
"d+	c #7C5748",
"e+	c #61453F",
"f+	c #6F5357",
"g+	c #735E5B",
"h+	c #8F8276",
"i+	c #413A39",
"j+	c #5E585B",
"k+	c #C3B9AE",
"l+	c #86665E",
"m+	c #8B685F",
"n+	c #8F6C64",
"o+	c #7F5D58",
"p+	c #927366",
"q+	c #795A55",
"r+	c #9E8473",
"s+	c #91796B",
"t+	c #967E6E",
"u+	c #A7927B",
"v+	c #B6A894",
"w+	c #948477",
"x+	c #ABA298",
"y+	c #827471",
"z+	c #9A9287",
"A+	c #92857D",
"B+	c #907167",
"C+	c #8E6E64",
"D+	c #7C6358",
"E+	c #67544A",
"F+	c #826B60",
"G+	c #A89580",
"H+	c #A18B75",
"I+	c #A08C7A",
"J+	c #8E766B",
"K+	c #7C6057",
"L+	c #856E67",
"M+	c #7D6F70",
"N+	c #76534F",
"O+	c #704337",
"P+	c #8A5348",
"Q+	c #A0645A",
"R+	c #B5806E",
"S+	c #B7917C",
"T+	c #705854",
"U+	c #120B02",
"V+	c #090402",
"W+	c #B0A197",
"X+	c #8C766F",
"Y+	c #8B7166",
"Z+	c #80645E",
"`+	c #6D5350",
" @	c #493432",
".@	c #99736E",
"+@	c #916D67",
"@@	c #AB897A",
"#@	c #845E59",
"$@	c #936863",
"%@	c #9E706A",
"&@	c #583A36",
"*@	c #6D4B48",
"=@	c #5F413E",
"-@	c #5C423D",
";@	c #775141",
">@	c #885C48",
",@	c #50352A",
"'@	c #7E595B",
")@	c #8F736A",
"!@	c #7C6D62",
"~@	c #49423C",
"{@	c #585256",
"]@	c #A89A94",
"^@	c #82625A",
"/@	c #815852",
"(@	c #8B605B",
"_@	c #815B54",
":@	c #987365",
"<@	c #987567",
"[@	c #8D6E61",
"}@	c #795F55",
"|@	c #604C42",
"1@	c #8E7666",
"2@	c #A38D76",
"3@	c #A99987",
"4@	c #928074",
"5@	c #95867D",
"6@	c #8F8177",
"7@	c #776560",
"8@	c #91796F",
"9@	c #7F665F",
"0@	c #755E58",
"a@	c #846C61",
"b@	c #99836F",
"c@	c #A08872",
"d@	c #947C6E",
"e@	c #988070",
"f@	c #87645A",
"g@	c #89625E",
"h@	c #7A625E",
"i@	c #7C6A68",
"j@	c #76534C",
"k@	c #8E584F",
"l@	c #965D52",
"m@	c #BB806D",
"n@	c #8D5C51",
"o@	c #855B5A",
"p@	c #473333",
"q@	c #090200",
"r@	c #080100",
"s@	c #8F817F",
"t@	c #AB9189",
"u@	c #735853",
"v@	c #735651",
"w@	c #5D4A44",
"x@	c #3A2A22",
"y@	c #493430",
"z@	c #7B5A57",
"A@	c #85625C",
"B@	c #75574F",
"C@	c #8C665E",
"D@	c #916B61",
"E@	c #9F776C",
"F@	c #6B4B43",
"G@	c #724F4A",
"H@	c #6A4A46",
"I@	c #644643",
"J@	c #7F5243",
"K@	c #996650",
"L@	c #8A5950",
"M@	c #906763",
"N@	c #8B6B62",
"O@	c #78655A",
"P@	c #161513",
"Q@	c #292328",
"R@	c #AC9F93",
"S@	c #8C6E60",
"T@	c #9C6D61",
"U@	c #94635D",
"V@	c #885D55",
"W@	c #977060",
"X@	c #75554A",
"Y@	c #89665A",
"Z@	c #886B5D",
"`@	c #755B4F",
" #	c #A58D73",
".#	c #967D6A",
"+#	c #AA947D",
"@#	c #937E70",
"##	c #89766C",
"$#	c #907E73",
"%#	c #836D66",
"&#	c #886F6B",
"*#	c #705957",
"=#	c #6C5753",
"-#	c #624F47",
";#	c #8B6E5F",
">#	c #A58B71",
",#	c #977C6C",
"'#	c #816A61",
")#	c #978373",
"!#	c #8C6D66",
"~#	c #8A5E59",
"{#	c #8F6860",
"]#	c #927C73",
"^#	c #7B5E5A",
"/#	c #A77368",
"(#	c #C08773",
"_#	c #B57F6B",
":#	c #693F37",
"<#	c #7B5557",
"[#	c #37272A",
"}#	c #150D11",
"|#	c #050101",
"1#	c #816F70",
"2#	c #7C6760",
"3#	c #82625C",
"4#	c #7E5E59",
"5#	c #8F6968",
"6#	c #745754",
"7#	c #7D615A",
"8#	c #96736A",
"9#	c #9D7B6D",
"0#	c #947064",
"a#	c #9A7466",
"b#	c #A17B6A",
"c#	c #9B7466",
"d#	c #825F54",
"e#	c #7D5852",
"f#	c #78544D",
"g#	c #A57970",
"h#	c #935F52",
"i#	c #9C6550",
"j#	c #88554B",
"k#	c #8A5E5B",
"l#	c #8A675E",
"m#	c #887064",
"n#	c #3C302E",
"o#	c #060001",
"p#	c #988475",
"q#	c #9D816E",
"r#	c #7D594B",
"s#	c #83594E",
"t#	c #825F50",
"u#	c #9A6F60",
"v#	c #9D7365",
"w#	c #7C574D",
"x#	c #987663",
"y#	c #6A5043",
"z#	c #947564",
"A#	c #B09679",
"B#	c #9D8570",
"C#	c #947C6D",
"D#	c #9C8575",
"E#	c #957267",
"F#	c #916B60",
"G#	c #825F55",
"H#	c #816154",
"I#	c #906E5F",
"J#	c #926F5F",
"K#	c #8A675A",
"L#	c #A68A71",
"M#	c #7C6A6A",
"N#	c #7B6B62",
"O#	c #A69480",
"P#	c #917C72",
"Q#	c #7E5D56",
"R#	c #765349",
"S#	c #7B615E",
"T#	c #665453",
"U#	c #A3756A",
"V#	c #895F52",
"W#	c #85594B",
"X#	c #935C58",
"Y#	c #795357",
"Z#	c #373139",
"`#	c #11070F",
" $	c #080103",
".$	c #736666",
"+$	c #AA8D83",
"@$	c #9A756B",
"#$	c #8E6762",
"$$	c #99736F",
"%$	c #8B6B64",
"&$	c #795C55",
"*$	c #9A7A6C",
"=$	c #987868",
"-$	c #977163",
";$	c #95705F",
">$	c #9C7564",
",$	c #8D6959",
"'$	c #6A4B3F",
")$	c #725147",
"!$	c #7A554E",
"~$	c #A1766D",
"{$	c #A47462",
"]$	c #9F6751",
"^$	c #8E5A4E",
"/$	c #986963",
"($	c #997467",
"_$	c #8F766A",
":$	c #53473F",
"<$	c #040000",
"[$	c #A08E84",
"}$	c #7A5A54",
"|$	c #775649",
"1$	c #875C53",
"2$	c #AC826F",
"3$	c #785349",
"4$	c #875F54",
"5$	c #9B7865",
"6$	c #A27E6B",
"7$	c #977363",
"8$	c #8A6759",
"9$	c #A5856F",
"0$	c #876B5E",
"a$	c #9A8573",
"b$	c #937D71",
"c$	c #917267",
"d$	c #664E44",
"e$	c #7B615A",
"f$	c #94766C",
"g$	c #8B685D",
"h$	c #8B665B",
"i$	c #8E6B62",
"j$	c #917973",
"k$	c #70615C",
"l$	c #8F7E6D",
"m$	c #847165",
"n$	c #A5998E",
"o$	c #7F625E",
"p$	c #9F7B6D",
"q$	c #806A66",
"r$	c #6A5455",
"s$	c #3C231C",
"t$	c #5C3933",
"u$	c #502F24",
"v$	c #5F392F",
"w$	c #6C4C4E",
"x$	c #564754",
"y$	c #0C030B",
"z$	c #0C0407",
"A$	c #817B78",
"B$	c #BDA696",
"C$	c #C8A98E",
"D$	c #B28A78",
"E$	c #A97F75",
"F$	c #805A56",
"G$	c #7A5A50",
"H$	c #A78572",
"I$	c #A47F6C",
"J$	c #9E7564",
"K$	c #A67E68",
"L$	c #AD846B",
"M$	c #AA8068",
"N$	c #9E7260",
"O$	c #80564B",
"P$	c #865B53",
"Q$	c #996E69",
"R$	c #8E5F52",
"S$	c #7D513B",
"T$	c #AD7B67",
"U$	c #6E4B44",
"V$	c #987568",
"W$	c #9A7F71",
"X$	c #554742",
"Y$	c #000000",
"Z$	c #B5A5A4",
"`$	c #81625B",
" %	c #936B61",
".%	c #92695F",
"+%	c #7B584E",
"@%	c #433024",
"#%	c #977463",
"$%	c #997365",
"%%	c #8B655A",
"&%	c #9C7868",
"*%	c #876458",
"=%	c #926D60",
"-%	c #8B7061",
";%	c #998571",
">%	c #A5917F",
",%	c #8F8078",
"'%	c #645658",
")%	c #7D6E70",
"!%	c #6E5E63",
"~%	c #8A6D68",
"{%	c #B08D77",
"]%	c #977A6D",
"^%	c #786665",
"/%	c #886A61",
"(%	c #9C8A72",
"_%	c #8F7D6F",
":%	c #8C7975",
"<%	c #876E6E",
"[%	c #8C726D",
"}%	c #7E6C6B",
"|%	c #624849",
"1%	c #6E4443",
"2%	c #583330",
"3%	c #804F48",
"4%	c #8C574E",
"5%	c #705050",
"6%	c #37292F",
"7%	c #0C040A",
"8%	c #080304",
"9%	c #80756E",
"0%	c #B69F85",
"a%	c #C1A07D",
"b%	c #AF8470",
"c%	c #9A7267",
"d%	c #9A7066",
"e%	c #9B6D64",
"f%	c #A6756A",
"g%	c #A77969",
"h%	c #A57464",
"i%	c #AA7A66",
"j%	c #8C5D4F",
"k%	c #825647",
"l%	c #895A4C",
"m%	c #7D5144",
"n%	c #9B6A61",
"o%	c #976E68",
"p%	c #936556",
"q%	c #8F5E49",
"r%	c #AB7B67",
"s%	c #885F58",
"t%	c #916D63",
"u%	c #9B8373",
"v%	c #50413D",
"w%	c #A28C8A",
"x%	c #85655F",
"y%	c #795B50",
"z%	c #977265",
"A%	c #906C60",
"B%	c #61473D",
"C%	c #8F695F",
"D%	c #A0796B",
"E%	c #A6806F",
"F%	c #7A584E",
"G%	c #7B5850",
"H%	c #9C826F",
"I%	c #A3927A",
"J%	c #847167",
"K%	c #B0A7A0",
"L%	c #7E7072",
"M%	c #544C52",
"N%	c #867879",
"O%	c #87706E",
"P%	c #88655F",
"Q%	c #8F6C61",
"R%	c #8D6D64",
"S%	c #96826E",
"T%	c #7C6C60",
"U%	c #847873",
"V%	c #95898C",
"W%	c #8D7574",
"X%	c #7F6363",
"Y%	c #685255",
"Z%	c #704A4C",
"`%	c #563533",
" &	c #7C4F4F",
".&	c #563529",
"+&	c #8A584B",
"@&	c #553B38",
"#&	c #362931",
"$&	c #0C0207",
"%&	c #070101",
"&&	c #837F77",
"*&	c #C5B599",
"=&	c #B59A77",
"-&	c #987162",
";&	c #9E756D",
">&	c #87615B",
",&	c #986A62",
"'&	c #8D5E56",
")&	c #99665B",
"!&	c #996656",
"~&	c #9D6656",
"{&	c #9C6455",
"]&	c #9C6256",
"^&	c #925D51",
"/&	c #8B5B51",
"(&	c #895B54",
"_&	c #8F6360",
":&	c #875E52",
"<&	c #A57861",
"[&	c #AB836D",
"}&	c #A27C70",
"|&	c #9B7E70",
"1&	c #887169",
"2&	c #281F1F",
"3&	c #010000",
"4&	c #937B7C",
"5&	c #896C69",
"6&	c #80635C",
"7&	c #73554F",
"8&	c #745851",
"9&	c #795C54",
"0&	c #A08071",
"a&	c #684F48",
"b&	c #86645D",
"c&	c #8C6E62",
"d&	c #977869",
"e&	c #937166",
"f&	c #8D7665",
"g&	c #907F6C",
"h&	c #81746E",
"i&	c #5D5459",
"j&	c #938A8B",
"k&	c #81615E",
"l&	c #94756A",
"m&	c #957E6F",
"n&	c #988270",
"o&	c #8D7667",
"p&	c #866F64",
"q&	c #816F67",
"r&	c #A19C99",
"s&	c #968E8E",
"t&	c #AA9191",
"u&	c #6A4340",
"v&	c #6C4643",
"w&	c #462B25",
"x&	c #78514E",
"y&	c #714D49",
"z&	c #5E4034",
"A&	c #754E3F",
"B&	c #654947",
"C&	c #4A3840",
"D&	c #0C0104",
"E&	c #0B0102",
"F&	c #807B74",
"G&	c #B3A58E",
"H&	c #AD9B7A",
"I&	c #775E54",
"J&	c #866564",
"K&	c #775B56",
"L&	c #8E6B61",
"M&	c #A07868",
"N&	c #99685A",
"O&	c #A56E5B",
"P&	c #A06856",
"Q&	c #A96E5C",
"R&	c #A46A5B",
"S&	c #966258",
"T&	c #9D6964",
"U&	c #966763",
"V&	c #91655C",
"W&	c #A7796A",
"X&	c #9B7562",
"Y&	c #957561",
"Z&	c #7F635C",
"`&	c #8E7670",
" *	c #ADA1A3",
".*	c #3D2D33",
"+*	c #020000",
"@*	c #816A6C",
"#*	c #7D6566",
"$*	c #785E5B",
"%*	c #6C5452",
"&*	c #7C615D",
"**	c #8D7169",
"=*	c #756258",
"-*	c #A08A77",
";*	c #836D61",
">*	c #A7937D",
",*	c #927E6C",
"'*	c #7E6A5D",
")*	c #877666",
"!*	c #A29784",
"~*	c #A49A91",
"{*	c #7B6C6C",
"]*	c #7E6D6D",
"^*	c #927066",
"/*	c #785C4F",
"(*	c #756559",
"_*	c #816C5D",
":*	c #7F685C",
"<*	c #93786A",
"[*	c #866D67",
"}*	c #908580",
"|*	c #A29892",
"1*	c #875E58",
"2*	c #7D4C45",
"3*	c #8B5751",
"4*	c #644035",
"5*	c #905E58",
"6*	c #916056",
"7*	c #A67865",
"8*	c #825F5E",
"9*	c #57434C",
"0*	c #0E0207",
"a*	c #0E0506",
"b*	c #7C7973",
"c*	c #B0A38F",
"d*	c #A29176",
"e*	c #947B6C",
"f*	c #B8A397",
"g*	c #8B6D68",
"h*	c #A18573",
"i*	c #9C786A",
"j*	c #855E4F",
"k*	c #B38169",
"l*	c #986252",
"m*	c #8E5A4A",
"n*	c #A47261",
"o*	c #AB7D6D",
"p*	c #966B64",
"q*	c #87605A",
"r*	c #A17168",
"s*	c #A37566",
"t*	c #9E7562",
"u*	c #9E7B66",
"v*	c #9D7F6D",
"w*	c #A0877A",
"x*	c #A68F88",
"y*	c #5D4F4D",
"z*	c #7F6463",
"A*	c #775A59",
"B*	c #745653",
"C*	c #856560",
"D*	c #6A504B",
"E*	c #715650",
"F*	c #81615C",
"G*	c #A38675",
"H*	c #AD957F",
"I*	c #927B68",
"J*	c #765C53",
"K*	c #7E645A",
"L*	c #967F6C",
"M*	c #8D7668",
"N*	c #917B6E",
"O*	c #927E74",
"P*	c #8A7373",
"Q*	c #745F62",
"R*	c #775C58",
"S*	c #70524A",
"T*	c #624B43",
"U*	c #7E6358",
"V*	c #8F6F63",
"W*	c #836863",
"X*	c #8B7E75",
"Y*	c #8D817C",
"Z*	c #8B7C77",
"`*	c #784D45",
" =	c #63382C",
".=	c #8F564C",
"+=	c #6E4237",
"@=	c #583628",
"#=	c #784C40",
"$=	c #916857",
"%=	c #A98270",
"&=	c #A4807D",
"*=	c #6C5861",
"==	c #0D0206",
"-=	c #0D0608",
";=	c #797671",
">=	c #B2AA97",
",=	c #918570",
"'=	c #A89683",
")=	c #A0897F",
"!=	c #907873",
"~=	c #90776F",
"{=	c #9D7F72",
"]=	c #846159",
"^=	c #9C7163",
"/=	c #875D51",
"(=	c #906459",
"_=	c #9A7165",
":=	c #987269",
"<=	c #8E6C68",
"[=	c #AE8C7F",
"}=	c #A1756E",
"|=	c #A4796C",
"1=	c #A8846E",
"2=	c #AE8C73",
"3=	c #A78974",
"4=	c #B29A87",
"5=	c #A48C84",
"6=	c #514343",
"7=	c #030000",
"8=	c #816861",
"9=	c #7E5A59",
"0=	c #6A4D49",
"a=	c #674A46",
"b=	c #8E6863",
"c=	c #A48273",
"d=	c #916F64",
"e=	c #8F6D63",
"f=	c #88665C",
"g=	c #8A6A60",
"h=	c #A28571",
"i=	c #8E7065",
"j=	c #90746A",
"k=	c #987C72",
"l=	c #957874",
"m=	c #997C79",
"n=	c #6C5458",
"o=	c #5F4E4B",
"p=	c #705953",
"q=	c #82625B",
"r=	c #907263",
"s=	c #7C6056",
"t=	c #776B69",
"u=	c #817371",
"v=	c #65595B",
"w=	c #826766",
"x=	c #8C5852",
"y=	c #925A52",
"z=	c #814E48",
"A=	c #4E2E23",
"B=	c #6A4237",
"C=	c #6D463B",
"D=	c #AC8372",
"E=	c #715554",
"F=	c #2B2020",
"G=	c #190F13",
"H=	c #140911",
"I=	c #0E060A",
"J=	c #7D7C80",
"K=	c #7F7A7A",
"L=	c #38322D",
"M=	c #90847C",
"N=	c #726163",
"O=	c #92827C",
"P=	c #8D7D74",
"Q=	c #8F7A71",
"R=	c #5B4744",
"S=	c #765653",
"T=	c #9B7C6D",
"U=	c #96776A",
"V=	c #927369",
"W=	c #7C625E",
"X=	c #6B5456",
"Y=	c #846C6A",
"Z=	c #856563",
"`=	c #7D5B57",
" -	c #947666",
".-	c #816459",
"+-	c #9E8774",
"@-	c #5D4B48",
"#-	c #261E1D",
"$-	c #120704",
"%-	c #8D7870",
"&-	c #937B70",
"*-	c #2F1E19",
"=-	c #493732",
"--	c #614944",
";-	c #916B68",
">-	c #98726D",
",-	c #805D5B",
"'-	c #926E67",
")-	c #85635C",
"!-	c #86675F",
"~-	c #97766C",
"{-	c #A88E7E",
"]-	c #9A8176",
"^-	c #75595C",
"/-	c #765B5E",
"(-	c #75585E",
"_-	c #48383A",
":-	c #896F6D",
"<-	c #7A6B68",
"[-	c #897771",
"}-	c #826D67",
"|-	c #7B6763",
"1-	c #806C6A",
"2-	c #886F6C",
"3-	c #947672",
"4-	c #8D6A65",
"5-	c #8A5D5D",
"6-	c #674441",
"7-	c #624140",
"8-	c #4E322D",
"9-	c #45302C",
"0-	c #74504F",
"a-	c #664A49",
"b-	c #423033",
"c-	c #160C0E",
"d-	c #150A13",
"e-	c #0D050C",
"f-	c #796D79",
"g-	c #383136",
"h-	c #0E0703",
"i-	c #0F0809",
"j-	c #050000",
"k-	c #0B0202",
"l-	c #120905",
"m-	c #100602",
"n-	c #180F0B",
"o-	c #140806",
"p-	c #0A0000",
"q-	c #060000",
"r-	c #080101",
"s-	c #070000",
"t-	c #0B0201",
"u-	c #0F0708",
"v-	c #695E5D",
"w-	c #5F5152",
"x-	c #6C5054",
"y-	c #A28581",
"z-	c #8B6C6D",
"A-	c #60494A",
"B-	c #8E706D",
"C-	c #816062",
"D-	c #765C58",
"E-	c #87706D",
"F-	c #9C857B",
"G-	c #A68D82",
"H-	c #766260",
"I-	c #675358",
"J-	c #41393B",
"K-	c #33282A",
"L-	c #2F2628",
"M-	c #5A4850",
"N-	c #5A464B",
"O-	c #5E4F50",
"P-	c #605455",
"Q-	c #605354",
"R-	c #746061",
"S-	c #1B110F",
"T-	c #1A0F0E",
"U-	c #2E2225",
"V-	c #4D3C41",
"W-	c #543F46",
"X-	c #45343A",
"Y-	c #816468",
"Z-	c #362A2E",
"`-	c #5F484E",
" ;	c #442F34",
".;	c #130405",
"+;	c #110409",
"@;	c #0E0209",
"#;	c #060003",
"$;	c #070004",
"%;	c #47424B",
"&;	c #433C44",
"*;	c #3D353D",
"=;	c #1D191E",
"-;	c #0A0106",
";;	c #070002",
">;	c #090104",
",;	c #070102",
"';	c #080102",
");	c #0C0203",
"!;	c #0A0202",
"~;	c #0F0608",
"{;	c #0D0508",
"];	c #0B0409",
"^;	c #070309",
"/;	c #0E070F",
"(;	c #0B0507",
"_;	c #0A0506",
":;	c #080607",
"<;	c #080306",
"[;	c #0B060C",
"};	c #0D0910",
"|;	c #050405",
"1;	c #101012",
"2;	c #201C1E",
"3;	c #392F33",
"4;	c #4C3E43",
"5;	c #5D4A50",
"6;	c #251C1D",
"7;	c #6D5A5B",
"8;	c #715B5F",
"9;	c #7E6867",
"0;	c #7E6C6A",
"a;	c #6C585A",
"b;	c #423A3B",
"c;	c #322E30",
"d;	c #1C1617",
"e;	c #262427",
"f;	c #2E2D31",
"g;	c #251F24",
"h;	c #353037",
"i;	c #1E171B",
"j;	c #1C1211",
"k;	c #463A3D",
"l;	c #4A3D41",
"m;	c #644E52",
"n;	c #0D0709",
"o;	c #0D0809",
"p;	c #10090D",
"q;	c #0D0306",
"r;	c #0B0003",
"s;	c #0D0104",
"t;	c #0F030A",
"u;	c #110308",
"v;	c #0D0305",
"w;	c #14090E",
"x;	c #0B0104",
"y;	c #29242E",
"z;	c #4D4552",
"A;	c #433D48",
"B;	c #5C505D",
"C;	c #99909F",
"D;	c #9B919F",
"E;	c #7A6977",
"F;	c #6C5E6B",
"G;	c #756471",
"H;	c #5D515E",
"I;	c #1E1A20",
"J;	c #0F0509",
"K;	c #0E0509",
"L;	c #332B32",
"M;	c #45414A",
"N;	c #171116",
"O;	c #130C11",
"P;	c #120D12",
"Q;	c #0F0910",
"R;	c #18161F",
"S;	c #1C1B24",
"T;	c #100C13",
"U;	c #141317",
"V;	c #3D3D47",
"W;	c #151019",
"X;	c #100D14",
"Y;	c #323139",
"Z;	c #64636B",
"`;	c #4D4B53",
" >	c #2C2B2E",
".>	c #4A4146",
"+>	c #3A3439",
"@>	c #393438",
"#>	c #66585B",
"$>	c #292627",
"%>	c #2A2829",
"&>	c #454042",
"*>	c #544A4D",
"=>	c #584D4F",
"->	c #62555A",
";>	c #3C3B3F",
">>	c #64585E",
",>	c #3E3B42",
"'>	c #323237",
")>	c #333239",
"!>	c #38373C",
"~>	c #38353B",
"{>	c #181012",
"]>	c #100506",
"^>	c #0C0202",
"/>	c #0C0C0F",
"(>	c #2C2A30",
"_>	c #474044",
":>	c #363035",
"<>	c #1A161C",
"[>	c #150B12",
"}>	c #0D0408",
"|>	c #362B31",
"1>	c #40333B",
"2>	c #45393F",
"3>	c #4C4047",
"4>	c #625A63",
"5>	c #70606B",
"6>	c #776771",
"7>	c #826F77",
"8>	c #806D74",
"9>	c #978B8E",
"0>	c #7D6B72",
"a>	c #62565D",
"b>	c #87757D",
"c>	c #86757D",
"d>	c #7E6B77",
"e>	c #645560",
"f>	c #5F545D",
"g>	c #71626C",
"h>	c #695B66",
"i>	c #5F5660",
"j>	c #72656F",
"k>	c #675D69",
"l>	c #746871",
"m>	c #716E74",
"n>	c #726C74",
"o>	c #9394A5",
"p>	c #9B9FAF",
"q>	c #99949E",
"r>	c #9B9297",
"s>	c #A39AA5",
"t>	c #A49DAD",
"u>	c #9D95A5",
"v>	c #B0B2C6",
"w>	c #A19FA9",
"x>	c #99979B",
"y>	c #908583",
"z>	c #9E8C8C",
"A>	c #A89797",
"B>	c #B3A4A3",
"C>	c #C1B8B6",
"D>	c #B4A9A2",
"E>	c #AFA49D",
"F>	c #B8B1A9",
"G>	c #B1AA9F",
"H>	c #ABA196",
"I>	c #B3ACA2",
"J>	c #A9A098",
"K>	c #B6AFAD",
"L>	c #9F9490",
"M>	c #A49994",
"N>	c #A19592",
"O>	c #978B8C",
"P>	c #908183",
"Q>	c #7D6E75",
"R>	c #625960",
"S>	c #5A535A",
"T>	c #786E76",
"U>	c #716C6A",
"V>	c #92908F",
"W>	c #A19C9D",
"X>	c #8C8081",
"Y>	c #8E7E7D",
"Z>	c #8D7979",
"`>	c #99878A",
" ,	c #81696E",
".,	c #8C7376",
"+,	c #978485",
"@,	c #A39393",
"#,	c #998680",
"$,	c #938077",
"%,	c #86746C",
"&,	c #9F8B7D",
"*,	c #937D73",
"=,	c #99857C",
"-,	c #907A76",
";,	c #A7928D",
">,	c #A08C83",
",,	c #96827E",
"',	c #A48F87",
"),	c #A99390",
"!,	c #998382",
"~,	c #876F73",
"{,	c #8C7678",
"],	c #8F7C7B",
"^,	c #857375",
"/,	c #746668",
"(,	c #8F807E",
"_,	c #9C8F8D",
":,	c #A0958E",
"<,	c #9D9190",
"[,	c #B8B0B2",
"},	c #A9998C",
"|,	c #B2A091",
"1,	c #B29D8E",
"2,	c #A18782",
"3,	c #A68F8C",
"4,	c #A69497",
"5,	c #8B7D7E",
"6,	c #9A897C",
"7,	c #A69382",
"8,	c #B49E8F",
"9,	c #B7A399",
"0,	c #BFAD9F",
"a,	c #9E8983",
"b,	c #B29F8E",
"c,	c #AB9886",
"d,	c #C2B3A1",
"e,	c #B09E86",
"f,	c #AD9D87",
"g,	c #CBC3B2",
"h,	c #B3A48F",
"i,	c #907B70",
"j,	c #AD9A88",
"k,	c #B2A18E",
"l,	c #B3A596",
"m,	c #9D8A7F",
"n,	c #AB9F9A",
"o,	c #9F8F8B",
"p,	c #988786",
"q,	c #817277",
"r,	c #8C7D82",
"s,	c #B1AC9D",
"t,	c #A09687",
"u,	c #B2A799",
"v,	c #AA9788",
"w,	c #978176",
"x,	c #9A8277",
"y,	c #9D8178",
"z,	c #967C6F",
"A,	c #957F70",
"B,	c #8F7B69",
"C,	c #7E6859",
"D,	c #7D665A",
"E,	c #937C6D",
"F,	c #A18E77",
"G,	c #99846D",
"H,	c #A28D72",
"I,	c #A08A74",
"J,	c #8D7968",
"K,	c #B2A08A",
"L,	c #BBAD9A",
"M,	c #9D8977",
"N,	c #8E776A",
"O,	c #93796F",
"P,	c #A1887B",
"Q,	c #9F877B",
"R,	c #9C887C",
"S,	c #A19184",
"T,	c #71615E",
"U,	c #685C56",
"V,	c #A59789",
"W,	c #A79986",
"X,	c #AE9F89",
"Y,	c #A99686",
"Z,	c #A8917C",
"`,	c #AD9679",
" '	c #9E7F69",
".'	c #B39379",
"+'	c #BF9F88",
"@'	c #A88778",
"#'	c #8C6C64",
"$'	c #6F584A",
"%'	c #8E745F",
"&'	c #9F846C",
"*'	c #8F6F61",
"='	c #6C5446",
"-'	c #AE9079",
";'	c #816357",
">'	c #85665A",
",'	c #967768",
"''	c #A68A74",
")'	c #B79F82",
"!'	c #A48B73",
"~'	c #B19A7D",
"{'	c #9F836C",
"]'	c #A2886F",
"^'	c #816555",
"/'	c #A28670",
"('	c #AD957C",
"_'	c #A78F7B",
":'	c #9A8578",
"<'	c #6C5959",
"['	c #847070",
"}'	c #8E7C7C",
"|'	c #9D8C89",
"1'	c #B6AA98",
"2'	c #887469",
"3'	c #7C6B5C",
"4'	c #8C7366",
"5'	c #917B66",
"6'	c #A28D74",
"7'	c #AF977F",
"8'	c #A78E78",
"9'	c #A38D75",
"0'	c #AA947B",
"a'	c #B09B83",
"b'	c #A38D79",
"c'	c #988271",
"d'	c #AFA186",
"e'	c #968871",
"f'	c #A19479",
"g'	c #988774",
"h'	c #B5A88D",
"i'	c #AB9C81",
"j'	c #AFA486",
"k'	c #BEB598",
"l'	c #AA9B7D",
"m'	c #9D8A75",
"n'	c #957F72",
"o'	c #9C8675",
"p'	c #927F6D",
"q'	c #87786A",
"r'	c #554E44",
"s'	c #575354",
"t'	c #A9A09E",
"u'	c #A89787",
"v'	c #876B5A",
"w'	c #956F5D",
"x'	c #A68169",
"y'	c #936D5A",
"z'	c #715043",
"A'	c #815C52",
"B'	c #805C54",
"C'	c #5A4038",
"D'	c #6A4C43",
"E'	c #7C5D4B",
"F'	c #AE8D6C",
"G'	c #96725B",
"H'	c #986F5D",
"I'	c #956A5A",
"J'	c #82604E",
"K'	c #765747",
"L'	c #755647",
"M'	c #836051",
"N'	c #825C50",
"O'	c #886656",
"P'	c #765347",
"Q'	c #805B4D",
"R'	c #725041",
"S'	c #855E50",
"T'	c #9C7667",
"U'	c #806151",
"V'	c #725748",
"W'	c #886659",
"X'	c #886A66",
"Y'	c #1E1616",
"Z'	c #7C707E",
"`'	c #74656F",
" )	c #A59D9B",
".)	c #816C62",
"+)	c #A28B79",
"@)	c #A18A73",
"#)	c #A79275",
"$)	c #AE9978",
"%)	c #BCAA85",
"&)	c #D5C9AF",
"*)	c #C7B6A1",
"=)	c #C0AE9D",
"-)	c #B09B87",
";)	c #9F8777",
">)	c #AFA393",
",)	c #BFB9A8",
"')	c #C1BDAC",
"))	c #C2BDAB",
"!)	c #C1BDA9",
"~)	c #BFBAA2",
"{)	c #CBC8B0",
"])	c #C0BA9F",
"^)	c #B0A98B",
"/)	c #CCC8A9",
"()	c #AFA285",
"_)	c #947E71",
":)	c #AA957F",
"<)	c #BCAE8D",
"[)	c #AFA78A",
"})	c #595448",
"|)	c #423C45",
"1)	c #9A909A",
"2)	c #BDAFA0",
"3)	c #A88A69",
"4)	c #9E7059",
"5)	c #AA7E63",
"6)	c #976C5C",
"7)	c #AA8572",
"8)	c #A98977",
"9)	c #6B5046",
"0)	c #9C7766",
"a)	c #886051",
"b)	c #926755",
"c)	c #B08467",
"d)	c #966250",
"e)	c #9A6554",
"f)	c #9A6958",
"g)	c #784E43",
"h)	c #97675B",
"i)	c #926558",
"j)	c #775245",
"k)	c #966A5D",
"l)	c #9E7361",
"m)	c #644736",
"n)	c #926656",
"o)	c #B38A72",
"p)	c #9E7268",
"q)	c #7C554E",
"r)	c #885D51",
"s)	c #956F5E",
"t)	c #624A48",
"u)	c #0F0205",
"v)	c #614F60",
"w)	c #877B85",
"x)	c #A49E9B",
"y)	c #BEB1A1",
"z)	c #B9A894",
"A)	c #A9947A",
"B)	c #B5A485",
"C)	c #BBAA84",
"D)	c #C8BB99",
"E)	c #C2B292",
"F)	c #C0B19A",
"G)	c #CDC2B5",
"H)	c #BCACA3",
"I)	c #BAAEA7",
"J)	c #BBB2A4",
"K)	c #B7AD9B",
"L)	c #BCB5A3",
"M)	c #BFB9A5",
"N)	c #C2BCAA",
"O)	c #C9C4B0",
"P)	c #C1BBA2",
"Q)	c #C3BDA3",
"R)	c #C9C5AD",
"S)	c #D2D0B9",
"T)	c #BFB897",
"U)	c #9A8973",
"V)	c #A58F7F",
"W)	c #A78F7C",
"X)	c #9E8972",
"Y)	c #A89B81",
"Z)	c #423A35",
"`)	c #2C272F",
" !	c #93878D",
".!	c #C0AFA4",
"+!	c #9C7B5C",
"@!	c #A3765B",
"#!	c #B58B6C",
"$!	c #996F5E",
"%!	c #B28D75",
"&!	c #9E796A",
"*!	c #AC8C79",
"=!	c #7F5F55",
"-!	c #926C60",
";!	c #9A765F",
">!	c #9D765F",
",!	c #9A6E59",
"'!	c #B1876A",
")!	c #C39C7A",
"!!	c #A17462",
"~!	c #775047",
"{!	c #9C7364",
"]!	c #634239",
"^!	c #8C6459",
"/!	c #A9836E",
"(!	c #9A7462",
"_!	c #B69679",
":!	c #AB886F",
"<!	c #A17A66",
"[!	c #8A655D",
"}!	c #8C6A5D",
"|!	c #987361",
"1!	c #8D6E57",
"2!	c #3C312E",
"3!	c #15090E",
"4!	c #140D16",
"5!	c #766D76",
"6!	c #9E9A95",
"7!	c #C1B6A3",
"8!	c #BDB199",
"9!	c #C3B79B",
"0!	c #C6BB9B",
"a!	c #D9D0B2",
"b!	c #C8BE9E",
"c!	c #BEB294",
"d!	c #A8977D",
"e!	c #C0B3A3",
"f!	c #B5A69A",
"g!	c #9F8C7D",
"h!	c #8F7D71",
"i!	c #AC9E86",
"j!	c #9B8A78",
"k!	c #BCB19D",
"l!	c #B8AD98",
"m!	c #ADA089",
"n!	c #A7997E",
"o!	c #A6987D",
"p!	c #A4967C",
"q!	c #9A8974",
"r!	c #9C8B74",
"s!	c #8F736F",
"t!	c #8D6E68",
"u!	c #8E7465",
"v!	c #766156",
"w!	c #453B3A",
"x!	c #867375",
"y!	c #C0AA96",
"z!	c #B29169",
"A!	c #B38666",
"B!	c #B68B6C",
"C!	c #B48C70",
"D!	c #A47C69",
"E!	c #A17C6B",
"F!	c #997568",
"G!	c #845F57",
"H!	c #8B6659",
"I!	c #9C7662",
"J!	c #A37C64",
"K!	c #AB8367",
"L!	c #B18A6D",
"M!	c #B1896F",
"N!	c #906559",
"O!	c #A17E6C",
"P!	c #805A54",
"Q!	c #856157",
"R!	c #957462",
"S!	c #A17F6A",
"T!	c #8F6A58",
"U!	c #B09072",
"V!	c #A38274",
"W!	c #A07D6E",
"X!	c #94725D",
"Y!	c #7C5F4F",
"Z!	c #8E746E",
"`!	c #11060B",
" ~	c #0B040A",
".~	c #4E4849",
"+~	c #BABEBF",
"@~	c #B1A18A",
"#~	c #B7A78D",
"$~	c #D8D0B9",
"%~	c #CCC2A3",
"&~	c #99866B",
"*~	c #9B896E",
"=~	c #A08E74",
"-~	c #8C7869",
";~	c #846F65",
">~	c #AF9F8B",
",~	c #9C8A77",
"'~	c #AB9C86",
")~	c #A99A84",
"!~	c #9E8B76",
"~~	c #917E6D",
"{~	c #AB9B81",
"]~	c #8E7B6A",
"^~	c #958270",
"/~	c #978572",
"(~	c #8D7B6A",
"_~	c #745E56",
":~	c #715B56",
"<~	c #927271",
"[~	c #91706A",
"}~	c #614941",
"|~	c #7D645B",
"1~	c #594E4B",
"2~	c #725C62",
"3~	c #CEB8A6",
"4~	c #A8825E",
"5~	c #B48365",
"6~	c #AE7F66",
"7~	c #B58C6F",
"8~	c #A7806B",
"9~	c #9F7968",
"0~	c #8C675D",
"a~	c #8B695E",
"b~	c #65483F",
"c~	c #987462",
"d~	c #A7816A",
"e~	c #A27C65",
"f~	c #A17A65",
"g~	c #8B6456",
"h~	c #856054",
"i~	c #7E5851",
"j~	c #997769",
"k~	c #8B6B60",
"l~	c #755550",
"m~	c #82635A",
"n~	c #987A69",
"o~	c #876B5B",
"p~	c #A4886C",
"q~	c #A2856C",
"r~	c #B39882",
"s~	c #A48473",
"t~	c #7C5F4E",
"u~	c #8B6F5B",
"v~	c #7A655F",
"w~	c #11070B",
"x~	c #100911",
"y~	c #443E3F",
"z~	c #AFB2B0",
"A~	c #9B8978",
"B~	c #B7A892",
"C~	c #A8987C",
"D~	c #948169",
"E~	c #9B886D",
"F~	c #8C7762",
"G~	c #8D7863",
"H~	c #826D5D",
"I~	c #927D6B",
"J~	c #988470",
"K~	c #A18D77",
"L~	c #917D70",
"M~	c #918076",
"N~	c #A39382",
"O~	c #937F6D",
"P~	c #A08D77",
"Q~	c #978371",
"R~	c #AA977E",
"S~	c #998673",
"T~	c #93806F",
"U~	c #877165",
"V~	c #836C61",
"W~	c #6B5552",
"X~	c #856467",
"Y~	c #6C4E4E",
"Z~	c #5A433C",
"`~	c #977E6E",
" {	c #554941",
".{	c #0E0407",
"+{	c #261F21",
"@{	c #D2BDAE",
"#{	c #A27956",
"${	c #9F6A55",
"%{	c #B7886B",
"&{	c #A67962",
"*{	c #98715E",
"={	c #9A7263",
"-{	c #997566",
";{	c #947063",
">{	c #AB8771",
",{	c #90695B",
"'{	c #AC8B72",
"){	c #987362",
"!{	c #9B7766",
"~{	c #906C5F",
"{{	c #9F8071",
"]{	c #A38474",
"^{	c #71534F",
"/{	c #95796B",
"({	c #957A6A",
"_{	c #AD957B",
":{	c #AC9576",
"<{	c #B39D7C",
"[{	c #B09781",
"}{	c #8C7064",
"|{	c #735949",
"1{	c #968065",
"2{	c #806C63",
"3{	c #0D0407",
"4{	c #0D060C",
"5{	c #817E84",
"6{	c #A4A49A",
"7{	c #9D8D84",
"8{	c #C8B8A5",
"9{	c #866D5D",
"0{	c #B5A186",
"a{	c #AD9778",
"b{	c #AF9B79",
"c{	c #9E886D",
"d{	c #917A65",
"e{	c #9F896F",
"f{	c #9A826D",
"g{	c #9E876F",
"h{	c #A8947E",
"i{	c #96806D",
"j{	c #A38E77",
"k{	c #866E61",
"l{	c #957E6D",
"m{	c #A5917B",
"n{	c #AF9B83",
"o{	c #9D8774",
"p{	c #907A6C",
"q{	c #897267",
"r{	c #776358",
"s{	c #876A65",
"t{	c #684E50",
"u{	c #735253",
"v{	c #87675C",
"w{	c #7A6056",
"x{	c #605150",
"y{	c #0C0204",
"z{	c #221A1B",
"A{	c #DFC9B7",
"B{	c #AE8760",
"C{	c #AE7960",
"D{	c #C08F70",
"E{	c #BA8C6F",
"F{	c #936958",
"G{	c #AF8A73",
"H{	c #A68471",
"I{	c #9D7A6B",
"J{	c #937165",
"K{	c #937064",
"L{	c #906B60",
"M{	c #967163",
"N{	c #947261",
"O{	c #836856",
"P{	c #B5977C",
"Q{	c #8D7264",
"R{	c #7E635A",
"S{	c #9F8475",
"T{	c #997F70",
"U{	c #967B6D",
"V{	c #9A816F",
"W{	c #A18872",
"X{	c #9E856B",
"Y{	c #A79175",
"Z{	c #C2B2A4",
"`{	c #7E645B",
" ]	c #A0886A",
".]	c #A79371",
"+]	c #907B6E",
"@]	c #160F12",
"#]	c #090106",
"$]	c #948F94",
"%]	c #BEC3BE",
"&]	c #978E87",
"*]	c #B3A297",
"=]	c #816658",
"-]	c #9A7E6A",
";]	c #7A6252",
">]	c #997E68",
",]	c #8E715F",
"']	c #A88E71",
")]	c #A48A6F",
"!]	c #A88F74",
"~]	c #AD977C",
"{]	c #B09A7E",
"]]	c #BCA98E",
"^]	c #9A826F",
"/]	c #9C8471",
"(]	c #AC967F",
"_]	c #907669",
":]	c #9F8876",
"<]	c #947C6C",
"[]	c #846962",
"}]	c #A6917D",
"|]	c #816A60",
"1]	c #816360",
"2]	c #99746C",
"3]	c #836159",
"4]	c #866D61",
"5]	c #887571",
"6]	c #9B8C92",
"7]	c #C4A997",
"8]	c #B48E65",
"9]	c #B37E64",
"0]	c #A36D5A",
"a]	c #C69877",
"b]	c #AF856C",
"c]	c #9B7363",
"d]	c #A98971",
"e]	c #B3957B",
"f]	c #9C7E6C",
"g]	c #6E5049",
"h]	c #937469",
"i]	c #926F64",
"j]	c #997864",
"k]	c #916E5F",
"l]	c #9D7D6B",
"m]	c #6C4F48",
"n]	c #86655D",
"o]	c #997C6E",
"p]	c #7F605B",
"q]	c #987C6C",
"r]	c #AF997F",
"s]	c #9C836E",
"t]	c #B29D7B",
"u]	c #AC977C",
"v]	c #957C70",
"w]	c #93776A",
"x]	c #937962",
"y]	c #A48E6D",
"z]	c #957F71",
"A]	c #1D181B",
"B]	c #0C050A",
"C]	c #898284",
"D]	c #B2B0A5",
"E]	c #AF927C",
"F]	c #887161",
"G]	c #89675B",
"H]	c #987765",
"I]	c #9B7967",
"J]	c #A7886F",
"K]	c #A38369",
"L]	c #C4A986",
"M]	c #B99F7C",
"N]	c #AB9277",
"O]	c #AE967A",
"P]	c #A88F76",
"Q]	c #A18874",
"R]	c #A18775",
"S]	c #91776A",
"T]	c #9D8373",
"U]	c #A48C7B",
"V]	c #9C8373",
"W]	c #99806D",
"X]	c #69514B",
"Y]	c #715453",
"Z]	c #896761",
"`]	c #7E5F54",
" ^	c #80685C",
".^	c #5A4D4B",
"+^	c #020001",
"@^	c #9C8E95",
"#^	c #D8C3B3",
"$^	c #C9A67B",
"%^	c #BF896D",
"&^	c #BE896E",
"*^	c #C79778",
"=^	c #AF866C",
"-^	c #9D7663",
";^	c #9F7D69",
">^	c #997868",
",^	c #815F5A",
"'^	c #7A5855",
")^	c #A68779",
"!^	c #7B5D52",
"~^	c #906A5A",
"{^	c #815D50",
"]^	c #906F5F",
"^^	c #7C6052",
"/^	c #997A6A",
"(^	c #A28473",
"_^	c #9A7D6D",
":^	c #A48A74",
"<^	c #88715E",
"[^	c #A28971",
"}^	c #9B836B",
"|^	c #786354",
"1^	c #93786E",
"2^	c #9B8070",
"3^	c #A98E71",
"4^	c #A58E6E",
"5^	c #836962",
"6^	c #6F5D62",
"7^	c #050002",
"8^	c #9B9399",
"9^	c #D3D5CF",
"0^	c #9E7968",
"a^	c #76534A",
"b^	c #7E5B51",
"c^	c #5A3E35",
"d^	c #946E60",
"e^	c #957160",
"f^	c #A07C68",
"g^	c #A17E66",
"h^	c #A68367",
"i^	c #BB9B77",
"j^	c #B39475",
"k^	c #A98F74",
"l^	c #AC9377",
"m^	c #A38972",
"n^	c #A48A73",
"o^	c #9A7F6E",
"p^	c #8D6F64",
"q^	c #8E7067",
"r^	c #977B6E",
"s^	c #8E7168",
"t^	c #94786D",
"u^	c #A48F75",
"v^	c #674F47",
"w^	c #533E3A",
"x^	c #8C6B61",
"y^	c #8B6F5D",
"z^	c #68584B",
"A^	c #544944",
"B^	c #D5C2B7",
"C^	c #C5A27C",
"D^	c #BF8A6D",
"E^	c #A56D5A",
"F^	c #9D6B5A",
"G^	c #B3896E",
"H^	c #8F6658",
"I^	c #957161",
"J^	c #86645A",
"K^	c #9E8270",
"L^	c #8D6B64",
"M^	c #8E6D66",
"N^	c #7F5C55",
"O^	c #825C4F",
"P^	c #9F7D65",
"Q^	c #AF8F74",
"R^	c #927061",
"S^	c #907161",
"T^	c #A28471",
"U^	c #AF957C",
"V^	c #A38770",
"W^	c #967966",
"X^	c #9F856D",
"Y^	c #947B65",
"Z^	c #937C6A",
"`^	c #A79080",
" /	c #B59D86",
"./	c #A88D70",
"+/	c #A58D6D",
"@/	c #836760",
"#/	c #66515A",
"$/	c #A49BA0",
"%/	c #A49B90",
"&/	c #AF8B75",
"*/	c #815853",
"=/	c #896058",
"-/	c #704E46",
";/	c #8D655B",
">/	c #AD8C73",
",/	c #9E7A67",
"'/	c #926B5A",
")/	c #AB886A",
"!/	c #9B765D",
"~/	c #B79977",
"{/	c #B5997B",
"]/	c #A6876F",
"^/	c #A2856E",
"//	c #88675B",
"(/	c #977867",
"_/	c #96796B",
":/	c #9F8272",
"</	c #97796C",
"[/	c #917368",
"}/	c #8F7068",
"|/	c #A79177",
"1/	c #70584E",
"2/	c #695049",
"3/	c #7B5C54",
"4/	c #8A715E",
"5/	c #8B7769",
"6/	c #514842",
"7/	c #0A0207",
"8/	c #080204",
"9/	c #CDBFB0",
"0/	c #C7B096",
"a/	c #94604F",
"b/	c #724235",
"c/	c #875648",
"d/	c #8F5F51",
"e/	c #81594C",
"f/	c #A9866F",
"g/	c #A07F6C",
"h/	c #8A6B5F",
"i/	c #7A5956",
"j/	c #795958",
"k/	c #927165",
"l/	c #805D4F",
"m/	c #93725D",
"n/	c #A3836C",
"o/	c #A1846C",
"p/	c #AC9178",
"q/	c #7C6054",
"r/	c #917465",
"s/	c #8A6E5F",
"t/	c #8D715F",
"u/	c #9E856D",
"v/	c #A18870",
"w/	c #957970",
"x/	c #9B7E6E",
"y/	c #9F8368",
"z/	c #816354",
"A/	c #8C7168",
"B/	c #30282D",
"C/	c #11050A",
"D/	c #A59CA2",
"E/	c #BFBAB1",
"F/	c #BC9C8E",
"G/	c #72504E",
"H/	c #614543",
"I/	c #735350",
"J/	c #99746D",
"K/	c #8C6761",
"L/	c #6A4E46",
"M/	c #78594E",
"N/	c #937460",
"O/	c #A3866A",
"P/	c #A28369",
"Q/	c #A9876D",
"R/	c #9E7A65",
"S/	c #997765",
"T/	c #8E6D60",
"U/	c #89675F",
"V/	c #97786C",
"W/	c #705A50",
"X/	c #8C6C68",
"Y/	c #715853",
"Z/	c #7D605F",
"`/	c #66504D",
" (	c #514039",
".(	c #7D6858",
"+(	c #4F4233",
"@(	c #4E433C",
"#(	c #65595D",
"$(	c #201F26",
"%(	c #060105",
"&(	c #0F0609",
"*(	c #AD9B8E",
"=(	c #A48C77",
"-(	c #70483D",
";(	c #9D685E",
">(	c #82554C",
",(	c #95655B",
"'(	c #8B5E55",
")(	c #7C584E",
"!(	c #72534A",
"~(	c #A28272",
"{(	c #997B70",
"](	c #80665F",
"^(	c #69564C",
"/(	c #816B5E",
"((	c #A5907A",
"_(	c #7D675D",
":(	c #AA9980",
"<(	c #605149",
"[(	c #A99A82",
"}(	c #89756A",
"|(	c #867167",
"1(	c #7D655B",
"2(	c #8F6D64",
"3(	c #7D6453",
"4(	c #967762",
"5(	c #937963",
"6(	c #735A53",
"7(	c #5C4C4B",
"8(	c #1A1515",
"9(	c #0C0506",
"0(	c #9E949B",
"a(	c #B5B2B9",
"b(	c #B08C82",
"c(	c #694845",
"d(	c #634542",
"e(	c #634744",
"f(	c #A37F74",
"g(	c #967168",
"h(	c #87635B",
"i(	c #A48571",
"j(	c #AA8B72",
"k(	c #A08268",
"l(	c #A78871",
"m(	c #B99681",
"n(	c #9C766C",
"o(	c #7F5F58",
"p(	c #96746C",
"q(	c #96736E",
"r(	c #9C7B76",
"s(	c #7D6162",
"t(	c #775D5F",
"u(	c #7A5E61",
"v(	c #755C5F",
"w(	c #614B4D",
"x(	c #826563",
"y(	c #5F4840",
"z(	c #6C5D4E",
"A(	c #73635A",
"B(	c #4B454D",
"C(	c #1F1B23",
"D(	c #0D020D",
"E(	c #9F8A82",
"F(	c #837363",
"G(	c #875950",
"H(	c #946159",
"I(	c #A17063",
"J(	c #9D6E62",
"K(	c #9D7366",
"L(	c #9A786A",
"M(	c #9C7D6F",
"N(	c #8A6F63",
"O(	c #725A52",
"P(	c #6A554C",
"Q(	c #80675D",
"R(	c #9D8673",
"S(	c #917D71",
"T(	c #C3B29D",
"U(	c #A18A76",
"V(	c #9C8773",
"W(	c #80695E",
"X(	c #725C54",
"Y(	c #A48E78",
"Z(	c #81665B",
"`(	c #AF907A",
" _	c #A5876E",
"._	c #836753",
"+_	c #836B59",
"@_	c #9A8774",
"#_	c #796966",
"$_	c #2D2C2E",
"%_	c #0B0505",
"&_	c #9F979C",
"*_	c #B4B3B9",
"=_	c #BC9885",
"-_	c #845957",
";_	c #6B4946",
">_	c #8F6862",
",_	c #8A6360",
"'_	c #86605E",
")_	c #87615C",
"!_	c #A38170",
"~_	c #9F7F6C",
"{_	c #B5987A",
"]_	c #D3B798",
"^_	c #B99782",
"/_	c #AA8677",
"(_	c #AC897A",
"__	c #AA897D",
":_	c #926E6B",
"<_	c #A7867F",
"[_	c #5F4E49",
"}_	c #7B5E61",
"|_	c #675154",
"1_	c #6E565A",
"2_	c #85676C",
"3_	c #624B51",
"4_	c #795C5D",
"5_	c #7B5F5F",
"6_	c #433938",
"7_	c #5D4E58",
"8_	c #1A0F1D",
"9_	c #090007",
"0_	c #170A0F",
"a_	c #AD968E",
"b_	c #A28472",
"c_	c #996B5E",
"d_	c #B78A71",
"e_	c #AC7E6C",
"f_	c #AC806E",
"g_	c #805A50",
"h_	c #8C645B",
"i_	c #845F58",
"j_	c #694E46",
"k_	c #775954",
"l_	c #896A61",
"m_	c #8E6D65",
"n_	c #916E67",
"o_	c #8E6C64",
"p_	c #99786D",
"q_	c #977469",
"r_	c #906C64",
"s_	c #9F7E6E",
"t_	c #8F7062",
"u_	c #70534A",
"v_	c #7A5E51",
"w_	c #9B7C6B",
"x_	c #8D6D60",
"y_	c #9D816B",
"z_	c #7C6150",
"A_	c #988069",
"B_	c #B4A388",
"C_	c #928076",
"D_	c #706463",
"E_	c #140E0D",
"F_	c #070100",
"G_	c #8A8383",
"H_	c #A5A29E",
"I_	c #BD9A85",
"J_	c #B69280",
"K_	c #A68575",
"L_	c #775454",
"M_	c #6D504D",
"N_	c #886263",
"O_	c #876362",
"P_	c #82625E",
"Q_	c #795A56",
"R_	c #A78979",
"S_	c #CCB298",
"T_	c #B6977B",
"U_	c #9A7D67",
"V_	c #8B6D5F",
"W_	c #83665B",
"X_	c #5C4940",
"Y_	c #56453E",
"Z_	c #50403A",
"`_	c #3E322C",
" :	c #4D413D",
".:	c #594A4F",
"+:	c #725966",
"@:	c #423538",
"#:	c #4D3D3F",
"$:	c #54464E",
"%:	c #231C24",
"&:	c #271D2C",
"*:	c #11030F",
"=:	c #0F0307",
"-:	c #BDA8A3",
";:	c #A18577",
">:	c #9E7568",
",:	c #B89079",
"':	c #9D7367",
"):	c #9C7569",
"!:	c #836057",
"~:	c #957067",
"{:	c #927166",
"]:	c #937169",
"^:	c #A58477",
"/:	c #92716B",
"(:	c #9B776F",
"_:	c #936C69",
"::	c #684949",
"<:	c #936B68",
"[:	c #765651",
"}:	c #6A4B47",
"|:	c #987168",
"1:	c #8F675F",
"2:	c #997367",
"3:	c #9F7A6B",
"4:	c #987564",
"5:	c #9F816C",
"6:	c #816758",
"7:	c #A08B72",
"8:	c #AD9A7E",
"9:	c #917E72",
"0:	c #857474",
"a:	c #463B3F",
"b:	c #0A0304",
"c:	c #56504C",
"d:	c #736B64",
"e:	c #9D8074",
"f:	c #977871",
"g:	c #957871",
"h:	c #886B6A",
"i:	c #8F7570",
"j:	c #9B807B",
"k:	c #856B6C",
"l:	c #71585E",
"m:	c #836D6D",
"n:	c #B59E95",
"o:	c #BAA391",
"p:	c #947F70",
"q:	c #A18978",
"r:	c #927A6E",
"s:	c #968176",
"t:	c #8C7870",
"u:	c #584A45",
"v:	c #352C24",
"w:	c #2E2A23",
"x:	c #342C2C",
"y:	c #6C5C5C",
"z:	c #6F636B",
"A:	c #4D4450",
"B:	c #363339",
"C:	c #1E181C",
"D:	c #0D0308",
"E:	c #0F040E",
"F:	c #41353D",
"G:	c #BDAEAB",
"H:	c #947B73",
"I:	c #936E67",
"J:	c #A88074",
"K:	c #A58076",
"L:	c #A4837A",
"M:	c #7D5F5E",
"N:	c #523F3D",
"O:	c #5B4747",
"P:	c #7F6062",
"Q:	c #8E6F6C",
"R:	c #4E3A3B",
"S:	c #523D40",
"T:	c #6D5055",
"U:	c #291918",
"V:	c #3A2A29",
"W:	c #2C1F1B",
"X:	c #42312E",
"Y:	c #5D4442",
"Z:	c #6F4F4C",
"`:	c #9B7A6C",
" <	c #AB8976",
".<	c #9B786B",
"+<	c #9C806E",
"@<	c #836B5F",
"#<	c #8F7B6B",
"$<	c #87786C",
"%<	c #665D59",
"&<	c #1A1619",
"*<	c #090306",
"=<	c #080508",
"-<	c #110D0D",
";<	c #757470",
"><	c #8C8780",
",<	c #938076",
"'<	c #8E7B74",
")<	c #594C47",
"!<	c #423235",
"~<	c #1F181A",
"{<	c #302429",
"]<	c #282124",
"^<	c #1F191B",
"/<	c #372B2E",
"(<	c #5B4E4D",
"_<	c #5E514C",
":<	c #3B3432",
"<<	c #4C3F3E",
"[<	c #4E423F",
"}<	c #5B524F",
"|<	c #534A4A",
"1<	c #1B191A",
"2<	c #0C0508",
"3<	c #0C0608",
"4<	c #30292D",
"5<	c #363033",
"6<	c #52494F",
"7<	c #201B22",
"8<	c #130C0F",
"9<	c #0C0507",
"0<	c #080104",
"a<	c #0D050A",
"b<	c #2D262D",
"c<	c #9A9095",
"d<	c #A89D93",
"e<	c #726760",
"f<	c #4A3534",
"g<	c #6C5250",
"h<	c #634E4C",
"i<	c #5E4C4B",
"j<	c #322C2D",
"k<	c #373034",
"l<	c #3F363A",
"m<	c #4F4046",
"n<	c #36282C",
"o<	c #281C1D",
"p<	c #413035",
"q<	c #514249",
"r<	c #18090A",
"s<	c #180A0A",
"t<	c #54444A",
"u<	c #6B535A",
"v<	c #594548",
"w<	c #8D746E",
"x<	c #987F75",
"y<	c #826663",
"z<	c #8C6E69",
"A<	c #7D645F",
"B<	c #907C71",
"C<	c #5F4F4B",
"D<	c #292220",
"E<	c #1D1516",
"F<	c #060002",
"G<	c #0D0710",
"H<	c #0B030A",
"I<	c #0C0809",
"J<	c #615C5E",
"K<	c #656059",
"L<	c #938780",
"M<	c #857673",
"N<	c #6B6260",
"O<	c #514A48",
"P<	c #534B4D",
"Q<	c #575052",
"R<	c #473D42",
"S<	c #493E42",
"T<	c #473A3F",
"U<	c #4E4244",
"V<	c #151619",
"W<	c #070007",
"X<	c #09010A",
"Y<	c #030003",
"Z<	c #050005",
"`<	c #070108",
" [	c #020003",
".[	c #09040C",
"+[	c #000003",
"@[	c #382D32",
"#[	c #706A6D",
"$[	c #AEA59F",
"%[	c #9A8F83",
"&[	c #7C7369",
"*[	c #5D4C45",
"=[	c #291E1E",
"-[	c #6B5458",
";[	c #4B3C41",
">[	c #5F5059",
",[	c #3D3840",
"'[	c #53444F",
")[	c #2B242B",
"![	c #100205",
"~[	c #6D555D",
"{[	c #8E787D",
"][	c #6C5A63",
"^[	c #170F11",
"/[	c #170E0F",
"([	c #29262B",
"_[	c #3D3539",
":[	c #42393B",
"<[	c #57474A",
"[[	c #413738",
"}[	c #251F1B",
"|[	c #35302E",
"1[	c #352F2D",
"2[	c #282421",
"3[	c #241E1A",
"4[	c #0F0703",
"5[	c #554F56",
"6[	c #A39B99",
"7[	c #A79F92",
"8[	c #9F9387",
"9[	c #A69A91",
"0[	c #A79D93",
"a[	c #B6AEAD",
"b[	c #A39495",
"c[	c #907E82",
"d[	c #867078",
"e[	c #988485",
"f[	c #897278",
"g[	c #9E8686",
"h[	c #846F76",
"i[	c #73626B",
"j[	c #27252B",
"k[	c #070001",
"l[	c #0C0205",
"m[	c #070103",
"n[	c #060103",
"o[	c #161215",
"p[	c #574D56",
"q[	c #7C6E75",
"r[	c #7A6D70",
"s[	c #837777",
"t[	c #7C6F73",
"u[	c #6E5E66",
"v[	c #948589",
"w[	c #B2A9AF",
"x[	c #B6A6A5",
"y[	c #B1A198",
"z[	c #DBD5CC",
"A[	c #C3B8A3",
"B[	c #BFB09B",
"C[	c #CAB0A6",
"D[	c #A0847E",
"E[	c #4C3A3F",
"F[	c #090000",
"G[	c #0B0305",
"H[	c #040102",
"I[	c #0D0406",
"J[	c #0A0101",
"K[	c #3E373A",
"L[	c #918986",
"M[	c #A5A0A0",
"N[	c #A6A29E",
"O[	c #ACABA7",
"P[	c #615653",
"Q[	c #120D05",
"R[	c #211E19",
"S[	c #24201D",
"T[	c #382A2A",
"U[	c #3E3231",
"V[	c #574F49",
"W[	c #6E605F",
"X[	c #78696E",
"Y[	c #918992",
"Z[	c #9A929D",
"`[	c #AEA7AD",
" }	c #BEB9B5",
".}	c #B1A897",
"+}	c #8A7268",
"@}	c #AC9887",
"#}	c #938177",
"$}	c #AA9489",
"%}	c #C1ADA4",
"&}	c #967B77",
"*}	c #A48880",
"=}	c #907371",
"-}	c #856764",
";}	c #7A5E5A",
">}	c #80635E",
",}	c #8E6E68",
"'}	c #9B7872",
")}	c #AA8B7E",
"!}	c #A2867A",
"~}	c #9F7F76",
"{}	c #BEA593",
"]}	c #A88F82",
"^}	c #A48A7C",
"/}	c #B19885",
"(}	c #856963",
"_}	c #60524B",
":}	c #685A58",
"<}	c #847173",
"[}	c #866D73",
"}}	c #7B6066",
"|}	c #8D6A6D",
"1}	c #A07C76",
"2}	c #BAA599",
"3}	c #7A5F56",
"4}	c #735750",
"5}	c #997D72",
"6}	c #B58E80",
"7}	c #AB857C",
"8}	c #795A5F",
"9}	c #B8AEB6",
"0}	c #7A6B6F",
"a}	c #93898D",
"b}	c #BBBAC4",
"c}	c #D7D9E4",
"d}	c #D6D2DA",
"e}	c #C1B8B3",
"f}	c #BCB7AD",
"g}	c #D8D9D5",
"h}	c #CCCAC3",
"i}	c #D4D6D5",
"j}	c #B7B1A4",
"k}	c #C3BFB4",
"l}	c #B2AA9A",
"m}	c #B9B2A4",
"n}	c #BFB9AC",
"o}	c #CAC7BE",
"p}	c #C0B7AF",
"q}	c #CABEB6",
"r}	c #BBAB96",
"s}	c #BEAE93",
"t}	c #A99880",
"u}	c #AC9D8A",
"v}	c #A7978D",
"w}	c #B7A9A5",
"x}	c #98867F",
"y}	c #87746B",
"z}	c #988474",
"A}	c #9F796C",
"B}	c #967D6E",
"C}	c #A58779",
"D}	c #A98A7E",
"E}	c #A5847A",
"F}	c #634941",
"G}	c #865F59",
"H}	c #8A615B",
"I}	c #92685F",
"J}	c #AD8371",
"K}	c #BD917D",
"L}	c #AE7F74",
"M}	c #9C6F67",
"N}	c #976962",
"O}	c #7F5651",
"P}	c #9D7068",
"Q}	c #AB8274",
"R}	c #845D57",
"S}	c #A67D70",
"T}	c #B08877",
"U}	c #9A7067",
"V}	c #735755",
"W}	c #291D1A",
"X}	c #342525",
"Y}	c #83595F",
"Z}	c #7E5657",
"`}	c #6A4541",
" |	c #402719",
".|	c #3C2417",
"+|	c #765648",
"@|	c #AD8A7A",
"#|	c #B88E79",
"$|	c #977366",
"%|	c #775B58",
"&|	c #614D4C",
"*|	c #191715",
"=|	c #6D6665",
"-|	c #ADAAA9",
";|	c #CBCECF",
">|	c #D1D0CD",
",|	c #B3ABA4",
"'|	c #A0907F",
")|	c #9E8D75",
"!|	c #AC9F84",
"~|	c #AB9D7F",
"{|	c #8F7E68",
"]|	c #B5AA8F",
"^|	c #B5A98A",
"/|	c #A7987E",
"(|	c #B0A48C",
"_|	c #B1A48D",
":|	c #BBAF97",
"<|	c #C7BBAB",
"[|	c #B9A691",
"}|	c #BBA98C",
"||	c #BBA980",
"1|	c #A99670",
"2|	c #C5B88E",
"3|	c #A79479",
"4|	c #B7A790",
"5|	c #BBAA8F",
"6|	c #95816B",
"7|	c #7F6053",
"8|	c #82584D",
"9|	c #875D4E",
"0|	c #9E6F60",
"a|	c #986A5F",
"b|	c #95685F",
"c|	c #785048",
"d|	c #9A6C60",
"e|	c #8D6052",
"f|	c #AA7566",
"g|	c #B5806F",
"h|	c #9B645D",
"i|	c #7B4B46",
"j|	c #7C4D48",
"k|	c #9B6660",
"l|	c #81534D",
"m|	c #925F59",
"n|	c #99655E",
"o|	c #BE8F7A",
"p|	c #B28072",
"q|	c #8F5F57",
"r|	c #6F4C44",
"s|	c #5E403A",
"t|	c #674541",
"u|	c #855A56",
"v|	c #9A6764",
"w|	c #BD8A78",
"x|	c #BE8C76",
"y|	c #B07D68",
"z|	c #C69878",
"A|	c #8E5D50",
"B|	c #AB7A66",
"C|	c #A87363",
"D|	c #714A42",
"E|	c #3F3534",
"F|	c #070304",
"G|	c #847D78",
"H|	c #C6C7C5",
"I|	c #CAC8BF",
"J|	c #A69A8A",
"K|	c #9A806C",
"L|	c #A48E71",
"M|	c #9D866C",
"N|	c #A38F72",
"O|	c #99866C",
"P|	c #B7A883",
"Q|	c #B1A180",
"R|	c #97856B",
"S|	c #AA9979",
"T|	c #B5A685",
"U|	c #B0A07F",
"V|	c #BCAB93",
"W|	c #AD987D",
"X|	c #BDAB83",
"Y|	c #AB9770",
"Z|	c #C0B17E",
"`|	c #CFC193",
" 1	c #B0A17A",
".1	c #9A876C",
"+1	c #9C8A70",
"@1	c #927764",
"#1	c #82594F",
"$1	c #98695D",
"%1	c #9B655A",
"&1	c #936154",
"*1	c #A87567",
"=1	c #905F58",
"-1	c #734D46",
";1	c #8D6059",
">1	c #90615A",
",1	c #AA7769",
"'1	c #BE8B77",
")1	c #AA7666",
"!1	c #9C5F58",
"~1	c #8C564D",
"{1	c #89554D",
"]1	c #9D655A",
"^1	c #925E54",
"/1	c #805047",
"(1	c #85554B",
"_1	c #AF7B6B",
":1	c #8E6153",
"<1	c #905E53",
"[1	c #774C42",
"}1	c #70473E",
"|1	c #87554D",
"11	c #8E5D53",
"21	c #AA7466",
"31	c #BB8971",
"41	c #AD7A66",
"51	c #A26F5C",
"61	c #A6755E",
"71	c #95624F",
"81	c #966251",
"91	c #AC7263",
"01	c #734843",
"a1	c #855C60",
"b1	c #382A2E",
"c1	c #979495",
"d1	c #C0BFBA",
"e1	c #A99D8D",
"f1	c #9D826F",
"g1	c #A3816F",
"h1	c #A58470",
"i1	c #BBA684",
"j1	c #A89174",
"k1	c #A18A6F",
"l1	c #B09D7F",
"m1	c #B7A585",
"n1	c #9E896F",
"o1	c #A18F72",
"p1	c #9D8A6E",
"q1	c #B1A17E",
"r1	c #AE9F7E",
"s1	c #C4B396",
"t1	c #C1AF8F",
"u1	c #BBAA86",
"v1	c #B4A27D",
"w1	c #B29F7B",
"x1	c #AB9A77",
"y1	c #9C8B6F",
"z1	c #A09074",
"A1	c #AB9D80",
"B1	c #896B5B",
"C1	c #815650",
"D1	c #9B6B62",
"E1	c #A87463",
"F1	c #AA7765",
"G1	c #B2806F",
"H1	c #57392F",
"I1	c #4E342A",
"J1	c #80584F",
"K1	c #996961",
"L1	c #AB7A6C",
"M1	c #AC796A",
"N1	c #754A3F",
"O1	c #945E54",
"P1	c #8B564C",
"Q1	c #B27A69",
"R1	c #946055",
"S1	c #845549",
"T1	c #925F55",
"U1	c #9D665D",
"V1	c #A67064",
"W1	c #825749",
"X1	c #815849",
"Y1	c #8D5E52",
"Z1	c #916254",
"`1	c #8F5B52",
" 2	c #AC7365",
".2	c #C49176",
"+2	c #BC8C71",
"@2	c #A87561",
"#2	c #B5846B",
"$2	c #B7876B",
"%2	c #C79B76",
"&2	c #BC8C6E",
"*2	c #B77F6A",
"=2	c #9B6661",
"-2	c #845C5F",
";2	c #2F2225",
">2	c #0A0102",
",2	c #2B2B2F",
"'2	c #B7B0A8",
")2	c #A0938A",
"!2	c #AD937B",
"~2	c #A98672",
"{2	c #B19078",
"]2	c #B29B7F",
"^2	c #967B68",
"/2	c #85695B",
"(2	c #A0886F",
"_2	c #AC977D",
":2	c #A18C71",
"<2	c #B6A685",
"[2	c #8B7662",
"}2	c #A8997B",
"|2	c #B8A988",
"12	c #B09B80",
"22	c #C8B79F",
"32	c #A79073",
"42	c #B39F7B",
"52	c #BAA984",
"62	c #B1A27F",
"72	c #AA9A7E",
"82	c #97836D",
"92	c #51382D",
"02	c #6A473F",
"a2	c #9A6A61",
"b2	c #A87564",
"c2	c #BA8972",
"d2	c #9F6D62",
"e2	c #67443B",
"f2	c #6B4942",
"g2	c #8A5F57",
"h2	c #93645D",
"i2	c #93605A",
"j2	c #885851",
"k2	c #694137",
"l2	c #8B584F",
"m2	c #87544B",
"n2	c #7A4C42",
"o2	c #8C5851",
"p2	c #915E55",
"q2	c #98635B",
"r2	c #A36E62",
"s2	c #9F6D60",
"t2	c #99695D",
"u2	c #B38570",
"v2	c #805648",
"w2	c #946356",
"x2	c #633D34",
"y2	c #A0685D",
"z2	c #BE8B74",
"A2	c #9E685B",
"B2	c #A67060",
"C2	c #B17D67",
"D2	c #936551",
"E2	c #8E5D4C",
"F2	c #A76C5E",
"G2	c #9B6761",
"H2	c #5B4143",
"I2	c #36272B",
"J2	c #3A3639",
"K2	c #AFA79E",
"L2	c #8F7365",
"M2	c #A17D6D",
"N2	c #A2806D",
"O2	c #9E846E",
"P2	c #8D7362",
"Q2	c #917663",
"R2	c #B09A7F",
"S2	c #BEAD91",
"T2	c #B39F81",
"U2	c #AF9C80",
"V2	c #B3A386",
"W2	c #B4A484",
"X2	c #C2B79A",
"Y2	c #9D856E",
"Z2	c #C7B69F",
"`2	c #A2866D",
" 3	c #A88F72",
".3	c #B19B7B",
"+3	c #A99376",
"@3	c #B29F80",
"#3	c #AA957B",
"$3	c #917666",
"%3	c #61423A",
"&3	c #7E564F",
"*3	c #996B5F",
"=3	c #A87364",
"-3	c #B48170",
";3	c #865852",
">3	c #714B45",
",3	c #704C45",
"'3	c #9C6E66",
")3	c #895E58",
"!3	c #97645F",
"~3	c #8B5B56",
"{3	c #744A42",
"]3	c #935F58",
"^3	c #99685D",
"/3	c #684037",
"(3	c #96635B",
"_3	c #6A443A",
":3	c #86594F",
"<3	c #AA7A6B",
"[3	c #A47667",
"}3	c #B38571",
"|3	c #6D4338",
"13	c #976057",
"23	c #86564A",
"33	c #B78674",
"43	c #AA7465",
"53	c #8F594F",
"63	c #815146",
"73	c #9B6559",
"83	c #825144",
"93	c #AE7C65",
"03	c #B37F6C",
"a3	c #92635A",
"b3	c #563E42",
"c3	c #3F2C32",
"d3	c #6E5F62",
"e3	c #B5ABA3",
"f3	c #9E8A7A",
"g3	c #785C53",
"h3	c #9B7869",
"i3	c #9B7868",
"j3	c #8D6F61",
"k3	c #85695C",
"l3	c #99806A",
"m3	c #B5A086",
"n3	c #98816A",
"o3	c #B9A687",
"p3	c #8C7362",
"q3	c #9D886F",
"r3	c #8E7864",
"s3	c #9D8B70",
"t3	c #B39D81",
"u3	c #9E816C",
"v3	c #A3876F",
"w3	c #B19779",
"x3	c #A0826C",
"y3	c #BDA686",
"z3	c #B0987C",
"A3	c #907163",
"B3	c #724D48",
"C3	c #845B52",
"D3	c #8E615B",
"E3	c #704A44",
"F3	c #AA7A69",
"G3	c #A97669",
"H3	c #8F615A",
"I3	c #6B4943",
"J3	c #875C59",
"K3	c #956764",
"L3	c #76504B",
"M3	c #AD7F72",
"N3	c #8D5E59",
"O3	c #8C5B56",
"P3	c #82554D",
"Q3	c #A77468",
"R3	c #AA7B6B",
"S3	c #9A6960",
"T3	c #9C6F61",
"U3	c #9F7665",
"V3	c #B28673",
"W3	c #AE8370",
"X3	c #A77C6B",
"Y3	c #99695F",
"Z3	c #714840",
"`3	c #5D392F",
" 4	c #855449",
".4	c #A87464",
"+4	c #C2917C",
"@4	c #AA7667",
"#4	c #915C54",
"$4	c #6E4439",
"%4	c #A26F61",
"&4	c #916154",
"*4	c #B88770",
"=4	c #AE7D69",
"-4	c #6D4841",
";4	c #816163",
">4	c #554345",
",4	c #0B0205",
"'4	c #7C6C6C",
")4	c #988881",
"!4	c #927E76",
"~4	c #937266",
"{4	c #856558",
"]4	c #AF8E76",
"^4	c #9C7F6C",
"/4	c #917263",
"(4	c #9B806C",
"_4	c #B29D84",
":4	c #8F7966",
"<4	c #8D7662",
"[4	c #A18B72",
"}4	c #A79577",
"|4	c #A79379",
"14	c #B4987D",
"24	c #AF9279",
"34	c #9D7E69",
"44	c #A68671",
"54	c #B09379",
"64	c #A88B75",
"74	c #846057",
"84	c #613D36",
"94	c #92635C",
"04	c #936561",
"a4	c #6F4D46",
"b4	c #8E5E58",
"c4	c #794F48",
"d4	c #805651",
"e4	c #6B4A45",
"f4	c #795653",
"g4	c #805A57",
"h4	c #7D5752",
"i4	c #996A66",
"j4	c #754E47",
"k4	c #93625C",
"l4	c #AA7B6E",
"m4	c #9A6762",
"n4	c #865A55",
"o4	c #956861",
"p4	c #AC8371",
"q4	c #6D4C43",
"r4	c #936B5F",
"s4	c #A07669",
"t4	c #A57D6E",
"u4	c #865D56",
"v4	c #68463D",
"w4	c #633E34",
"x4	c #A57165",
"y4	c #B78673",
"z4	c #936057",
"A4	c #9D6C60",
"B4	c #9C6A61",
"C4	c #986B5E",
"D4	c #B38670",
"E4	c #9F7061",
"F4	c #704B45",
"G4	c #94706F",
"H4	c #463339",
"I4	c #090002",
"J4	c #5D5254",
"K4	c #AB9D94",
"L4	c #A59080",
"M4	c #84635A",
"N4	c #65473F",
"O4	c #A78471",
"P4	c #A1826E",
"Q4	c #957767",
"R4	c #997C6A",
"S4	c #A8927A",
"T4	c #A08770",
"U4	c #907665",
"V4	c #A99378",
"W4	c #86705E",
"X4	c #B29E81",
"Y4	c #977F6A",
"Z4	c #917365",
"`4	c #8D6E60",
" 5	c #906F61",
".5	c #937363",
"+5	c #B69A82",
"@5	c #AA8979",
"#5	c #734F4C",
"$5	c #8A5A56",
"%5	c #7F5551",
"&5	c #7E5653",
"*5	c #8E635F",
"=5	c #8D5D59",
"-5	c #7B4F4C",
";5	c #4E342E",
">5	c #523934",
",5	c #674946",
"'5	c #966C69",
")5	c #9F746D",
"!5	c #AF8378",
"~5	c #825C54",
"{5	c #956862",
"]5	c #B58B7A",
"^5	c #9F7069",
"/5	c #8C615D",
"(5	c #B18877",
"_5	c #926761",
":5	c #AB8375",
"<5	c #B68F7D",
"[5	c #926A61",
"}5	c #936C63",
"|5	c #987366",
"15	c #53382E",
"25	c #855851",
"35	c #AC7D6C",
"45	c #967060",
"55	c #C59A82",
"65	c #9A6E61",
"75	c #8B5F57",
"85	c #865C55",
"95	c #9A6F63",
"05	c #997064",
"a5	c #A9806D",
"b5	c #A07765",
"c5	c #967771",
"d5	c #33252B",
"e5	c #897676",
"f5	c #AA988F",
"g5	c #9F887D",
"h5	c #73544D",
"i5	c #997366",
"j5	c #946E63",
"k5	c #9A796A",
"l5	c #A38571",
"m5	c #967868",
"n5	c #9F8570",
"o5	c #957C6A",
"p5	c #9E8671",
"q5	c #B5A188",
"r5	c #A89279",
"s5	c #AD9881",
"t5	c #BBA68B",
"u5	c #9F846F",
"v5	c #A78B73",
"w5	c #AA8C75",
"x5	c #A88A75",
"y5	c #AC907C",
"z5	c #886861",
"A5	c #6D4B49",
"B5	c #845753",
"C5	c #6E4C46",
"D5	c #825B58",
"E5	c #875B59",
"F5	c #94625E",
"G5	c #6B4640",
"H5	c #644540",
"I5	c #553D38",
"J5	c #936E69",
"K5	c #896160",
"L5	c #7E5958",
"M5	c #77514F",
"N5	c #8F6260",
"O5	c #8C615C",
"P5	c #A2786F",
"Q5	c #926963",
"R5	c #966B65",
"S5	c #BE9A8A",
"T5	c #9D776C",
"U5	c #AF8C79",
"V5	c #A37F72",
"W5	c #977568",
"X5	c #6E4C44",
"Y5	c #8F655A",
"Z5	c #A17967",
"`5	c #AA8575",
" 6	c #A07A6D",
".6	c #8E6A5C",
"+6	c #A37E6D",
"@6	c #936A61",
"#6	c #AD8B76",
"$6	c #9B786A",
"%6	c #AD8975",
"&6	c #CBAB8F",
"*6	c #916D60",
"=6	c #8D6C6C",
"-6	c #4D3B3F",
";6	c #0E0406",
">6	c #53444A",
",6	c #A08A87",
"'6	c #A58D85",
")6	c #7D5C54",
"!6	c #A88471",
"~6	c #8D6D5F",
"{6	c #A98A77",
"]6	c #98786A",
"^6	c #B49883",
"/6	c #B29881",
"(6	c #A99279",
"_6	c #B09A81",
":6	c #B39E86",
"<6	c #9F8773",
"[6	c #AB967D",
"}6	c #A18B73",
"|6	c #A68E74",
"16	c #AB9379",
"26	c #A28773",
"36	c #85605D",
"46	c #A27871",
"56	c #7F5857",
"66	c #785751",
"76	c #946968",
"86	c #805857",
"96	c #996B63",
"06	c #714C48",
"a6	c #8F6262",
"b6	c #694A49",
"c6	c #876162",
"d6	c #6E4E4D",
"e6	c #7E5859",
"f6	c #5F423E",
"g6	c #835959",
"h6	c #A57771",
"i6	c #A57C72",
"j6	c #AF8979",
"k6	c #B89584",
"l6	c #8D6860",
"m6	c #9C786C",
"n6	c #87625D",
"o6	c #9F7A6E",
"p6	c #937066",
"q6	c #765650",
"r6	c #947563",
"s6	c #A8846F",
"t6	c #C9AA91",
"u6	c #8E6E62",
"v6	c #AD8D77",
"w6	c #BCA18D",
"x6	c #A78775",
"y6	c #B99E88",
"z6	c #A48674",
"A6	c #C0A58E",
"B6	c #A38070",
"C6	c #987974",
"D6	c #4F3F47",
"E6	c #0F0305",
"F6	c #120707",
"G6	c #9C847D",
"H6	c #A98C7D",
"I6	c #86645B",
"J6	c #9D7868",
"K6	c #A88571",
"L6	c #B3947E",
"M6	c #AB8D78",
"N6	c #977768",
"O6	c #B69A83",
"P6	c #C1A992",
"Q6	c #A78B76",
"R6	c #A68C76",
"S6	c #B29D83",
"T6	c #A9937E",
"U6	c #A9927A",
"V6	c #8C7565",
"W6	c #A38F74",
"X6	c #B29E83",
"Y6	c #AB947B",
"Z6	c #70554E",
"`6	c #936967",
" 7	c #7E5A5A",
".7	c #654B4E",
"+7	c #805C60",
"@7	c #6D4E4E",
"#7	c #7F5A59",
"$7	c #9E6C66",
"%7	c #8E605D",
"&7	c #8A5F5E",
"*7	c #725050",
"=7	c #5D4341",
"-7	c #624845",
";7	c #8E6665",
">7	c #A77C75",
",7	c #AB7F76",
"'7	c #845E5A",
")7	c #A68174",
"!7	c #B89483",
"~7	c #C4A290",
"{7	c #9C786E",
"]7	c #AD8D7B",
"^7	c #9F7E71",
"/7	c #99776D",
"(7	c #927167",
"_7	c #A28474",
":7	c #977666",
"<7	c #B2947B",
"[7	c #B3947A",
"}7	c #8F6D60",
"|7	c #957966",
"17	c #AA917C",
"27	c #AD9380",
"37	c #A98F7B",
"47	c #B89F84",
"57	c #B7987A",
"67	c #926F65",
"77	c #8C6E6C",
"87	c #785E69",
"97	c #0E0204",
"07	c #1B1111",
"a7	c #A6928D",
"b7	c #AD978E",
"c7	c #AF9382",
"d7	c #8C675B",
"e7	c #906B61",
"f7	c #9D7B6C",
"g7	c #B0917B",
"h7	c #AD8F79",
"i7	c #AD927C",
"j7	c #997B6C",
"k7	c #8F7368",
"l7	c #937768",
"m7	c #A89079",
"n7	c #9F8672",
"o7	c #887061",
"p7	c #8B7665",
"q7	c #887363",
"r7	c #A69278",
"s7	c #9D8672",
"t7	c #745953",
"u7	c #896765",
"v7	c #61484A",
"w7	c #503C3E",
"x7	c #4E3837",
"y7	c #563F3D",
"z7	c #9A6B63",
"A7	c #9D685F",
"B7	c #8C5A53",
"C7	c #724A42",
"D7	c #754E44",
"E7	c #865B54",
"F7	c #8D615A",
"G7	c #92675F",
"H7	c #8F655D",
"I7	c #886258",
"J7	c #835B53",
"K7	c #885C54",
"L7	c #A27568",
"M7	c #B38A76",
"N7	c #966D60",
"O7	c #997063",
"P7	c #987063",
"Q7	c #B38E76",
"R7	c #B48E74",
"S7	c #A8826D",
"T7	c #B89981",
"U7	c #B2957B",
"V7	c #BFA489",
"W7	c #A68872",
"X7	c #9B7C6A",
"Y7	c #A88F7B",
"Z7	c #B2997D",
"`7	c #977A69",
" 8	c #A58270",
".8	c #A68579",
"+8	c #9D8785",
"@8	c #544248",
"#8	c #0C0403",
"$8	c #0D0604",
"%8	c #AFA59F",
"&8	c #B2A291",
"*8	c #896F65",
"=8	c #987C6F",
"-8	c #AE937E",
";8	c #A98F76",
">8	c #A0866F",
",8	c #927566",
"'8	c #947B6A",
")8	c #A68E77",
"!8	c #9E8576",
"~8	c #886E65",
"{8	c #92786E",
"]8	c #876D66",
"^8	c #8A7464",
"/8	c #9D8C74",
"(8	c #95846F",
"_8	c #7D6960",
":8	c #7D625F",
"<8	c #775857",
"[8	c #694843",
"}8	c #6C473F",
"|8	c #754F47",
"18	c #865B55",
"28	c #99645E",
"38	c #965D57",
"48	c #74453F",
"58	c #73463F",
"68	c #8E5954",
"78	c #8E5B55",
"88	c #8F5D57",
"98	c #AE8071",
"08	c #9E7065",
"a8	c #765047",
"b8	c #9C6D62",
"c8	c #895852",
"d8	c #8A5B52",
"e8	c #885B52",
"f8	c #7E554C",
"g8	c #9B7064",
"h8	c #AD8572",
"i8	c #B28A75",
"j8	c #92665B",
"k8	c #996A5E",
"l8	c #AF8271",
"m8	c #9C7A6F",
"n8	c #BB9D87",
"o8	c #916F67",
"p8	c #9C7C70",
"q8	c #B0927F",
"r8	c #B79D88",
"s8	c #B19683",
"t8	c #BCA28B",
"u8	c #C9AE9B",
"v8	c #BD9C89",
"w8	c #A27E77",
"x8	c #A08482",
"y8	c #594B4D",
"z8	c #0C0605",
"A8	c #0B0603",
"B8	c #A0978B",
"C8	c #A99D8B",
"D8	c #B8AA9C",
"E8	c #91786F",
"F8	c #8D7267",
"G8	c #8F7864",
"H8	c #B19D81",
"I8	c #AA9479",
"J8	c #9E8772",
"K8	c #A8927C",
"L8	c #937A6D",
"M8	c #B09E92",
"N8	c #8F776E",
"O8	c #7D6963",
"P8	c #B19F93",
"Q8	c #A8977B",
"R8	c #9E8E71",
"S8	c #AFA084",
"T8	c #AF9E85",
"U8	c #A08B79",
"V8	c #926B63",
"W8	c #784A45",
"X8	c #784A43",
"Y8	c #885754",
"Z8	c #83544E",
"`8	c #8D5B55",
" 9	c #9C6064",
".9	c #824A4B",
"+9	c #673A39",
"@9	c #633837",
"#9	c #814E4F",
"$9	c #6E4242",
"%9	c #875454",
"&9	c #8A5859",
"*9	c #855454",
"=9	c #6E4544",
"-9	c #724745",
";9	c #744643",
">9	c #845650",
",9	c #A7776D",
"'9	c #9D6F67",
")9	c #9E716B",
"!9	c #976B67",
"~9	c #9F726E",
"{9	c #A0746D",
"]9	c #AA7C74",
"^9	c #A2736F",
"/9	c #72514F",
"(9	c #906D69",
"_9	c #B08E81",
":9	c #A58279",
"<9	c #A9887D",
"[9	c #A9877F",
"}9	c #B39085",
"|9	c #A68179",
"19	c #B39183",
"29	c #C0A191",
"39	c #B99789",
"49	c #A97F6F",
"59	c #A88076",
"69	c #927576",
"79	c #58484A",
"89	c #10090A",
"99	c #0B0504",
"09	c #B2ADA5",
"a9	c #B0A793",
"b9	c #CCC6BB",
"c9	c #9F8A78",
"d9	c #A58E77",
"e9	c #B19C7E",
"f9	c #A28B75",
"g9	c #9B8471",
"h9	c #A18B78",
"i9	c #A6907F",
"j9	c #988176",
"k9	c #92786F",
"l9	c #A79081",
"m9	c #9F897E",
"n9	c #9E8A72",
"o9	c #A69578",
"p9	c #A3927C",
"q9	c #C7BCA6",
"r9	c #B19B8C",
"s9	c #905D5C",
"t9	c #6B3C3C",
"u9	c #6B403F",
"v9	c #734C4C",
"w9	c #794B4C",
"x9	c #754747",
"y9	c #8C5051",
"z9	c #8C4D4E",
"A9	c #8C4D4F",
"B9	c #8C4E4F",
"C9	c #8A4F50",
"D9	c #8B5052",
"E9	c #96595A",
"F9	c #794746",
"G9	c #754443",
"H9	c #7D4A48",
"I9	c #88514D",
"J9	c #8F544F",
"K9	c #A66862",
"L9	c #9A635D",
"M9	c #9A6A62",
"N9	c #8D5F5A",
"O9	c #90615D",
"P9	c #966964",
"Q9	c #8C615E",
"R9	c #8C5F5D",
"S9	c #936562",
"T9	c #815A4F",
"U9	c #987660",
"V9	c #A8876C",
"W9	c #A88369",
"X9	c #BB9977",
"Y9	c #AE886D",
"Z9	c #B58F71",
"`9	c #C09778",
" 0	c #B4896D",
".0	c #996C59",
"+0	c #AD8067",
"@0	c #855C55",
"#0	c #947170",
"$0	c #543F42",
"%0	c #11070A",
"&0	c #0F0709",
"*0	c #AAA29F",
"=0	c #AEA593",
"-0	c #C5BEAD",
";0	c #B3A78D",
">0	c #B9A789",
",0	c #AF9981",
"'0	c #B19982",
")0	c #9C8272",
"!0	c #A68D7A",
"~0	c #9D8372",
"{0	c #A68D7C",
"]0	c #886B64",
"^0	c #A89182",
"/0	c #A28E76",
"(0	c #91816E",
"_0	c #C2B399",
":0	c #947A6E",
"<0	c #684644",
"[0	c #865050",
"}0	c #935455",
"|0	c #8A5353",
"10	c #814A49",
"20	c #9A5B5C",
"30	c #7E463D",
"40	c #874B44",
"50	c #7E453D",
"60	c #874C44",
"70	c #7C463E",
"80	c #724138",
"90	c #90574F",
"00	c #6F4136",
"a0	c #7C4940",
"b0	c #985D56",
"c0	c #824D43",
"d0	c #915648",
"e0	c #844C3C",
"f0	c #764838",
"g0	c #956153",
"h0	c #A77562",
"i0	c #966659",
"j0	c #A77B68",
"k0	c #966C5B",
"l0	c #855950",
"m0	c #9A6D63",
"n0	c #A57F6D",
"o0	c #AB8B74",
"p0	c #B7997D",
"q0	c #AE8A74",
"r0	c #B48F77",
"s0	c #B08872",
"t0	c #8A6355",
"u0	c #9E6E62",
"v0	c #BC8E78",
"w0	c #9C665E",
"x0	c #7E4F46",
"y0	c #905E4F",
"z0	c #6F473F",
"A0	c #5F4346",
"B0	c #38252C",
"C0	c #12060B",
"D0	c #86797B",
"E0	c #ABA290",
"F0	c #CECBB5",
"G0	c #D1CCAE",
"H0	c #BCAE90",
"I0	c #AD9480",
"J0	c #A9907E",
"K0	c #957B70",
"L0	c #765F57",
"M0	c #6C5650",
"N0	c #7B635A",
"O0	c #7A605A",
"P0	c #977D6E",
"Q0	c #8E746A",
"R0	c #9D8877",
"S0	c #B2A392",
"T0	c #B09D8E",
"U0	c #8D7C73",
"V0	c #493B38",
"W0	c #3A2A26",
"X0	c #4F3733",
"Y0	c #774941",
"Z0	c #854C44",
"`0	c #673A2F",
" a	c #935A52",
".a	c #88534A",
"+a	c #7B4B41",
"@a	c #8A554E",
"#a	c #7F4F45",
"$a	c #855349",
"%a	c #7D4F44",
"&a	c #764B41",
"*a	c #87574E",
"=a	c #B0796B",
"-a	c #7B4B3F",
";a	c #995C4F",
">a	c #835040",
",a	c #8A5747",
"'a	c #9A6856",
")a	c #9B6E5A",
"!a	c #9E7661",
"~a	c #9B6F5F",
"{a	c #8E6357",
"]a	c #875D52",
"^a	c #7C564C",
"/a	c #B39784",
"(a	c #9F7E75",
"_a	c #A78779",
":a	c #9C7A71",
"<a	c #8A6762",
"[a	c #734F4D",
"}a	c #4E3431",
"|a	c #A97D77",
"1a	c #9C6C68",
"2a	c #65403E",
"3a	c #7A4D4B",
"4a	c #9B6959",
"5a	c #5B3D33",
"6a	c #76535B",
"7a	c #513841",
"8a	c #100209",
"9a	c #100409",
"0a	c #8C8286",
"aa	c #A59B90",
"ba	c #ADA489",
"ca	c #BEBA9A",
"da	c #A2937D",
"ea	c #C6B9B2",
"fa	c #9C8982",
"ga	c #79605D",
"ha	c #4F403D",
"ia	c #8F776C",
"ja	c #9D8477",
"ka	c #896E68",
"la	c #A38B7C",
"ma	c #AB9583",
"na	c #AD9889",
"oa	c #A89590",
"pa	c #907D7A",
"qa	c #55494B",
"ra	c #150A07",
"sa	c #1E1414",
"ta	c #312728",
"ua	c #473838",
"va	c #7E524D",
"wa	c #835248",
"xa	c #845247",
"ya	c #794F45",
"za	c #442C28",
"Aa	c #422B28",
"Ba	c #644443",
"Ca	c #644848",
"Da	c #5F4444",
"Ea	c #79575A",
"Fa	c #8D6867",
"Ga	c #96706E",
"Ha	c #AC8480",
"Ia	c #846361",
"Ja	c #6F4C4B",
"Ka	c #7A4C49",
"La	c #895955",
"Ma	c #7D5350",
"Na	c #805954",
"Oa	c #77584E",
"Pa	c #7E5B57",
"Qa	c #624640",
"Ra	c #513832",
"Sa	c #72524F",
"Ta	c #9C7670",
"Ua	c #B49485",
"Va	c #9B8077",
"Wa	c #91756E",
"Xa	c #735553",
"Ya	c #6B4E4C",
"Za	c #906F65",
"`a	c #A48476",
" b	c #A27772",
".b	c #A57871",
"+b	c #7F5854",
"@b	c #8F625D",
"#b	c #A27566",
"$b	c #986C66",
"%b	c #926B71",
"&b	c #422D36",
"*b	c #12040B",
"=b	c #0E0206",
"-b	c #7B7273",
";b	c #92867F",
">b	c #837768",
",b	c #8D826B",
"'b	c #897A6B",
")b	c #7A6262",
"!b	c #6D5759",
"~b	c #927F7A",
"{b	c #866F6A",
"]b	c #8B746F",
"^b	c #A28C81",
"/b	c #A08A7E",
"(b	c #A79283",
"_b	c #AC998D",
":b	c #79625D",
"<b	c #605757",
"[b	c #44393C",
"}b	c #262126",
"|b	c #1F191F",
"1b	c #2B282F",
"2b	c #282229",
"3b	c #3F353A",
"4b	c #745559",
"5b	c #59403E",
"6b	c #725254",
"7b	c #8E6C6D",
"8b	c #14050B",
"9b	c #1A0B11",
"0b	c #1A0C10",
"ab	c #281D23",
"bb	c #4C3D49",
"cb	c #4D3F49",
"db	c #22141B",
"eb	c #1E0F15",
"fb	c #291E26",
"gb	c #3B2F39",
"hb	c #5F4752",
"ib	c #684853",
"jb	c #5F434D",
"kb	c #35272D",
"lb	c #271B1E",
"mb	c #1F1112",
"nb	c #1E1113",
"ob	c #160607",
"pb	c #1D0F12",
"qb	c #3F2E35",
"rb	c #6D515A",
"sb	c #876C65",
"tb	c #846D5F",
"ub	c #665148",
"vb	c #9C8372",
"wb	c #9D7E6F",
"xb	c #A88B76",
"yb	c #815C56",
"zb	c #7A5651",
"Ab	c #785850",
"Bb	c #8A635C",
"Cb	c #A88474",
"Db	c #8B6466",
"Eb	c #6A4E55",
"Fb	c #1C1117",
"Gb	c #C0BCC3",
"Hb	c #8A837F",
"Ib	c #6B625B",
"Jb	c #342F2D",
"Kb	c #231F1A",
"Lb	c #25201E",
"Mb	c #483D3D",
"Nb	c #4C3F41",
"Ob	c #786763",
"Pb	c #715E5E",
"Qb	c #665254",
"Rb	c #5B4A4D",
"Sb	c #5D4C4F",
"Tb	c #201917",
"Ub	c #080202",
"Vb	c #080203",
"Wb	c #0B0306",
"Xb	c #0B0307",
"Yb	c #150B13",
"Zb	c #10060D",
"`b	c #322D34",
" c	c #61565F",
".c	c #4B3E48",
"+c	c #564750",
"@c	c #6E5C61",
"#c	c #10070C",
"$c	c #11050D",
"%c	c #160B14",
"&c	c #140811",
"*c	c #150912",
"=c	c #10040C",
"-c	c #190F18",
";c	c #10050C",
">c	c #12050E",
",c	c #140712",
"'c	c #10020A",
")c	c #12040D",
"!c	c #150910",
"~c	c #14090F",
"{c	c #12060A",
"]c	c #100305",
"^c	c #342930",
"/c	c #2C2226",
"(c	c #261E1B",
"_c	c #2C221E",
":c	c #463933",
"<c	c #493B35",
"[c	c #4B3837",
"}c	c #332523",
"|c	c #422F2D",
"1c	c #2A1D1B",
"2c	c #392827",
"3c	c #422D2C",
"4c	c #533F3A",
"5c	c #493336",
"6c	c #1A1113",
"7c	c #13060C",
"8c	c #0D0204",
"9c	c #B3ACAD",
"0c	c #A8A097",
"ac	c #A49E97",
"bc	c #827A74",
"cc	c #999595",
"dc	c #B1B0B5",
"ec	c #746863",
"fc	c #0D0501",
"gc	c #090201",
"hc	c #110908",
"ic	c #0E0708",
"jc	c #0F090D",
"kc	c #0F080D",
"lc	c #0E050C",
"mc	c #0B0203",
"nc	c #0A0201",
"oc	c #0A0302",
"pc	c #282025",
"qc	c #120A0E",
"rc	c #221719",
"sc	c #5F5757",
"tc	c #3F3638",
"uc	c #62585B",
"vc	c #574A4A",
"wc	c #46373C",
"xc	c #271B20",
"yc	c #4C3B40",
"zc	c #5E5255",
"Ac	c #554C4E",
"Bc	c #585352",
"Cc	c #5F5C5A",
"Dc	c #655F5F",
"Ec	c #756B69",
"Fc	c #887877",
"Gc	c #766464",
"Hc	c #886B71",
"Ic	c #806669",
"Jc	c #7E6870",
"Kc	c #60595C",
"Lc	c #3B3135",
"Mc	c #0F0304",
"Nc	c #261E20",
"Oc	c #716366",
"Pc	c #A1948F",
"Qc	c #AAA29B",
"Rc	c #969397",
"Sc	c #9B9AA1",
"Tc	c #949199",
"Uc	c #9B938E",
"Vc	c #989192",
"Wc	c #B3AFB2",
"Xc	c #887F7E",
"Yc	c #3A383A",
"Zc	c #4A4446",
"`c	c #423A3E",
" d	c #3B353A",
".d	c #1D1619",
"+d	c #191419",
"@d	c #373136",
"#d	c #545456",
"$d	c #5F636A",
"%d	c #454348",
"&d	c #0E0A0E",
"*d	c #302C33",
"=d	c #4C464C",
"-d	c #554F54",
";d	c #30292E",
">d	c #988B84",
",d	c #B8B1AF",
"'d	c #AFA199",
")d	c #96837E",
"!d	c #AF9D98",
"~d	c #AA9791",
"{d	c #AF9E9B",
"]d	c #A49189",
"^d	c #AD9691",
"/d	c #A3918D",
"(d	c #7F7374",
"_d	c #A29A93",
":d	c #ADA8A0",
"<d	c #989086",
"[d	c #A6A08F",
"}d	c #C2BDAD",
"|d	c #AFA088",
"1d	c #B7A58A",
"2d	c #B09982",
"3d	c #B79F85",
"4d	c #B7A9A1",
"5d	c #BAB1B4",
"6d	c #B0A8AC",
"7d	c #AEA9AE",
"8d	c #A09999",
"9d	c #A6A2A5",
"0d	c #B7B7BE",
"ad	c #A7A4A8",
"bd	c #A6A4A7",
"cd	c #A09C9D",
"dd	c #B4B4BC",
"ed	c #B1B2BF",
"fd	c #968F9C",
"gd	c #A3A1B1",
"hd	c #95909D",
"id	c #9B949D",
"jd	c #B4ADAF",
"kd	c #9A9089",
"ld	c #B1ACA6",
"md	c #C7CED9",
"nd	c #B2B8C8",
"od	c #C5D1E3",
"pd	c #C5CAD1",
"qd	c #9E9B9C",
"rd	c #C1C5CD",
"sd	c #C2C9D5",
"td	c #9FA1AA",
"ud	c #B5BBCA",
"vd	c #B6BDD0",
"wd	c #A8AEBF",
"xd	c #AFBDD2",
"yd	c #A8B2C4",
"zd	c #B4BBCA",
"Ad	c #BAC2CC",
"Bd	c #A7ABB1",
"Cd	c #9DA0A9",
"Dd	c #989CA9",
"Ed	c #A9B1C3",
"Fd	c #9C9DAB",
"Gd	c #948E94",
"Hd	c #999196",
"Id	c #ABAAB5",
"Jd	c #9D989E",
"  . + @ # $ % & * = - ; > , ' ) ! ~ { ] ^ / ( _ : < [ } | 1 2 3 4 5 6 7 8 9 0 a b c d e f g h i j k l m n o p q r s t u v w x y ",
"z A B C D E F G H I J K L M N O P Q R S T U V W X Y Z `  ...+.@.#.$.%.&.*.=.-.;.>.,.'.).!.~.{.].^./.(._.:.<.[.}.|.1.2.3.4.5.6.7.",
"8.9.0.a.b.c.d.e.f.g.h.i.j.k.l.m.n.o.p.q.r.s.t.u.v.w.x.y.z.A.B.C.D.E.F.G.H.I.J.K.L.M.N.O.P.Q.R.S.T.U.V.W.X.Y.Z.`. +.+++@+#+$+%+&+",
"*+=+-+;+>+,+'+)+!+~+{+]+^+/+(+_+:+<+[+}+|+1+2+3+4+5+6+7+8+9+0+a+b+c+d+e+f+g+h+i+j+k+l+m+n+o+p+q+r+s+t+u+v+w+x+y+z+A+B+C+D+E+F+G+",
"H+I+J+K+L+B M+N+O+P+Q+R+S+T+U+V+W+X+A.Y+Z+`+ @.@+@@@#@$@%@&@*@=@-@;@>@,@'@)@!@~@{@]@^@/@(@_@:@<@[@}@|@1@2@3@4@;+5@6@7@8@9@0@a@b@",
"c@d@e@f@g@h@i@j@k@l@m@n@o@p@q@r@s@t@u@v@w@x@y@z@A@B@C@D@E@F@G@H@I@J@K@L@M@N@O@P@Q@R@S@T@U@V@W@X@Y@Z@`@ #.#+#@###$#%#&#*#=#-#;#>#",
",#'#)#!#~#{#]#^#/#(#_#:#<#[#}#|#1#2#3#4#5#6#7#8#9#0#a#b#c#d#e#f#g#h#i#j#k#l#m#n#o#p#q#r#s#t#u#v#w#x#y#z#A#B#C#D#E#F#G#H#I#J#K#L#",
"M#N#O#P#Q#R#S#T#U#V#W#X#Y#Z#`# $.$+$@$#$$$%$&$*$=$-$;$>$,$'$)$!$~${$]$^$/$($_$:$<$[$}$|$1$2$3$4$5$6$7$8$9$0$a$b$c$d$e$f$g$h$i$j$",
"k$l$m$n$o$p$q$r$s$t$u$v$w$x$y$z$A$B$C$D$E$F$G$H$I$J$K$L$M$N$O$P$Q$R$S$T$U$V$W$X$Y$Z$`$ %.%+%@%#%$%%%&%*%=%-%;%>%,%'%)%!%~%{%]%^%",
"/%(%_%:%<%[%}%|%1%2%3%4%5%6%7%8%9%0%a%b%c%d%e%f%g%h%i%j%k%l%m%n%o%p%q%r%s%t%u%v%Y$w%x%y%z%A%B%H#C%D%E%F%G%H%I%J%K%L%M%N%O%P%Q%R%",
"S%T%U%V%W%X%Y%Z%`% &.&+&@&#&$&%&&&*&=&-&;&>&,&'&)&!&~&{&]&^&/&(&_&:&<&[&}&|&1&2&3&4&5&6&7&8&9&0&a&b&c&d&e&f&g&{.h&i&j&k&l&m&n&o&",
"p&q&r&s&t&u&v&w&x&y&z&A&B&C&D&E&F&G&H&I&J&K&L&M&N&O&P&Q&R&S&T&U&V&W&X&Y&Z&`& *.*+*@*#*$*%*&***=*-*;*>*;%,*'*)*!*~*{*]*^*/*(*_*:*",
"<*[*}*|*1*2*:#3*4*5*6*7*8*9*0*a*b*c*d*e*f*g*h*i*j*k*l*m*n*o*p*q*r*s*t*u*v*w*x*y*3&z*A*B*C*D*E*F*G*H*I*J*K*L*M*N*O*P*Q*R*S*T*U*V*",
"W*X*Y*Z*`* =.=+=@=#=$=%=&=*===-=;=>=,='=)=!=~={=]=^=/=(=_=:=<=[=}=|=1=2=3=4=5=6=7=8=`+9=0=a=b=c=d=e=f=g=h=i=j=k=l=m=n=o=p=q=r=s=",
"t=u=v=w=x=y=z=A=B=C=D=E=F=G=H=I=J=K=L=M=N=O=P=Q=R=S=T=U=V=W=X=Y=Z=`= -.-+-@-#-$-7=%-&-*-=---;->-,-'-)-!-~-{-]-^-/-(-_-:-<-[-}-|-",
"1-2-3-4-5-6-7-8-9-0-a-b-c-d-y$e-f-g-h-<$i-+*j-k-l-m-n-o-p-j-q-r-j-s-3&<$Y$t-u- $j-v-w-x-y-z-A-B-C-D-E-F-G-H-I-J-K-L-M-N-O-P-Q-R-",
"S-T-U-V-W-X-Y-Z-`- ;.;+;@;#;y$$;%;&;*;=;-;;;>;,;';););!;~;<${;];^;/;(;_;:;<;[;};|;1;2;3;4;5;6;7;8;9;0;a;b;c;d;e;f;g;h;i;j;k;l;m;",
"n;o;p;q;r;s;t;u;v;w;x;@;y;z;A;B;C;D;E;F;G;H;I;;;J;K;L;M;N;O;P;Q;R;S;T;U;V;Q;W;X;Y;Z;`; >.>+>@>#>$>%>&>*>=>->;>>>,>'>)>!>~>{>]>^>",
"/>(>_>:><>[>}>|>1>2>3>4>5>6>7>8>9>0>a>b>c>d>e>f>g>h>i>j>k>l>m>n>o>p>q>r>s>t>u>v>w>x>y>z>A>B>C>D>E>F>G>H>I>J>K>L>M>N>O>P>Q>R>S>T>",
"U>V>W>X>Y>Z>`> ,.,+,@,#,$,%,&,*,=,-,;,>,,,',),!,~,{,],^,/,(,_,:,<,[,},|,1,2,3,4,5,6,7,8,9,0,a,b,c,d,e,f,g,h,i,j,k,l,m,n,o,p,q,r,",
"s,t,u,v,w,x,y,z,A,B,C,D,E,F,G,H,I,J,K,L,M,N,O,P,Q,R,S,T,U,V,W,X,Y,Z,`, '.'+'@'#'$'%'&'*'='-';'>',''')'!'~'{']'^'/'('_':'<'['}'|'",
"1'2'3'4'5'6'7'8'9'0'a'b'c'd'e'f'g'h'i'j'k'l'm'n'o'p'q'r's't'u'v'w'x'y'z'A'B'C'D'E'F'G'H'I'J'K'L'M'N'O'P'Q'R'S'T'U'V'W'X'Y'Z'`' )",
".)+)@)#)$)%)&)*)=)-);)$+>),)')))!)~){)])^)/)()_):)<)[)})|)1)2)3)4)5)6)7)p$8)9)0)a)b)c)d)e)f)g)h)i)j)k)l)m)n)o)p)q)r)s)t)u)v)w)x)",
"y)z)A)B)C)D)E)F)G)H)I)J)K)L)M)N)O)P)Q)R)S)T)U)V)W)X)Y)Z)`) !.!+!@!#!$!%!&!*!=!-!;!>!,!'!)!!!~!{!]!^!/!(!_!:!<![!}!|!1!2!3!4!5!6!",
"7!8!9!0!a!b!c!d!e!f!g!h!i!j!k!l!m!n!o!p!q!r!I+s!t!u!v!w!3&x!y!z!A!B!C!D!E!F!G!H!I!J!K!L!M!N!q)O!e#P!Q!R!S!T!U!V!W!X!Y!Z!`! ~.~+~",
"@~#~$~%~l'&~*~=~-~;~>~,~'~)~!~~~{~]~^~/~(~_~:~<~[~}~|~1~3&2~3~4~5~6~7~8~9~0~a~b~c~d~e~f~g~h~i~j~k~l~m~n~o~p~q~r~s~t~u~v~w~x~y~z~",
"A~B~C~D~E~F~G~H~I~J~K~L~M~N~O~P~Q~R~S~T~U~V~W~X~Y~Z~`~ {.{+{@{#{${%{&{*{={-{<@;{>{,{'{){!{~{{{]{x%^{/{({_{:{<{[{}{|{1{2{3{4{5{6{",
"7{8{9{0{a{b{c{d{e{f{g{h{i{j{k{l{m{n{o{p{q{r{s{t{u{v{w{x{y{z{A{B{C{D{E{F{G{H{I{J{K{L{M{N{O{P{Q{R{S{T{U{V{W{X{Y{Z{`{ ].]+]@]#]$]%]",
"&]*]=]-];]>],]>#'])]!]~]{]]]^]/](]_]:]<][]}]|]1]2]3]4]5]Y$6]7]8]9]0]a]b]c]d]e]f]g]h]i]j]k]l]m]n]o]p]q]r]s]t]u]v]w]x]y]z]A]B]C]D]",
"E]F]*'G]H]I]j]J]K]L]M]N]O]P]P]Q]R]S]T]U]V]W]X]Y]Z]`] ^.^+^@^#^$^%^&^*^=^-^;^>^,^'^)^!^~^{^]^^^/^(^_^:^<^[^}^|^1^2^3^4^5^6^7^8^9^",
"0^a^b^c^d^e^f^g^h^i^j^k^l^m^n^o^p^q^r^s^t^u^v^w^x^y^z^A^ $y{B^C^D^E^F^G^H^I^J^K^L^M^N^O^P^Q^R^S^T^U^V^W^X^Y^Z^`^ /./+/@/#/j-$/%/",
"&/*/=/-/;/>/,/'/)/!/~/{/]/^///(/_/:/</[/}/|/1/2/3/4/5/6/7/8/9/0/a/b/c/d/e/f/g/h/i/j/k/l/m/n/o/p/q/r/s/t/u/v/H%w/x/y/z/A/B/C/D/E/",
"F/G/H/I/J/K/L/M/N/O/P/Q/R/S/T/U/V/W/X/Y/Z/`/ (.(+(@(#($(%(&(*(=(-(;(>(,('()(!(~({(9@](^(/(((_(:(<([(;~}(|(1(2(3(4(5(6(7(8(9(0(a(",
"b(c(d(e(f(g(h(i(j(k(l(m(n(o(p(q(r(s(t(u(v(w(x(y(z(A(B(C(D( $E(F(G(S&H(I(J(K(z%L(M(N(O(P(Q(R(S(T(U(V(W(X(Y(Z(`( _._+_@_#_$_%_&_*_",
"=_-_;_>_,_'_)_!_~_{_]_^_/_(___:_<_[_}_|_1_2_3_4_5_6_7_8_9_0_a_b_c_d_e_f_g_h_i_j_k_l_m_n_o_p_q_r_s_t_u_v_w_x_y_z_A_B_C_D_E_F_G_H_",
"I_J_K_L_M_N_O_P_Q_R_S_T_n/U_V_W_X_Y_Z_`_ :.:+:@:#:$:%:&:*:=:-:;:>:,:':):!:~:{:]:^:/:(:_:::<:[:}:|:1:2:3:4:5:6:7:8:9:0:a:b:|#c:d:",
"e:f:g:h:i:j:k:l:m:n:o:p:q:r:s:t:u:v:w:x:y:z:A:B:$:C:D:E:$;F:G:H:I:J:K:L:M:N:O:P:Q:R:S:T:U:V:W:X:Y:Z:`: <.<+<@<#<$<%<&<*<=<-<;<><",
",<'<)<!<~<{<]<^</<(<_<:<<<[<}<|<1<2<3<4<5<6<7<8<i-9<0<a<b<c<d<e<f<g<h<i<j<k<l<m<n<o<p<q<r<s<t<u<v<w<x<y<z<A<B<C<D<E<F<G<H<I<J<K<",
"L<M<N<O<P<Q<R<S<T<U<V<Y$W<X<Y<Z<`< [.[+[Y$Y$Y$Y$3&Y$Y$@[#[$[%[&[*[=[-[;[>[,['[)[![~[{[][^[/[([_[:[<[[[}[|[1[2[3[4[<$#;Y$.[5[6[7[",
"8[9[0[a[b[c[d[e[f[g[h[i[j[k[l[m[n[,;o[p[q[r[s[t[u[v[w[x[y[z[A[B[C[D[E[F[3&G[H[I[J[j-Y$3&q-K[L[M[N[O[P[Q[R[S[T[U[V[W[X[Y[Z[`[ }.}",
"+}@}#}$}%}&}*}=}-};}>},}'})}!}~}{}]}^}/}(}_}:}<}[}}}|}1}2}3}4}5}6}7}8}9}0}j>a}b}c}d}e}f}g}h}i}j}k}l}m}n}o}p}q}r}s}t}u}v}w}x}y}z}",
"A}B}C}D}E}F}G}H}I}J}K}L}M}N}O}P}Q}R}S}T}U}n_V}W}X}Y}Z}`} |.|+|@|#|$|%|&|*|=|-|;|>|,|'|)|!|~|{|]|^|/|(|_|:|<|[|}|||1|2|3|4|5|6|7|",
"8|9|0|a|b|P$c|d|e|f|g|h|i|j|k|l|m|n|o|p|q|r|s|t|u|v|w|x|y|z|A|B|C|D|B&E|F|G|H|I|J|m&K|L|M|N|O|P|Q|R|S|T|U|V|W|X|Y|Z|`| 1.1+1@1#1",
"$1%1&1*1=1-1;1>1,1'1)1!1~1{1]1^1/1(1_1:1<1[1}1|111213141516171819101a1b1Y$c1d1e1f1g1h1i1j1k1l1m1n1o1p1q1r1s1t1u1v1w1x1y1z1A1B1C1",
"D1E1F1G1H1I1J1K1L1M1N1O1P1Q1R1S1T1U1V1W1X1Y1Z1`1 2.2+2@2#2$2%2&2*2=2-2;2>2,2'2)2!2~2{2]2^2/2(2_2:2<2[2}2|21222324252H&6272829202",
"a2b2c2d2e2f2g2h2i2j2k2l2m2n2o2p2q2r2s2t2u2v2w2x2y2z2A2B2C2@2D2E2F2G2H2I2s-J2K2S.L2M2N2O2P2Q2R2S2T2U2V2W2X2Y2Z2`2 3.3+3@3#3$3%3&3",
"*3=3-3;3>3,3'3)3!3~3{3]3^3/3(3_3:3<3q|[3}3/1|313233343536373839303a3b3c3<$d3e3f3g3h3i3j3k3l3m3n3o3p3q3r3s3t3u3v3w3x3y3z3A3B3C3D3",
"E3F3G3H3I3J3K3L3M3N3O3P3Q3R3S3T3U3V3W3X3Y3Z3`3 4.4+4@4#4$4%4&4*4=4-4;4>4,4'4)4!4~4{4]4^4/4(4_4s]:4<4[4}4|4)'14243444546474849404",
"a4b4c4d4e4f4g4h4i4j4k4l4m4n4o4p4q4r4s4t4u4v4w4H(x4y4z4A45*B4C4D4E4F4G4H4I4J4K4L4M4N4O4P4Q4R4S4T4U4V4W4X4Y4Z4`4 5.5l]+5@5#5$5%5&5",
"*5=5-5;5>5,5'5)5!5~5{5]5^5/5(5_5:5<5[5}5|515253545556575859505a5b5|5c5d5q-e5f5g5h5i5j5k5l5m5W_n5o5p5q5r5s5t5u5v5w5x5y5z5A5B5C5D5",
"E5F5G5H5I5J5K5L5M5N5O5P5Q5R5S5^+[!T5U5V5W5X5Y5Z5`5 6.6+6@6#6$6%6&6*6=6-6;6>6,6'6)6!6~6{6x5]6^6/6t3(6_6:6<6[6}6|61626m~3646566676",
"869606a6b6c6d6e6f6g6h6i6j6k6l6m6n6o6p6n+q6r60)s6t6u6v6w6x6y6z6A61=B6C6D6E6F6G6H6I6J6K6L6M6N6O6P6Q6R6S6T6U6V6W6[4X6Y6Z6`6 7.7+7@7",
"#7$7%7&7*7=7-7;7>7,7'7)7!7~7,^{7,^]7^7/7(7_7:7<7[7}7|71727R]3747576777879707a7b7c7d7e7f7g7h7i7j7k7l7m7N(n7o7p7q7r7s7t7u7v7w7x7y7",
"z7A7B7C7D7E7F7G7H7I7J7K7L7M7N7O7P7Q7Q7R7S7T7k5U7V7W7X7/6Y7''Z7`7 8.8+8@8#8$8%8&8*8=8-8;8>8,8'8)8!8O.~8{8]8^8/8(8:(_8:8<8[8}8|818",
"283848586878889808a8b8c8d8e8f8g8h8i8j8k8l8i5m8n8R_o8p8q8r8s8t8u8v8w8x8y8z8A8B8C8D8E8F8G8H8I8J8K8L8M8N8O8P8Q8R8S8T8U8V8W8X8Y8Z8`8",
" 9.9+9@9#9$9%9&9*9=9-9;9>9,9'9)9!9~9{9]9^9/9(9_9:9<9[9}9|919293949596979899909a9b9c9d9e9V|f9g9h9i9j9k9l9m9n9o9p9q9r9s9t9u9v9w9x9",
"y9z9A9B9C9D9E9F9G9H9I9J9K9L9M9N9O9P9Q9R9S9T9U9V9W9X9Y9Z9L$`9 0.0+0@0#0$0%0&0*0=0-0;0>0,0'0)0!0_]U{~0{0]0^0/0(0_0A~:0<0[0}0|01020",
"3040506070809000a0b0c0d0e0f0g0h0i0j0k0l0m0n0o0p0q0r0s0t0u0v0w0x0y0z0A0B0C0v;D0E0F0G0H0I0J0K0L0M0N0O0W$P0Q0R0S0T0U0V0W0X0Y0Z0`0 a",
".a+a@a#a$a%a&a*a=aT1-a;a>a,a'a)a!a~a{a]a^a/a(a_a:a<a[a}a|a1a2a3a4a5a6a7a8a9a0aaabacadaeafagahaiajakalamanaoapaqarasatauavawaxaya",
"zaAaBaCaDaEaFaGaHaIaJaKaLaMaNaOaPaQaRaSaTaUaVaWaXaYaZa`a b.b+b@b#b$b%b&b*b=b-b;b>b,b'b)b!b~b{b]b^b/b(b_b:b<b[b}b|b1b2b3b4b5b6b7b",
"8b9b0babbbcbdbebfbgbhbibjbkblbmbnbobpbqbrbsbtbubvbr^wbxbybzbAbBbCbDbEbFb+;v;GbHbIbJbKbLbMbNbObPbQbRbSbTbt-UbVbWbXbYbZb`b c.c+c@c",
"#c$c%c&c&c*c=c-c;c>c,c'c)c0*!c~c{c{c]c^cF:/c(c_c:c<c[c}c|c1c2c3c4c5c6c7c8c^>9c0cacbcccdcec7=s-fcF_s-s-gchcic3<jckclcXbXbWbmcncoc",
"pcqcrcsctcucvcwcxcyczcAcQ<BcCcDcEcFcGcHcIcJcKcLcY$3&Y$Y$<$Y$Y$Y$Y$Y$q-McNcOcPcQcRcScTcUcVcWcXcYcZc`c d.d+d@d#d$d%d&d7=*d=d-d;dY$",
"M>>d,d'd)d!d~d{d]d^d/d(d_d:d<d[d}d|d1d2d3d4d5d6d7d8d9d0dadbdcdddedfdgdhdidjdkdldmdndodpdqdrdsdtdudvdwdxdydzdAdBdCdDdEdFdGdHdIdJd"};
