/* XPM */
static const char *Stone[] = {
/* columns rows colors chars-per-pixel */
"32 32 75 1 ",
"  c #7E7E7E",
". c #818181",
"X c gray51",
"o c #848484",
"O c #868686",
"+ c gray53",
"@ c #888888",
"# c #898989",
"$ c gray54",
"% c #8B8B8B",
"& c gray55",
"* c #8E8E8E",
"= c gray56",
"- c #909090",
"; c gray57",
": c #929292",
"> c gray58",
", c #959595",
"< c gray59",
"1 c #979797",
"2 c #989898",
"3 c gray60",
"4 c #9B9B9B",
"5 c gray61",
"6 c #9D9D9D",
"7 c #9F9F9F",
"8 c #A0A0A0",
"9 c gray63",
"0 c #A2A2A2",
"q c gray64",
"w c #A4A4A4",
"e c #A5A5A5",
"r c gray65",
"t c #A7A7A7",
"y c gray66",
"u c #A9A9A9",
"i c #AAAAAA",
"p c gray67",
"a c #ACACAC",
"s c gray68",
"d c #AFAFAF",
"f c gray69",
"g c #B1B1B1",
"h c #B2B2B2",
"j c gray70",
"k c #B4B4B4",
"l c gray71",
"z c #B6B6B6",
"x c #B7B7B7",
"c c gray72",
"v c #B9B9B9",
"b c gray73",
"n c #BBBBBB",
"m c #BCBCBC",
"M c gray74",
"N c gray",
"B c gray75",
"V c #C0C0C0",
"C c #C1C1C1",
"Z c gray76",
"A c #C3C3C3",
"S c gray77",
"D c #C5C5C5",
"F c #C6C6C6",
"G c gray78",
"H c #C8C8C8",
"J c gray79",
"K c #CACACA",
"L c #CBCBCB",
"P c gray80",
"I c #CDCDCD",
"U c gray81",
"Y c #D0D0D0",
"T c LightGray",
"R c gray83",
/* pixels */
"                                ",
" +20xBAJUYJUGAABBAGnahxAGGGGnx5*",
" -0hhhhhhhxnnAGGABahxBABBAAABna5",
" ,0nnnhhhahBAhhhhhaaaaxnBhAAxhhx",
" 2aAxBnhhaanxBhhhhhaaayhhJnJnnhB",
" 2ahxBxhhahhxnhhhhhhaa0ahJBnnhBJ",
" 5ayhhhxaahhhxhhhhhhhhayhABxhhxG",
" 0y0ahhhaahhhhhhhhhhhhhaahnhhhhn",
" 0ay0hhhaaahhh0hhhhhhhaayhhhhhhx",
" 0aaaahhaaaahhhhhxyhhhhaaahhhhhh",
" 0yaahhhaya0hhhhhhhhaaaaaaahhhhh",
" 0yaaahayaya0hahhahhaa00aahhhhhh",
" 2ehaaaay0ayy0aaahhahyy055yyhahh",
" 20eaaahyyy0y0500yyyyhyyy5yaaahh",
" *++-00000205,25y00y00hahyyhah02",
" +%+XXX++%%%%*-%-%%%%%----*222-%",
"                                ",
"AABAnxAAhh0yyy,* ,5hnxxBGGGGGGGG",
"xxxBGAhnAxnnAAny *2aaahhhhhhhhhh",
"hhhhhhhhGJABnAhG ,eaaahhhhhhhahh",
"hhhnhhhhhxnnnAnU 0eaahahhhhahaxx",
"nxhGnhhhhahhnnBY 00aaaahhhnaahBB",
"nBxBBhhhhhahhGBR 0eaaaahhhhnaaxB",
"hBxBhhhheyahhhnU 0ehaha5yhhhaaax",
"ahyhhaayhaaaahxA eyaaha20ahyaaaa",
"h5hhahhyaaayaahx 0aaaahy5hah5yah",
"ah5aayay0ayaahaa 0eayya0ah0ayyaa",
"hyyy5yyyaahaahah eeyaayy00eeyyah",
"hhyyaay0yayaayhh eaeyyhayhe5ayaa",
"ahhaaayyyyaayyah 5yyyayhay0e0aaa",
"0550h5aa0ehahaa5 %5ee0e50e0,5,50",
"---2222-022-22%- +----22--2-222-"
};
